%
(121055_REWORKED)
(T7  D=5. CR=0. - ZMIN=-8.024 - FLAT END MILL)
N10 G90 G94 G17 G91.1
N15 G21
N20 G53 G0 Z0.
(2D CONTOUR3)
N25 T7 M6
N30 S8947 M3
N35 G54
N40 G0 X79. Y-31.7
N45 G43 Z50. H7
N50 G0 Z15.
N55 G1 Z1.976 F249.83
N60 G19 G3 Y-21.7 Z-8.024 J10. K0. F749.48
N65 G17
N70 G1 G41 X81.75 Y-6.7 D7
N75 G3 X78.5 Y-3.45 I-3.25 J0.
N80 G1 X72.
N85 G3 X68.75 Y-6.7 I0. J-3.25
N90 G1 G40 X71.5 Y-21.7
N95 G19 G2 Y-31.7 Z1.976 J0. K10.
N100 G0 Z20.
N105 Y31.7
N110 Z15.
N115 G1 Z1.976 F249.83
N120 G2 Y21.7 Z-8.024 J-10. K0. F749.48
N125 G17
N130 G1 G41 X68.75 Y6.7 D7
N135 G3 X72. Y3.45 I3.25 J0.
N140 G1 X78.5
N145 G3 X81.75 Y6.7 I0. J3.25
N150 G1 G40 X79. Y21.7
N155 G19 G3 Y31.7 Z1.976 J0. K10.
N160 G0 Z50.
N165 G17
N170 G53 G0 Z0.
N175 M30
%
