%
(132033_S3_V2)
(T2  D=6. CR=0. TAPER=90DEG - ZMIN=-2.2 - SPOT DRILL)
(T33  D=3.3 CR=0. TAPER=118DEG - ZMIN=-14.568 - DRILL)
N10 G90 G94 G17 G91.1
N15 G21
N20 G53 G0 Z0.
(DRILL1 3)
N25 T2 M6
N30 T33
N35 S7000 M3
N40 G54
N45 M8
N50 G0 X34. Y-4.
N55 G43 Z17. H2
N60 G0 Z7.
N65 G98 G81 X34. Y-4. Z-2.2 R5. F333.33
N70 G80
N75 G0 Z17.
N80 M5
N85 G53 Z0.
(DRILL3)
N90 M9
N95 T33 M6
N100 T2
N105 S6000 M3
N110 G54
N115 M8
N120 G0 X34. Y-4.
N125 G43 Z17. H33
N130 G0 Z7.
N135 G81 X34. Y-4. Z-14.568 R5. F600.
N140 G80
N145 G0 Z17.
N150 M9
N155 G53 Z0.
N160 M30
%
