%
(132033_S3_V1)
(T2  D=6. CR=0. TAPER=90DEG - ZMIN=-4.2 - SPOT DRILL)
(T33  D=3.3 CR=0. TAPER=118DEG - ZMIN=-16.568 - DRILL)
N10 G90 G94 G17 G91.1
N15 G21
N20 G53 G0 Z0.
(DRILL1 3)
N25 T2 M6
N30 T33
N35 S7000 M3
N40 G54
N45 M8
N50 G0 X35. Y-5.
N55 G43 Z15. H2
N60 G0 Z5.
N65 G98 G81 X35. Y-5. Z-4.2 R3. F333.33
N70 G80
N75 G0 Z15.
N80 M5
N85 G53 Z0.
(DRILL3)
N90 M9
N95 M1
N100 T33 M6
N105 T2
N110 S6000 M3
N115 G54
N120 M8
N125 G0 X35. Y-5.
N130 G43 Z15. H33
N135 G0 Z5.
N140 G81 X35. Y-5. Z-16.568 R3. F600.
N145 G80
N150 G0 Z15.
N155 M9
N160 G53 Z0.
N165 M30
%
