%
(132033_HOLES)
(T1  D=6. CR=0. TAPER=45DEG - ZMIN=-2. - CHAMFER MILL)
(T2  D=6. CR=0. TAPER=90DEG - ZMIN=-3.7 - SPOT DRILL)
(T24  D=3.85 CR=0. - ZMIN=-10.1 - THREAD MILL)
(T42  D=4.2 CR=0. TAPER=118DEG - ZMIN=-16.262 - DRILL)
N10 G90 G94 G17 G91.1
N15 G21
N20 G53 G0 Z0.
(DRILL1)
N25 T2 M6
N30 T42
N35 S7000 M3
N40 G54
N45 M7
N50 G0 X57.774 Y-57.274
N55 G43 Z15. H2
N60 G0 Z5.
N65 G98 G81 X57.774 Y-57.274 Z-3.7 R4. F333.33
N70 X62.75 Y-51.
N75 Y-19.
N80 X57.774 Y-12.726
N85 X13.226
N90 X9.25 Y-19.
N95 Y-51.
N100 X13.226 Y-57.274
N105 G80
N110 G0 Z15.
N115 M9
N120 M5
N125 G53 Z0.
(DRILL1 2)
N130 M1
N135 T42 M6
N140 T24
N145 S6769 M3
N150 G54
N155 M8
N160 G0 X57.774 Y-57.274
N165 G43 Z15. H42
N170 G0 Z5.
N175 G83 X57.774 Y-57.274 Z-16.262 R4. Q3. F436.59
N180 X62.75 Y-51.
N185 Y-19.
N190 X57.774 Y-12.726
N195 X13.226
N200 X9.25 Y-19.
N205 Y-51.
N210 X13.226 Y-57.274
N215 G80
N220 G0 Z15.
N225 M5
N230 G53 Z0.
(THREAD1)
N235 M9
N240 M1
N245 T24 M6
N250 T1
N255 S7000 M3
N260 G54
N265 M8
N270 G0 X13.226 Y-57.274
N275 G43 Z15. H24
N280 G0 Z-8.1
N285 G1 Z-10.1 F560.
N290 X13.514 Y-57.561
N295 G3 X13.801 Y-57.274 Z-10. I0. J0.287
N300 X12.651 Z-9.6 I-0.575 J0.
N305 X13.801 Z-9.2 I0.575 J0.
N310 X12.651 Z-8.8 I-0.575 J0.
N315 X13.801 Z-8.4 I0.575 J0.
N320 X12.651 Z-8. I-0.575 J0.
N325 X13.801 Z-7.6 I0.575 J0.
N330 X12.651 Z-7.2 I-0.575 J0.
N335 X13.801 Z-6.8 I0.575 J0.
N340 X12.651 Z-6.4 I-0.575 J0.
N345 X13.801 Z-6. I0.575 J0.
N350 X12.651 Z-5.6 I-0.575 J0.
N355 X13.801 Z-5.2 I0.575 J0.
N360 X12.651 Z-4.8 I-0.575 J0.
N365 X13.801 Z-4.4 I0.575 J0.
N370 X12.651 Z-4. I-0.575 J0.
N375 X13.801 Z-3.6 I0.575 J0.
N380 X12.651 Z-3.2 I-0.575 J0.
N385 X13.801 Z-2.8 I0.575 J0.
N390 X12.651 Z-2.4 I-0.575 J0.
N395 X13.801 Z-2. I0.575 J0.
N400 X12.651 Z-1.6 I-0.575 J0.
N405 X13.801 Z-1.2 I0.575 J0.
N410 X13.226 Y-56.699 Z-1. I-0.575 J0.
N415 X12.939 Y-56.986 Z-0.9 I0. J-0.287
N420 G1 X13.226 Y-57.274
N425 G0 Z5.
N430 X9.25 Y-51.
N435 Z-8.1
N440 G1 Z-10.1 F560.
N445 X9.538 Y-51.287
N450 G3 X9.825 Y-51. Z-10. I0. J0.287
N455 X8.675 Z-9.6 I-0.575 J0.
N460 X9.825 Z-9.2 I0.575 J0.
N465 X8.675 Z-8.8 I-0.575 J0.
N470 X9.825 Z-8.4 I0.575 J0.
N475 X8.675 Z-8. I-0.575 J0.
N480 X9.825 Z-7.6 I0.575 J0.
N485 X8.675 Z-7.2 I-0.575 J0.
N490 X9.825 Z-6.8 I0.575 J0.
N495 X8.675 Z-6.4 I-0.575 J0.
N500 X9.825 Z-6. I0.575 J0.
N505 X8.675 Z-5.6 I-0.575 J0.
N510 X9.825 Z-5.2 I0.575 J0.
N515 X8.675 Z-4.8 I-0.575 J0.
N520 X9.825 Z-4.4 I0.575 J0.
N525 X8.675 Z-4. I-0.575 J0.
N530 X9.825 Z-3.6 I0.575 J0.
N535 X8.675 Z-3.2 I-0.575 J0.
N540 X9.825 Z-2.8 I0.575 J0.
N545 X8.675 Z-2.4 I-0.575 J0.
N550 X9.825 Z-2. I0.575 J0.
N555 X8.675 Z-1.6 I-0.575 J0.
N560 X9.825 Z-1.2 I0.575 J0.
N565 X9.25 Y-50.425 Z-1. I-0.575 J0.
N570 X8.962 Y-50.713 Z-0.9 I0. J-0.288
N575 G1 X9.25 Y-51.
N580 G0 Z5.
N585 Y-19.
N590 Z-8.1
N595 G1 Z-10.1 F560.
N600 X9.538 Y-19.288
N605 G3 X9.825 Y-19. Z-10. I0. J0.288
N610 X8.675 Z-9.6 I-0.575 J0.
N615 X9.825 Z-9.2 I0.575 J0.
N620 X8.675 Z-8.8 I-0.575 J0.
N625 X9.825 Z-8.4 I0.575 J0.
N630 X8.675 Z-8. I-0.575 J0.
N635 X9.825 Z-7.6 I0.575 J0.
N640 X8.675 Z-7.2 I-0.575 J0.
N645 X9.825 Z-6.8 I0.575 J0.
N650 X8.675 Z-6.4 I-0.575 J0.
N655 X9.825 Z-6. I0.575 J0.
N660 X8.675 Z-5.6 I-0.575 J0.
N665 X9.825 Z-5.2 I0.575 J0.
N670 X8.675 Z-4.8 I-0.575 J0.
N675 X9.825 Z-4.4 I0.575 J0.
N680 X8.675 Z-4. I-0.575 J0.
N685 X9.825 Z-3.6 I0.575 J0.
N690 X8.675 Z-3.2 I-0.575 J0.
N695 X9.825 Z-2.8 I0.575 J0.
N700 X8.675 Z-2.4 I-0.575 J0.
N705 X9.825 Z-2. I0.575 J0.
N710 X8.675 Z-1.6 I-0.575 J0.
N715 X9.825 Z-1.2 I0.575 J0.
N720 X9.25 Y-18.425 Z-1. I-0.575 J0.
N725 X8.962 Y-18.712 Z-0.9 I0. J-0.288
N730 G1 X9.25 Y-19.
N735 G0 Z5.
N740 X13.226 Y-12.726
N745 Z-8.1
N750 G1 Z-10.1 F560.
N755 X13.514 Y-13.014
N760 G3 X13.801 Y-12.726 Z-10. I0. J0.288
N765 X12.651 Z-9.6 I-0.575 J0.
N770 X13.801 Z-9.2 I0.575 J0.
N775 X12.651 Z-8.8 I-0.575 J0.
N780 X13.801 Z-8.4 I0.575 J0.
N785 X12.651 Z-8. I-0.575 J0.
N790 X13.801 Z-7.6 I0.575 J0.
N795 X12.651 Z-7.2 I-0.575 J0.
N800 X13.801 Z-6.8 I0.575 J0.
N805 X12.651 Z-6.4 I-0.575 J0.
N810 X13.801 Z-6. I0.575 J0.
N815 X12.651 Z-5.6 I-0.575 J0.
N820 X13.801 Z-5.2 I0.575 J0.
N825 X12.651 Z-4.8 I-0.575 J0.
N830 X13.801 Z-4.4 I0.575 J0.
N835 X12.651 Z-4. I-0.575 J0.
N840 X13.801 Z-3.6 I0.575 J0.
N845 X12.651 Z-3.2 I-0.575 J0.
N850 X13.801 Z-2.8 I0.575 J0.
N855 X12.651 Z-2.4 I-0.575 J0.
N860 X13.801 Z-2. I0.575 J0.
N865 X12.651 Z-1.6 I-0.575 J0.
N870 X13.801 Z-1.2 I0.575 J0.
N875 X13.226 Y-12.151 Z-1. I-0.575 J0.
N880 X12.939 Y-12.439 Z-0.9 I0. J-0.288
N885 G1 X13.226 Y-12.726
N890 G0 Z5.
N895 X57.774
N900 Z-8.1
N905 G1 Z-10.1 F560.
N910 X58.061 Y-13.014
N915 G3 X58.349 Y-12.726 Z-10. I0. J0.288
N920 X57.199 Z-9.6 I-0.575 J0.
N925 X58.349 Z-9.2 I0.575 J0.
N930 X57.199 Z-8.8 I-0.575 J0.
N935 X58.349 Z-8.4 I0.575 J0.
N940 X57.199 Z-8. I-0.575 J0.
N945 X58.349 Z-7.6 I0.575 J0.
N950 X57.199 Z-7.2 I-0.575 J0.
N955 X58.349 Z-6.8 I0.575 J0.
N960 X57.199 Z-6.4 I-0.575 J0.
N965 X58.349 Z-6. I0.575 J0.
N970 X57.199 Z-5.6 I-0.575 J0.
N975 X58.349 Z-5.2 I0.575 J0.
N980 X57.199 Z-4.8 I-0.575 J0.
N985 X58.349 Z-4.4 I0.575 J0.
N990 X57.199 Z-4. I-0.575 J0.
N995 X58.349 Z-3.6 I0.575 J0.
N1000 X57.199 Z-3.2 I-0.575 J0.
N1005 X58.349 Z-2.8 I0.575 J0.
N1010 X57.199 Z-2.4 I-0.575 J0.
N1015 X58.349 Z-2. I0.575 J0.
N1020 X57.199 Z-1.6 I-0.575 J0.
N1025 X58.349 Z-1.2 I0.575 J0.
N1030 X57.774 Y-12.151 Z-1. I-0.575 J0.
N1035 X57.486 Y-12.439 Z-0.9 I0. J-0.288
N1040 G1 X57.774 Y-12.726
N1045 G0 Z5.
N1050 X62.75 Y-19.
N1055 Z-8.1
N1060 G1 Z-10.1 F560.
N1065 X63.037 Y-19.288
N1070 G3 X63.325 Y-19. Z-10. I0. J0.288
N1075 X62.175 Z-9.6 I-0.575 J0.
N1080 X63.325 Z-9.2 I0.575 J0.
N1085 X62.175 Z-8.8 I-0.575 J0.
N1090 X63.325 Z-8.4 I0.575 J0.
N1095 X62.175 Z-8. I-0.575 J0.
N1100 X63.325 Z-7.6 I0.575 J0.
N1105 X62.175 Z-7.2 I-0.575 J0.
N1110 X63.325 Z-6.8 I0.575 J0.
N1115 X62.175 Z-6.4 I-0.575 J0.
N1120 X63.325 Z-6. I0.575 J0.
N1125 X62.175 Z-5.6 I-0.575 J0.
N1130 X63.325 Z-5.2 I0.575 J0.
N1135 X62.175 Z-4.8 I-0.575 J0.
N1140 X63.325 Z-4.4 I0.575 J0.
N1145 X62.175 Z-4. I-0.575 J0.
N1150 X63.325 Z-3.6 I0.575 J0.
N1155 X62.175 Z-3.2 I-0.575 J0.
N1160 X63.325 Z-2.8 I0.575 J0.
N1165 X62.175 Z-2.4 I-0.575 J0.
N1170 X63.325 Z-2. I0.575 J0.
N1175 X62.175 Z-1.6 I-0.575 J0.
N1180 X63.325 Z-1.2 I0.575 J0.
N1185 X62.75 Y-18.425 Z-1. I-0.575 J0.
N1190 X62.463 Y-18.712 Z-0.9 I0. J-0.288
N1195 G1 X62.75 Y-19.
N1200 G0 Z5.
N1205 Y-51.
N1210 Z-8.1
N1215 G1 Z-10.1 F560.
N1220 X63.037 Y-51.287
N1225 G3 X63.325 Y-51. Z-10. I0. J0.287
N1230 X62.175 Z-9.6 I-0.575 J0.
N1235 X63.325 Z-9.2 I0.575 J0.
N1240 X62.175 Z-8.8 I-0.575 J0.
N1245 X63.325 Z-8.4 I0.575 J0.
N1250 X62.175 Z-8. I-0.575 J0.
N1255 X63.325 Z-7.6 I0.575 J0.
N1260 X62.175 Z-7.2 I-0.575 J0.
N1265 X63.325 Z-6.8 I0.575 J0.
N1270 X62.175 Z-6.4 I-0.575 J0.
N1275 X63.325 Z-6. I0.575 J0.
N1280 X62.175 Z-5.6 I-0.575 J0.
N1285 X63.325 Z-5.2 I0.575 J0.
N1290 X62.175 Z-4.8 I-0.575 J0.
N1295 X63.325 Z-4.4 I0.575 J0.
N1300 X62.175 Z-4. I-0.575 J0.
N1305 X63.325 Z-3.6 I0.575 J0.
N1310 X62.175 Z-3.2 I-0.575 J0.
N1315 X63.325 Z-2.8 I0.575 J0.
N1320 X62.175 Z-2.4 I-0.575 J0.
N1325 X63.325 Z-2. I0.575 J0.
N1330 X62.175 Z-1.6 I-0.575 J0.
N1335 X63.325 Z-1.2 I0.575 J0.
N1340 X62.75 Y-50.425 Z-1. I-0.575 J0.
N1345 X62.463 Y-50.713 Z-0.9 I0. J-0.288
N1350 G1 X62.75 Y-51.
N1355 G0 Z5.
N1360 X57.774 Y-57.274
N1365 Z-8.1
N1370 G1 Z-10.1 F560.
N1375 X58.061 Y-57.561
N1380 G3 X58.349 Y-57.274 Z-10. I0. J0.287
N1385 X57.199 Z-9.6 I-0.575 J0.
N1390 X58.349 Z-9.2 I0.575 J0.
N1395 X57.199 Z-8.8 I-0.575 J0.
N1400 X58.349 Z-8.4 I0.575 J0.
N1405 X57.199 Z-8. I-0.575 J0.
N1410 X58.349 Z-7.6 I0.575 J0.
N1415 X57.199 Z-7.2 I-0.575 J0.
N1420 X58.349 Z-6.8 I0.575 J0.
N1425 X57.199 Z-6.4 I-0.575 J0.
N1430 X58.349 Z-6. I0.575 J0.
N1435 X57.199 Z-5.6 I-0.575 J0.
N1440 X58.349 Z-5.2 I0.575 J0.
N1445 X57.199 Z-4.8 I-0.575 J0.
N1450 X58.349 Z-4.4 I0.575 J0.
N1455 X57.199 Z-4. I-0.575 J0.
N1460 X58.349 Z-3.6 I0.575 J0.
N1465 X57.199 Z-3.2 I-0.575 J0.
N1470 X58.349 Z-2.8 I0.575 J0.
N1475 X57.199 Z-2.4 I-0.575 J0.
N1480 X58.349 Z-2. I0.575 J0.
N1485 X57.199 Z-1.6 I-0.575 J0.
N1490 X58.349 Z-1.2 I0.575 J0.
N1495 X57.774 Y-56.699 Z-1. I-0.575 J0.
N1500 X57.486 Y-56.986 Z-0.9 I0. J-0.287
N1505 G1 X57.774 Y-57.274
N1510 G0 Z15.
N1515 M5
N1520 G53 Z0.
(2D CHAMFER2)
N1525 M9
N1530 M1
N1535 T1 M6
N1540 T2
N1545 S16000 M3
N1550 G54
N1555 M8
N1560 G0 X54.35 Y-35.
N1565 G43 Z15. H1
N1570 G0 Z5.
N1575 G1 Z2. F426.67
N1580 Z-2.
N1585 X54.95 F1280.
N1590 G3 X16.05 I-19.45 J0.
N1595 X54.95 I19.45 J0.
N1600 G1 X54.35
N1605 G0 Z5.
N1610 X71.15
N1615 G1 Z2. F426.67
N1620 Z-2.
N1625 X70.55 F1280.
N1630 Y-64.
N1635 G2 X65. Y-69.55 I-5.55 J0.
N1640 G1 X7.
N1645 G2 X1.45 Y-64. I0. J5.55
N1650 G1 Y-6.
N1655 G2 X7. Y-0.45 I5.55 J0.
N1660 G1 X65.
N1665 G2 X70.55 Y-6. I0. J-5.55
N1670 G1 Y-35.
N1675 X71.15
N1680 G0 Z15.
N1685 M9
N1690 G53 Z0.
N1695 M30
%
