%
(132033_S1_V1)
(T1  D=6. CR=0. TAPER=45DEG - ZMIN=-2. - CHAMFER MILL)
(T2  D=6. CR=0. TAPER=90DEG - ZMIN=-3.7 - SPOT DRILL)
(T17  D=6. CR=0. - ZMIN=-9.5 - BULLNOSE END MILL)
(T24  D=3.85 CR=0. - ZMIN=-10.1 - THREAD MILL)
(T42  D=4.2 CR=0. TAPER=118DEG - ZMIN=-16.262 - DRILL)
N10 G90 G94 G17 G91.1
N15 G21
N20 G53 G0 Z0.
(FACE1)
N25 T17 M6
N30 T2
N35 S15000 M3
N40 G54
N45 M8
N50 G0 X78.801 Y-77.312
N55 G43 Z15. H17
N60 G0 Z5.
N65 G1 Z-0.4 F400.
N70 G18 G3 X78.201 Z-1. I-0.6 K0. F600.
N75 G1 X-6.201 F1200.
N80 X-9.128
N85 G17 G2 Y-73.166 I0. J2.073
N90 G1 X81.128
N95 X82.364
N100 G3 Y-69.02 I0. J2.073
N105 G1 X-10.364
N110 X-10.51
N115 G2 Y-64.874 I0. J2.073
N120 G1 X82.51
N125 G3 Y-60.728 I0. J2.073
N130 G1 X-10.51
N135 G2 Y-56.582 I0. J2.073
N140 G1 X82.51
N145 G3 Y-52.436 I0. J2.073
N150 G1 X-10.51
N155 G2 Y-48.29 I0. J2.073
N160 G1 X82.51
N165 G3 Y-44.144 I0. J2.073
N170 G1 X-10.51
N175 G2 Y-39.998 I0. J2.073
N180 G1 X82.51
N185 G3 Y-35.852 I0. J2.073
N190 G1 X-10.51
N195 G2 Y-31.706 I0. J2.073
N200 G1 X82.51
N205 G3 Y-27.56 I0. J2.073
N210 G1 X-10.51
N215 G2 Y-23.414 I0. J2.073
N220 G1 X82.51
N225 G3 Y-19.268 I0. J2.073
N230 G1 X-10.51
N235 G2 Y-15.122 I0. J2.073
N240 G1 X82.51
N245 G3 Y-10.976 I0. J2.073
N250 G1 X-10.51
N255 G2 Y-6.83 I0. J2.073
N260 G1 X82.51
N265 G3 Y-2.684 I0. J2.073
N270 G1 X82.502
N275 X-10.502
N280 G2 Y1.462 I0. J2.073
N285 G1 X-9.806
N290 X81.806
N295 G3 Y5.608 I0. J2.073
N300 G1 X79.675
N305 X-7.675
N310 G18 G3 X-8.275 Z-0.4 I0. K0.6 F600.
N315 G0 Z15.
N320 G17
(2D ADAPTIVE1)
N325 G0 X-5.12 Y4.729
N330 Z15.
N335 Z5.
N340 Z-8.3
N345 G1 Z-8.9 F600.
N350 X-5.116 Y4.723 Z-8.994
N355 X-5.102 Y4.706 Z-9.085
N360 X-5.08 Y4.677 Z-9.172
N365 X-5.049 Y4.639 Z-9.253
N370 X-5.012 Y4.59 Z-9.324
N375 X-4.967 Y4.534 Z-9.385
N380 X-4.918 Y4.471 Z-9.435
N385 X-4.864 Y4.403 Z-9.471
N390 X-4.808 Y4.331 Z-9.493
N395 X-4.75 Y4.257 Z-9.5
N400 G3 X-2.444 Y1.896 I12.049 J9.458
N405 G1 X-2.353 Y1.826 F1200.
N410 X-1.439 Y1.797
N415 X-0.523 Y1.779
N420 X0.392 Y1.768
N425 X1.308 Y1.761
N430 X2.223 Y1.757
N435 X4.018 Y1.753
N440 X4.265 Y1.766
N445 X4.509 Y1.808
N450 X4.746 Y1.877
N455 X4.776 Y1.888
N460 X5.211 Y1.979
N465 X5.419 Y2.019
N470 X6.043 Y2.102
N475 X6.667 Y2.181
N480 X6.875 Y2.189
N485 X7.291 Y2.199
N490 X7.499 Y2.2
N495 X64.501
N500 X64.709 Y2.199
N505 X65.125 Y2.189
N510 X65.333 Y2.181
N515 X66.002 Y2.096
N520 X66.373 Y2.047
N525 X67.286 Y1.973
N530 X68.197 Y1.886
N535 X69.111 Y1.834
N540 X70.026 Y1.802
N545 X70.917 Y1.593
N550 X71.684 Y1.093
N555 X72.293 Y0.41
N560 X72.752 Y-0.382
N565 X73.082 Y-1.236
N570 X73.312 Y-2.122
N575 X73.467 Y-3.024
N580 X73.569 Y-3.934
N585 X73.635 Y-4.847
N590 X73.678 Y-5.762
N595 X73.705 Y-6.677
N600 X73.722 Y-7.592
N605 X73.732 Y-8.507
N610 X73.739 Y-9.423
N615 X73.743 Y-10.338
N620 X73.747 Y-12.169
N625 X73.749 Y-14.915
N630 X73.75 Y-43.293
N635 Y-68.01
N640 X73.649 Y-68.456
N645 X73.286 Y-69.297
N650 X72.689 Y-69.99
N655 X71.947 Y-70.527
N660 X71.121 Y-70.922
N665 X70.249 Y-71.201
N670 X69.354 Y-71.393
N675 X68.448 Y-71.521
N680 X68.405 Y-71.525
N685 X68.19 Y-71.555
N690 X67.979 Y-71.607
N695 X67.774 Y-71.68
N700 X67.622 Y-71.743
N705 X67.414 Y-71.821
N710 X67.224 Y-71.888
N715 X66.789 Y-71.979
N720 X66.581 Y-72.019
N725 X65.957 Y-72.102
N730 X65.333 Y-72.181
N735 X65.125 Y-72.189
N740 X64.709 Y-72.199
N745 X64.501 Y-72.2
N750 X7.499
N755 X7.291 Y-72.199
N760 X6.875 Y-72.189
N765 X6.667 Y-72.181
N770 X5.998 Y-72.096
N775 X5.627 Y-72.047
N780 X4.714 Y-71.973
N785 X3.803 Y-71.886
N790 X2.889 Y-71.834
N795 X1.974 Y-71.802
N800 X1.083 Y-71.593
N805 X0.316 Y-71.093
N810 X-0.293 Y-70.41
N815 X-0.752 Y-69.618
N820 X-1.082 Y-68.764
N825 X-1.312 Y-67.878
N830 X-1.467 Y-66.976
N835 X-1.569 Y-66.066
N840 X-1.635 Y-65.153
N845 X-1.678 Y-64.238
N850 X-1.705 Y-63.323
N855 X-1.722 Y-62.408
N860 X-1.732 Y-61.493
N865 X-1.739 Y-60.577
N870 X-1.743 Y-59.662
N875 X-1.747 Y-57.831
N880 X-1.749 Y-55.085
N885 X-1.75 Y-26.707
N890 Y-3.363
N895 X-1.678 Y-2.911
N900 X-1.36 Y-2.053
N905 X-0.789 Y-1.337
N910 X-0.063 Y-0.78
N915 X0.755 Y-0.368
N920 X0.809 Y-0.35
N925 X1.044 Y-0.253
N930 X1.264 Y-0.125
N935 X1.466 Y0.03
N940 X1.674 Y0.195
N945 X2.09 Y0.514
N950 X2.259 Y0.641
N955 X2.852 Y1.073
N960 X2.876 Y1.086
N965 X3.338 Y1.306
N970 X3.546 Y1.399
N975 X4.378 Y1.743
N980 X4.586 Y1.821
N985 X4.746 Y1.877
N990 G3 X5.122 Y2.504 I-0.22 J0.558 F600.
N995 G1 X5.112 Y2.597 Z-9.493
N1000 X5.101 Y2.688 Z-9.471
N1005 X5.091 Y2.774 Z-9.435
N1010 X5.082 Y2.854 Z-9.385
N1015 X5.074 Y2.925 Z-9.324
N1020 X5.067 Y2.986 Z-9.253
N1025 X5.062 Y3.035 Z-9.172
N1030 X5.058 Y3.071 Z-9.085
N1035 X5.055 Y3.093 Z-8.994
N1040 X5.054 Y3.1 Z-8.9
N1045 G0 Z5.
N1050 X65.184 Y2.736
N1055 Z-8.3
N1060 G1 Z-8.9 F600.
N1065 X65.19 Y2.731 Z-8.994
N1070 X65.207 Y2.718 Z-9.085
N1075 X65.235 Y2.695 Z-9.172
N1080 X65.274 Y2.665 Z-9.253
N1085 X65.322 Y2.627 Z-9.324
N1090 X65.378 Y2.583 Z-9.385
N1095 X65.441 Y2.533 Z-9.435
N1100 X65.51 Y2.479 Z-9.471
N1105 X65.581 Y2.423 Z-9.493
N1110 X65.655 Y2.365 Z-9.5
N1115 G3 X66.373 Y2.047 I0.979 J1.243
N1120 G1 X66.581 Y2.019 F1200.
N1125 X66.789 Y1.979
N1130 X67.224 Y1.888
N1135 X67.414 Y1.821
N1140 X67.622 Y1.743
N1145 X68.454 Y1.399
N1150 X68.662 Y1.306
N1155 X69.124 Y1.086
N1160 X69.148 Y1.073
N1165 X69.741 Y0.641
N1170 X69.91 Y0.514
N1175 X70.326 Y0.195
N1180 X70.534 Y0.03
N1185 X70.784 Y-0.19
N1190 X70.968 Y-0.398
N1195 X71.143 Y-0.606
N1200 X71.782 Y-1.439
N1205 X71.931 Y-1.645
N1210 X71.99 Y-1.73
N1215 X72.07 Y-1.853
N1220 X72.198 Y-2.086
N1225 X72.28 Y-2.269
N1230 X72.369 Y-2.476
N1235 X72.714 Y-3.308
N1240 X72.797 Y-3.515
N1245 X72.873 Y-3.723
N1250 X72.93 Y-3.931
N1255 X72.974 Y-4.139
N1260 X73.031 Y-4.504
N1265 X73.119 Y-5.178
N1270 X73.146 Y-5.386
N1275 X73.2 Y-6.009
N1280 Y-63.991
N1285 X73.146 Y-64.614
N1290 X73.119 Y-64.822
N1295 X73.031 Y-65.496
N1300 X72.974 Y-65.861
N1305 X72.93 Y-66.069
N1310 X72.873 Y-66.277
N1315 X72.797 Y-66.485
N1320 X72.714 Y-66.692
N1325 X72.369 Y-67.524
N1330 X72.28 Y-67.731
N1335 X72.198 Y-67.914
N1340 X72.07 Y-68.147
N1345 X71.99 Y-68.27
N1350 X71.931 Y-68.355
N1355 X71.781 Y-68.563
N1360 X71.143 Y-69.394
N1365 X70.968 Y-69.602
N1370 X70.784 Y-69.81
N1375 X70.534 Y-70.03
N1380 X70.326 Y-70.195
N1385 X69.91 Y-70.514
N1390 X69.741 Y-70.641
N1395 X69.148 Y-71.073
N1400 X69.124 Y-71.086
N1405 X68.662 Y-71.306
N1410 X68.454 Y-71.399
N1415 X67.774 Y-71.68
N1420 G3 X67.431 Y-72.325 I0.249 J-0.546 F600.
N1425 G1 X67.447 Y-72.418 Z-9.493
N1430 X67.462 Y-72.508 Z-9.471
N1435 X67.476 Y-72.594 Z-9.435
N1440 X67.489 Y-72.673 Z-9.385
N1445 X67.501 Y-72.743 Z-9.324
N1450 X67.511 Y-72.804 Z-9.253
N1455 X67.519 Y-72.852 Z-9.172
N1460 X67.525 Y-72.888 Z-9.085
N1465 X67.529 Y-72.91 Z-8.994
N1470 X67.53 Y-72.917 Z-8.9
N1475 G0 Z5.
N1480 X6.816 Y-72.736
N1485 Z-8.3
N1490 G1 Z-8.9 F600.
N1495 X6.81 Y-72.731 Z-8.994
N1500 X6.793 Y-72.718 Z-9.085
N1505 X6.765 Y-72.695 Z-9.172
N1510 X6.726 Y-72.665 Z-9.253
N1515 X6.678 Y-72.627 Z-9.324
N1520 X6.622 Y-72.583 Z-9.385
N1525 X6.559 Y-72.533 Z-9.435
N1530 X6.49 Y-72.479 Z-9.471
N1535 X6.419 Y-72.423 Z-9.493
N1540 X6.345 Y-72.365 Z-9.5
N1545 G3 X5.627 Y-72.047 I-0.979 J-1.243
N1550 G1 X5.419 Y-72.019 F1200.
N1555 X5.211 Y-71.979
N1560 X4.776 Y-71.888
N1565 X4.586 Y-71.821
N1570 X4.378 Y-71.743
N1575 X3.546 Y-71.399
N1580 X3.338 Y-71.306
N1585 X2.876 Y-71.086
N1590 X2.852 Y-71.073
N1595 X2.259 Y-70.641
N1600 X2.09 Y-70.514
N1605 X1.674 Y-70.195
N1610 X1.466 Y-70.03
N1615 X1.216 Y-69.81
N1620 X1.032 Y-69.602
N1625 X0.857 Y-69.394
N1630 X0.218 Y-68.561
N1635 X0.069 Y-68.355
N1640 X0.01 Y-68.27
N1645 X-0.07 Y-68.147
N1650 X-0.198 Y-67.914
N1655 X-0.28 Y-67.731
N1660 X-0.369 Y-67.524
N1665 X-0.714 Y-66.692
N1670 X-0.797 Y-66.485
N1675 X-0.873 Y-66.277
N1680 X-0.93 Y-66.069
N1685 X-0.974 Y-65.861
N1690 X-1.031 Y-65.496
N1695 X-1.119 Y-64.822
N1700 X-1.146 Y-64.614
N1705 X-1.2 Y-63.991
N1710 Y-6.009
N1715 X-1.146 Y-5.386
N1720 X-1.119 Y-5.178
N1725 X-1.031 Y-4.504
N1730 X-0.974 Y-4.139
N1735 X-0.93 Y-3.931
N1740 X-0.873 Y-3.723
N1745 X-0.797 Y-3.515
N1750 X-0.714 Y-3.308
N1755 X-0.369 Y-2.476
N1760 X-0.28 Y-2.269
N1765 X-0.198 Y-2.086
N1770 X-0.07 Y-1.853
N1775 X0.01 Y-1.73
N1780 X0.069 Y-1.645
N1785 X0.219 Y-1.437
N1790 X0.857 Y-0.606
N1795 X1.032 Y-0.398
N1800 X1.216 Y-0.19
N1805 X1.466 Y0.03
N1810 X1.528 Y0.098 F600.
N1815 X1.579 Y0.175
N1820 X1.603 Y0.245 Z-9.495
N1825 X1.626 Y0.314 Z-9.482
N1830 X1.648 Y0.381 Z-9.459
N1835 X1.654 Y0.466 Z-9.418
N1840 X1.643 Y0.53 Z-9.373
N1845 X1.632 Y0.587 Z-9.321
N1850 X1.623 Y0.637 Z-9.262
N1855 X1.615 Y0.679 Z-9.196
N1860 X1.601 Y0.71 Z-9.127
N1865 X1.591 Y0.733 Z-9.053
N1870 X1.584 Y0.746 Z-8.977
N1875 X1.582 Y0.751 Z-8.9
N1880 G0 Z5.
N1885 X38.488 Y-34.352
N1890 Z2.55
N1895 S13000
N1900 G3 X33.63 Y-32.583 Z2.335 I-2.987 J-0.648 F400.
N1905 X34.123 Y-37.723 Z2.12 I1.868 J-2.415
N1910 X38.545 Y-35.069 Z1.904 I1.374 J2.722
N1915 X34.251 Y-32.223 Z1.689 I-3.045 J0.068
N1920 X33.532 Y-37.318 Z1.474 I1.248 J-2.774
N1925 X38.433 Y-35.776 Z1.259 I1.964 J2.318
N1930 X34.936 Y-32.02 Z1.044 I-2.934 J0.775
N1935 X33.054 Y-36.787 Z0.829 I0.563 J-2.978
N1940 X38.161 Y-36.435 Z0.613 I2.442 J1.788
N1945 X35.647 Y-31.982 Z0.398 I-2.662 J1.433
N1950 X32.714 Y-36.162 Z0.183 I-0.148 J-3.016
N1955 X37.743 Y-37.01 Z-0.032 I2.782 J1.163
N1960 X36.345 Y-32.111 Z-0.247 I-2.245 J2.008
N1965 X32.53 Y-35.478 Z-0.463 I-0.845 J-2.887
N1970 X37.205 Y-37.469 Z-0.678 I2.966 J0.479
N1975 X36.991 Y-32.399 Z-0.893 I-1.707 J2.468
N1980 X32.512 Y-34.772 Z-1.108 I-1.491 J-2.6
N1985 X36.577 Y-37.789 Z-1.323 I2.984 J-0.226
N1990 X37.55 Y-32.828 Z-1.538 I-1.079 J2.788
N1995 X32.659 Y-34.084 Z-1.754 I-2.049 J-2.171
N2000 X35.894 Y-37.953 Z-1.969 I2.838 J-0.914
N2005 X37.991 Y-33.373 Z-2.184 I-0.396 J2.951
N2010 X32.961 Y-33.452 Z-2.399 I-2.49 J-1.626
N2015 X35.194 Y-37.952 Z-2.614 I2.536 J-1.546
N2020 X38.291 Y-34.005 Z-2.829 I0.303 J2.951
N2025 X33.401 Y-32.909 Z-3.045 I-2.791 J-0.995
N2030 X34.516 Y-37.789 Z-3.26 I2.097 J-2.088
N2035 X38.435 Y-34.686 Z-3.475 I0.981 J2.788
N2040 X33.953 Y-32.487 Z-3.69 I-2.935 J-0.315
N2045 X33.897 Y-37.473 Z-3.905 I1.545 J-2.51
N2050 X38.416 Y-35.379 Z-4.121 I1.599 J2.472
N2055 X34.586 Y-32.206 Z-4.336 I-2.916 J0.378
N2060 X33.372 Y-37.022 Z-4.551 I0.912 J-2.791
N2065 X38.236 Y-36.047 Z-4.766 I2.124 J2.022
N2070 X35.265 Y-32.081 Z-4.981 I-2.736 J1.045
N2075 X32.968 Y-36.464 Z-5.196 I0.234 J-2.916
N2080 X37.906 Y-36.651 Z-5.412 I2.528 J1.465
N2085 X35.952 Y-32.119 Z-5.627 I-2.407 J1.649
N2090 X32.707 Y-35.829 Z-5.842 I-0.452 J-2.879
N2095 X37.446 Y-37.159 Z-6.057 I2.789 J0.83
N2100 X36.608 Y-32.315 Z-6.272 I-1.947 J2.158
N2105 X32.601 Y-35.153 Z-6.488 I-1.108 J-2.683
N2110 X36.882 Y-37.545 Z-6.703 I2.895 J0.155
N2115 X37.198 Y-32.658 Z-6.918 I-1.384 J2.543
N2120 X32.657 Y-34.474 Z-7.133 I-1.698 J-2.341
N2125 X36.246 Y-37.787 Z-7.348 I2.84 J-0.524
N2130 X37.689 Y-33.127 Z-7.563 I-0.749 J2.785
N2135 X32.868 Y-33.829 Z-7.779 I-2.189 J-1.872
N2140 X35.574 Y-37.873 Z-7.994 I2.629 J-1.168
N2145 X38.056 Y-33.696 Z-8.209 I-0.077 J2.872
N2150 X33.224 Y-33.254 Z-8.424 I-2.556 J-1.304
N2155 X34.903 Y-37.8 Z-8.639 I2.274 J-1.743
N2160 X38.279 Y-34.332 Z-8.854 I0.594 J2.799
N2165 X33.701 Y-32.78 Z-9.07 I-2.779 J-0.668
N2170 X34.269 Y-37.573 Z-9.285 I1.796 J-2.218
N2175 X38.347 Y-35.001 Z-9.5 I1.227 J2.573
N2180 X32.646 I-2.85 J0.
N2185 X38.347 I2.85 J0.
N2190 S15000
N2195 G1 X38.36 Y-34.085 F1200.
N2200 X38.38 Y-33.973
N2205 X38.392 Y-33.823
N2210 X38.386 Y-33.673
N2215 X38.365 Y-33.525
N2220 X38.331 Y-33.379
N2225 X38.286 Y-33.236
N2230 X38.231 Y-33.096
N2235 X38.166 Y-32.961
N2240 X38.093 Y-32.83
N2245 X38.011 Y-32.704
N2250 X37.922 Y-32.583
N2255 X37.827 Y-32.467
N2260 X37.725 Y-32.357
N2265 X37.618 Y-32.253
N2270 X37.505 Y-32.154
N2275 X37.387 Y-32.061
N2280 X37.263 Y-31.973
N2285 X37.133 Y-31.89
N2290 X36.997 Y-31.812
N2295 X36.856 Y-31.741
N2300 X36.709 Y-31.676
N2305 X36.558 Y-31.617
N2310 X36.402 Y-31.566
N2315 X36.242 Y-31.522
N2320 X36.079 Y-31.486
N2325 X35.914 Y-31.458
N2330 X35.746 Y-31.438
N2335 X35.576 Y-31.426
N2340 X35.404 Y-31.423
N2345 X35.232 Y-31.429
N2350 X35.06 Y-31.443
N2355 X34.888 Y-31.466
N2360 X34.716 Y-31.497
N2365 X34.546 Y-31.537
N2370 X34.378 Y-31.586
N2375 X34.211 Y-31.643
N2380 X34.048 Y-31.709
N2385 X33.887 Y-31.783
N2390 X33.73 Y-31.865
N2395 X33.577 Y-31.955
N2400 X33.429 Y-32.052
N2405 X33.285 Y-32.157
N2410 X33.146 Y-32.27
N2415 X33.014 Y-32.389
N2420 X32.887 Y-32.514
N2425 X32.766 Y-32.646
N2430 X32.652 Y-32.785
N2435 X32.545 Y-32.928
N2440 X32.446 Y-33.077
N2445 X32.354 Y-33.231
N2450 X32.269 Y-33.389
N2455 X32.193 Y-33.552
N2460 X32.124 Y-33.718
N2465 X32.064 Y-33.887
N2470 X32.013 Y-34.06
N2475 X31.97 Y-34.234
N2480 X31.936 Y-34.411
N2485 X31.911 Y-34.589
N2490 X31.895 Y-34.768
N2495 X31.888 Y-34.948
N2500 X31.889 Y-35.128
N2505 X31.9 Y-35.308
N2510 X31.92 Y-35.487
N2515 X31.948 Y-35.665
N2520 X31.986 Y-35.841
N2525 X32.032 Y-36.015
N2530 X32.087 Y-36.187
N2535 X32.15 Y-36.355
N2540 X32.222 Y-36.521
N2545 X32.302 Y-36.682
N2550 X32.39 Y-36.84
N2555 X32.486 Y-36.992
N2560 X32.589 Y-37.14
N2565 X32.699 Y-37.283
N2570 X32.817 Y-37.42
N2575 X32.941 Y-37.55
N2580 X33.071 Y-37.675
N2585 X33.208 Y-37.793
N2590 X33.35 Y-37.903
N2595 X33.498 Y-38.007
N2600 X33.65 Y-38.103
N2605 X33.807 Y-38.191
N2610 X33.969 Y-38.272
N2615 X34.134 Y-38.344
N2620 X34.303 Y-38.408
N2625 X34.474 Y-38.463
N2630 X34.648 Y-38.51
N2635 X34.825 Y-38.548
N2640 X35.003 Y-38.577
N2645 X35.182 Y-38.597
N2650 X35.362 Y-38.608
N2655 X35.542 Y-38.611
N2660 X35.722 Y-38.604
N2665 X35.902 Y-38.588
N2670 X36.081 Y-38.563
N2675 X36.258 Y-38.53
N2680 X36.433 Y-38.487
N2685 X36.606 Y-38.436
N2690 X36.776 Y-38.376
N2695 X36.943 Y-38.308
N2700 X37.107 Y-38.232
N2705 X37.266 Y-38.147
N2710 X37.421 Y-38.055
N2715 X37.571 Y-37.955
N2720 X37.716 Y-37.848
N2725 X37.855 Y-37.733
N2730 X37.989 Y-37.612
N2735 X38.116 Y-37.484
N2740 X38.237 Y-37.351
N2745 X38.351 Y-37.211
N2750 X38.458 Y-37.065
N2755 X38.557 Y-36.915
N2760 X38.649 Y-36.76
N2765 X38.733 Y-36.6
N2770 X38.814 Y-36.425
N2775 X38.902 Y-36.207
N2780 X39.023 Y-35.858
N2785 X39.117 Y-35.538
N2790 X39.181 Y-35.268
N2795 X39.226 Y-35.025
N2800 X39.257 Y-34.8
N2805 X39.275 Y-34.589
N2810 X39.281 Y-34.389
N2815 X39.278 Y-34.197
N2820 X39.266 Y-34.01
N2825 X39.245 Y-33.827
N2830 X39.215 Y-33.648
N2835 X39.176 Y-33.471
N2840 X39.129 Y-33.298
N2845 X39.074 Y-33.128
N2850 X39.01 Y-32.961
N2855 X38.938 Y-32.798
N2860 X38.857 Y-32.638
N2865 X38.769 Y-32.481
N2870 X38.672 Y-32.328
N2875 X38.566 Y-32.179
N2880 X38.453 Y-32.034
N2885 X38.331 Y-31.895
N2890 X38.202 Y-31.76
N2895 X38.065 Y-31.631
N2900 X37.921 Y-31.508
N2905 X37.769 Y-31.391
N2910 X37.61 Y-31.281
N2915 X37.444 Y-31.178
N2920 X37.272 Y-31.083
N2925 X37.095 Y-30.995
N2930 X36.911 Y-30.917
N2935 X36.723 Y-30.847
N2940 X36.53 Y-30.786
N2945 X36.333 Y-30.734
N2950 X36.132 Y-30.692
N2955 X35.929 Y-30.66
N2960 X35.723 Y-30.638
N2965 X35.515 Y-30.626
N2970 X35.305 Y-30.625
N2975 X35.095 Y-30.634
N2980 X34.885 Y-30.654
N2985 X34.676 Y-30.684
N2990 X34.467 Y-30.725
N2995 X34.26 Y-30.777
N3000 X34.055 Y-30.838
N3005 X33.853 Y-30.911
N3010 X33.655 Y-30.993
N3015 X33.46 Y-31.086
N3020 X33.269 Y-31.188
N3025 X33.084 Y-31.3
N3030 X32.904 Y-31.421
N3035 X32.73 Y-31.552
N3040 X32.562 Y-31.691
N3045 X32.402 Y-31.839
N3050 X32.249 Y-31.994
N3055 X32.103 Y-32.158
N3060 X31.966 Y-32.328
N3065 X31.837 Y-32.506
N3070 X31.717 Y-32.69
N3075 X31.606 Y-32.879
N3080 X31.505 Y-33.075
N3085 X31.414 Y-33.275
N3090 X31.333 Y-33.479
N3095 X31.262 Y-33.688
N3100 X31.201 Y-33.9
N3105 X31.151 Y-34.115
N3110 X31.112 Y-34.332
N3115 X31.084 Y-34.551
N3120 X31.067 Y-34.771
N3125 X31.06 Y-34.992
N3130 X31.065 Y-35.213
N3135 X31.081 Y-35.434
N3140 X31.108 Y-35.653
N3145 X31.146 Y-35.871
N3150 X31.194 Y-36.087
N3155 X31.254 Y-36.3
N3160 X31.324 Y-36.51
N3165 X31.404 Y-36.717
N3170 X31.494 Y-36.919
N3175 X31.595 Y-37.116
N3180 X31.705 Y-37.308
N3185 X31.825 Y-37.494
N3190 X31.954 Y-37.674
N3195 X32.092 Y-37.848
N3200 X32.238 Y-38.014
N3205 X32.393 Y-38.173
N3210 X32.555 Y-38.324
N3215 X32.724 Y-38.467
N3220 X32.901 Y-38.601
N3225 X33.084 Y-38.726
N3230 X33.273 Y-38.842
N3235 X33.467 Y-38.948
N3240 X33.667 Y-39.045
N3245 X33.871 Y-39.131
N3250 X34.079 Y-39.207
N3255 X34.291 Y-39.273
N3260 X34.506 Y-39.327
N3265 X34.723 Y-39.372
N3270 X34.942 Y-39.405
N3275 X35.163 Y-39.427
N3280 X35.384 Y-39.438
N3285 X35.606
N3290 X35.828 Y-39.427
N3295 X36.048 Y-39.405
N3300 X36.267 Y-39.372
N3305 X36.485 Y-39.328
N3310 X36.7 Y-39.273
N3315 X36.912 Y-39.208
N3320 X37.12 Y-39.132
N3325 X37.324 Y-39.046
N3330 X37.524 Y-38.949
N3335 X37.719 Y-38.843
N3340 X37.908 Y-38.727
N3345 X38.091 Y-38.602
N3350 X38.267 Y-38.468
N3355 X38.437 Y-38.326
N3360 X38.6 Y-38.174
N3365 X38.756 Y-38.014
N3370 X38.908 Y-37.841
N3375 X39.067 Y-37.642
N3380 X39.222 Y-37.425
N3385 X39.369 Y-37.196
N3390 X39.508 Y-36.954
N3395 X39.636 Y-36.704
N3400 X39.75 Y-36.45
N3405 X39.85 Y-36.194
N3410 X39.935 Y-35.939
N3415 X40.006 Y-35.686
N3420 X40.062 Y-35.434
N3425 X40.106 Y-35.185
N3430 X40.136 Y-34.938
N3435 X40.154 Y-34.693
N3440 X40.159 Y-34.45
N3445 X40.153 Y-34.21
N3450 X40.134 Y-33.974
N3455 X40.104 Y-33.741
N3460 X40.063 Y-33.511
N3465 X40.011 Y-33.285
N3470 X39.947 Y-33.062
N3475 X39.873 Y-32.844
N3480 X39.788 Y-32.63
N3485 X39.693 Y-32.421
N3490 X39.587 Y-32.217
N3495 X39.472 Y-32.018
N3500 X39.346 Y-31.825
N3505 X39.21 Y-31.637
N3510 X39.065 Y-31.457
N3515 X38.91 Y-31.283
N3520 X38.746 Y-31.116
N3525 X38.573 Y-30.957
N3530 X38.392 Y-30.806
N3535 X38.202 Y-30.664
N3540 X38.005 Y-30.53
N3545 X37.8 Y-30.406
N3550 X37.588 Y-30.292
N3555 X37.369 Y-30.188
N3560 X37.145 Y-30.095
N3565 X36.915 Y-30.013
N3570 X36.68 Y-29.942
N3575 X36.44 Y-29.882
N3580 X36.197 Y-29.834
N3585 X35.951 Y-29.798
N3590 X35.703 Y-29.775
N3595 X35.452 Y-29.764
N3600 X35.2 Y-29.765
N3605 X34.948 Y-29.779
N3610 X34.696 Y-29.806
N3615 X34.445 Y-29.846
N3620 X34.195 Y-29.898
N3625 X33.948 Y-29.962
N3630 X33.703 Y-30.039
N3635 X33.462 Y-30.129
N3640 X33.225 Y-30.23
N3645 X32.993 Y-30.344
N3650 X32.767 Y-30.469
N3655 X32.546 Y-30.606
N3660 X32.333 Y-30.754
N3665 X32.126 Y-30.913
N3670 X31.928 Y-31.082
N3675 X31.738 Y-31.261
N3680 X31.556 Y-31.449
N3685 X31.385 Y-31.647
N3690 X31.223 Y-31.853
N3695 X31.071 Y-32.067
N3700 X30.93 Y-32.289
N3705 X30.8 Y-32.518
N3710 X30.682 Y-32.753
N3715 X30.576 Y-32.994
N3720 X30.481 Y-33.241
N3725 X30.399 Y-33.491
N3730 X30.33 Y-33.746
N3735 X30.273 Y-34.004
N3740 X30.229 Y-34.265
N3745 X30.199 Y-34.528
N3750 X30.181 Y-34.792
N3755 X30.177 Y-35.057
N3760 X30.186 Y-35.321
N3765 X30.208 Y-35.586
N3770 X30.243 Y-35.848
N3775 X30.292 Y-36.109
N3780 X30.353 Y-36.367
N3785 X30.427 Y-36.622
N3790 X30.514 Y-36.873
N3795 X30.613 Y-37.119
N3800 X30.725 Y-37.36
N3805 X30.848 Y-37.595
N3810 X30.983 Y-37.823
N3815 X31.13 Y-38.045
N3820 X31.287 Y-38.259
N3825 X31.454 Y-38.465
N3830 X31.632 Y-38.663
N3835 X31.82 Y-38.851
N3840 X32.016 Y-39.03
N3845 X32.222 Y-39.199
N3850 X32.435 Y-39.357
N3855 X32.657 Y-39.504
N3860 X32.885 Y-39.64
N3865 X33.12 Y-39.765
N3870 X33.361 Y-39.878
N3875 X33.607 Y-39.978
N3880 X33.858 Y-40.067
N3885 X34.112 Y-40.142
N3890 X34.371 Y-40.205
N3895 X34.632 Y-40.255
N3900 X34.896 Y-40.291
N3905 X35.16 Y-40.315
N3910 X35.426 Y-40.325
N3915 X35.692 Y-40.322
N3920 X35.958 Y-40.305
N3925 X36.222 Y-40.276
N3930 X36.484 Y-40.233
N3935 X36.744 Y-40.177
N3940 X37.001 Y-40.108
N3945 X37.255 Y-40.027
N3950 X37.503 Y-39.933
N3955 X37.747 Y-39.826
N3960 X37.986 Y-39.708
N3965 X38.218 Y-39.577
N3970 X38.447 Y-39.434
N3975 X38.67 Y-39.277
N3980 X38.889 Y-39.106
N3985 X39.104 Y-38.921
N3990 X39.314 Y-38.721
N3995 X39.517 Y-38.507
N4000 X39.713 Y-38.28
N4005 X39.898 Y-38.041
N4010 X40.073 Y-37.791
N4015 X40.235 Y-37.532
N4020 X40.384 Y-37.266
N4025 X40.519 Y-36.993
N4030 X40.64 Y-36.716
N4035 X40.746 Y-36.434
N4040 X40.837 Y-36.149
N4045 X40.913 Y-35.861
N4050 X40.975 Y-35.573
N4055 X41.022 Y-35.284
N4060 X41.054 Y-34.994
N4065 X41.071 Y-34.706
N4070 X41.074 Y-34.419
N4075 X41.063 Y-34.134
N4080 X41.037 Y-33.851
N4085 X40.998 Y-33.571
N4090 X40.945 Y-33.295
N4095 X40.878 Y-33.023
N4100 X40.798 Y-32.754
N4105 X40.706 Y-32.491
N4110 X40.6 Y-32.233
N4115 X40.481 Y-31.981
N4120 X40.35 Y-31.735
N4125 X40.207 Y-31.496
N4130 X40.052 Y-31.264
N4135 X39.885 Y-31.039
N4140 X39.707 Y-30.823
N4145 X39.518 Y-30.615
N4150 X39.318 Y-30.417
N4155 X39.108 Y-30.228
N4160 X38.888 Y-30.05
N4165 X38.658 Y-29.882
N4170 X38.42 Y-29.725
N4175 X38.173 Y-29.58
N4180 X37.919 Y-29.447
N4185 X37.657 Y-29.326
N4190 X37.389 Y-29.219
N4195 X37.114 Y-29.124
N4200 X36.834 Y-29.043
N4205 X36.55 Y-28.976
N4210 X36.261 Y-28.922
N4215 X35.969 Y-28.884
N4220 X35.675 Y-28.859
N4225 X35.379 Y-28.85
N4230 X35.082 Y-28.855
N4235 X34.785 Y-28.875
N4240 X34.488 Y-28.91
N4245 X34.192 Y-28.96
N4250 X33.899 Y-29.025
N4255 X33.608 Y-29.105
N4260 X33.322 Y-29.199
N4265 X33.039 Y-29.308
N4270 X32.762 Y-29.431
N4275 X32.491 Y-29.568
N4280 X32.226 Y-29.718
N4285 X31.969 Y-29.882
N4290 X31.72 Y-30.059
N4295 X31.479 Y-30.248
N4300 X31.249 Y-30.45
N4305 X31.028 Y-30.663
N4310 X30.817 Y-30.887
N4315 X30.618 Y-31.121
N4320 X30.431 Y-31.366
N4325 X30.256 Y-31.62
N4330 X30.093 Y-31.882
N4335 X29.944 Y-32.153
N4340 X29.809 Y-32.431
N4345 X29.687 Y-32.715
N4350 X29.58 Y-33.006
N4355 X29.487 Y-33.302
N4360 X29.409 Y-33.602
N4365 X29.346 Y-33.906
N4370 X29.298 Y-34.213
N4375 X29.266 Y-34.522
N4380 X29.249 Y-34.832
N4385 X29.248 Y-35.143
N4390 X29.262 Y-35.454
N4395 X29.292 Y-35.764
N4400 X29.337 Y-36.072
N4405 X29.397 Y-36.377
N4410 X29.473 Y-36.68
N4415 X29.564 Y-36.978
N4420 X29.67 Y-37.271
N4425 X29.79 Y-37.559
N4430 X29.924 Y-37.84
N4435 X30.072 Y-38.115
N4440 X30.234 Y-38.381
N4445 X30.409 Y-38.64
N4450 X30.597 Y-38.889
N4455 X30.797 Y-39.129
N4460 X31.008 Y-39.358
N4465 X31.231 Y-39.577
N4470 X31.465 Y-39.784
N4475 X31.709 Y-39.979
N4480 X31.962 Y-40.162
N4485 X32.224 Y-40.332
N4490 X32.494 Y-40.489
N4495 X32.771 Y-40.632
N4500 X33.056 Y-40.761
N4505 X33.347 Y-40.876
N4510 X33.642 Y-40.976
N4515 X33.943 Y-41.061
N4520 X34.248 Y-41.131
N4525 X34.555 Y-41.186
N4530 X34.865 Y-41.225
N4535 X35.177 Y-41.249
N4540 X35.489 Y-41.257
N4545 X35.802 Y-41.25
N4550 X36.113 Y-41.227
N4555 X36.423 Y-41.188
N4560 X36.731 Y-41.134
N4565 X37.036 Y-41.065
N4570 X37.338 Y-40.98
N4575 X37.636 Y-40.881
N4580 X37.93 Y-40.765
N4585 X38.22 Y-40.635
N4590 X38.505 Y-40.489
N4595 X38.785 Y-40.327
N4600 X39.06 Y-40.149
N4605 X39.328 Y-39.957
N4610 X39.588 Y-39.749
N4615 X39.84 Y-39.527
N4620 X40.082 Y-39.291
N4625 X40.314 Y-39.041
N4630 X40.534 Y-38.779
N4635 X40.741 Y-38.505
N4640 X40.935 Y-38.22
N4645 X41.115 Y-37.925
N4650 X41.279 Y-37.622
N4655 X41.429 Y-37.312
N4660 X41.562 Y-36.994
N4665 X41.679 Y-36.672
N4670 X41.779 Y-36.345
N4675 X41.863 Y-36.015
N4680 X41.93 Y-35.683
N4685 X41.979 Y-35.349
N4690 X42.012 Y-35.014
N4695 X42.029 Y-34.679
N4700 X42.028 Y-34.345
N4705 X42.011 Y-34.013
N4710 X41.977 Y-33.683
N4715 X41.927 Y-33.356
N4720 X41.861 Y-33.033
N4725 X41.779 Y-32.714
N4730 X41.681 Y-32.4
N4735 X41.568 Y-32.091
N4740 X41.44 Y-31.789
N4745 X41.297 Y-31.494
N4750 X41.139 Y-31.206
N4755 X40.967 Y-30.926
N4760 X40.781 Y-30.655
N4765 X40.581 Y-30.393
N4770 X40.369 Y-30.141
N4775 X40.143 Y-29.9
N4780 X39.906 Y-29.669
N4785 X39.656 Y-29.451
N4790 X39.396 Y-29.245
N4795 X39.125 Y-29.051
N4800 X38.843 Y-28.871
N4805 X38.553 Y-28.705
N4810 X38.254 Y-28.553
N4815 X37.946 Y-28.415
N4820 X37.632 Y-28.293
N4825 X37.31 Y-28.187
N4830 X36.983 Y-28.096
N4835 X36.651 Y-28.022
N4840 X36.315 Y-27.964
N4845 X35.975 Y-27.923
N4850 X35.633 Y-27.899
N4855 X35.289 Y-27.892
N4860 X34.944 Y-27.903
N4865 X34.6 Y-27.93
N4870 X34.256 Y-27.975
N4875 X33.914 Y-28.037
N4880 X33.575 Y-28.116
N4885 X33.24 Y-28.212
N4890 X32.909 Y-28.326
N4895 X32.583 Y-28.455
N4900 X32.264 Y-28.602
N4905 X31.952 Y-28.764
N4910 X31.648 Y-28.942
N4915 X31.353 Y-29.135
N4920 X31.067 Y-29.343
N4925 X30.792 Y-29.565
N4930 X30.528 Y-29.801
N4935 X30.275 Y-30.05
N4940 X30.035 Y-30.312
N4945 X29.808 Y-30.586
N4950 X29.595 Y-30.872
N4955 X29.396 Y-31.167
N4960 X29.212 Y-31.473
N4965 X29.044 Y-31.788
N4970 X28.891 Y-32.111
N4975 X28.754 Y-32.441
N4980 X28.634 Y-32.779
N4985 X28.531 Y-33.122
N4990 X28.445 Y-33.469
N4995 X28.377 Y-33.821
N5000 X28.326 Y-34.177
N5005 X28.293 Y-34.534
N5010 X28.278 Y-34.893
N5015 X28.281 Y-35.252
N5020 X28.301 Y-35.611
N5025 X28.34 Y-35.969
N5030 X28.396 Y-36.324
N5035 X28.471 Y-36.676
N5040 X28.562 Y-37.024
N5045 X28.671 Y-37.367
N5050 X28.797 Y-37.704
N5055 X28.94 Y-38.035
N5060 X29.099 Y-38.358
N5065 X29.274 Y-38.673
N5070 X29.465 Y-38.979
N5075 X29.67 Y-39.275
N5080 X29.891 Y-39.561
N5085 X30.125 Y-39.835
N5090 X30.373 Y-40.097
N5095 X30.633 Y-40.346
N5100 X30.906 Y-40.582
N5105 X31.19 Y-40.805
N5110 X31.485 Y-41.012
N5115 X31.79 Y-41.205
N5120 X32.104 Y-41.383
N5125 X32.427 Y-41.544
N5130 X32.757 Y-41.689
N5135 X33.095 Y-41.818
N5140 X33.438 Y-41.929
N5145 X33.786 Y-42.023
N5150 X34.139 Y-42.1
N5155 X34.495 Y-42.159
N5160 X34.854 Y-42.2
N5165 X35.214 Y-42.223
N5170 X35.575 Y-42.228
N5175 X35.936 Y-42.215
N5180 X36.296 Y-42.184
N5185 X36.655 Y-42.136
N5190 X37.011 Y-42.069
N5195 X37.365 Y-41.984
N5200 X37.716 Y-41.881
N5205 X38.062 Y-41.76
N5210 X38.404 Y-41.621
N5215 X38.741 Y-41.464
N5220 X39.072 Y-41.29
N5225 X39.395 Y-41.098
N5230 X39.711 Y-40.889
N5235 X40.017 Y-40.663
N5240 X40.314 Y-40.421
N5245 X40.599 Y-40.163
N5250 X40.873 Y-39.889
N5255 X41.133 Y-39.602
N5260 X41.379 Y-39.301
N5265 X41.611 Y-38.987
N5270 X41.826 Y-38.662
N5275 X42.026 Y-38.326
N5280 X42.208 Y-37.981
N5285 X42.373 Y-37.627
N5290 X42.519 Y-37.266
N5295 X42.648 Y-36.899
N5300 X42.757 Y-36.527
N5305 X42.848 Y-36.15
N5310 X42.919 Y-35.771
N5315 X42.971 Y-35.389
N5320 X43.005 Y-35.006
N5325 X43.018 Y-34.622
N5330 X43.013 Y-34.24
N5335 X42.989 Y-33.859
N5340 X42.946 Y-33.48
N5345 X42.884 Y-33.104
N5350 X42.803 Y-32.733
N5355 X42.704 Y-32.366
N5360 X42.587 Y-32.006
N5365 X42.452 Y-31.651
N5370 X42.3 Y-31.304
N5375 X42.131 Y-30.966
N5380 X41.945 Y-30.635
N5385 X41.742 Y-30.315
N5390 X41.524 Y-30.005
N5395 X41.29 Y-29.705
N5400 X41.041 Y-29.418
N5405 X40.778 Y-29.143
N5410 X40.501 Y-28.881
N5415 X40.211 Y-28.632
N5420 X39.908 Y-28.398
N5425 X39.593 Y-28.179
N5430 X39.267 Y-27.976
N5435 X38.931 Y-27.789
N5440 X38.585 Y-27.618
N5445 X38.23 Y-27.465
N5450 X37.867 Y-27.329
N5455 X37.497 Y-27.212
N5460 X37.121 Y-27.112
N5465 X36.739 Y-27.032
N5470 X36.353 Y-26.97
N5475 X35.963 Y-26.928
N5480 X35.571 Y-26.905
N5485 X35.177 Y-26.902
N5490 X34.783 Y-26.918
N5495 X34.389 Y-26.954
N5500 X33.997 Y-27.01
N5505 X33.607 Y-27.086
N5510 X33.221 Y-27.181
N5515 X32.84 Y-27.296
N5520 X32.463 Y-27.429
N5525 X32.094 Y-27.582
N5530 X31.731 Y-27.753
N5535 X31.378 Y-27.942
N5540 X31.033 Y-28.15
N5545 X30.699 Y-28.374
N5550 X30.376 Y-28.615
N5555 X30.065 Y-28.872
N5560 X29.767 Y-29.145
N5565 X29.483 Y-29.433
N5570 X29.213 Y-29.735
N5575 X28.958 Y-30.05
N5580 X28.719 Y-30.378
N5585 X28.497 Y-30.718
N5590 X28.291 Y-31.068
N5595 X28.103 Y-31.429
N5600 X27.934 Y-31.799
N5605 X27.782 Y-32.178
N5610 X27.65 Y-32.564
N5615 X27.538 Y-32.956
N5620 X27.444 Y-33.353
N5625 X27.371 Y-33.755
N5630 X27.318 Y-34.161
N5635 X27.285 Y-34.568
N5640 X27.273 Y-34.977
N5645 X27.281 Y-35.386
N5650 X27.31 Y-35.795
N5655 X27.359 Y-36.201
N5660 X27.428 Y-36.605
N5665 X27.517 Y-37.005
N5670 X27.626 Y-37.4
N5675 X27.755 Y-37.79
N5680 X27.903 Y-38.172
N5685 X28.07 Y-38.547
N5690 X28.256 Y-38.913
N5695 X28.46 Y-39.269
N5700 X28.681 Y-39.615
N5705 X28.919 Y-39.949
N5710 X29.174 Y-40.271
N5715 X29.445 Y-40.58
N5720 X29.73 Y-40.875
N5725 X30.03 Y-41.156
N5730 X30.344 Y-41.421
N5735 X30.671 Y-41.67
N5740 X31.01 Y-41.903
N5745 X31.36 Y-42.119
N5750 X31.72 Y-42.316
N5755 X32.09 Y-42.496
N5760 X32.468 Y-42.656
N5765 X32.854 Y-42.798
N5770 X33.247 Y-42.92
N5775 X33.645 Y-43.023
N5780 X34.047 Y-43.106
N5785 X34.454 Y-43.168
N5790 X34.863 Y-43.21
N5795 X35.274 Y-43.231
N5800 X35.687 Y-43.232
N5805 X36.099 Y-43.213
N5810 X36.51 Y-43.172
N5815 X36.92 Y-43.111
N5820 X37.328 Y-43.03
N5825 X37.733 Y-42.927
N5830 X38.133 Y-42.805
N5835 X38.528 Y-42.661
N5840 X38.917 Y-42.498
N5845 X39.3 Y-42.314
N5850 X39.674 Y-42.111
N5855 X40.039 Y-41.889
N5860 X40.395 Y-41.647
N5865 X40.739 Y-41.387
N5870 X41.071 Y-41.109
N5875 X41.39 Y-40.813
N5880 X41.694 Y-40.502
N5885 X41.984 Y-40.174
N5890 X42.257 Y-39.832
N5895 X42.513 Y-39.476
N5900 X42.751 Y-39.107
N5905 X42.971 Y-38.727
N5910 X43.171 Y-38.336
N5915 X43.352 Y-37.936
N5920 X43.512 Y-37.528
N5925 X43.651 Y-37.113
N5930 X43.77 Y-36.692
N5935 X43.867 Y-36.266
N5940 X43.942 Y-35.836
N5945 X43.996 Y-35.404
N5950 X44.028 Y-34.97
N5955 X44.039 Y-34.536
N5960 X44.028 Y-34.103
N5965 X43.995 Y-33.672
N5970 X43.941 Y-33.243
N5975 X43.865 Y-32.818
N5980 X43.769 Y-32.397
N5985 X43.652 Y-31.983
N5990 X43.514 Y-31.574
N5995 X43.356 Y-31.174
N6000 X43.178 Y-30.781
N6005 X42.981 Y-30.399
N6010 X42.765 Y-30.026
N6015 X42.53 Y-29.664
N6020 X42.278 Y-29.315
N6025 X42.008 Y-28.978
N6030 X41.722 Y-28.655
N6035 X41.419 Y-28.346
N6040 X41.101 Y-28.052
N6045 X40.768 Y-27.774
N6050 X40.421 Y-27.513
N6055 X40.061 Y-27.269
N6060 X39.689 Y-27.042
N6065 X39.305 Y-26.835
N6070 X38.911 Y-26.646
N6075 X38.506 Y-26.477
N6080 X38.094 Y-26.328
N6085 X37.673 Y-26.2
N6090 X37.246 Y-26.093
N6095 X36.813 Y-26.007
N6100 X36.375 Y-25.943
N6105 X35.934 Y-25.9
N6110 X35.49 Y-25.879
N6115 X35.045 Y-25.881
N6120 X34.6 Y-25.905
N6125 X34.156 Y-25.951
N6130 X33.714 Y-26.02
N6135 X33.275 Y-26.11
N6140 X32.84 Y-26.223
N6145 X32.411 Y-26.358
N6150 X31.988 Y-26.514
N6155 X31.573 Y-26.691
N6160 X31.167 Y-26.889
N6165 X30.771 Y-27.107
N6170 X30.386 Y-27.345
N6175 X30.012 Y-27.602
N6180 X29.651 Y-27.878
N6185 X29.304 Y-28.173
N6190 X28.972 Y-28.484
N6195 X28.656 Y-28.812
N6200 X28.356 Y-29.156
N6205 X28.073 Y-29.514
N6210 X27.808 Y-29.887
N6215 X27.562 Y-30.273
N6220 X27.336 Y-30.67
N6225 X27.129 Y-31.079
N6230 X26.943 Y-31.498
N6235 X26.778 Y-31.926
N6240 X26.634 Y-32.363
N6245 X26.513 Y-32.806
N6250 X26.413 Y-33.254
N6255 X26.336 Y-33.708
N6260 X26.282 Y-34.165
N6265 X26.251 Y-34.624
N6270 X26.242 Y-35.084
N6275 X26.257 Y-35.545
N6280 X26.295 Y-36.004
N6285 X26.355 Y-36.461
N6290 X26.438 Y-36.915
N6295 X26.544 Y-37.364
N6300 X26.672 Y-37.807
N6305 X26.823 Y-38.243
N6310 X26.995 Y-38.672
N6315 X27.188 Y-39.091
N6320 X27.402 Y-39.501
N6325 X27.636 Y-39.899
N6330 X27.889 Y-40.285
N6335 X28.162 Y-40.658
N6340 X28.453 Y-41.017
N6345 X28.762 Y-41.361
N6350 X29.087 Y-41.689
N6355 X29.429 Y-42.001
N6360 X29.785 Y-42.295
N6365 X30.156 Y-42.571
N6370 X30.541 Y-42.828
N6375 X30.938 Y-43.066
N6380 X31.346 Y-43.284
N6385 X31.764 Y-43.481
N6390 X32.192 Y-43.657
N6395 X32.628 Y-43.811
N6400 X33.072 Y-43.943
N6405 X33.521 Y-44.053
N6410 X33.976 Y-44.141
N6415 X34.435 Y-44.205
N6420 X34.897 Y-44.247
N6425 X35.36 Y-44.266
N6430 X35.825 Y-44.261
N6435 X36.29 Y-44.233
N6440 X36.754 Y-44.182
N6445 X37.216 Y-44.108
N6450 X37.675 Y-44.01
N6455 X38.129 Y-43.889
N6460 X38.579 Y-43.746
N6465 X39.022 Y-43.579
N6470 X39.458 Y-43.39
N6475 X39.886 Y-43.178
N6480 X40.304 Y-42.945
N6485 X40.711 Y-42.69
N6490 X41.106 Y-42.414
N6495 X41.488 Y-42.118
N6500 X41.856 Y-41.802
N6505 X42.209 Y-41.468
N6510 X42.545 Y-41.115
N6515 X42.864 Y-40.746
N6520 X43.164 Y-40.36
N6525 X43.445 Y-39.96
N6530 X43.705 Y-39.546
N6535 X43.945 Y-39.119
N6540 X44.163 Y-38.68
N6545 X44.359 Y-38.232
N6550 X44.533 Y-37.774
N6555 X44.683 Y-37.309
N6560 X44.809 Y-36.837
N6565 X44.912 Y-36.36
N6570 X44.991 Y-35.879
N6575 X45.045 Y-35.395
N6580 X45.075 Y-34.91
N6585 X45.081 Y-34.424
N6590 X45.063 Y-33.939
N6595 X45.02 Y-33.456
N6600 X44.954 Y-32.976
N6605 X44.864 Y-32.5
N6610 X44.75 Y-32.03
N6615 X44.613 Y-31.566
N6620 X44.452 Y-31.11
N6625 X44.27 Y-30.663
N6630 X44.065 Y-30.225
N6635 X43.839 Y-29.798
N6640 X43.591 Y-29.383
N6645 X43.323 Y-28.98
N6650 X43.035 Y-28.591
N6655 X42.728 Y-28.217
N6660 X42.402 Y-27.858
N6665 X42.058 Y-27.515
N6670 X41.698 Y-27.19
N6675 X41.32 Y-26.883
N6680 X40.928 Y-26.595
N6685 X40.521 Y-26.326
N6690 X40.101 Y-26.077
N6695 X39.668 Y-25.85
N6700 X39.223 Y-25.644
N6705 X38.768 Y-25.46
N6710 X38.304 Y-25.299
N6715 X37.831 Y-25.161
N6720 X37.352 Y-25.047
N6725 X36.866 Y-24.956
N6730 X36.376 Y-24.89
N6735 X35.882 Y-24.848
N6740 X35.385 Y-24.831
N6745 X34.888 Y-24.839
N6750 X34.391 Y-24.872
N6755 X33.895 Y-24.93
N6760 X33.402 Y-25.012
N6765 X32.913 Y-25.119
N6770 X32.429 Y-25.251
N6775 X31.952 Y-25.407
N6780 X31.482 Y-25.586
N6785 X31.022 Y-25.79
N6790 X30.571 Y-26.016
N6795 X30.132 Y-26.265
N6800 X29.705 Y-26.536
N6805 X29.292 Y-26.828
N6810 X28.893 Y-27.141
N6815 X28.51 Y-27.473
N6820 X28.144 Y-27.825
N6825 X27.795 Y-28.195
N6830 X27.466 Y-28.582
N6835 X27.155 Y-28.985
N6840 X26.865 Y-29.404
N6845 X26.596 Y-29.838
N6850 X26.349 Y-30.284
N6855 X26.124 Y-30.743
N6860 X25.922 Y-31.212
N6865 X25.744 Y-31.691
N6870 X25.59 Y-32.179
N6875 X25.46 Y-32.674
N6880 X25.355 Y-33.176
N6885 X25.276 Y-33.682
N6890 X25.221 Y-34.192
N6895 X25.193 Y-34.704
N6900 X25.19 Y-35.217
N6905 X25.212 Y-35.73
N6910 X25.26 Y-36.241
N6915 X25.334 Y-36.749
N6920 X25.432 Y-37.253
N6925 X25.556 Y-37.752
N6930 X25.705 Y-38.244
N6935 X25.878 Y-38.728
N6940 X26.076 Y-39.203
N6945 X26.296 Y-39.668
N6950 X26.54 Y-40.121
N6955 X26.806 Y-40.562
N6960 X27.094 Y-40.988
N6965 X27.403 Y-41.4
N6970 X27.732 Y-41.796
N6975 X28.08 Y-42.175
N6980 X28.447 Y-42.536
N6985 X28.832 Y-42.879
N6990 X29.233 Y-43.202
N6995 X29.65 Y-43.505
N7000 X30.081 Y-43.786
N7005 X30.526 Y-44.045
N7010 X30.984 Y-44.282
N7015 X31.453 Y-44.496
N7020 X31.932 Y-44.686
N7025 X32.42 Y-44.852
N7030 X32.916 Y-44.994
N7035 X33.419 Y-45.111
N7040 X33.927 Y-45.202
N7045 X34.439 Y-45.268
N7050 X34.955 Y-45.308
N7055 X35.473 Y-45.323
N7060 X35.992 Y-45.312
N7065 X36.51 Y-45.274
N7070 X37.027 Y-45.211
N7075 X37.542 Y-45.122
N7080 X38.052 Y-45.007
N7085 X38.558 Y-44.866
N7090 X39.057 Y-44.7
N7095 X39.549 Y-44.508
N7100 X40.032 Y-44.292
N7105 X40.504 Y-44.051
N7110 X40.966 Y-43.786
N7115 X41.415 Y-43.497
N7120 X41.85 Y-43.185
N7125 X42.27 Y-42.852
N7130 X42.674 Y-42.497
N7135 X43.06 Y-42.121
N7140 X43.427 Y-41.727
N7145 X43.775 Y-41.313
N7150 X44.102 Y-40.883
N7155 X44.408 Y-40.436
N7160 X44.691 Y-39.974
N7165 X44.95 Y-39.499
N7170 X45.186 Y-39.011
N7175 X45.397 Y-38.512
N7180 X45.582 Y-38.004
N7185 X45.742 Y-37.487
N7190 X45.876 Y-36.963
N7195 X45.983 Y-36.433
N7200 X46.064 Y-35.899
N7205 X46.118 Y-35.362
N7210 X46.145 Y-34.823
N7215 Y-34.284
N7220 X46.118 Y-33.747
N7225 X46.065 Y-33.211
N7230 X45.985 Y-32.679
N7235 X45.878 Y-32.152
N7240 X45.745 Y-31.632
N7245 X45.587 Y-31.119
N7250 X45.403 Y-30.614
N7255 X45.194 Y-30.119
N7260 X44.961 Y-29.635
N7265 X44.703 Y-29.164
N7270 X44.423 Y-28.706
N7275 X44.12 Y-28.262
N7280 X43.794 Y-27.833
N7285 X43.448 Y-27.421
N7290 X43.081 Y-27.027
N7295 X42.695 Y-26.651
N7300 X42.289 Y-26.295
N7305 X41.867 Y-25.958
N7310 X41.427 Y-25.643
N7315 X40.971 Y-25.35
N7320 X40.501 Y-25.08
N7325 X40.018 Y-24.833
N7330 X39.522 Y-24.611
N7335 X39.015 Y-24.413
N7340 X38.497 Y-24.24
N7345 X37.971 Y-24.094
N7350 X37.438 Y-23.973
N7355 X36.898 Y-23.879
N7360 X36.354 Y-23.813
N7365 X35.806 Y-23.773
N7370 X35.256 Y-23.761
N7375 X34.705 Y-23.776
N7380 X34.155 Y-23.819
N7385 X33.606 Y-23.889
N7390 X33.062 Y-23.987
N7395 X32.522 Y-24.112
N7400 X31.988 Y-24.264
N7405 X31.462 Y-24.443
N7410 X30.945 Y-24.648
N7415 X30.438 Y-24.879
N7420 X29.942 Y-25.136
N7425 X29.46 Y-25.417
N7430 X28.991 Y-25.722
N7435 X28.538 Y-26.05
N7440 X28.102 Y-26.401
N7445 X27.683 Y-26.774
N7450 X27.283 Y-27.168
N7455 X26.902 Y-27.581
N7460 X26.543 Y-28.014
N7465 X26.205 Y-28.464
N7470 X25.89 Y-28.931
N7475 X25.598 Y-29.413
N7480 X25.331 Y-29.91
N7485 X25.089 Y-30.419
N7490 X24.872 Y-30.941
N7495 X24.681 Y-31.473
N7500 X24.518 Y-32.014
N7505 X24.381 Y-32.563
N7510 X24.272 Y-33.118
N7515 X24.191 Y-33.678
N7520 X24.137 Y-34.242
N7525 X24.112 Y-34.808
N7530 X24.116 Y-35.375
N7535 X24.147 Y-35.941
N7540 X24.207 Y-36.505
N7545 X24.295 Y-37.066
N7550 X24.411 Y-37.621
N7555 X24.555 Y-38.171
N7560 X24.725 Y-38.712
N7565 X24.923 Y-39.245
N7570 X25.147 Y-39.767
N7575 X25.397 Y-40.277
N7580 X25.672 Y-40.774
N7585 X25.972 Y-41.257
N7590 X26.296 Y-41.725
N7595 X26.642 Y-42.175
N7600 X27.011 Y-42.608
N7605 X27.401 Y-43.023
N7610 X27.811 Y-43.417
N7615 X28.24 Y-43.79
N7620 X28.687 Y-44.141
N7625 X29.152 Y-44.47
N7630 X29.632 Y-44.775
N7635 X30.127 Y-45.056
N7640 X30.636 Y-45.311
N7645 X31.157 Y-45.541
N7650 X31.689 Y-45.745
N7655 X32.23 Y-45.922
N7660 X32.78 Y-46.072
N7665 X33.337 Y-46.194
N7670 X33.9 Y-46.289
N7675 X34.468 Y-46.355
N7680 X35.038 Y-46.393
N7685 X35.611 Y-46.402
N7690 X36.185 Y-46.382
N7695 X36.757 Y-46.334
N7700 X37.328 Y-46.258
N7705 X37.895 Y-46.152
N7710 X38.458 Y-46.018
N7715 X39.014 Y-45.856
N7720 X39.563 Y-45.666
N7725 X40.103 Y-45.448
N7730 X40.632 Y-45.203
N7735 X41.151 Y-44.931
N7740 X41.656 Y-44.633
N7745 X42.146 Y-44.309
N7750 X42.621 Y-43.96
N7755 X43.079 Y-43.587
N7760 X43.518 Y-43.192
N7765 X43.938 Y-42.774
N7770 X44.337 Y-42.335
N7775 X44.714 Y-41.876
N7780 X45.068 Y-41.398
N7785 X45.398 Y-40.903
N7790 X45.702 Y-40.392
N7795 X45.981 Y-39.866
N7800 X46.234 Y-39.327
N7805 X46.459 Y-38.776
N7810 X46.656 Y-38.215
N7815 X46.825 Y-37.644
N7820 X46.965 Y-37.066
N7825 X47.077 Y-36.482
N7830 X47.158 Y-35.894
N7835 X47.211 Y-35.303
N7840 X47.233 Y-34.71
N7845 X47.226 Y-34.117
N7850 X47.19 Y-33.525
N7855 X47.124 Y-32.937
N7860 X47.028 Y-32.352
N7865 X46.904 Y-31.774
N7870 X46.751 Y-31.202
N7875 X46.569 Y-30.639
N7880 X46.36 Y-30.086
N7885 X46.124 Y-29.544
N7890 X45.86 Y-29.014
N7895 X45.571 Y-28.498
N7900 X45.255 Y-27.997
N7905 X44.916 Y-27.512
N7910 X44.552 Y-27.044
N7915 X44.165 Y-26.595
N7920 X43.755 Y-26.166
N7925 X43.325 Y-25.757
N7930 X42.874 Y-25.369
N7935 X42.404 Y-25.005
N7940 X41.916 Y-24.664
N7945 X41.411 Y-24.347
N7950 X40.89 Y-24.056
N7955 X40.354 Y-23.791
N7960 X39.805 Y-23.553
N7965 X39.245 Y-23.342
N7970 X38.673 Y-23.159
N7975 X38.093 Y-23.004
N7980 X37.505 Y-22.879
N7985 X36.91 Y-22.783
N7990 X36.31 Y-22.717
N7995 X35.708 Y-22.68
N8000 X35.103 Y-22.674
N8005 X34.498 Y-22.698
N8010 X33.894 Y-22.753
N8015 X33.293 Y-22.837
N8020 X32.695 Y-22.952
N8025 X32.104 Y-23.096
N8030 X31.52 Y-23.27
N8035 X30.945 Y-23.474
N8040 X30.379 Y-23.706
N8045 X29.826 Y-23.966
N8050 X29.286 Y-24.254
N8055 X28.76 Y-24.568
N8060 X28.25 Y-24.91
N8065 X27.757 Y-25.276
N8070 X27.282 Y-25.667
N8075 X26.828 Y-26.081
N8080 X26.394 Y-26.519
N8085 X25.982 Y-26.977
N8090 X25.594 Y-27.456
N8095 X25.229 Y-27.954
N8100 X24.89 Y-28.47
N8105 X24.576 Y-29.003
N8110 X24.29 Y-29.551
N8115 X24.031 Y-30.113
N8120 X23.8 Y-30.688
N8125 X23.598 Y-31.274
N8130 X23.426 Y-31.869
N8135 X23.283 Y-32.473
N8140 X23.171 Y-33.083
N8145 X23.089 Y-33.698
N8150 X23.038 Y-34.317
N8155 X23.018 Y-34.938
N8160 X23.029 Y-35.559
N8165 X23.071 Y-36.179
N8170 X23.144 Y-36.797
N8175 X23.248 Y-37.41
N8180 X23.382 Y-38.017
N8185 X23.547 Y-38.618
N8190 X23.741 Y-39.209
N8195 X23.965 Y-39.79
N8200 X24.217 Y-40.359
N8205 X24.498 Y-40.915
N8210 X24.806 Y-41.456
N8215 X25.141 Y-41.982
N8220 X25.502 Y-42.49
N8225 X25.887 Y-42.979
N8230 X26.297 Y-43.449
N8235 X26.73 Y-43.898
N8240 X27.184 Y-44.324
N8245 X27.66 Y-44.728
N8250 X28.155 Y-45.107
N8255 X28.668 Y-45.461
N8260 X29.199 Y-45.789
N8265 X29.745 Y-46.09
N8270 X30.306 Y-46.364
N8275 X30.88 Y-46.609
N8280 X31.465 Y-46.825
N8285 X32.062 Y-47.012
N8290 X32.666 Y-47.169
N8295 X33.279 Y-47.296
N8300 X33.898 Y-47.392
N8305 X34.521 Y-47.457
N8310 X35.147 Y-47.491
N8315 X35.775 Y-47.494
N8320 X36.404 Y-47.465
N8325 X37.031 Y-47.405
N8330 X37.656 Y-47.313
N8335 X38.276 Y-47.19
N8340 X38.89 Y-47.036
N8345 X39.498 Y-46.851
N8350 X40.096 Y-46.635
N8355 X40.685 Y-46.39
N8360 X41.261 Y-46.114
N8365 X41.825 Y-45.81
N8370 X42.373 Y-45.477
N8375 X42.905 Y-45.117
N8380 X43.42 Y-44.729
N8385 X43.915 Y-44.316
N8390 X44.39 Y-43.878
N8395 X44.843 Y-43.416
N8400 X45.273 Y-42.931
N8405 X45.678 Y-42.425
N8410 X46.058 Y-41.899
N8415 X46.412 Y-41.355
N8420 X46.738 Y-40.793
N8425 X47.035 Y-40.216
N8430 X47.304 Y-39.624
N8435 X47.542 Y-39.02
N8440 X47.75 Y-38.404
N8445 X47.927 Y-37.779
N8450 X48.073 Y-37.147
N8455 X48.186 Y-36.508
N8460 X48.268 Y-35.864
N8465 X48.317 Y-35.218
N8470 X48.334 Y-34.57
N8475 X48.319 Y-33.922
N8480 X48.271 Y-33.277
N8485 X48.191 Y-32.634
N8490 X48.079 Y-31.997
N8495 X47.936 Y-31.366
N8500 X47.761 Y-30.743
N8505 X47.555 Y-30.13
N8510 X47.319 Y-29.528
N8515 X47.053 Y-28.938
N8520 X46.758 Y-28.363
N8525 X46.435 Y-27.802
N8530 X46.084 Y-27.259
N8535 X45.706 Y-26.733
N8540 X45.302 Y-26.227
N8545 X44.873 Y-25.741
N8550 X44.42 Y-25.277
N8555 X43.944 Y-24.835
N8560 X43.446 Y-24.418
N8565 X42.928 Y-24.026
N8570 X42.39 Y-23.659
N8575 X41.833 Y-23.32
N8580 X41.26 Y-23.009
N8585 X40.672 Y-22.726
N8590 X40.069 Y-22.473
N8595 X39.454 Y-22.25
N8600 X38.828 Y-22.057
N8605 X38.192 Y-21.896
N8610 X37.548 Y-21.767
N8615 X36.897 Y-21.67
N8620 X36.242 Y-21.606
N8625 X35.584 Y-21.574
N8630 X34.924 Y-21.575
N8635 X34.264 Y-21.609
N8640 X33.605 Y-21.677
N8645 X32.951 Y-21.777
N8650 X32.301 Y-21.91
N8655 X31.658 Y-22.075
N8660 X31.023 Y-22.272
N8665 X30.398 Y-22.502
N8670 X29.785 Y-22.762
N8675 X29.185 Y-23.053
N8680 X28.6 Y-23.374
N8685 X28.031 Y-23.724
N8690 X27.479 Y-24.102
N8695 X26.947 Y-24.508
N8700 X26.435 Y-24.94
N8705 X25.945 Y-25.398
N8710 X25.478 Y-25.88
N8715 X25.036 Y-26.385
N8720 X24.618 Y-26.912
N8725 X24.228 Y-27.459
N8730 X23.865 Y-28.026
N8735 X23.53 Y-28.61
N8740 X23.225 Y-29.211
N8745 X22.951 Y-29.827
N8750 X22.707 Y-30.456
N8755 X22.495 Y-31.096
N8760 X22.315 Y-31.747
N8765 X22.167 Y-32.406
N8770 X22.053 Y-33.072
N8775 X21.972 Y-33.743
N8780 X21.925 Y-34.418
N8785 X21.911 Y-35.094
N8790 X21.931 Y-35.77
N8795 X21.985 Y-36.445
N8800 X22.073 Y-37.116
N8805 X22.194 Y-37.783
N8810 X22.348 Y-38.442
N8815 X22.535 Y-39.093
N8820 X22.754 Y-39.735
N8825 X23.005 Y-40.364
N8830 X23.288 Y-40.981
N8835 X23.601 Y-41.582
N8840 X23.943 Y-42.168
N8845 X24.315 Y-42.735
N8850 X24.714 Y-43.284
N8855 X25.14 Y-43.812
N8860 X25.592 Y-44.318
N8865 X26.069 Y-44.8
N8870 X26.57 Y-45.259
N8875 X27.093 Y-45.692
N8880 X27.636 Y-46.098
N8885 X28.2 Y-46.477
N8890 X28.782 Y-46.827
N8895 X29.381 Y-47.148
N8900 X29.995 Y-47.438
N8905 X30.623 Y-47.698
N8910 X31.264 Y-47.926
N8915 X31.915 Y-48.122
N8920 X32.576 Y-48.285
N8925 X33.245 Y-48.415
N8930 X33.92 Y-48.511
N8935 X34.6 Y-48.574
N8940 X35.283 Y-48.603
N8945 X35.967 Y-48.597
N8950 X36.651 Y-48.558
N8955 X37.333 Y-48.484
N8960 X38.012 Y-48.376
N8965 X38.685 Y-48.234
N8970 X39.352 Y-48.058
N8975 X40.011 Y-47.849
N8980 X40.659 Y-47.607
N8985 X41.296 Y-47.332
N8990 X41.92 Y-47.025
N8995 X42.528 Y-46.687
N9000 X43.12 Y-46.318
N9005 X43.693 Y-45.919
N9010 X44.247 Y-45.492
N9015 X44.78 Y-45.037
N9020 X45.289 Y-44.555
N9025 X45.775 Y-44.047
N9030 X46.235 Y-43.516
N9035 X46.668 Y-42.962
N9040 X47.074 Y-42.386
N9045 X47.45 Y-41.791
N9050 X47.796 Y-41.177
N9055 X48.112 Y-40.547
N9060 X48.395 Y-39.901
N9065 X48.646 Y-39.243
N9070 X48.864 Y-38.572
N9075 X49.048 Y-37.892
N9080 X49.197 Y-37.204
N9085 X49.312 Y-36.509
N9090 X49.392 Y-35.809
N9095 X49.437 Y-35.107
N9100 X49.447 Y-34.403
N9105 X49.422 Y-33.7
N9110 X49.362 Y-33.
N9115 X49.267 Y-32.303
N9120 X49.137 Y-31.613
N9125 X48.973 Y-30.929
N9130 X48.775 Y-30.255
N9135 X48.544 Y-29.592
N9140 X48.279 Y-28.941
N9145 X47.983 Y-28.304
N9150 X47.655 Y-27.682
N9155 X47.296 Y-27.078
N9160 X46.908 Y-26.492
N9165 X46.49 Y-25.925
N9170 X46.045 Y-25.381
N9175 X45.572 Y-24.858
N9180 X45.074 Y-24.36
N9185 X44.551 Y-23.887
N9190 X44.005 Y-23.44
N9195 X43.437 Y-23.021
N9200 X42.848 Y-22.63
N9205 X42.239 Y-22.269
N9210 X41.613 Y-21.938
N9215 X40.97 Y-21.639
N9220 X40.313 Y-21.372
N9225 X39.642 Y-21.138
N9230 X38.96 Y-20.937
N9235 X38.267 Y-20.77
N9240 X37.567 Y-20.639
N9245 X36.86 Y-20.542
N9250 X36.148 Y-20.48
N9255 X35.433 Y-20.455
N9260 X34.717 Y-20.465
N9265 X34.002 Y-20.51
N9270 X33.289 Y-20.592
N9275 X32.58 Y-20.709
N9280 X31.877 Y-20.861
N9285 X31.182 Y-21.049
N9290 X30.497 Y-21.271
N9295 X29.823 Y-21.528
N9300 X29.161 Y-21.818
N9305 X28.515 Y-22.141
N9310 X27.885 Y-22.497
N9315 X27.273 Y-22.883
N9320 X26.68 Y-23.3
N9325 X26.108 Y-23.747
N9330 X25.559 Y-24.222
N9335 X25.035 Y-24.724
N9340 X24.535 Y-25.252
N9345 X24.062 Y-25.805
N9350 X23.617 Y-26.381
N9355 X23.201 Y-26.979
N9360 X22.816 Y-27.598
N9365 X22.461 Y-28.235
N9370 X22.138 Y-28.89
N9375 X21.849 Y-29.56
N9380 X21.593 Y-30.244
N9385 X21.372 Y-30.941
N9390 X21.185 Y-31.647
N9395 X21.034 Y-32.363
N9400 X20.919 Y-33.086
N9405 X20.84 Y-33.813
N9410 X20.797 Y-34.544
N9415 X20.792 Y-35.277
N9420 X20.822 Y-36.009
N9425 X20.889 Y-36.738
N9430 X20.993 Y-37.464
N9435 X21.133 Y-38.184
N9440 X21.308 Y-38.896
N9445 X21.519 Y-39.599
N9450 X21.765 Y-40.29
N9455 X22.045 Y-40.968
N9460 X22.359 Y-41.632
N9465 X22.705 Y-42.279
N9470 X23.083 Y-42.908
N9475 X23.493 Y-43.518
N9480 X23.932 Y-44.106
N9485 X24.401 Y-44.672
N9490 X24.897 Y-45.214
N9495 X25.419 Y-45.731
N9500 X25.967 Y-46.22
N9505 X26.539 Y-46.682
N9510 X27.133 Y-47.115
N9515 X27.748 Y-47.518
N9520 X28.382 Y-47.889
N9525 X29.035 Y-48.229
N9530 X29.704 Y-48.535
N9535 X30.387 Y-48.808
N9540 X31.084 Y-49.047
N9545 X31.792 Y-49.25
N9550 X32.51 Y-49.419
N9555 X33.236 Y-49.551
N9560 X33.968 Y-49.646
N9565 X34.705 Y-49.706
N9570 X35.445 Y-49.728
N9575 X36.186 Y-49.713
N9580 X36.926 Y-49.661
N9585 X37.664 Y-49.573
N9590 X38.397 Y-49.447
N9595 X39.124 Y-49.284
N9600 X39.844 Y-49.086
N9605 X40.554 Y-48.851
N9610 X41.252 Y-48.58
N9615 X41.937 Y-48.275
N9620 X42.607 Y-47.935
N9625 X43.26 Y-47.561
N9630 X43.895 Y-47.155
N9635 X44.51 Y-46.716
N9640 X45.103 Y-46.247
N9645 X45.672 Y-45.749
N9650 X46.216 Y-45.222
N9655 X46.734 Y-44.668
N9660 X47.224 Y-44.088
N9665 X47.684 Y-43.484
N9670 X48.114 Y-42.858
N9675 X48.513 Y-42.21
N9680 X48.879 Y-41.543
N9685 X49.211 Y-40.859
N9690 X49.508 Y-40.159
N9695 X49.771 Y-39.445
N9700 X49.997 Y-38.718
N9705 X50.186 Y-37.981
N9710 X50.339 Y-37.236
N9715 X50.454 Y-36.485
N9720 X50.532 Y-35.728
N9725 X50.571 Y-34.969
N9730 X50.573 Y-34.21
N9735 X50.537 Y-33.451
N9740 X50.462 Y-32.695
N9745 X50.351 Y-31.944
N9750 X50.201 Y-31.199
N9755 X50.015 Y-30.463
N9760 X49.793 Y-29.737
N9765 X49.534 Y-29.024
N9770 X49.24 Y-28.324
N9775 X48.912 Y-27.639
N9780 X48.549 Y-26.972
N9785 X48.154 Y-26.323
N9790 X47.726 Y-25.695
N9795 X47.268 Y-25.089
N9800 X46.779 Y-24.506
N9805 X46.262 Y-23.947
N9810 X45.717 Y-23.415
N9815 X45.146 Y-22.911
N9820 X44.551 Y-22.435
N9825 X43.931 Y-21.99
N9830 X43.29 Y-21.575
N9835 X42.628 Y-21.193
N9840 X41.947 Y-20.844
N9845 X41.249 Y-20.529
N9850 X40.536 Y-20.249
N9855 X39.808 Y-20.005
N9860 X39.069 Y-19.797
N9865 X38.319 Y-19.627
N9870 X37.561 Y-19.493
N9875 X36.797 Y-19.398
N9880 X36.028 Y-19.341
N9885 X35.256 Y-19.322
N9890 X34.484 Y-19.342
N9895 X33.712 Y-19.401
N9900 X32.944 Y-19.498
N9905 X32.181 Y-19.634
N9910 X31.425 Y-19.807
N9915 X30.678 Y-20.019
N9920 X29.941 Y-20.267
N9925 X29.217 Y-20.553
N9930 X28.508 Y-20.874
N9935 X27.815 Y-21.231
N9940 X27.14 Y-21.622
N9945 X26.485 Y-22.047
N9950 X25.851 Y-22.505
N9955 X25.241 Y-22.994
N9960 X24.655 Y-23.513
N9965 X24.096 Y-24.061
N9970 X23.565 Y-24.637
N9975 X23.062 Y-25.239
N9980 X22.59 Y-25.865
N9985 X22.149 Y-26.515
N9990 X21.742 Y-27.187
N9995 X21.368 Y-27.878
N10000 X21.029 Y-28.588
N10005 X20.725 Y-29.314
N10010 X20.459 Y-30.054
N10015 X20.229 Y-30.807
N10020 X20.037 Y-31.571
N10025 X19.884 Y-32.344
N10030 X19.769 Y-33.124
N10035 X19.693 Y-33.909
N10040 X19.657 Y-34.698
N10045 X19.66 Y-35.487
N10050 X19.703 Y-36.275
N10055 X19.784 Y-37.06
N10060 X19.905 Y-37.841
N10065 X20.065 Y-38.614
N10070 X20.263 Y-39.379
N10075 X20.5 Y-40.133
N10080 X20.773 Y-40.875
N10085 X21.084 Y-41.602
N10090 X21.43 Y-42.313
N10095 X21.812 Y-43.006
N10100 X22.228 Y-43.678
N10105 X22.677 Y-44.33
N10110 X23.158 Y-44.958
N10115 X23.669 Y-45.562
N10120 X24.211 Y-46.139
N10125 X24.78 Y-46.688
N10130 X25.377 Y-47.209
N10135 X25.999 Y-47.699
N10140 X26.644 Y-48.158
N10145 X27.312 Y-48.584
N10150 X28. Y-48.976
N10155 X28.708 Y-49.333
N10160 X29.432 Y-49.655
N10165 X30.172 Y-49.94
N10170 X30.926 Y-50.188
N10175 X31.692 Y-50.398
N10180 X32.468 Y-50.57
N10185 X33.252 Y-50.703
N10190 X34.042 Y-50.797
N10195 X34.837 Y-50.851
N10200 X35.634 Y-50.865
N10205 X36.432 Y-50.84
N10210 X37.229 Y-50.775
N10215 X38.022 Y-50.669
N10220 X38.81 Y-50.525
N10225 X39.592 Y-50.34
N10230 X40.364 Y-50.117
N10235 X41.125 Y-49.855
N10240 X41.873 Y-49.555
N10245 X42.606 Y-49.217
N10250 X43.323 Y-48.842
N10255 X44.021 Y-48.432
N10260 X44.698 Y-47.987
N10265 X45.354 Y-47.508
N10270 X45.985 Y-46.996
N10275 X46.59 Y-46.452
N10280 X47.169 Y-45.879
N10285 X47.718 Y-45.277
N10290 X48.237 Y-44.647
N10295 X48.724 Y-43.992
N10300 X49.178 Y-43.313
N10305 X49.598 Y-42.613
N10310 X49.983 Y-41.891
N10315 X50.331 Y-41.152
N10320 X50.642 Y-40.395
N10325 X50.914 Y-39.624
N10330 X51.148 Y-38.841
N10335 X51.342 Y-38.047
N10340 X51.496 Y-37.244
N10345 X51.61 Y-36.435
N10350 X51.684 Y-35.621
N10355 X51.717 Y-34.805
N10360 X51.709 Y-33.988
N10365 X51.66 Y-33.173
N10370 X51.57 Y-32.361
N10375 X51.44 Y-31.555
N10380 X51.27 Y-30.756
N10385 X51.061 Y-29.967
N10390 X50.812 Y-29.19
N10395 X50.525 Y-28.426
N10400 X50.2 Y-27.677
N10405 X49.838 Y-26.945
N10410 X49.439 Y-26.232
N10415 X49.006 Y-25.54
N10420 X48.538 Y-24.87
N10425 X48.037 Y-24.224
N10430 X47.504 Y-23.603
N10435 X46.941 Y-23.01
N10440 X46.349 Y-22.445
N10445 X45.728 Y-21.91
N10450 X45.081 Y-21.406
N10455 X44.41 Y-20.935
N10460 X43.715 Y-20.498
N10465 X42.998 Y-20.095
N10470 X42.262 Y-19.729
N10475 X41.508 Y-19.4
N10480 X40.738 Y-19.108
N10485 X39.953 Y-18.855
N10490 X39.293 Y-18.679
N10495 X39.213 Y-18.66
N10500 X38.913 Y-18.598
N10505 X38.008 Y-18.457
N10510 X37.281 Y-18.338
N10515 X37.104 Y-18.318
N10520 X37.046 Y-18.313
N10525 G3 X36.456 Y-18.72 Z-9.337 I-0.022 J-0.6 F600.
N10530 G1 X36.434 Y-18.804 Z-9.318 F1200.
N10535 X36.425 Y-18.89 Z-9.3
N10540 G3 X36.933 Y-19.506 I0.6 J-0.023
N10545 G1 X38.679 Y-19.774
N10550 G3 X39.353 Y-19.323 I0.091 J0.593
N10555 G1 X39.367 Y-19.237 Z-9.318
N10560 X39.369 Y-19.15 Z-9.337
N10565 G3 X38.913 Y-18.598 Z-9.5 I-0.599 J-0.03 F600.
N10570 G1 X37.872 Y-18.382 F1200.
N10575 X37.664 Y-18.358
N10580 X37.04 Y-18.313
N10585 X35.792 Y-18.227
N10590 X35.584 Y-18.222
N10595 X34.96 Y-18.245
N10600 X34.544 Y-18.273
N10605 X33.712 Y-18.33
N10610 X33.504 Y-18.345
N10615 X32.879 Y-18.439
N10620 X32.662 Y-18.478
N10625 X31.423 Y-18.736
N10630 X31.215 Y-18.79
N10635 X30.799 Y-18.904
N10640 X30.591 Y-18.965
N10645 X29.343 Y-19.408
N10650 X29.135 Y-19.488
N10655 X28.511 Y-19.754
N10660 X28.303 Y-19.861
N10665 X27.054 Y-20.508
N10670 X26.846 Y-20.619
N10675 X26.638 Y-20.749
N10680 X24.974 Y-21.923
N10685 X24.866 Y-22.011
N10690 X24.766 Y-22.102
N10695 X23.305 Y-23.466
N10700 X23.117 Y-23.674
N10705 X22.062 Y-24.972
N10710 X21.645 Y-25.56
N10715 X21.516 Y-25.752
N10720 X20.632 Y-27.207
N10725 X20.605 Y-27.261
N10730 X20.349 Y-27.83
N10735 X19.773 Y-29.155
N10740 X19.719 Y-29.285
N10745 X19.53 Y-29.908
N10750 X19.47 Y-30.116
N10755 X19.12 Y-31.363
N10760 X19.079 Y-31.571
N10765 X19.009 Y-31.987
N10770 X18.975 Y-32.194
N10775 X18.803 Y-33.441
N10780 X18.782 Y-33.649
N10785 X18.748 Y-34.273
N10790 X18.747 Y-34.48
N10795 Y-35.52
N10800 X18.748 Y-35.727
N10805 X18.782 Y-36.351
N10810 X18.803 Y-36.559
N10815 X18.975 Y-37.806
N10820 X19.009 Y-38.013
N10825 X19.079 Y-38.429
N10830 X19.12 Y-38.637
N10835 X19.47 Y-39.884
N10840 X19.53 Y-40.092
N10845 X19.719 Y-40.715
N10850 X19.773 Y-40.845
N10855 X20.349 Y-42.17
N10860 X20.605 Y-42.739
N10865 X20.632 Y-42.793
N10870 X21.516 Y-44.248
N10875 X21.657 Y-44.456
N10880 X22.062 Y-45.028
N10885 X23.117 Y-46.326
N10890 X23.305 Y-46.534
N10895 X24.766 Y-47.898
N10900 X24.866 Y-47.989
N10905 X24.974 Y-48.077
N10910 X26.638 Y-49.251
N10915 X26.846 Y-49.381
N10920 X27.054 Y-49.492
N10925 X28.303 Y-50.139
N10930 X28.511 Y-50.246
N10935 X29.135 Y-50.512
N10940 X29.343 Y-50.592
N10945 X30.591 Y-51.035
N10950 X30.799 Y-51.096
N10955 X31.215 Y-51.21
N10960 X31.423 Y-51.264
N10965 X32.671 Y-51.523
N10970 X32.879 Y-51.561
N10975 X33.504 Y-51.655
N10980 X33.712 Y-51.67
N10985 X34.752 Y-51.741
N10990 X34.96 Y-51.755
N10995 X35.584 Y-51.778
N11000 X35.792 Y-51.773
N11005 X37.04 Y-51.687
N11010 X37.664 Y-51.642
N11015 X37.872 Y-51.618
N11020 X39.745 Y-51.229
N11025 X39.953 Y-51.185
N11030 X40.189 Y-51.106
N11035 X40.577 Y-50.974
N11040 X40.795 Y-50.898
N11045 X42.033 Y-50.458
N11050 X42.241 Y-50.364
N11055 X42.865 Y-50.052
N11060 X43.489 Y-49.729
N11065 X44.113 Y-49.402
N11070 X44.321 Y-49.28
N11075 X45.57 Y-48.399
N11080 X45.778 Y-48.246
N11085 X46.194 Y-47.928
N11090 X46.36 Y-47.781
N11095 X47.695 Y-46.534
N11100 X47.858 Y-46.357
N11105 X48.898 Y-45.078
N11110 X49.222 Y-44.664
N11115 X49.314 Y-44.527
N11120 X50.242 Y-43.001
N11125 X50.357 Y-42.793
N11130 X50.651 Y-42.17
N11135 X51.193 Y-40.923
N11140 X51.281 Y-40.715
N11145 X51.413 Y-40.299
N11150 X51.88 Y-38.637
N11155 X51.921 Y-38.429
N11160 X52.019 Y-37.852
N11165 X52.197 Y-36.559
N11170 X52.218 Y-36.351
N11175 X52.252 Y-35.727
N11180 X52.253 Y-35.52
N11185 Y-34.48
N11190 X52.252 Y-34.273
N11195 X52.218 Y-33.649
N11200 X52.197 Y-33.441
N11205 X52.019 Y-32.148
N11210 X51.921 Y-31.571
N11215 X51.88 Y-31.363
N11220 X51.413 Y-29.701
N11225 X51.281 Y-29.285
N11230 X51.187 Y-29.063
N11235 X50.651 Y-27.83
N11240 X50.355 Y-27.203
N11245 X50.242 Y-26.999
N11250 X49.314 Y-25.473
N11255 X49.222 Y-25.336
N11260 X48.898 Y-24.922
N11265 X47.858 Y-23.643
N11270 X47.695 Y-23.466
N11275 X46.36 Y-22.219
N11280 X46.194 Y-22.072
N11285 X45.778 Y-21.754
N11290 X45.562 Y-21.596
N11295 X44.321 Y-20.72
N11300 X44.113 Y-20.598
N11305 X43.489 Y-20.271
N11310 X42.837 Y-19.933
N11315 X42.241 Y-19.636
N11320 X42.033 Y-19.542
N11325 X40.785 Y-19.098
N11330 X40.577 Y-19.026
N11335 X40.161 Y-18.884
N11340 X39.953 Y-18.815
N11345 X39.537 Y-18.728
N11350 X39.213 Y-18.66
N11355 G3 X38.566 Y-19.001 I-0.102 J-0.591 F600.
N11360 G1 X38.527 Y-19.086 Z-9.493
N11365 X38.489 Y-19.169 Z-9.471
N11370 X38.452 Y-19.248 Z-9.435
N11375 X38.419 Y-19.321 Z-9.385
N11380 X38.389 Y-19.386 Z-9.324
N11385 X38.363 Y-19.441 Z-9.253
N11390 X38.342 Y-19.486 Z-9.172
N11395 X38.327 Y-19.519 Z-9.085
N11400 X38.318 Y-19.539 Z-8.994
N11405 X38.315 Y-19.545 Z-8.9
N11410 G0 Z15.
(2D CONTOUR1)
N11415 G0 X31.6 Y-45.
N11420 Z15.
N11425 Z5.
N11430 G1 Z1. F400.
N11435 G18 G2 X41.6 Z-9. I10. K0. F600.
N11440 G17
N11445 G1 G41 X42.2 Y-48.3 D17
N11450 G3 X55.5 Y-35. I0. J13.3
N11455 X15.5 I-20. J0. F1200.
N11460 X55.5 I20. J0.
N11465 X42.2 Y-21.7 I-13.3 J0. F600.
N11470 G1 G40 X41.6 Y-25.
N11475 G18 G3 X31.6 Z1. I0. K10.
N11480 G0 Z5.
N11485 X26. Y22.9
N11490 G1 Z1. F400.
N11495 G19 G2 Y12.9 Z-9. J-10. K0. F600.
N11500 G17
N11505 G1 G41 X22.7 Y12.3 D17
N11510 G3 X36. Y-1. I13.3 J0.
N11515 G1 X65. F1200.
N11520 G2 X70. Y-6. I0. J-5.
N11525 G1 Y-64.
N11530 G2 X65. Y-69. I-5. J0.
N11535 G1 X7.
N11540 G2 X2. Y-64. I0. J5.
N11545 G1 Y-6.
N11550 G2 X7. Y-1. I5. J0.
N11555 G1 X36.
N11560 G3 X49.3 Y12.3 I0. J13.3 F600.
N11565 G1 G40 X46. Y12.9
N11570 G19 G3 Y22.9 Z1. J0. K10.
N11575 G0 Z15.
N11580 G17
N11585 M9
N11590 M5
N11595 G53 G0 Z0.
(DRILL1)
N11600 M1
N11605 T2 M6
N11610 T42
N11615 S7000 M3
N11620 G54
N11625 M7
N11630 G0 X57.774 Y-57.274
N11635 G43 Z15. H2
N11640 G0 Z5.
N11645 G98 G81 X57.774 Y-57.274 Z-3.7 R4. F333.33
N11650 X62.75 Y-51.
N11655 Y-19.
N11660 X57.774 Y-12.726
N11665 X13.226
N11670 X9.25 Y-19.
N11675 Y-51.
N11680 X13.226 Y-57.274
N11685 G80
N11690 G0 Z15.
N11695 M9
N11700 M5
N11705 G53 Z0.
(DRILL1 2)
N11710 M1
N11715 T42 M6
N11720 T24
N11725 S6769 M3
N11730 G54
N11735 M8
N11740 G0 X57.774 Y-57.274
N11745 G43 Z15. H42
N11750 G0 Z5.
N11755 G83 X57.774 Y-57.274 Z-16.262 R4. Q3. F436.59
N11760 X62.75 Y-51.
N11765 Y-19.
N11770 X57.774 Y-12.726
N11775 X13.226
N11780 X9.25 Y-19.
N11785 Y-51.
N11790 X13.226 Y-57.274
N11795 G80
N11800 G0 Z15.
N11805 M5
N11810 G53 Z0.
(THREAD1)
N11815 M9
N11820 M1
N11825 T24 M6
N11830 T1
N11835 S7000 M3
N11840 G54
N11845 M8
N11850 G0 X13.226 Y-57.274
N11855 G43 Z15. H24
N11860 G0 Z-8.1
N11865 G1 Z-10.1 F560.
N11870 X13.514 Y-57.561
N11875 G3 X13.801 Y-57.274 Z-10. I0. J0.287
N11880 X12.651 Z-9.6 I-0.575 J0.
N11885 X13.801 Z-9.2 I0.575 J0.
N11890 X12.651 Z-8.8 I-0.575 J0.
N11895 X13.801 Z-8.4 I0.575 J0.
N11900 X12.651 Z-8. I-0.575 J0.
N11905 X13.801 Z-7.6 I0.575 J0.
N11910 X12.651 Z-7.2 I-0.575 J0.
N11915 X13.801 Z-6.8 I0.575 J0.
N11920 X12.651 Z-6.4 I-0.575 J0.
N11925 X13.801 Z-6. I0.575 J0.
N11930 X12.651 Z-5.6 I-0.575 J0.
N11935 X13.801 Z-5.2 I0.575 J0.
N11940 X12.651 Z-4.8 I-0.575 J0.
N11945 X13.801 Z-4.4 I0.575 J0.
N11950 X12.651 Z-4. I-0.575 J0.
N11955 X13.801 Z-3.6 I0.575 J0.
N11960 X12.651 Z-3.2 I-0.575 J0.
N11965 X13.801 Z-2.8 I0.575 J0.
N11970 X12.651 Z-2.4 I-0.575 J0.
N11975 X13.801 Z-2. I0.575 J0.
N11980 X12.651 Z-1.6 I-0.575 J0.
N11985 X13.801 Z-1.2 I0.575 J0.
N11990 X13.226 Y-56.699 Z-1. I-0.575 J0.
N11995 X12.939 Y-56.986 Z-0.9 I0. J-0.287
N12000 G1 X13.226 Y-57.274
N12005 G0 Z5.
N12010 X9.25 Y-51.
N12015 Z-8.1
N12020 G1 Z-10.1 F560.
N12025 X9.538 Y-51.287
N12030 G3 X9.825 Y-51. Z-10. I0. J0.287
N12035 X8.675 Z-9.6 I-0.575 J0.
N12040 X9.825 Z-9.2 I0.575 J0.
N12045 X8.675 Z-8.8 I-0.575 J0.
N12050 X9.825 Z-8.4 I0.575 J0.
N12055 X8.675 Z-8. I-0.575 J0.
N12060 X9.825 Z-7.6 I0.575 J0.
N12065 X8.675 Z-7.2 I-0.575 J0.
N12070 X9.825 Z-6.8 I0.575 J0.
N12075 X8.675 Z-6.4 I-0.575 J0.
N12080 X9.825 Z-6. I0.575 J0.
N12085 X8.675 Z-5.6 I-0.575 J0.
N12090 X9.825 Z-5.2 I0.575 J0.
N12095 X8.675 Z-4.8 I-0.575 J0.
N12100 X9.825 Z-4.4 I0.575 J0.
N12105 X8.675 Z-4. I-0.575 J0.
N12110 X9.825 Z-3.6 I0.575 J0.
N12115 X8.675 Z-3.2 I-0.575 J0.
N12120 X9.825 Z-2.8 I0.575 J0.
N12125 X8.675 Z-2.4 I-0.575 J0.
N12130 X9.825 Z-2. I0.575 J0.
N12135 X8.675 Z-1.6 I-0.575 J0.
N12140 X9.825 Z-1.2 I0.575 J0.
N12145 X9.25 Y-50.425 Z-1. I-0.575 J0.
N12150 X8.962 Y-50.713 Z-0.9 I0. J-0.288
N12155 G1 X9.25 Y-51.
N12160 G0 Z5.
N12165 Y-19.
N12170 Z-8.1
N12175 G1 Z-10.1 F560.
N12180 X9.538 Y-19.288
N12185 G3 X9.825 Y-19. Z-10. I0. J0.288
N12190 X8.675 Z-9.6 I-0.575 J0.
N12195 X9.825 Z-9.2 I0.575 J0.
N12200 X8.675 Z-8.8 I-0.575 J0.
N12205 X9.825 Z-8.4 I0.575 J0.
N12210 X8.675 Z-8. I-0.575 J0.
N12215 X9.825 Z-7.6 I0.575 J0.
N12220 X8.675 Z-7.2 I-0.575 J0.
N12225 X9.825 Z-6.8 I0.575 J0.
N12230 X8.675 Z-6.4 I-0.575 J0.
N12235 X9.825 Z-6. I0.575 J0.
N12240 X8.675 Z-5.6 I-0.575 J0.
N12245 X9.825 Z-5.2 I0.575 J0.
N12250 X8.675 Z-4.8 I-0.575 J0.
N12255 X9.825 Z-4.4 I0.575 J0.
N12260 X8.675 Z-4. I-0.575 J0.
N12265 X9.825 Z-3.6 I0.575 J0.
N12270 X8.675 Z-3.2 I-0.575 J0.
N12275 X9.825 Z-2.8 I0.575 J0.
N12280 X8.675 Z-2.4 I-0.575 J0.
N12285 X9.825 Z-2. I0.575 J0.
N12290 X8.675 Z-1.6 I-0.575 J0.
N12295 X9.825 Z-1.2 I0.575 J0.
N12300 X9.25 Y-18.425 Z-1. I-0.575 J0.
N12305 X8.962 Y-18.712 Z-0.9 I0. J-0.288
N12310 G1 X9.25 Y-19.
N12315 G0 Z5.
N12320 X13.226 Y-12.726
N12325 Z-8.1
N12330 G1 Z-10.1 F560.
N12335 X13.514 Y-13.014
N12340 G3 X13.801 Y-12.726 Z-10. I0. J0.288
N12345 X12.651 Z-9.6 I-0.575 J0.
N12350 X13.801 Z-9.2 I0.575 J0.
N12355 X12.651 Z-8.8 I-0.575 J0.
N12360 X13.801 Z-8.4 I0.575 J0.
N12365 X12.651 Z-8. I-0.575 J0.
N12370 X13.801 Z-7.6 I0.575 J0.
N12375 X12.651 Z-7.2 I-0.575 J0.
N12380 X13.801 Z-6.8 I0.575 J0.
N12385 X12.651 Z-6.4 I-0.575 J0.
N12390 X13.801 Z-6. I0.575 J0.
N12395 X12.651 Z-5.6 I-0.575 J0.
N12400 X13.801 Z-5.2 I0.575 J0.
N12405 X12.651 Z-4.8 I-0.575 J0.
N12410 X13.801 Z-4.4 I0.575 J0.
N12415 X12.651 Z-4. I-0.575 J0.
N12420 X13.801 Z-3.6 I0.575 J0.
N12425 X12.651 Z-3.2 I-0.575 J0.
N12430 X13.801 Z-2.8 I0.575 J0.
N12435 X12.651 Z-2.4 I-0.575 J0.
N12440 X13.801 Z-2. I0.575 J0.
N12445 X12.651 Z-1.6 I-0.575 J0.
N12450 X13.801 Z-1.2 I0.575 J0.
N12455 X13.226 Y-12.151 Z-1. I-0.575 J0.
N12460 X12.939 Y-12.439 Z-0.9 I0. J-0.288
N12465 G1 X13.226 Y-12.726
N12470 G0 Z5.
N12475 X57.774
N12480 Z-8.1
N12485 G1 Z-10.1 F560.
N12490 X58.061 Y-13.014
N12495 G3 X58.349 Y-12.726 Z-10. I0. J0.288
N12500 X57.199 Z-9.6 I-0.575 J0.
N12505 X58.349 Z-9.2 I0.575 J0.
N12510 X57.199 Z-8.8 I-0.575 J0.
N12515 X58.349 Z-8.4 I0.575 J0.
N12520 X57.199 Z-8. I-0.575 J0.
N12525 X58.349 Z-7.6 I0.575 J0.
N12530 X57.199 Z-7.2 I-0.575 J0.
N12535 X58.349 Z-6.8 I0.575 J0.
N12540 X57.199 Z-6.4 I-0.575 J0.
N12545 X58.349 Z-6. I0.575 J0.
N12550 X57.199 Z-5.6 I-0.575 J0.
N12555 X58.349 Z-5.2 I0.575 J0.
N12560 X57.199 Z-4.8 I-0.575 J0.
N12565 X58.349 Z-4.4 I0.575 J0.
N12570 X57.199 Z-4. I-0.575 J0.
N12575 X58.349 Z-3.6 I0.575 J0.
N12580 X57.199 Z-3.2 I-0.575 J0.
N12585 X58.349 Z-2.8 I0.575 J0.
N12590 X57.199 Z-2.4 I-0.575 J0.
N12595 X58.349 Z-2. I0.575 J0.
N12600 X57.199 Z-1.6 I-0.575 J0.
N12605 X58.349 Z-1.2 I0.575 J0.
N12610 X57.774 Y-12.151 Z-1. I-0.575 J0.
N12615 X57.486 Y-12.439 Z-0.9 I0. J-0.288
N12620 G1 X57.774 Y-12.726
N12625 G0 Z5.
N12630 X62.75 Y-19.
N12635 Z-8.1
N12640 G1 Z-10.1 F560.
N12645 X63.037 Y-19.288
N12650 G3 X63.325 Y-19. Z-10. I0. J0.288
N12655 X62.175 Z-9.6 I-0.575 J0.
N12660 X63.325 Z-9.2 I0.575 J0.
N12665 X62.175 Z-8.8 I-0.575 J0.
N12670 X63.325 Z-8.4 I0.575 J0.
N12675 X62.175 Z-8. I-0.575 J0.
N12680 X63.325 Z-7.6 I0.575 J0.
N12685 X62.175 Z-7.2 I-0.575 J0.
N12690 X63.325 Z-6.8 I0.575 J0.
N12695 X62.175 Z-6.4 I-0.575 J0.
N12700 X63.325 Z-6. I0.575 J0.
N12705 X62.175 Z-5.6 I-0.575 J0.
N12710 X63.325 Z-5.2 I0.575 J0.
N12715 X62.175 Z-4.8 I-0.575 J0.
N12720 X63.325 Z-4.4 I0.575 J0.
N12725 X62.175 Z-4. I-0.575 J0.
N12730 X63.325 Z-3.6 I0.575 J0.
N12735 X62.175 Z-3.2 I-0.575 J0.
N12740 X63.325 Z-2.8 I0.575 J0.
N12745 X62.175 Z-2.4 I-0.575 J0.
N12750 X63.325 Z-2. I0.575 J0.
N12755 X62.175 Z-1.6 I-0.575 J0.
N12760 X63.325 Z-1.2 I0.575 J0.
N12765 X62.75 Y-18.425 Z-1. I-0.575 J0.
N12770 X62.463 Y-18.712 Z-0.9 I0. J-0.288
N12775 G1 X62.75 Y-19.
N12780 G0 Z5.
N12785 Y-51.
N12790 Z-8.1
N12795 G1 Z-10.1 F560.
N12800 X63.037 Y-51.287
N12805 G3 X63.325 Y-51. Z-10. I0. J0.287
N12810 X62.175 Z-9.6 I-0.575 J0.
N12815 X63.325 Z-9.2 I0.575 J0.
N12820 X62.175 Z-8.8 I-0.575 J0.
N12825 X63.325 Z-8.4 I0.575 J0.
N12830 X62.175 Z-8. I-0.575 J0.
N12835 X63.325 Z-7.6 I0.575 J0.
N12840 X62.175 Z-7.2 I-0.575 J0.
N12845 X63.325 Z-6.8 I0.575 J0.
N12850 X62.175 Z-6.4 I-0.575 J0.
N12855 X63.325 Z-6. I0.575 J0.
N12860 X62.175 Z-5.6 I-0.575 J0.
N12865 X63.325 Z-5.2 I0.575 J0.
N12870 X62.175 Z-4.8 I-0.575 J0.
N12875 X63.325 Z-4.4 I0.575 J0.
N12880 X62.175 Z-4. I-0.575 J0.
N12885 X63.325 Z-3.6 I0.575 J0.
N12890 X62.175 Z-3.2 I-0.575 J0.
N12895 X63.325 Z-2.8 I0.575 J0.
N12900 X62.175 Z-2.4 I-0.575 J0.
N12905 X63.325 Z-2. I0.575 J0.
N12910 X62.175 Z-1.6 I-0.575 J0.
N12915 X63.325 Z-1.2 I0.575 J0.
N12920 X62.75 Y-50.425 Z-1. I-0.575 J0.
N12925 X62.463 Y-50.713 Z-0.9 I0. J-0.288
N12930 G1 X62.75 Y-51.
N12935 G0 Z5.
N12940 X57.774 Y-57.274
N12945 Z-8.1
N12950 G1 Z-10.1 F560.
N12955 X58.061 Y-57.561
N12960 G3 X58.349 Y-57.274 Z-10. I0. J0.287
N12965 X57.199 Z-9.6 I-0.575 J0.
N12970 X58.349 Z-9.2 I0.575 J0.
N12975 X57.199 Z-8.8 I-0.575 J0.
N12980 X58.349 Z-8.4 I0.575 J0.
N12985 X57.199 Z-8. I-0.575 J0.
N12990 X58.349 Z-7.6 I0.575 J0.
N12995 X57.199 Z-7.2 I-0.575 J0.
N13000 X58.349 Z-6.8 I0.575 J0.
N13005 X57.199 Z-6.4 I-0.575 J0.
N13010 X58.349 Z-6. I0.575 J0.
N13015 X57.199 Z-5.6 I-0.575 J0.
N13020 X58.349 Z-5.2 I0.575 J0.
N13025 X57.199 Z-4.8 I-0.575 J0.
N13030 X58.349 Z-4.4 I0.575 J0.
N13035 X57.199 Z-4. I-0.575 J0.
N13040 X58.349 Z-3.6 I0.575 J0.
N13045 X57.199 Z-3.2 I-0.575 J0.
N13050 X58.349 Z-2.8 I0.575 J0.
N13055 X57.199 Z-2.4 I-0.575 J0.
N13060 X58.349 Z-2. I0.575 J0.
N13065 X57.199 Z-1.6 I-0.575 J0.
N13070 X58.349 Z-1.2 I0.575 J0.
N13075 X57.774 Y-56.699 Z-1. I-0.575 J0.
N13080 X57.486 Y-56.986 Z-0.9 I0. J-0.287
N13085 G1 X57.774 Y-57.274
N13090 G0 Z15.
N13095 M5
N13100 G53 Z0.
(2D CHAMFER2)
N13105 M9
N13110 M1
N13115 T1 M6
N13120 T17
N13125 S16000 M3
N13130 G54
N13135 M8
N13140 G0 X54.35 Y-35.
N13145 G43 Z15. H1
N13150 G0 Z5.
N13155 G1 Z2. F426.67
N13160 Z-2.
N13165 X54.95 F1280.
N13170 G3 X16.05 I-19.45 J0.
N13175 X54.95 I19.45 J0.
N13180 G1 X54.35
N13185 G0 Z5.
N13190 X71.15
N13195 G1 Z2. F426.67
N13200 Z-2.
N13205 X70.55 F1280.
N13210 Y-64.
N13215 G2 X65. Y-69.55 I-5.55 J0.
N13220 G1 X7.
N13225 G2 X1.45 Y-64. I0. J5.55
N13230 G1 Y-6.
N13235 G2 X7. Y-0.45 I5.55 J0.
N13240 G1 X65.
N13245 G2 X70.55 Y-6. I0. J-5.55
N13250 G1 Y-35.
N13255 X71.15
N13260 G0 Z15.
N13265 M9
N13270 G53 Z0.
N13275 M30
%
