%
(132033_S2_V1)
(T1  D=6. CR=0. TAPER=45DEG - ZMIN=6.5 - CHAMFER MILL)
(T17  D=6. CR=0. - ZMIN=8. - BULLNOSE END MILL)
N10 G90 G94 G17 G91.1
N15 G21
N20 G53 G0 Z0.
(FACE2)
N25 T17 M6
N30 T1
N35 S15000 M3
N40 G54
N45 M8
N50 G0 X76.801 Y-76.312
N55 G43 Z29. H17
N60 G0 Z19.
N65 G1 Z11.6 F400.
N70 G18 G3 X76.201 Z11. I-0.6 K0. F900.
N75 G1 X-8.201
N80 X-11.128
N85 G17 G2 Y-72.166 I0. J2.073
N90 G1 X79.128
N95 X80.364
N100 G3 Y-68.02 I0. J2.073
N105 G1 X-12.364
N110 X-12.51
N115 G2 Y-63.874 I0. J2.073
N120 G1 X80.51
N125 G3 Y-59.728 I0. J2.073
N130 G1 X-12.51
N135 G2 Y-55.582 I0. J2.073
N140 G1 X80.51
N145 G3 Y-51.436 I0. J2.073
N150 G1 X-12.51
N155 G2 Y-47.29 I0. J2.073
N160 G1 X80.51
N165 G3 Y-43.144 I0. J2.073
N170 G1 X-12.51
N175 G2 Y-38.998 I0. J2.073
N180 G1 X80.51
N185 G3 Y-34.852 I0. J2.073
N190 G1 X-12.51
N195 G2 Y-30.706 I0. J2.073
N200 G1 X80.51
N205 G3 Y-26.56 I0. J2.073
N210 G1 X-12.51
N215 G2 Y-22.414 I0. J2.073
N220 G1 X80.51
N225 G3 Y-18.268 I0. J2.073
N230 G1 X-12.51
N235 G2 Y-14.122 I0. J2.073
N240 G1 X80.51
N245 G3 Y-9.976 I0. J2.073
N250 G1 X-12.51
N255 G2 Y-5.83 I0. J2.073
N260 G1 X80.51
N265 G3 Y-1.684 I0. J2.073
N270 G1 X80.502
N275 X-12.502
N280 G2 Y2.462 I0. J2.073
N285 G1 X-11.806
N290 X79.806
N295 G3 Y6.608 I0. J2.073
N300 G1 X77.675
N305 X-9.675
N310 G18 G3 X-10.275 Z11.6 I0. K0.6
N315 G0 Z19.
N320 X-8.801 Y-76.312
N325 G1 Z8.6 F400.
N330 G2 X-8.201 Z8. I0.6 K0. F900.
N335 G1 X76.201
N340 X79.128
N345 G17 G3 Y-72.166 I0. J2.073
N350 G1 X-11.128
N355 X-12.364
N360 G2 Y-68.02 I0. J2.073
N365 G1 X80.364
N370 X80.51
N375 G3 Y-63.874 I0. J2.073
N380 G1 X-12.51
N385 G2 Y-59.728 I0. J2.073
N390 G1 X80.51
N395 G3 Y-55.582 I0. J2.073
N400 G1 X-12.51
N405 G2 Y-51.436 I0. J2.073
N410 G1 X80.51
N415 G3 Y-47.29 I0. J2.073
N420 G1 X-12.51
N425 G2 Y-43.144 I0. J2.073
N430 G1 X80.51
N435 G3 Y-38.998 I0. J2.073
N440 G1 X-12.51
N445 G2 Y-34.852 I0. J2.073
N450 G1 X80.51
N455 G3 Y-30.706 I0. J2.073
N460 G1 X-12.51
N465 G2 Y-26.56 I0. J2.073
N470 G1 X80.51
N475 G3 Y-22.414 I0. J2.073
N480 G1 X-12.51
N485 G2 Y-18.268 I0. J2.073
N490 G1 X80.51
N495 G3 Y-14.122 I0. J2.073
N500 G1 X-12.51
N505 G2 Y-9.976 I0. J2.073
N510 G1 X80.51
N515 G3 Y-5.83 I0. J2.073
N520 G1 X-12.51
N525 G2 Y-1.684 I0. J2.073
N530 G1 X-12.502
N535 X80.502
N540 G3 Y2.462 I0. J2.073
N545 G1 X79.806
N550 X-11.806
N555 G2 Y6.608 I0. J2.073
N560 G1 X-9.675
N565 X77.675
N570 G18 G2 X78.275 Z8.6 I0. K0.6
N575 G0 Z29.
N580 G17
N585 M5
N590 G53 G0 Z0.
(2D CHAMFER3)
N595 M9
N600 M1
N605 T1 M6
N610 T17
N615 S16000 M3
N620 G54
N625 M8
N630 G0 X56.224 Y-56.274
N635 G43 Z29. H1
N640 G0 Z19.
N645 G1 Z16. F426.67
N650 Z7.
N655 X56.824 F1280.
N660 G3 X54.724 I-1.05 J0.
N665 X56.824 I1.05 J0.
N670 G1 X56.224
N675 G0 Z19.
N680 X61.2 Y-50.
N685 G1 Z16. F426.67
N690 Z7.
N695 X61.8 F1280.
N700 G3 X59.7 I-1.05 J0.
N705 X61.8 I1.05 J0.
N710 G1 X61.2
N715 G0 Z19.
N720 Y-18.
N725 G1 Z16. F426.67
N730 Z7.
N735 X61.8 F1280.
N740 G3 X59.7 I-1.05 J0.
N745 X61.8 I1.05 J0.
N750 G1 X61.2
N755 G0 Z19.
N760 X56.224 Y-11.726
N765 G1 Z16. F426.67
N770 Z7.
N775 X56.824 F1280.
N780 G3 X55.774 Y-10.676 I-1.05 J0.
N785 Y-12.776 I0. J-1.05
N790 X56.824 Y-11.726 I0. J1.05
N795 G1 X56.224
N800 G0 Z19.
N805 X11.676
N810 G1 Z16. F426.67
N815 Z7.
N820 X12.276 F1280.
N825 G3 X11.226 Y-10.676 I-1.05 J0.
N830 Y-12.776 I0. J-1.05
N835 X12.276 Y-11.726 I0. J1.05
N840 G1 X11.676
N845 G0 Z19.
N850 X7.7 Y-18.
N855 G1 Z16. F426.67
N860 Z7.
N865 X8.3 F1280.
N870 G3 X6.2 I-1.05 J0.
N875 X8.3 I1.05 J0.
N880 G1 X7.7
N885 G0 Z19.
N890 Y-50.
N895 G1 Z16. F426.67
N900 Z7.
N905 X8.3 F1280.
N910 G3 X6.2 I-1.05 J0.
N915 X8.3 I1.05 J0.
N920 G1 X7.7
N925 G0 Z19.
N930 X11.676 Y-56.274
N935 G1 Z16. F426.67
N940 Z7.
N945 X12.276 F1280.
N950 G3 X10.176 I-1.05 J0.
N955 X12.276 I1.05 J0.
N960 G1 X11.676
N965 G0 Z29.
N970 X51.85 Y-34.
N975 Z19.
N980 G1 Z16. F426.67
N985 Z6.5
N990 X52.45 F1280.
N995 G3 X14.55 I-18.95 J0.
N1000 X52.45 I18.95 J0.
N1005 G1 X51.85
N1010 G0 Z19.
N1015 X69.65
N1020 G1 Z16. F426.67
N1025 Z6.5
N1030 X69.05 F1280.
N1035 Y-63.
N1040 G2 X63. Y-69.05 I-6.05 J0.
N1045 G1 X5.
N1050 G2 X-1.05 Y-63. I0. J6.05
N1055 G1 Y-5.
N1060 G2 X5. Y1.05 I6.05 J0.
N1065 G1 X63.
N1070 G2 X69.05 Y-5. I0. J-6.05
N1075 G1 Y-34.
N1080 X69.65
N1085 G0 Z29.
N1090 M9
N1095 G53 Z0.
N1100 M30
%
