(ACCURACY_TEST)
(T1  D=6. CR=0. TAPER=45DEG - ZMIN=-3.5 - CHAMFER MILL)
(T3  D=6. CR=0. - ZMIN=-12. - FLAT END MILL)
N10G90G94G17G91.1
N15G21
N20G53G0Z0.
(FACE1)
N25T3M6
N30T1
N35S14000M3
N40G54
N45M8
N50G0X40.667Y-1.359
N55G43Z15.H3
N60G0Z5.
N65G1Z-1.4F1120.
N70G18G3X40.067Z-2.I-0.6K0.
N75G1X38.438
N80X1.562
N85X-1.257
N90G17G2Y2.738I0.J2.048
N95G1X41.257
N100X42.397
N105G3Y6.834I0.J2.048
N110G1X-2.397
N115X-2.5
N120G2Y10.93I0.J2.048
N125G1X42.5
N130G3Y15.027I0.J2.048
N135G1X-2.5
N140G2Y19.123I0.J2.048
N145G1X42.5
N150G3Y23.22I0.J2.048
N155G1X-2.5
N160G2Y27.316I0.J2.048
N165G1X42.5
N170G3Y31.412I0.J2.048
N175G1X-2.5
N180G2Y35.509I0.J2.048
N185G1X-1.909
N190X41.909
N195G3Y39.605I0.J2.048
N200G1X39.911
N205X0.089
N210G18G3X-0.511Z-1.4I0.K0.6
N215G0Z15.
N220G17
(2D ADAPTIVE2)
N225G0X-4.889Y-4.915
N230Z15.
N235Z5.
N240Z-10.8
N245G1Z-11.4F840.
N250X-4.883Y-4.911Z-11.494
N255X-4.865Y-4.898Z-11.585
N260X-4.835Y-4.878Z-11.672
N265X-4.794Y-4.851Z-11.753
N270X-4.743Y-4.818Z-11.824
N275X-4.683Y-4.778Z-11.885
N280X-4.616Y-4.734Z-11.935
N285X-4.544Y-4.686Z-11.971
N290X-4.467Y-4.635Z-11.993
N295X-4.389Y-4.583Z-12.
N300G3X-1.85Y-2.475I-8.458J12.771
N305G1X-1.742Y-2.356
N310X-1.541Y-1.902
N315X-1.329Y-1.3
N320X-1.109Y-0.465
N325X-0.94Y0.478
N330X-0.828Y1.429
N335X-0.753Y2.384
N340X-0.703Y3.34
N345X-0.669Y4.297
N350X-0.647Y5.255
N355X-0.631Y6.212
N360X-0.621Y7.17
N365X-0.613Y8.328
N370X-0.617Y8.439
N375X-0.63Y8.549
N380X-0.651Y8.657
N385X-0.688Y8.815
N390X-0.788Y9.25
N395X-0.815Y9.467
N400X-0.881Y10.118
N405X-0.924Y10.553
N410X-0.944Y10.77
N415X-0.982Y11.204
N420X-0.997Y11.421
N425X-1.Y12.073
N430Y27.927
N435X-0.997Y28.579
N440X-0.982Y28.796
N445X-0.944Y29.23
N450X-0.902Y29.665
N455X-0.881Y29.882
N460X-0.834Y30.838
N465X-0.757Y31.793
N470X-0.705Y32.749
N475X-0.671Y33.706
N480X-0.648Y34.664
N485X-0.632Y35.621
N490X-0.622Y36.579
N495X-0.617Y37.297
N500X-0.574Y37.533
N505X-0.411Y37.983
N510X0.155Y38.756
N515X0.929Y39.319
N520X1.8Y39.719
N525X2.716Y39.997
N530X3.654Y40.19
N535X4.603Y40.322
N540X5.556Y40.411
N545X6.512Y40.472
N550X7.469Y40.514
N555X8.083Y40.532
N560X8.206Y40.541
N565X8.328Y40.561
N570X8.448Y40.591
N575X8.598Y40.637
N580X8.815Y40.688
N585X9.25Y40.788
N590X9.467Y40.815
N595X10.118Y40.881
N600X10.553Y40.924
N605X10.77Y40.944
N610X11.204Y40.982
N615X11.421Y40.997
N620X12.073Y41.
N625X27.927
N630X28.579Y40.997
N635X28.796Y40.982
N640X29.23Y40.944
N645X29.665Y40.902
N650X29.882Y40.881
N655X30.838Y40.834
N660X31.793Y40.757
N665X32.749Y40.705
N670X33.706Y40.671
N675X34.664Y40.648
N680X35.621Y40.632
N685X36.579Y40.622
N690X37.297Y40.617
N695X37.533Y40.574
N700X37.983Y40.411
N705X38.756Y39.845
N710X39.319Y39.071
N715X39.719Y38.2
N720X39.997Y37.284
N725X40.19Y36.346
N730X40.322Y35.397
N735X40.411Y34.444
N740X40.472Y33.488
N745X40.514Y32.531
N750X40.532Y31.917
N755X40.541Y31.794
N760X40.561Y31.672
N765X40.591Y31.552
N770X40.637Y31.402
N775X40.688Y31.185
N780X40.788Y30.75
N785X40.815Y30.533
N790X40.881Y29.882
N795X40.924Y29.447
N800X40.944Y29.23
N805X40.982Y28.796
N810X40.997Y28.579
N815X41.Y27.927
N820Y12.073
N825X40.997Y11.421
N830X40.982Y11.204
N835X40.944Y10.77
N840X40.902Y10.335
N845X40.881Y10.118
N850X40.834Y9.162
N855X40.757Y8.207
N860X40.705Y7.251
N865X40.671Y6.294
N870X40.648Y5.336
N875X40.632Y4.379
N880X40.622Y3.421
N885X40.617Y2.703
N890X40.574Y2.467
N895X40.411Y2.017
N900X39.845Y1.244
N905X39.071Y0.681
N910X38.2Y0.281
N915X37.284Y0.003
N920X36.346Y-0.19
N925X35.397Y-0.322
N930X34.444Y-0.411
N935X33.488Y-0.472
N940X32.531Y-0.514
N945X31.917Y-0.532
N950X31.794Y-0.541
N955X31.672Y-0.561
N960X31.552Y-0.591
N965X31.402Y-0.637
N970X31.185Y-0.688
N975X30.75Y-0.788
N980X30.533Y-0.815
N985X29.882Y-0.881
N990X29.447Y-0.924
N995X29.23Y-0.944
N1000X28.796Y-0.982
N1005X28.579Y-0.997
N1010X27.927Y-1.
N1015X12.073
N1020X11.421Y-0.997
N1025X11.204Y-0.982
N1030X10.77Y-0.944
N1035X10.335Y-0.902
N1040X10.118Y-0.881
N1045X9.162Y-0.834
N1050X8.207Y-0.757
N1055X7.251Y-0.705
N1060X6.294Y-0.671
N1065X5.336Y-0.648
N1070X4.858Y-0.64
N1075X4.622Y-0.595
N1080X4.174Y-0.426
N1085X3.416Y0.159
N1090X2.884Y0.955
N1095X2.519Y1.841
N1100X2.273Y2.766
N1105X2.261Y2.835
N1110X2.2Y3.068
N1115X2.1Y3.286
N1120X1.964Y3.484
N1125X1.689Y3.82
N1130X1.167Y4.472
N1135X1.024Y4.689
N1140X0.779Y5.132
N1145X0.32Y5.992
N1150X0.092Y6.426
N1155X-0.007Y6.643
N1160X-0.167Y7.078
N1165X-0.242Y7.295
N1170X-0.637Y8.598
N1175X-0.651Y8.657
N1180G3X-1.233Y9.099I-0.579J-0.158
N1185G1X-1.327Y9.098Z-11.993
N1190X-1.418Z-11.971
N1195X-1.505Y9.097Z-11.935
N1200X-1.585Z-11.885
N1205X-1.657Z-11.824
N1210X-1.718Y9.096Z-11.753
N1215X-1.767Z-11.672
N1220X-1.803Z-11.585
N1225X-1.825Z-11.494
N1230X-1.833Z-11.4
N1235G0Z5.
N1240X11.329Y-1.532
N1245Z-10.8
N1250G1Z-11.4F840.
N1255X11.323Y-1.528Z-11.494
N1260X11.305Y-1.515Z-11.585
N1265X11.276Y-1.493Z-11.672
N1270X11.237Y-1.464Z-11.753
N1275X11.187Y-1.428Z-11.824
N1280X11.13Y-1.385Z-11.885
N1285X11.065Y-1.338Z-11.935
N1290X10.995Y-1.286Z-11.971
N1295X10.922Y-1.232Z-11.993
N1300X10.846Y-1.176Z-12.
N1305G3X10.118Y-0.881I-0.94J-1.273
N1310G1X9.467Y-0.815
N1315X9.25Y-0.788
N1320X8.815Y-0.688
N1325X8.598Y-0.637
N1330X7.295Y-0.242
N1335X7.078Y-0.167
N1340X6.643Y-0.007
N1345X6.426Y0.092
N1350X5.944Y0.345
N1355X5.123Y0.784
N1360X4.689Y1.024
N1365X4.472Y1.167
N1370X3.82Y1.689
N1375X2.951Y2.401
N1380X2.821Y2.517
N1385X2.734Y2.595
N1390X2.597Y2.734
N1395X2.517Y2.822
N1400X2.401Y2.951
N1405X1.964Y3.484
N1410G3X1.247Y3.625I-0.45J-0.397
N1415G1X1.163Y3.584Z-11.993
N1420X1.081Y3.543Z-11.971
N1425X1.003Y3.504Z-11.935
N1430X0.931Y3.469Z-11.885
N1435X0.867Y3.437Z-11.824
N1440X0.812Y3.41Z-11.753
N1445X0.768Y3.388Z-11.672
N1450X0.736Y3.372Z-11.585
N1455X0.716Y3.362Z-11.494
N1460X0.709Y3.359Z-11.4
N1465G0Z5.
N1470X-1.532Y28.671
N1475Z-10.8
N1480G1Z-11.4F840.
N1485X-1.528Y28.677Z-11.494
N1490X-1.515Y28.695Z-11.585
N1495X-1.493Y28.724Z-11.672
N1500X-1.464Y28.763Z-11.753
N1505X-1.428Y28.813Z-11.824
N1510X-1.385Y28.87Z-11.885
N1515X-1.338Y28.935Z-11.935
N1520X-1.286Y29.005Z-11.971
N1525X-1.232Y29.078Z-11.993
N1530X-1.176Y29.154Z-12.
N1535G3X-0.881Y29.882I-1.273J0.94
N1540G1X-0.815Y30.533
N1545X-0.788Y30.75
N1550X-0.688Y31.185
N1555X-0.637Y31.402
N1560X-0.242Y32.705
N1565X-0.167Y32.922
N1570X-0.007Y33.357
N1575X0.092Y33.574
N1580X0.345Y34.056
N1585X0.784Y34.877
N1590X1.024Y35.311
N1595X1.167Y35.528
N1600X1.689Y36.18
N1605X2.401Y37.049
N1610X2.517Y37.18
N1615X2.595Y37.266
N1620X2.734Y37.403
N1625X2.822Y37.483
N1630X2.951Y37.599
N1635X3.82Y38.311
N1640X4.472Y38.833
N1645X4.689Y38.976
N1650X5.132Y39.221
N1655X5.992Y39.68
N1660X6.426Y39.908
N1665X6.643Y40.007
N1670X7.078Y40.167
N1675X7.295Y40.242
N1680X8.448Y40.591
N1685X8.47Y40.605
N1690G2X11.559Y43.052I10.835J-10.508
N1695X11.859Y43.137I0.308J-0.515
N1700G1X26.394Y43.334
N1705G2X26.696Y43.258I0.008J-0.6
N1710X29.85Y40.896I-7.391J-13.16
N1715G1X29.865Y40.886
N1720X29.882Y40.881
N1725X30.533Y40.815
N1730X30.75Y40.788
N1735X31.185Y40.688
N1740X31.402Y40.637
N1745X32.705Y40.242
N1750X32.922Y40.167
N1755X33.357Y40.007
N1760X33.574Y39.908
N1765X34.056Y39.655
N1770X34.877Y39.216
N1775X35.311Y38.976
N1780X35.528Y38.833
N1785X36.18Y38.311
N1790X37.049Y37.599
N1795X37.18Y37.483
N1800X37.266Y37.405
N1805X37.403Y37.266
N1810X37.483Y37.179
N1815X37.599Y37.049
N1820X38.311Y36.18
N1825X38.833Y35.528
N1830X38.976Y35.311
N1835X39.221Y34.868
N1840X39.68Y34.008
N1845X39.908Y33.574
N1850X40.007Y33.357
N1855X40.167Y32.922
N1860X40.242Y32.705
N1865X40.591Y31.552
N1870X40.605Y31.53
N1875G2X43.052Y28.441I-10.508J-10.835
N1880X43.137Y28.141I-0.515J-0.308
N1885G1X43.334Y13.606
N1890G2X43.258Y13.304I-0.6J-0.008
N1895X40.896Y10.15I-13.161J7.391
N1900G1X40.886Y10.135
N1905X40.881Y10.118
N1910X40.815Y9.467
N1915X40.788Y9.25
N1920X40.688Y8.815
N1925X40.637Y8.598
N1930X40.242Y7.295
N1935X40.167Y7.078
N1940X40.007Y6.643
N1945X39.908Y6.426
N1950X39.655Y5.944
N1955X39.216Y5.123
N1960X38.976Y4.689
N1965X38.833Y4.472
N1970X38.311Y3.82
N1975X37.599Y2.951
N1980X37.483Y2.822
N1985X37.403Y2.734
N1990X37.266Y2.595
N1995X37.18Y2.517
N2000X37.049Y2.401
N2005X36.18Y1.689
N2010X35.528Y1.167
N2015X35.311Y1.024
N2020X34.868Y0.779
N2025X34.008Y0.32
N2030X33.574Y0.092
N2035X33.357Y-0.007
N2040X32.922Y-0.167
N2045X32.705Y-0.242
N2050X31.552Y-0.591
N2055G3X31.147Y-1.2I0.194J-0.568
N2060G1X31.153Y-1.293Z-11.993
N2065X31.16Y-1.385Z-11.971
N2070X31.166Y-1.472Z-11.935
N2075X31.171Y-1.552Z-11.885
N2080X31.176Y-1.623Z-11.824
N2085X31.18Y-1.684Z-11.753
N2090X31.183Y-1.733Z-11.672
N2095X31.186Y-1.769Z-11.585
N2100X31.187Y-1.791Z-11.494
N2105X31.188Y-1.798Z-11.4
N2110G0Z15.
(2D ADAPTIVE3)
N2115S12000M3
N2120G0X22.583Y18.796
N2125Z15.
N2130Z5.
N2135Z2.55
N2140G3X17.417Y21.205Z2.237I-2.583J1.204F600.
N2145X22.583Y18.796Z1.925I2.583J-1.204
N2150X17.417Y21.205Z1.612I-2.583J1.204
N2155X22.583Y18.796Z1.299I2.583J-1.204
N2160X17.417Y21.205Z0.987I-2.583J1.204
N2165X22.583Y18.796Z0.674I2.583J-1.204
N2170X17.417Y21.205Z0.361I-2.583J1.204
N2175X22.583Y18.796Z0.049I2.583J-1.204
N2180X17.417Y21.205Z-0.264I-2.583J1.204
N2185X22.583Y18.796Z-0.577I2.583J-1.204
N2190X17.417Y21.205Z-0.889I-2.583J1.204
N2195X22.583Y18.796Z-1.202I2.583J-1.204
N2200X17.417Y21.205Z-1.515I-2.583J1.204
N2205X22.583Y18.796Z-1.827I2.583J-1.204
N2210X17.417Y21.205Z-2.14I-2.583J1.204
N2215X22.583Y18.796Z-2.453I2.583J-1.204
N2220X17.417Y21.205Z-2.765I-2.583J1.204
N2225X22.583Y18.796Z-3.078I2.583J-1.204
N2230X17.417Y21.205Z-3.391I-2.583J1.204
N2235X22.583Y18.796Z-3.703I2.583J-1.204
N2240X17.417Y21.205Z-4.016I-2.583J1.204
N2245X22.583Y18.796Z-4.329I2.583J-1.204
N2250X17.417Y21.205Z-4.641I-2.583J1.204
N2255X22.583Y18.796Z-4.954I2.583J-1.204
N2260X17.417Y21.205Z-5.267I-2.583J1.204
N2265X22.583Y18.796Z-5.579I2.583J-1.204
N2270X17.417Y21.205Z-5.892I-2.583J1.204
N2275X22.583Y18.796Z-6.205I2.583J-1.204
N2280X17.417Y21.205Z-6.517I-2.583J1.204
N2285X22.583Y18.796Z-6.83I2.583J-1.204
N2290X17.417Y21.205Z-7.143I-2.583J1.204
N2295X22.583Y18.796Z-7.455I2.583J-1.204
N2300X17.417Y21.205Z-7.768I-2.583J1.204
N2305X22.583Y18.796Z-8.081I2.583J-1.204
N2310X17.417Y21.205Z-8.393I-2.583J1.204
N2315X22.583Y18.796Z-8.706I2.583J-1.204
N2320X17.417Y21.205Z-9.019I-2.583J1.204
N2325X22.583Y18.796Z-9.331I2.583J-1.204
N2330X17.417Y21.205Z-9.644I-2.583J1.204
N2335X22.583Y18.796Z-9.957I2.583J-1.204
N2340X22.85Y20.001Z-10.I-2.583J1.204
N2345X17.15I-2.85J0.
N2350X22.85I2.85J0.
N2355S14000
N2360G1X22.854Y20.24F840.
N2365X23.031Y21.181
N2370X23.071Y21.325
N2375X23.096Y21.473
N2380X23.107Y21.623
N2385X23.104Y21.773
N2390X23.087Y21.932
N2395X23.057Y22.1
N2400X23.01Y22.276
N2405X22.945Y22.457
N2410X22.862Y22.643
N2415X22.758Y22.831
N2420X22.635Y23.019
N2425X22.49Y23.204
N2430X22.324Y23.385
N2435X22.137Y23.558
N2440X21.929Y23.721
N2445X21.702Y23.872
N2450X21.456Y24.009
N2455X21.192Y24.128
N2460X20.913Y24.229
N2465X20.62Y24.308
N2470X20.315Y24.365
N2475X20.001Y24.398
N2480X19.68Y24.405
N2485X19.355Y24.387
N2490X19.027Y24.342
N2495X18.7Y24.27
N2500X18.377Y24.171
N2505X18.059Y24.045
N2510X17.75Y23.892
N2515X17.453Y23.714
N2520X17.168Y23.512
N2525X16.899Y23.285
N2530X16.648Y23.037
N2535X16.416Y22.768
N2540X16.206Y22.48
N2545X16.019Y22.175
N2550X15.856Y21.855
N2555X15.72Y21.523
N2560X15.61Y21.179
N2565X15.528Y20.827
N2570X15.475Y20.469
N2575X15.45Y20.107
N2580X15.454Y19.744
N2585X15.488Y19.382
N2590X15.551Y19.024
N2595X15.642Y18.671
N2600X15.761Y18.327
N2605X15.908Y17.993
N2610X16.081Y17.672
N2615X16.279Y17.365
N2620X16.502Y17.075
N2625X16.747Y16.804
N2630X17.014Y16.553
N2635X17.299Y16.325
N2640X17.602Y16.12
N2645X17.921Y15.94
N2650X18.253Y15.786
N2655X18.597Y15.659
N2660X18.949Y15.561
N2665X19.309Y15.491
N2670X19.673Y15.449
N2675X20.039Y15.438
N2680X20.405Y15.455
N2685X20.768Y15.502
N2690X21.126Y15.578
N2695X21.478Y15.683
N2700X21.819Y15.815
N2705X22.149Y15.975
N2710X22.465Y16.16
N2715X22.766Y16.37
N2720X23.048Y16.604
N2725X23.311Y16.859
N2730X23.552Y17.135
N2735X23.771Y17.429
N2740X24.001Y17.798
N2745X24.363Y18.496
N2750X24.618Y19.104
N2755X24.787Y19.618
N2760X24.899Y20.082
N2765X24.969Y20.523
N2770X25.001Y20.95
N2775X25.Y21.363
N2780X24.966Y21.765
N2785X24.901Y22.157
N2790X24.805Y22.541
N2795X24.678Y22.915
N2800X24.522Y23.278
N2805X24.336Y23.63
N2810X24.121Y23.969
N2815X23.877Y24.292
N2820X23.606Y24.597
N2825X23.307Y24.883
N2830X22.982Y25.147
N2835X22.633Y25.388
N2840X22.26Y25.602
N2845X21.865Y25.789
N2850X21.451Y25.946
N2855X21.021Y26.07
N2860X20.576Y26.161
N2865X20.12Y26.216
N2870X19.656Y26.235
N2875X19.187Y26.216
N2880X18.717Y26.159
N2885X18.248Y26.064
N2890X17.786Y25.93
N2895X17.332Y25.759
N2900X16.891Y25.55
N2905X16.465Y25.305
N2910X16.057Y25.025
N2915X15.672Y24.711
N2920X15.311Y24.366
N2925X14.977Y23.991
N2930X14.674Y23.59
N2935X14.402Y23.163
N2940X14.165Y22.715
N2945X13.964Y22.247
N2950X13.801Y21.764
N2955X13.677Y21.268
N2960X13.593Y20.763
N2965X13.55Y20.251
N2970X13.547Y19.737
N2975X13.587Y19.224
N2980X13.667Y18.714
N2985X13.788Y18.213
N2990X13.949Y17.722
N2995X14.149Y17.245
N3000X14.387Y16.785
N3005X14.661Y16.346
N3010X14.97Y15.93
N3015X15.312Y15.54
N3020X15.683Y15.178
N3025X16.083Y14.848
N3030X16.508Y14.55
N3035X16.956Y14.287
N3040X17.424Y14.061
N3045X17.908Y13.873
N3050X18.406Y13.725
N3055X18.914Y13.617
N3060X19.429Y13.55
N3065X19.949Y13.525
N3070X20.468Y13.542
N3075X20.985Y13.6
N3080X21.495Y13.699
N3085X21.996Y13.839
N3090X22.484Y14.019
N3095X22.956Y14.238
N3100X23.409Y14.493
N3105X23.84Y14.785
N3110X24.256Y15.118
N3115X24.703Y15.538
N3120X25.131Y16.011
N3125X25.533Y16.534
N3130X25.897Y17.096
N3135X26.21Y17.677
N3140X26.47Y18.267
N3145X26.676Y18.86
N3150X26.829Y19.454
N3155X26.933Y20.046
N3160X26.988Y20.636
N3165X26.995Y21.22
N3170X26.956Y21.797
N3175X26.871Y22.364
N3180X26.742Y22.92
N3185X26.569Y23.462
N3190X26.353Y23.988
N3195X26.096Y24.495
N3200X25.798Y24.982
N3205X25.46Y25.444
N3210X25.085Y25.88
N3215X24.673Y26.287
N3220X24.227Y26.663
N3225X23.748Y27.004
N3230X23.24Y27.308
N3235X22.704Y27.573
N3240X22.143Y27.795
N3245X21.562Y27.974
N3250X20.964Y28.106
N3255X20.352Y28.19
N3260X19.731Y28.226
N3265X19.105Y28.211
N3270X18.478Y28.145
N3275X17.853Y28.029
N3280X17.237Y27.862
N3285X16.632Y27.645
N3290X16.044Y27.378
N3295X15.475Y27.063
N3300X14.931Y26.702
N3305X14.416Y26.297
N3310X13.932Y25.85
N3315X13.485Y25.363
N3320X13.076Y24.84
N3325X12.709Y24.284
N3330X12.388Y23.699
N3335X12.113Y23.088
N3340X11.888Y22.456
N3345X11.714Y21.806
N3350X11.592Y21.143
N3355X11.524Y20.471
N3360X11.51Y19.794
N3365X11.55Y19.118
N3370X11.645Y18.447
N3375X11.793Y17.784
N3380X11.994Y17.135
N3385X12.247Y16.504
N3390X12.55Y15.895
N3395X12.901Y15.311
N3400X13.298Y14.757
N3405X13.739Y14.237
N3410X14.22Y13.753
N3415X14.738Y13.31
N3420X15.291Y12.909
N3425X15.874Y12.554
N3430X16.484Y12.247
N3435X17.117Y11.989
N3440X17.768Y11.784
N3445X18.434Y11.631
N3450X19.11Y11.532
N3455X19.792Y11.487
N3460X20.476Y11.498
N3465X21.156Y11.563
N3470X21.83Y11.683
N3475X22.491Y11.856
N3480X23.136Y12.082
N3485X23.765Y12.361
N3490X24.388Y12.699
N3495X25.001Y13.099
N3500X25.598Y13.56
N3505X26.17Y14.081
N3510X26.708Y14.656
N3515X27.202Y15.277
N3520X27.644Y15.937
N3525X28.031Y16.627
N3530X28.36Y17.341
N3535X28.627Y18.074
N3540X28.833Y18.819
N3545X28.978Y19.572
N3550X28.992Y19.697
N3555X28.996Y19.748
N3560X28.999Y19.799
N3565X29.Y19.85
N3570Y20.978
N3575X28.952Y21.934
N3580X28.874Y22.611
N3585X28.74Y23.291
N3590X28.549Y23.968
N3595X28.302Y24.634
N3600X27.999Y25.284
N3605X27.641Y25.914
N3610X27.232Y26.517
N3615X26.771Y27.09
N3620X26.262Y27.629
N3625X25.708Y28.128
N3630X25.111Y28.584
N3635X24.812Y28.777
N3640X24.575Y28.899
N3645X24.32Y28.975
N3650X24.054Y29.
N3655X16.632
N3660X16.253Y28.981
N3665X15.877Y28.932
N3670X15.447Y28.84
N3675X15.015Y28.71
N3680X14.54Y28.525
N3685X14.037Y28.281
N3690X13.544Y27.991
N3695X13.037Y27.634
N3700X12.524Y27.209
N3705X12.022Y26.719
N3710X11.543Y26.17
N3715X11.275Y25.807
N3720X11.124Y25.551
N3725X11.031Y25.27
N3730X11.Y24.975
N3735G3X11.937Y24.499I0.6J0.021
N3740G1X16.948Y27.904
N3745G3X16.632Y29.I-0.337J0.496
N3750G1X13.59
N3755X13.257Y28.983
N3760X12.981Y28.947
N3765X12.682Y28.883
N3770X12.358Y28.786
N3775X12.Y28.647
N3780X11.818Y28.558
N3785X11.567Y28.402
N3790X11.354Y28.196
N3795X11.19Y27.95
N3800X11.081Y27.675
N3805X11.032Y27.383
N3810G3X11.914Y26.839I0.6J-0.015
N3815G1X13.851Y27.871
N3820G3X13.59Y29.I-0.282J0.53
N3825G1X13.155
N3830X12.721Y28.975
N3835X12.503Y28.961
N3840X12.286Y28.942
N3845X12.177Y28.927
N3850X12.123Y28.915
N3855X12.069Y28.898
N3860X11.832Y28.8
N3865X11.782Y28.776
N3870X11.733Y28.746
N3875X11.634Y28.672
N3880X11.518Y28.583
N3885X11.468Y28.537
N3890X11.417Y28.482
N3895X11.328Y28.366
N3900X11.254Y28.267
N3905X11.2Y28.168
N3910X11.102Y27.931
N3915X11.085Y27.877
N3920X11.073Y27.823
N3925X11.058Y27.714
N3930X11.039Y27.497
N3935X11.012Y27.062
N3940X11.Y26.845
N3945Y16.415
N3950X11.017Y16.081
N3955X11.064Y15.721
N3960X11.149Y15.324
N3965X11.273Y14.908
N3970X11.454Y14.444
N3975X11.677Y13.985
N3980X11.964Y13.496
N3985X12.322Y12.988
N3990X12.738Y12.486
N3995X13.207Y12.006
N4000X13.744Y11.537
N4005X14.099Y11.275
N4010X14.355Y11.124
N4015X14.637Y11.031
N4020X14.932Y11.
N4025G3X15.404Y11.941I-0.021J0.6
N4030G1X12.093Y16.735
N4035G3X11.Y16.415I-0.494J-0.341
N4040G1Y13.372
N4045X11.01Y13.172
N4050X11.046Y12.895
N4055X11.107Y12.61
N4060X11.205Y12.285
N4065X11.338Y11.942
N4070X11.397Y11.821
N4075X11.554Y11.57
N4080X11.759Y11.357
N4085X12.005Y11.193
N4090X12.28Y11.083
N4095X12.572Y11.034
N4100G3X13.108Y11.933I0.015J0.6
N4105G1X12.12Y13.651
N4110G3X11.Y13.372I-0.52J-0.299
N4115G1Y13.155
N4120X11.025Y12.721
N4125X11.039Y12.503
N4130X11.058Y12.286
N4135X11.073Y12.177
N4140X11.085Y12.123
N4145X11.102Y12.069
N4150X11.2Y11.832
N4155X11.254Y11.733
N4160X11.328Y11.634
N4165X11.417Y11.518
N4170X11.468Y11.463
N4175X11.518Y11.417
N4180X11.634Y11.328
N4185X11.733Y11.254
N4190X11.782Y11.224
N4195X11.832Y11.2
N4200X12.069Y11.102
N4205X12.123Y11.085
N4210X12.177Y11.073
N4215X12.286Y11.058
N4220X12.503Y11.039
N4225X12.938Y11.012
N4230X13.155Y11.
N4235X23.585
N4240X23.947Y11.018
N4245X24.313Y11.066
N4250X24.717Y11.152
N4255X25.154Y11.284
N4260X25.619Y11.465
N4265X26.136Y11.715
N4270X26.643Y12.013
N4275X27.185Y12.395
N4280X27.746Y12.861
N4285X28.294Y13.395
N4290X28.655Y13.808
N4295X28.802Y14.011
N4300X28.911Y14.237
N4305X28.978Y14.479
N4310X29.Y14.729
N4315G3X28.074Y15.211I-0.6J-0.021
N4320G1X23.28Y12.103
N4325G3X23.585Y11.I0.326J-0.503
N4330G1X26.628
N4335X26.941Y11.016
N4340X27.218Y11.052
N4345X27.537Y11.12
N4350X27.862Y11.218
N4355X28.073Y11.3
N4360X28.347Y11.443
N4365X28.583Y11.644
N4370X28.77Y11.891
N4375X28.897Y12.174
N4380X28.959Y12.477
N4385G3X28.078Y13.04I-0.599J0.034
N4390G1X26.367Y12.129
N4395G3X26.628Y11.I0.282J-0.53
N4400G1X26.845
N4405X27.279Y11.025
N4410X27.497Y11.039
N4415X27.714Y11.058
N4420X27.823Y11.073
N4425X27.877Y11.085
N4430X27.931Y11.102
N4435X28.168Y11.2
N4440X28.267Y11.254
N4445X28.366Y11.328
N4450X28.482Y11.417
N4455X28.537Y11.468
N4460X28.583Y11.518
N4465X28.672Y11.634
N4470X28.746Y11.733
N4475X28.776Y11.782
N4480X28.8Y11.832
N4485X28.898Y12.069
N4490X28.915Y12.123
N4495X28.927Y12.177
N4500X28.942Y12.286
N4505X28.961Y12.503
N4510X28.988Y12.938
N4515X29.Y13.155
N4520Y19.85
N4525X28.992Y19.93
N4530X28.973Y20.008
N4535X28.944Y20.083
N4540G2X28.918Y20.529I0.543J0.254
N4545G3X29.Y20.978I-1.5J0.504
N4550G1Y25.541
N4555X28.984Y25.869
N4560X28.941Y26.191
N4565X28.868Y26.536
N4570X28.751Y26.925
N4575X28.594Y27.329
N4580X28.381Y27.768
N4585X28.104Y28.239
N4590X27.988Y28.403
N4595X27.779Y28.639
N4600X27.523Y28.822
N4605X27.232Y28.943
N4610X26.921Y28.996
N4615G3X26.378Y28.116I-0.013J-0.6
N4620G1X27.869Y25.282
N4625G3X29.Y25.541I0.531J0.279
N4630G1Y26.845
N4635X28.975Y27.279
N4640X28.961Y27.497
N4645X28.942Y27.714
N4650X28.927Y27.823
N4655X28.915Y27.877
N4660X28.898Y27.931
N4665X28.8Y28.168
N4670X28.746Y28.267
N4675X28.672Y28.366
N4680X28.583Y28.482
N4685X28.532Y28.537
N4690X28.482Y28.583
N4695X28.366Y28.672
N4700X28.267Y28.746
N4705X28.218Y28.776
N4710X28.168Y28.8
N4715X27.931Y28.898
N4720X27.877Y28.915
N4725X27.823Y28.927
N4730X27.714Y28.942
N4735X27.497Y28.961
N4740X27.062Y28.988
N4745X26.845Y29.
N4750X24.054
N4755G3X23.49Y28.535I0.021J-0.6
N4760G1X23.469Y28.444Z-9.993
N4765X23.449Y28.355Z-9.971
N4770X23.429Y28.27Z-9.935
N4775X23.411Y28.192Z-9.885
N4780X23.395Y28.122Z-9.824
N4785X23.381Y28.062Z-9.753
N4790X23.37Y28.014Z-9.672
N4795X23.362Y27.979Z-9.585
N4800X23.357Y27.958Z-9.494
N4805X23.355Y27.951Z-9.4
N4810G0Z15.
(2D CONTOUR3)
N4815S13000M3
N4820G0X27.7Y19.4
N4825Z15.
N4830Z5.
N4835G1Z1.F333.33
N4840Z-9.4
N4845G18G2X28.3Z-10.I0.6K0.F1000.
N4850G1X28.9
N4855G17G3X29.5Y20.I0.J0.6
N4860G1Y27.5
N4865G3X27.5Y29.5I-2.J0.
N4870G1X12.5
N4875G3X10.5Y27.5I0.J-2.
N4880G1Y12.5
N4885G3X12.5Y10.5I2.J0.
N4890G1X27.5
N4895G3X29.5Y12.5I0.J2.
N4900G1Y20.
N4905G3X28.9Y20.6I-0.6J0.
N4910G1X28.3
N4915G18G3X27.7Z-9.4I0.K0.6
N4920G0Z15.
N4925G17
(2D CONTOUR2)
N4930S14000M3
N4935G0X19.4Y42.3
N4940Z15.
N4945Z5.
N4950G1Z1.F600.
N4955Z-11.4
N4960G19G2Y41.7Z-12.J-0.6K0.F1120.
N4965G1Y41.1
N4970G17G3X20.Y40.5I0.6J0.
N4975G1X28.5
N4980G2X40.5Y28.5I0.J-12.
N4985G1Y11.5
N4990G2X28.5Y-0.5I-12.J0.
N4995G1X11.5
N5000G2X-0.5Y11.5I0.J12.
N5005G1Y28.5
N5010G2X11.5Y40.5I12.J0.
N5015G1X20.
N5020G3X20.6Y41.1I0.J0.6
N5025G1Y41.7
N5030G19G3Y42.3Z-11.4J0.K0.6
N5035G0Z15.
N5040G17
N5045M5
N5050G53G0Z0.
(2D CHAMFER1)
N5055M9
N5060M1
N5065T1M6
N5070T3
N5075S17000M3
N5080G54
N5085M8
N5090G0X30.85Y20.
N5095G43Z15.H1
N5100G0Z5.
N5105G1Z2.F333.33
N5110Z-3.5
N5115X31.45F1000.
N5120Y27.5
N5125G3X27.5Y31.45I-3.95J0.
N5130G1X12.5
N5135G3X8.55Y27.5I0.J-3.95
N5140G1Y12.5
N5145G3X12.5Y8.55I3.95J0.
N5150G1X27.5
N5155G3X31.45Y12.5I0.J3.95
N5160G1Y20.
N5165X30.85
N5170G0Z5.
N5175X39.15
N5180G1Z2.F333.33
N5185Z-3.5
N5190X38.55F1000.
N5195Y11.5
N5200G2X28.5Y1.45I-10.05J0.
N5205G1X11.5
N5210G2X1.45Y11.5I0.J10.05
N5215G1Y28.5
N5220G2X11.5Y38.55I10.05J0.
N5225G1X28.5
N5230G2X38.55Y28.5I0.J-10.05
N5235G1Y20.
N5240X39.15
N5245G0Z15.
N5250M9
N5255G53Z0.
N5260M30

