%
(BOX_50X50X25)
(T1  D=6. CR=0. TAPER=45DEG - ZMIN=-3. - CHAMFER MILL)
(T8  D=6. CR=3. - ZMIN=-22.5 - BALL END MILL)
(T10  D=6. CR=0. - ZMIN=-26.5 - FLAT END MILL)
N10 G90 G94 G17 G91.1
N15 G21
N20 G53 G0 Z0.
(FACE1)
N25 T10 M6
N30 S18000 M3
N35 G54
N40 G0 X59.502 Y-7.067
N45 G43 Z15. H10
N50 G0 Z5.
N55 G1 Z-0.9 F960.
N60 G18 G3 X58.902 Z-1.5 I-0.6 K0. F2880.
N65 G1 X-4.902
N70 X-8.868
N75 G17 G2 Y-3.174 I0. J1.946
N80 G1 X62.868
N85 X65.201
N90 G3 Y0.718 I0. J1.946
N95 G1 X-11.201
N100 X-12.511
N105 G2 Y4.611 I0. J1.946
N110 G1 X66.511
N115 X66.989
N120 G3 Y8.504 I0. J1.946
N125 G1 X-12.989
N130 X-13.
N135 G2 Y12.397 I0. J1.946
N140 G1 X67.
N145 G3 Y16.289 I0. J1.946
N150 G1 X-13.
N155 G2 Y20.182 I0. J1.946
N160 G1 X67.
N165 G3 Y24.075 I0. J1.946
N170 G1 X-13.
N175 G2 Y27.968 I0. J1.946
N180 G1 X67.
N185 G3 Y31.861 I0. J1.946
N190 G1 X-13.
N195 G2 Y35.753 I0. J1.946
N200 G1 X67.
N205 G3 Y39.646 I0. J1.946
N210 G1 X-13.
N215 G2 Y43.539 I0. J1.946
N220 G1 X67.
N225 G3 Y47.432 I0. J1.946
N230 G1 X66.848
N235 X-12.848
N240 G2 Y51.324 I0. J1.946
N245 G1 X-11.969
N250 X65.969
N255 G3 Y55.217 I0. J1.946
N260 G1 X64.189
N265 X-10.189
N270 G2 Y59.11 I0. J1.946
N275 G1 X-7.173
N280 X61.173
N285 G18 G2 X61.773 Z-0.9 I0. K0.6
N290 G0 Z15.
N295 G17
(2D ADAPTIVE1)
N300 G0 X-4.748 Y-4.968
N305 Z15.
N310 Z5.
N315 Z-8.8
N320 G1 Z-9.4 F2880.
N325 X-4.742 Y-4.964 Z-9.494
N330 X-4.724 Y-4.951 Z-9.585
N335 X-4.694 Y-4.931 Z-9.672
N340 X-4.654 Y-4.903 Z-9.753
N345 X-4.603 Y-4.869 Z-9.824
N350 X-4.544 Y-4.829 Z-9.885
N355 X-4.478 Y-4.783 Z-9.935
N360 X-4.406 Y-4.734 Z-9.971
N365 X-4.33 Y-4.683 Z-9.993
N370 X-4.252 Y-4.63 Z-10.
N375 G3 X-1.741 Y-2.49 I-8.622 J12.661
N380 G1 X-1.662 Y-2.4
N385 X-1.601 Y-1.444
N390 X-1.563 Y-0.487
N395 X-1.54 Y0.47
N400 X-1.525 Y1.428
N405 X-1.516 Y2.386
N410 X-1.51 Y3.343
N415 X-1.506 Y4.301
N420 X-1.503 Y6.216
N425 X-1.5 Y10.047
N430 Y48.355
N435 Y51.707
N440 X-1.416 Y52.178
N445 X-1.047 Y53.062
N450 X-0.409 Y53.776
N455 X0.382 Y54.316
N460 X1.257 Y54.705
N465 X2.176 Y54.975
N470 X3.116 Y55.159
N475 X4.066 Y55.28
N480 X5.02 Y55.359
N485 X5.977 Y55.41
N490 X6.934 Y55.443
N495 X7.891 Y55.464
N500 X8.849 Y55.477
N505 X9.807 Y55.486
N510 X10.764 Y55.491
N515 X12.093 Y55.496
N520 X12.109
N525 X12.326 Y55.5
N530 X23.196
N535 X24.152 Y55.548
N540 X25.11 Y55.53
N545 X26.067 Y55.519
N550 X27.025 Y55.512
N555 X27.983 Y55.508
N560 X28.94 Y55.505
N565 X30.856 Y55.502
N570 X35.644 Y55.5
N575 X51.925
N580 X52.385 Y55.366
N585 X53.235 Y54.925
N590 X53.909 Y54.245
N595 X54.413 Y53.431
N600 X54.773 Y52.543
N605 X55.022 Y51.618
N610 X55.19 Y50.675
N615 X55.3 Y49.724
N620 X55.372 Y48.769
N625 X55.419 Y47.813
N630 X55.448 Y46.855
N635 X55.467 Y45.898
N640 X55.479 Y44.94
N645 X55.487 Y43.983
N650 X55.492 Y43.025
N655 X55.496 Y41.907
N660 Y41.891
N665 X55.5 Y41.674
N670 Y31.022
N675 X55.548 Y30.065
N680 X55.53 Y29.108
N685 X55.519 Y28.15
N690 X55.512 Y27.192
N695 X55.508 Y26.235
N700 X55.505 Y25.277
N705 X55.502 Y23.362
N710 X55.5 Y18.573
N715 Y2.292
N720 X55.415 Y1.821
N725 X55.047 Y0.937
N730 X54.409 Y0.223
N735 X53.617 Y-0.316
N740 X52.742 Y-0.705
N745 X51.823 Y-0.975
N750 X50.883 Y-1.159
N755 X49.933 Y-1.28
N760 X48.979 Y-1.359
N765 X48.022 Y-1.41
N770 X47.065 Y-1.443
N775 X46.108 Y-1.464
N780 X45.15 Y-1.477
N785 X44.193 Y-1.486
N790 X43.235 Y-1.491
N795 X41.907 Y-1.496
N800 X41.891
N805 X41.674 Y-1.5
N810 X31.022
N815 X30.065 Y-1.548
N820 X29.108 Y-1.53
N825 X28.15 Y-1.519
N830 X27.192 Y-1.512
N835 X26.235 Y-1.508
N840 X25.277 Y-1.505
N845 X23.362 Y-1.502
N850 X18.573 Y-1.5
N855 X3.729
N860 X3.259 Y-1.41
N865 X2.379 Y-1.03
N870 X1.674 Y-0.382
N875 X1.144 Y0.415
N880 X0.764 Y1.295
N885 X0.501 Y2.216
N890 X0.324 Y3.157
N895 X0.208 Y4.107
N900 X0.132 Y5.062
N905 X0.121 Y5.283
N910 X0.085 Y5.574
N915 X0.006 Y5.857
N920 X-0.113 Y6.125
N925 X-0.29 Y6.457
N930 X-0.397 Y6.674
N935 X-0.559 Y7.109
N940 X-0.639 Y7.327
N945 X-1.035 Y8.631
N950 X-1.097 Y8.848
N955 X-1.214 Y9.283
N960 X-1.258 Y9.5
N965 X-1.31 Y9.935
N970 X-1.335 Y10.153
N975 X-1.463 Y11.457
N980 X-1.476 Y11.674
N985 X-1.496 Y12.109
N990 G3 X-1.987 Y12.65 I-0.598 J-0.049
N995 G1 X-2.079 Y12.667 Z-9.993
N1000 X-2.169 Y12.683 Z-9.971
N1005 X-2.255 Y12.699 Z-9.935
N1010 X-2.334 Y12.713 Z-9.885
N1015 X-2.404 Y12.726 Z-9.824
N1020 X-2.464 Y12.737 Z-9.753
N1025 X-2.513 Y12.746 Z-9.672
N1030 X-2.548 Y12.752 Z-9.585
N1035 X-2.57 Y12.756 Z-9.494
N1040 X-2.577 Y12.757 Z-9.4
N1045 G0 Z5.
N1050 X-2.05 Y40.414
N1055 Z-8.8
N1060 G1 Z-9.4 F2880.
N1065 X-2.046 Y40.42 Z-9.494
N1070 X-2.035 Y40.439 Z-9.585
N1075 X-2.016 Y40.469 Z-9.672
N1080 X-1.99 Y40.511 Z-9.753
N1085 X-1.958 Y40.563 Z-9.824
N1090 X-1.92 Y40.624 Z-9.885
N1095 X-1.878 Y40.692 Z-9.935
N1100 X-1.832 Y40.766 Z-9.971
N1105 X-1.784 Y40.844 Z-9.993
N1110 X-1.734 Y40.924 Z-10.
N1115 G3 X-1.5 Y41.674 I-1.346 J0.832
N1120 G1 X-1.496 Y41.891
N1125 X-1.476 Y42.326
N1130 X-1.463 Y42.543
N1135 X-1.335 Y43.847
N1140 X-1.31 Y44.065
N1145 X-1.258 Y44.5
N1150 X-1.214 Y44.717
N1155 X-1.097 Y45.152
N1160 X-1.035 Y45.369
N1165 X-0.639 Y46.674
N1170 X-0.571 Y46.9
N1175 X-0.445 Y47.417
N1180 X-0.313 Y48.133
N1185 X-0.194 Y49.083
N1190 X-0.089 Y50.035
N1195 X0.272 Y50.922
N1200 X0.851 Y51.685
N1205 X1.581 Y52.305
N1210 X2.409 Y52.786
N1215 X3.297 Y53.146
N1220 X4.217 Y53.409
N1225 X4.868 Y53.539
N1230 X5.059 Y53.586
N1235 X5.243 Y53.652
N1240 X5.421 Y53.736
N1245 X6.457 Y54.29
N1250 X6.674 Y54.397
N1255 X7.109 Y54.559
N1260 X7.327 Y54.639
N1265 X8.631 Y55.035
N1270 X8.848 Y55.097
N1275 X9.283 Y55.214
N1280 X9.5 Y55.258
N1285 X9.935 Y55.31
N1290 X10.153 Y55.335
N1295 X11.457 Y55.463
N1300 X11.674 Y55.476
N1305 X12.109 Y55.496
N1310 X12.326 Y55.5 Z-9.954
N1315 X12.877 Z-9.837
N1320 X13.051 Z-9.8
N1325 X22.254
N1330 X22.427 Z-9.837
N1335 X23.196 Z-10.
N1340 X31.022
N1345 G3 X31.585 Y55.965 I-0.021 J0.6
N1350 G1 X31.606 Y56.056 Z-9.993
N1355 X31.627 Y56.145 Z-9.971
N1360 X31.647 Y56.23 Z-9.935
N1365 X31.665 Y56.308 Z-9.885
N1370 X31.681 Y56.378 Z-9.824
N1375 X31.695 Y56.438 Z-9.753
N1380 X31.706 Y56.486 Z-9.672
N1385 X31.714 Y56.521 Z-9.585
N1390 X31.719 Y56.542 Z-9.494
N1395 X31.72 Y56.549 Z-9.4
N1400 G0 Z5.
N1405 X40.414 Y56.05
N1410 Z-8.8
N1415 G1 Z-9.4 F2880.
N1420 X40.42 Y56.046 Z-9.494
N1425 X40.439 Y56.035 Z-9.585
N1430 X40.469 Y56.016 Z-9.672
N1435 X40.511 Y55.99 Z-9.753
N1440 X40.563 Y55.958 Z-9.824
N1445 X40.624 Y55.92 Z-9.885
N1450 X40.692 Y55.878 Z-9.935
N1455 X40.766 Y55.832 Z-9.971
N1460 X40.844 Y55.784 Z-9.993
N1465 X40.924 Y55.734 Z-10.
N1470 G3 X41.674 Y55.5 I0.832 J1.346
N1475 G1 X41.891 Y55.496
N1480 X42.326 Y55.476
N1485 X42.543 Y55.463
N1490 X43.847 Y55.335
N1495 X44.065 Y55.31
N1500 X44.5 Y55.258
N1505 X44.717 Y55.214
N1510 X45.152 Y55.097
N1515 X45.369 Y55.035
N1520 X46.674 Y54.639
N1525 X46.9 Y54.571
N1530 X47.417 Y54.445
N1535 X48.133 Y54.314
N1540 X49.083 Y54.194
N1545 X50.035 Y54.088
N1550 X50.921 Y53.725
N1555 X51.686 Y53.148
N1560 X52.306 Y52.418
N1565 X52.787 Y51.59
N1570 X53.148 Y50.703
N1575 X53.41 Y49.782
N1580 X53.539 Y49.132
N1585 X53.587 Y48.941
N1590 X53.653 Y48.756
N1595 X53.737 Y48.578
N1600 X54.29 Y47.543
N1605 X54.397 Y47.326
N1610 X54.559 Y46.891
N1615 X54.639 Y46.674
N1620 X55.035 Y45.369
N1625 X55.097 Y45.152
N1630 X55.214 Y44.717
N1635 X55.258 Y44.5
N1640 X55.31 Y44.065
N1645 X55.335 Y43.847
N1650 X55.463 Y42.543
N1655 X55.476 Y42.326
N1660 X55.496 Y41.891
N1665 X55.5 Y41.674 Z-9.954
N1670 Y41.123 Z-9.837
N1675 Y40.949 Z-9.8
N1680 Y31.964
N1685 Y31.79 Z-9.837
N1690 Y31.022 Z-10.
N1695 Y23.196
N1700 G3 X55.965 Y22.632 I0.6 J0.021
N1705 G1 X56.056 Y22.611 Z-9.993
N1710 X56.145 Y22.59 Z-9.971
N1715 X56.23 Y22.571 Z-9.935
N1720 X56.308 Y22.553 Z-9.885
N1725 X56.378 Y22.537 Z-9.824
N1730 X56.438 Y22.523 Z-9.753
N1735 X56.486 Y22.512 Z-9.672
N1740 X56.521 Y22.504 Z-9.585
N1745 X56.542 Y22.499 Z-9.494
N1750 X56.549 Y22.497 Z-9.4
N1755 G0 Z5.
N1760 X56.05 Y13.586
N1765 Z-8.8
N1770 G1 Z-9.4 F2880.
N1775 X56.046 Y13.58 Z-9.494
N1780 X56.035 Y13.561 Z-9.585
N1785 X56.016 Y13.531 Z-9.672
N1790 X55.99 Y13.489 Z-9.753
N1795 X55.958 Y13.437 Z-9.824
N1800 X55.92 Y13.376 Z-9.885
N1805 X55.878 Y13.308 Z-9.935
N1810 X55.832 Y13.234 Z-9.971
N1815 X55.784 Y13.156 Z-9.993
N1820 X55.734 Y13.076 Z-10.
N1825 G3 X55.5 Y12.326 I1.346 J-0.832
N1830 G1 X55.496 Y12.109
N1835 X55.476 Y11.674
N1840 X55.463 Y11.457
N1845 X55.335 Y10.153
N1850 X55.31 Y9.935
N1855 X55.258 Y9.5
N1860 X55.214 Y9.283
N1865 X55.097 Y8.848
N1870 X55.035 Y8.631
N1875 X54.639 Y7.327
N1880 X54.571 Y7.1
N1885 X54.445 Y6.583
N1890 X54.314 Y5.867
N1895 X54.194 Y4.917
N1900 X54.089 Y3.965
N1905 X53.728 Y3.078
N1910 X53.15 Y2.315
N1915 X52.419 Y1.695
N1920 X51.591 Y1.214
N1925 X50.704 Y0.854
N1930 X49.783 Y0.591
N1935 X49.132 Y0.461
N1940 X48.941 Y0.414
N1945 X48.757 Y0.348
N1950 X48.579 Y0.264
N1955 X47.543 Y-0.29
N1960 X47.326 Y-0.397
N1965 X46.891 Y-0.559
N1970 X46.674 Y-0.639
N1975 X45.369 Y-1.035
N1980 X45.152 Y-1.097
N1985 X44.717 Y-1.214
N1990 X44.5 Y-1.258
N1995 X44.065 Y-1.31
N2000 X43.847 Y-1.335
N2005 X42.543 Y-1.463
N2010 X42.326 Y-1.476
N2015 X41.891 Y-1.496
N2020 X41.674 Y-1.5 Z-9.954
N2025 X41.123 Z-9.837
N2030 X40.949 Z-9.8
N2035 X31.964
N2040 X31.79 Z-9.837
N2045 X31.022 Z-10.
N2050 X23.196
N2055 X23.174 Y-1.505 Z-9.995
N2060 X23.157 Y-1.518 Z-9.991
N2065 G2 X22.506 Y-2.136 Z-9.8 I-5.396 J5.032
N2070 X19.918 Y-3.542 I-4.745 J5.65
N2075 G1 X19.831 Y-3.561
N2080 X19.742 Y-3.568
N2085 X15.779
N2090 X15.69 Y-3.561
N2095 X15.603 Y-3.542
N2100 G2 X13.016 Y-2.136 I2.157 J7.056
N2105 X12.364 Y-1.518 Z-9.991 I4.745 J5.65
N2110 G1 X12.347 Y-1.505 Z-9.995
N2115 X12.326 Y-1.5 Z-10.
N2120 X12.109 Y-1.496
N2125 X11.674 Y-1.476
N2130 X11.457 Y-1.463
N2135 X10.153 Y-1.335
N2140 X9.935 Y-1.31
N2145 X9.5 Y-1.258
N2150 X9.283 Y-1.214
N2155 X8.848 Y-1.097
N2160 X8.631 Y-1.035
N2165 X7.327 Y-0.639
N2170 X7.1 Y-0.571
N2175 X6.583 Y-0.445
N2180 X5.641 Y-0.272
N2185 X4.741 Y0.057
N2190 X3.955 Y0.603
N2195 X3.308 Y1.309
N2200 X2.92 Y1.931
N2205 X2.81 Y2.09
N2210 X2.684 Y2.238
N2215 X2.545 Y2.373
N2220 G3 X1.701 Y2.29 Z-9.8 I-0.381 J-0.464
N2225 X1.845 Y1.401 I0.463 J-0.381
N2230 G1 X6.78 Y-1.703
N2235 G3 X7.655 Y-1.421 I0.319 J0.508
N2240 X7.327 Y-0.639 Z-10. I-0.556 J0.226
N2245 G1 X7.109 Y-0.559
N2250 X6.674 Y-0.397
N2255 X6.457 Y-0.29
N2260 X5.153 Y0.407
N2265 X4.718 Y0.65
N2270 X4.5 Y0.781
N2275 X4.178 Y1.022
N2280 X4.066 Y1.11
N2285 X2.848 Y2.109
N2290 X2.761 Y2.182
N2295 X2.544 Y2.374
N2300 X2.374 Y2.544
N2305 X2.182 Y2.761
N2310 X2.109 Y2.848
N2315 X1.11 Y4.066
N2320 X1.022 Y4.178
N2325 X0.781 Y4.5
N2330 X0.65 Y4.718
N2335 X0.407 Y5.153
N2340 X-0.113 Y6.125
N2345 G3 X-0.788 Y6.403 I-0.519 J-0.301
N2350 G1 X-0.879 Y6.379 Z-9.993
N2355 X-0.967 Y6.355 Z-9.971
N2360 X-1.051 Y6.332 Z-9.935
N2365 X-1.129 Y6.311 Z-9.885
N2370 X-1.198 Y6.292 Z-9.824
N2375 X-1.257 Y6.276 Z-9.753
N2380 X-1.304 Y6.264 Z-9.672
N2385 X-1.339 Y6.254 Z-9.585
N2390 X-1.36 Y6.248 Z-9.494
N2395 X-1.367 Y6.247 Z-9.4
N2400 G0 Z5.
N2405 X-1.573 Y45.665
N2410 Z-8.8
N2415 G1 Z-9.4 F2880.
N2420 X-1.568 Y45.669 Z-9.494
N2425 X-1.55 Y45.683 Z-9.585
N2430 X-1.522 Y45.706 Z-9.672
N2435 X-1.484 Y45.737 Z-9.753
N2440 X-1.437 Y45.775 Z-9.824
N2445 X-1.381 Y45.82 Z-9.885
N2450 X-1.319 Y45.871 Z-9.935
N2455 X-1.251 Y45.926 Z-9.971
N2460 X-1.18 Y45.984 Z-9.993
N2465 X-1.107 Y46.043 Z-10.
N2470 G3 X-0.639 Y46.674 I-0.997 J1.229
N2475 G1 X-0.559 Y46.891
N2480 X-0.397 Y47.326
N2485 X-0.29 Y47.543
N2490 X0.407 Y48.847
N2495 X0.65 Y49.282
N2500 X0.781 Y49.5
N2505 X1.022 Y49.822
N2510 X1.11 Y49.934
N2515 X2.109 Y51.152
N2520 X2.182 Y51.239
N2525 X2.374 Y51.456
N2530 X2.544 Y51.626
N2535 X2.761 Y51.818
N2540 X2.848 Y51.891
N2545 X4.066 Y52.89
N2550 X4.178 Y52.978
N2555 X4.5 Y53.219
N2560 X4.718 Y53.35
N2565 X5.153 Y53.593
N2570 X5.421 Y53.736
N2575 G3 X5.699 Y54.412 I-0.301 J0.519
N2580 G1 X5.674 Y54.502 Z-9.993
N2585 X5.65 Y54.591 Z-9.971
N2590 X5.628 Y54.675 Z-9.935
N2595 X5.607 Y54.752 Z-9.885
N2600 X5.588 Y54.821 Z-9.824
N2605 X5.572 Y54.88 Z-9.753
N2610 X5.559 Y54.928 Z-9.672
N2615 X5.55 Y54.963 Z-9.585
N2620 X5.544 Y54.984 Z-9.494
N2625 X5.542 Y54.991 Z-9.4
N2630 G0 Z5.
N2635 X45.665 Y55.573
N2640 Z-8.8
N2645 G1 Z-9.4 F2880.
N2650 X45.669 Y55.568 Z-9.494
N2655 X45.683 Y55.55 Z-9.585
N2660 X45.706 Y55.522 Z-9.672
N2665 X45.737 Y55.484 Z-9.753
N2670 X45.775 Y55.437 Z-9.824
N2675 X45.82 Y55.381 Z-9.885
N2680 X45.871 Y55.319 Z-9.935
N2685 X45.926 Y55.251 Z-9.971
N2690 X45.984 Y55.18 Z-9.993
N2695 X46.043 Y55.107 Z-10.
N2700 G3 X46.674 Y54.639 I1.229 J0.997
N2705 G1 X46.891 Y54.559
N2710 X47.326 Y54.397
N2715 X47.543 Y54.29
N2720 X48.847 Y53.593
N2725 X49.282 Y53.35
N2730 X49.5 Y53.219
N2735 X49.822 Y52.978
N2740 X49.934 Y52.89
N2745 X51.152 Y51.891
N2750 X51.239 Y51.818
N2755 X51.456 Y51.626
N2760 X51.626 Y51.456
N2765 X51.818 Y51.239
N2770 X51.891 Y51.152
N2775 X52.89 Y49.934
N2780 X52.978 Y49.822
N2785 X53.219 Y49.5
N2790 X53.35 Y49.282
N2795 X53.593 Y48.847
N2800 X53.737 Y48.578
N2805 G3 X54.412 Y48.3 I0.519 J0.301
N2810 G1 X54.503 Y48.325 Z-9.993
N2815 X54.591 Y48.348 Z-9.971
N2820 X54.675 Y48.371 Z-9.935
N2825 X54.753 Y48.392 Z-9.885
N2830 X54.822 Y48.411 Z-9.824
N2835 X54.881 Y48.427 Z-9.753
N2840 X54.928 Y48.44 Z-9.672
N2845 X54.963 Y48.449 Z-9.585
N2850 X54.984 Y48.455 Z-9.494
N2855 X54.992 Y48.457 Z-9.4
N2860 G0 Z5.
N2865 X55.573 Y8.335
N2870 Z-8.8
N2875 G1 Z-9.4 F2880.
N2880 X55.568 Y8.331 Z-9.494
N2885 X55.55 Y8.317 Z-9.585
N2890 X55.522 Y8.294 Z-9.672
N2895 X55.484 Y8.263 Z-9.753
N2900 X55.437 Y8.225 Z-9.824
N2905 X55.381 Y8.18 Z-9.885
N2910 X55.319 Y8.129 Z-9.935
N2915 X55.251 Y8.074 Z-9.971
N2920 X55.18 Y8.016 Z-9.993
N2925 X55.107 Y7.957 Z-10.
N2930 G3 X54.639 Y7.327 I0.997 J-1.229
N2935 G1 X54.559 Y7.109
N2940 X54.397 Y6.674
N2945 X54.29 Y6.457
N2950 X53.593 Y5.153
N2955 X53.35 Y4.718
N2960 X53.219 Y4.5
N2965 X52.978 Y4.178
N2970 X52.89 Y4.066
N2975 X51.891 Y2.848
N2980 X51.818 Y2.761
N2985 X51.626 Y2.544
N2990 X51.456 Y2.374
N2995 X51.239 Y2.182
N3000 X51.152 Y2.109
N3005 X49.934 Y1.11
N3010 X49.822 Y1.022
N3015 X49.5 Y0.781
N3020 X49.282 Y0.65
N3025 X48.847 Y0.407
N3030 X48.579 Y0.264
N3035 X48.503 Y0.211
N3040 X48.436 Y0.148
N3045 X48.397 Y0.085 Z-9.995
N3050 X48.359 Y0.023 Z-9.982
N3055 X48.321 Y-0.037 Z-9.959
N3060 X48.306 Y-0.115 Z-9.921
N3065 X48.293 Y-0.186 Z-9.871
N3070 X48.28 Y-0.25 Z-9.812
N3075 Y-0.255 Z-9.806
N3080 X48.288 Y-0.31 Z-9.736
N3085 X48.293 Y-0.354 Z-9.659
N3090 X48.298 Y-0.386 Z-9.576
N3095 X48.3 Y-0.405 Z-9.489
N3100 X48.301 Y-0.412 Z-9.4
N3105 G0 Z5.
N3110 X-4.748 Y-4.968
N3115 Z-18.8
N3120 G1 Z-19.4 F2880.
N3125 X-4.742 Y-4.964 Z-19.494
N3130 X-4.724 Y-4.951 Z-19.585
N3135 X-4.694 Y-4.931 Z-19.672
N3140 X-4.654 Y-4.903 Z-19.753
N3145 X-4.603 Y-4.869 Z-19.824
N3150 X-4.544 Y-4.829 Z-19.885
N3155 X-4.478 Y-4.783 Z-19.935
N3160 X-4.406 Y-4.734 Z-19.971
N3165 X-4.33 Y-4.683 Z-19.993
N3170 X-4.252 Y-4.63 Z-20.
N3175 G3 X-1.741 Y-2.49 I-8.622 J12.661
N3180 G1 X-1.662 Y-2.4
N3185 X-1.601 Y-1.444
N3190 X-1.563 Y-0.487
N3195 X-1.54 Y0.47
N3200 X-1.525 Y1.428
N3205 X-1.516 Y2.386
N3210 X-1.51 Y3.343
N3215 X-1.506 Y4.301
N3220 X-1.503 Y6.216
N3225 X-1.5 Y10.047
N3230 Y48.355
N3235 Y51.707
N3240 X-1.416 Y52.178
N3245 X-1.047 Y53.062
N3250 X-0.409 Y53.776
N3255 X0.382 Y54.316
N3260 X1.257 Y54.705
N3265 X2.176 Y54.975
N3270 X3.116 Y55.159
N3275 X4.066 Y55.28
N3280 X5.02 Y55.359
N3285 X5.977 Y55.41
N3290 X6.934 Y55.443
N3295 X7.891 Y55.464
N3300 X8.849 Y55.477
N3305 X9.807 Y55.486
N3310 X10.764 Y55.491
N3315 X12.093 Y55.496
N3320 X12.109
N3325 X12.326 Y55.5
N3330 X23.196
N3335 X24.152 Y55.548
N3340 X25.11 Y55.53
N3345 X26.067 Y55.519
N3350 X27.025 Y55.512
N3355 X27.983 Y55.508
N3360 X28.94 Y55.505
N3365 X30.856 Y55.502
N3370 X35.644 Y55.5
N3375 X51.925
N3380 X52.385 Y55.366
N3385 X53.235 Y54.925
N3390 X53.909 Y54.245
N3395 X54.413 Y53.431
N3400 X54.773 Y52.543
N3405 X55.022 Y51.618
N3410 X55.19 Y50.675
N3415 X55.3 Y49.724
N3420 X55.372 Y48.769
N3425 X55.419 Y47.813
N3430 X55.448 Y46.855
N3435 X55.467 Y45.898
N3440 X55.479 Y44.94
N3445 X55.487 Y43.983
N3450 X55.492 Y43.025
N3455 X55.496 Y41.907
N3460 Y41.891
N3465 X55.5 Y41.674
N3470 Y31.022
N3475 X55.548 Y30.065
N3480 X55.53 Y29.108
N3485 X55.519 Y28.15
N3490 X55.512 Y27.192
N3495 X55.508 Y26.235
N3500 X55.505 Y25.277
N3505 X55.502 Y23.362
N3510 X55.5 Y18.573
N3515 Y2.292
N3520 X55.415 Y1.821
N3525 X55.047 Y0.937
N3530 X54.409 Y0.223
N3535 X53.617 Y-0.316
N3540 X52.742 Y-0.705
N3545 X51.823 Y-0.975
N3550 X50.883 Y-1.159
N3555 X49.933 Y-1.28
N3560 X48.979 Y-1.359
N3565 X48.022 Y-1.41
N3570 X47.065 Y-1.443
N3575 X46.108 Y-1.464
N3580 X45.15 Y-1.477
N3585 X44.193 Y-1.486
N3590 X43.235 Y-1.491
N3595 X41.907 Y-1.496
N3600 X41.891
N3605 X41.674 Y-1.5
N3610 X31.022
N3615 X30.065 Y-1.548
N3620 X29.108 Y-1.53
N3625 X28.15 Y-1.519
N3630 X27.192 Y-1.512
N3635 X26.235 Y-1.508
N3640 X25.277 Y-1.505
N3645 X23.362 Y-1.502
N3650 X18.573 Y-1.5
N3655 X3.729
N3660 X3.259 Y-1.41
N3665 X2.379 Y-1.03
N3670 X1.674 Y-0.382
N3675 X1.144 Y0.415
N3680 X0.764 Y1.295
N3685 X0.501 Y2.216
N3690 X0.324 Y3.157
N3695 X0.208 Y4.107
N3700 X0.132 Y5.062
N3705 X0.121 Y5.283
N3710 X0.085 Y5.574
N3715 X0.006 Y5.857
N3720 X-0.113 Y6.125
N3725 X-0.29 Y6.457
N3730 X-0.397 Y6.674
N3735 X-0.559 Y7.109
N3740 X-0.639 Y7.327
N3745 X-1.035 Y8.631
N3750 X-1.097 Y8.848
N3755 X-1.214 Y9.283
N3760 X-1.258 Y9.5
N3765 X-1.31 Y9.935
N3770 X-1.335 Y10.153
N3775 X-1.463 Y11.457
N3780 X-1.476 Y11.674
N3785 X-1.496 Y12.109
N3790 G3 X-1.987 Y12.65 I-0.598 J-0.049
N3795 G1 X-2.079 Y12.667 Z-19.993
N3800 X-2.169 Y12.683 Z-19.971
N3805 X-2.255 Y12.699 Z-19.935
N3810 X-2.334 Y12.713 Z-19.885
N3815 X-2.404 Y12.726 Z-19.824
N3820 X-2.464 Y12.737 Z-19.753
N3825 X-2.513 Y12.746 Z-19.672
N3830 X-2.548 Y12.752 Z-19.585
N3835 X-2.57 Y12.756 Z-19.494
N3840 X-2.577 Y12.757 Z-19.4
N3845 G0 Z5.
N3850 X-2.05 Y40.414
N3855 Z-18.8
N3860 G1 Z-19.4 F2880.
N3865 X-2.046 Y40.42 Z-19.494
N3870 X-2.035 Y40.439 Z-19.585
N3875 X-2.016 Y40.469 Z-19.672
N3880 X-1.99 Y40.511 Z-19.753
N3885 X-1.958 Y40.563 Z-19.824
N3890 X-1.92 Y40.624 Z-19.885
N3895 X-1.878 Y40.692 Z-19.935
N3900 X-1.832 Y40.766 Z-19.971
N3905 X-1.784 Y40.844 Z-19.993
N3910 X-1.734 Y40.924 Z-20.
N3915 G3 X-1.5 Y41.674 I-1.346 J0.832
N3920 G1 X-1.496 Y41.891
N3925 X-1.476 Y42.326
N3930 X-1.463 Y42.543
N3935 X-1.335 Y43.847
N3940 X-1.31 Y44.065
N3945 X-1.258 Y44.5
N3950 X-1.214 Y44.717
N3955 X-1.097 Y45.152
N3960 X-1.035 Y45.369
N3965 X-0.639 Y46.674
N3970 X-0.571 Y46.9
N3975 X-0.445 Y47.417
N3980 X-0.313 Y48.133
N3985 X-0.194 Y49.083
N3990 X-0.089 Y50.035
N3995 X0.272 Y50.922
N4000 X0.851 Y51.685
N4005 X1.581 Y52.305
N4010 X2.409 Y52.786
N4015 X3.297 Y53.146
N4020 X4.217 Y53.409
N4025 X4.868 Y53.539
N4030 X5.059 Y53.586
N4035 X5.243 Y53.652
N4040 X5.421 Y53.736
N4045 X6.457 Y54.29
N4050 X6.674 Y54.397
N4055 X7.109 Y54.559
N4060 X7.327 Y54.639
N4065 X8.631 Y55.035
N4070 X8.848 Y55.097
N4075 X9.283 Y55.214
N4080 X9.5 Y55.258
N4085 X9.935 Y55.31
N4090 X10.153 Y55.335
N4095 X11.457 Y55.463
N4100 X11.674 Y55.476
N4105 X12.109 Y55.496
N4110 X12.326 Y55.5 Z-19.954
N4115 X12.877 Z-19.837
N4120 X13.051 Z-19.8
N4125 X22.254
N4130 X22.427 Z-19.837
N4135 X23.196 Z-20.
N4140 X31.022
N4145 G3 X31.585 Y55.965 I-0.021 J0.6
N4150 G1 X31.606 Y56.056 Z-19.993
N4155 X31.627 Y56.145 Z-19.971
N4160 X31.647 Y56.23 Z-19.935
N4165 X31.665 Y56.308 Z-19.885
N4170 X31.681 Y56.378 Z-19.824
N4175 X31.695 Y56.438 Z-19.753
N4180 X31.706 Y56.486 Z-19.672
N4185 X31.714 Y56.521 Z-19.585
N4190 X31.719 Y56.542 Z-19.494
N4195 X31.72 Y56.549 Z-19.4
N4200 G0 Z5.
N4205 X40.414 Y56.05
N4210 Z-18.8
N4215 G1 Z-19.4 F2880.
N4220 X40.42 Y56.046 Z-19.494
N4225 X40.439 Y56.035 Z-19.585
N4230 X40.469 Y56.016 Z-19.672
N4235 X40.511 Y55.99 Z-19.753
N4240 X40.563 Y55.958 Z-19.824
N4245 X40.624 Y55.92 Z-19.885
N4250 X40.692 Y55.878 Z-19.935
N4255 X40.766 Y55.832 Z-19.971
N4260 X40.844 Y55.784 Z-19.993
N4265 X40.924 Y55.734 Z-20.
N4270 G3 X41.674 Y55.5 I0.832 J1.346
N4275 G1 X41.891 Y55.496
N4280 X42.326 Y55.476
N4285 X42.543 Y55.463
N4290 X43.847 Y55.335
N4295 X44.065 Y55.31
N4300 X44.5 Y55.258
N4305 X44.717 Y55.214
N4310 X45.152 Y55.097
N4315 X45.369 Y55.035
N4320 X46.674 Y54.639
N4325 X46.9 Y54.571
N4330 X47.417 Y54.445
N4335 X48.133 Y54.314
N4340 X49.083 Y54.194
N4345 X50.035 Y54.088
N4350 X50.921 Y53.725
N4355 X51.686 Y53.148
N4360 X52.306 Y52.418
N4365 X52.787 Y51.59
N4370 X53.148 Y50.703
N4375 X53.41 Y49.782
N4380 X53.539 Y49.132
N4385 X53.587 Y48.941
N4390 X53.653 Y48.756
N4395 X53.737 Y48.578
N4400 X54.29 Y47.543
N4405 X54.397 Y47.326
N4410 X54.559 Y46.891
N4415 X54.639 Y46.674
N4420 X55.035 Y45.369
N4425 X55.097 Y45.152
N4430 X55.214 Y44.717
N4435 X55.258 Y44.5
N4440 X55.31 Y44.065
N4445 X55.335 Y43.847
N4450 X55.463 Y42.543
N4455 X55.476 Y42.326
N4460 X55.496 Y41.891
N4465 X55.5 Y41.674 Z-19.954
N4470 Y41.123 Z-19.837
N4475 Y40.949 Z-19.8
N4480 Y31.964
N4485 Y31.79 Z-19.837
N4490 Y31.022 Z-20.
N4495 Y23.196
N4500 G3 X55.965 Y22.632 I0.6 J0.021
N4505 G1 X56.056 Y22.611 Z-19.993
N4510 X56.145 Y22.59 Z-19.971
N4515 X56.23 Y22.571 Z-19.935
N4520 X56.308 Y22.553 Z-19.885
N4525 X56.378 Y22.537 Z-19.824
N4530 X56.438 Y22.523 Z-19.753
N4535 X56.486 Y22.512 Z-19.672
N4540 X56.521 Y22.504 Z-19.585
N4545 X56.542 Y22.499 Z-19.494
N4550 X56.549 Y22.497 Z-19.4
N4555 G0 Z5.
N4560 X56.05 Y13.586
N4565 Z-18.8
N4570 G1 Z-19.4 F2880.
N4575 X56.046 Y13.58 Z-19.494
N4580 X56.035 Y13.561 Z-19.585
N4585 X56.016 Y13.531 Z-19.672
N4590 X55.99 Y13.489 Z-19.753
N4595 X55.958 Y13.437 Z-19.824
N4600 X55.92 Y13.376 Z-19.885
N4605 X55.878 Y13.308 Z-19.935
N4610 X55.832 Y13.234 Z-19.971
N4615 X55.784 Y13.156 Z-19.993
N4620 X55.734 Y13.076 Z-20.
N4625 G3 X55.5 Y12.326 I1.346 J-0.832
N4630 G1 X55.496 Y12.109
N4635 X55.476 Y11.674
N4640 X55.463 Y11.457
N4645 X55.335 Y10.153
N4650 X55.31 Y9.935
N4655 X55.258 Y9.5
N4660 X55.214 Y9.283
N4665 X55.097 Y8.848
N4670 X55.035 Y8.631
N4675 X54.639 Y7.327
N4680 X54.571 Y7.1
N4685 X54.445 Y6.583
N4690 X54.314 Y5.867
N4695 X54.194 Y4.917
N4700 X54.089 Y3.965
N4705 X53.728 Y3.078
N4710 X53.15 Y2.315
N4715 X52.419 Y1.695
N4720 X51.591 Y1.214
N4725 X50.704 Y0.854
N4730 X49.783 Y0.591
N4735 X49.132 Y0.461
N4740 X48.941 Y0.414
N4745 X48.757 Y0.348
N4750 X48.579 Y0.264
N4755 X47.543 Y-0.29
N4760 X47.326 Y-0.397
N4765 X46.891 Y-0.559
N4770 X46.674 Y-0.639
N4775 X45.369 Y-1.035
N4780 X45.152 Y-1.097
N4785 X44.717 Y-1.214
N4790 X44.5 Y-1.258
N4795 X44.065 Y-1.31
N4800 X43.847 Y-1.335
N4805 X42.543 Y-1.463
N4810 X42.326 Y-1.476
N4815 X41.891 Y-1.496
N4820 X41.674 Y-1.5 Z-19.954
N4825 X41.123 Z-19.837
N4830 X40.949 Z-19.8
N4835 X31.964
N4840 X31.79 Z-19.837
N4845 X31.022 Z-20.
N4850 X23.196
N4855 X23.174 Y-1.505 Z-19.995
N4860 X23.157 Y-1.518 Z-19.991
N4865 G2 X22.506 Y-2.136 Z-19.8 I-5.396 J5.032
N4870 X19.918 Y-3.542 I-4.745 J5.65
N4875 G1 X19.831 Y-3.561
N4880 X19.742 Y-3.568
N4885 X15.779
N4890 X15.69 Y-3.561
N4895 X15.603 Y-3.542
N4900 G2 X13.016 Y-2.136 I2.157 J7.056
N4905 X12.364 Y-1.518 Z-19.991 I4.745 J5.65
N4910 G1 X12.347 Y-1.505 Z-19.995
N4915 X12.326 Y-1.5 Z-20.
N4920 X12.109 Y-1.496
N4925 X11.674 Y-1.476
N4930 X11.457 Y-1.463
N4935 X10.153 Y-1.335
N4940 X9.935 Y-1.31
N4945 X9.5 Y-1.258
N4950 X9.283 Y-1.214
N4955 X8.848 Y-1.097
N4960 X8.631 Y-1.035
N4965 X7.327 Y-0.639
N4970 X7.1 Y-0.571
N4975 X6.583 Y-0.445
N4980 X5.641 Y-0.272
N4985 X4.741 Y0.057
N4990 X3.955 Y0.603
N4995 X3.308 Y1.309
N5000 X2.92 Y1.931
N5005 X2.81 Y2.09
N5010 X2.684 Y2.238
N5015 X2.545 Y2.373
N5020 G3 X1.701 Y2.29 Z-19.8 I-0.381 J-0.464
N5025 X1.845 Y1.401 I0.463 J-0.381
N5030 G1 X6.78 Y-1.703
N5035 G3 X7.655 Y-1.421 I0.319 J0.508
N5040 X7.327 Y-0.639 Z-20. I-0.556 J0.226
N5045 G1 X7.109 Y-0.559
N5050 X6.674 Y-0.397
N5055 X6.457 Y-0.29
N5060 X5.153 Y0.407
N5065 X4.718 Y0.65
N5070 X4.5 Y0.781
N5075 X4.178 Y1.022
N5080 X4.066 Y1.11
N5085 X2.848 Y2.109
N5090 X2.761 Y2.182
N5095 X2.544 Y2.374
N5100 X2.374 Y2.544
N5105 X2.182 Y2.761
N5110 X2.109 Y2.848
N5115 X1.11 Y4.066
N5120 X1.022 Y4.178
N5125 X0.781 Y4.5
N5130 X0.65 Y4.718
N5135 X0.407 Y5.153
N5140 X-0.113 Y6.125
N5145 G3 X-0.788 Y6.403 I-0.519 J-0.301
N5150 G1 X-0.879 Y6.379 Z-19.993
N5155 X-0.967 Y6.355 Z-19.971
N5160 X-1.051 Y6.332 Z-19.935
N5165 X-1.129 Y6.311 Z-19.885
N5170 X-1.198 Y6.292 Z-19.824
N5175 X-1.257 Y6.276 Z-19.753
N5180 X-1.304 Y6.264 Z-19.672
N5185 X-1.339 Y6.254 Z-19.585
N5190 X-1.36 Y6.248 Z-19.494
N5195 X-1.367 Y6.247 Z-19.4
N5200 G0 Z5.
N5205 X-1.573 Y45.665
N5210 Z-18.8
N5215 G1 Z-19.4 F2880.
N5220 X-1.568 Y45.669 Z-19.494
N5225 X-1.55 Y45.683 Z-19.585
N5230 X-1.522 Y45.706 Z-19.672
N5235 X-1.484 Y45.737 Z-19.753
N5240 X-1.437 Y45.775 Z-19.824
N5245 X-1.381 Y45.82 Z-19.885
N5250 X-1.319 Y45.871 Z-19.935
N5255 X-1.251 Y45.926 Z-19.971
N5260 X-1.18 Y45.984 Z-19.993
N5265 X-1.107 Y46.043 Z-20.
N5270 G3 X-0.639 Y46.674 I-0.997 J1.229
N5275 G1 X-0.559 Y46.891
N5280 X-0.397 Y47.326
N5285 X-0.29 Y47.543
N5290 X0.407 Y48.847
N5295 X0.65 Y49.282
N5300 X0.781 Y49.5
N5305 X1.022 Y49.822
N5310 X1.11 Y49.934
N5315 X2.109 Y51.152
N5320 X2.182 Y51.239
N5325 X2.374 Y51.456
N5330 X2.544 Y51.626
N5335 X2.761 Y51.818
N5340 X2.848 Y51.891
N5345 X4.066 Y52.89
N5350 X4.178 Y52.978
N5355 X4.5 Y53.219
N5360 X4.718 Y53.35
N5365 X5.153 Y53.593
N5370 X5.421 Y53.736
N5375 G3 X5.699 Y54.412 I-0.301 J0.519
N5380 G1 X5.674 Y54.502 Z-19.993
N5385 X5.65 Y54.591 Z-19.971
N5390 X5.628 Y54.675 Z-19.935
N5395 X5.607 Y54.752 Z-19.885
N5400 X5.588 Y54.821 Z-19.824
N5405 X5.572 Y54.88 Z-19.753
N5410 X5.559 Y54.928 Z-19.672
N5415 X5.55 Y54.963 Z-19.585
N5420 X5.544 Y54.984 Z-19.494
N5425 X5.542 Y54.991 Z-19.4
N5430 G0 Z5.
N5435 X45.665 Y55.573
N5440 Z-18.8
N5445 G1 Z-19.4 F2880.
N5450 X45.669 Y55.568 Z-19.494
N5455 X45.683 Y55.55 Z-19.585
N5460 X45.706 Y55.522 Z-19.672
N5465 X45.737 Y55.484 Z-19.753
N5470 X45.775 Y55.437 Z-19.824
N5475 X45.82 Y55.381 Z-19.885
N5480 X45.871 Y55.319 Z-19.935
N5485 X45.926 Y55.251 Z-19.971
N5490 X45.984 Y55.18 Z-19.993
N5495 X46.043 Y55.107 Z-20.
N5500 G3 X46.674 Y54.639 I1.229 J0.997
N5505 G1 X46.891 Y54.559
N5510 X47.326 Y54.397
N5515 X47.543 Y54.29
N5520 X48.847 Y53.593
N5525 X49.282 Y53.35
N5530 X49.5 Y53.219
N5535 X49.822 Y52.978
N5540 X49.934 Y52.89
N5545 X51.152 Y51.891
N5550 X51.239 Y51.818
N5555 X51.456 Y51.626
N5560 X51.626 Y51.456
N5565 X51.818 Y51.239
N5570 X51.891 Y51.152
N5575 X52.89 Y49.934
N5580 X52.978 Y49.822
N5585 X53.219 Y49.5
N5590 X53.35 Y49.282
N5595 X53.593 Y48.847
N5600 X53.737 Y48.578
N5605 G3 X54.412 Y48.3 I0.519 J0.301
N5610 G1 X54.503 Y48.325 Z-19.993
N5615 X54.591 Y48.348 Z-19.971
N5620 X54.675 Y48.371 Z-19.935
N5625 X54.753 Y48.392 Z-19.885
N5630 X54.822 Y48.411 Z-19.824
N5635 X54.881 Y48.427 Z-19.753
N5640 X54.928 Y48.44 Z-19.672
N5645 X54.963 Y48.449 Z-19.585
N5650 X54.984 Y48.455 Z-19.494
N5655 X54.992 Y48.457 Z-19.4
N5660 G0 Z5.
N5665 X55.573 Y8.335
N5670 Z-18.8
N5675 G1 Z-19.4 F2880.
N5680 X55.568 Y8.331 Z-19.494
N5685 X55.55 Y8.317 Z-19.585
N5690 X55.522 Y8.294 Z-19.672
N5695 X55.484 Y8.263 Z-19.753
N5700 X55.437 Y8.225 Z-19.824
N5705 X55.381 Y8.18 Z-19.885
N5710 X55.319 Y8.129 Z-19.935
N5715 X55.251 Y8.074 Z-19.971
N5720 X55.18 Y8.016 Z-19.993
N5725 X55.107 Y7.957 Z-20.
N5730 G3 X54.639 Y7.327 I0.997 J-1.229
N5735 G1 X54.559 Y7.109
N5740 X54.397 Y6.674
N5745 X54.29 Y6.457
N5750 X53.593 Y5.153
N5755 X53.35 Y4.718
N5760 X53.219 Y4.5
N5765 X52.978 Y4.178
N5770 X52.89 Y4.066
N5775 X51.891 Y2.848
N5780 X51.818 Y2.761
N5785 X51.626 Y2.544
N5790 X51.456 Y2.374
N5795 X51.239 Y2.182
N5800 X51.152 Y2.109
N5805 X49.934 Y1.11
N5810 X49.822 Y1.022
N5815 X49.5 Y0.781
N5820 X49.282 Y0.65
N5825 X48.847 Y0.407
N5830 X48.579 Y0.264
N5835 X48.503 Y0.211
N5840 X48.436 Y0.148
N5845 X48.397 Y0.085 Z-19.995
N5850 X48.359 Y0.023 Z-19.982
N5855 X48.321 Y-0.037 Z-19.959
N5860 X48.306 Y-0.115 Z-19.921
N5865 X48.293 Y-0.186 Z-19.871
N5870 X48.28 Y-0.25 Z-19.812
N5875 Y-0.255 Z-19.806
N5880 X48.288 Y-0.31 Z-19.736
N5885 X48.293 Y-0.354 Z-19.659
N5890 X48.298 Y-0.386 Z-19.576
N5895 X48.3 Y-0.405 Z-19.489
N5900 X48.301 Y-0.412 Z-19.4
N5905 G0 Z5.
N5910 X-4.748 Y-4.968
N5915 Z-25.3
N5920 G1 Z-25.9 F2880.
N5925 X-4.742 Y-4.964 Z-25.994
N5930 X-4.724 Y-4.951 Z-26.085
N5935 X-4.694 Y-4.931 Z-26.172
N5940 X-4.654 Y-4.903 Z-26.253
N5945 X-4.603 Y-4.869 Z-26.324
N5950 X-4.544 Y-4.829 Z-26.385
N5955 X-4.478 Y-4.783 Z-26.435
N5960 X-4.406 Y-4.734 Z-26.471
N5965 X-4.33 Y-4.683 Z-26.493
N5970 X-4.252 Y-4.63 Z-26.5
N5975 G3 X-1.741 Y-2.49 I-8.622 J12.661
N5980 G1 X-1.662 Y-2.4
N5985 X-1.601 Y-1.444
N5990 X-1.563 Y-0.487
N5995 X-1.54 Y0.47
N6000 X-1.525 Y1.428
N6005 X-1.516 Y2.386
N6010 X-1.51 Y3.343
N6015 X-1.506 Y4.301
N6020 X-1.503 Y6.216
N6025 X-1.5 Y10.047
N6030 Y48.355
N6035 Y51.707
N6040 X-1.416 Y52.178
N6045 X-1.047 Y53.062
N6050 X-0.409 Y53.776
N6055 X0.382 Y54.316
N6060 X1.257 Y54.705
N6065 X2.176 Y54.975
N6070 X3.116 Y55.159
N6075 X4.066 Y55.28
N6080 X5.02 Y55.359
N6085 X5.977 Y55.41
N6090 X6.934 Y55.443
N6095 X7.891 Y55.464
N6100 X8.849 Y55.477
N6105 X9.807 Y55.486
N6110 X10.764 Y55.491
N6115 X12.093 Y55.496
N6120 X12.109
N6125 X12.326 Y55.5
N6130 X23.196
N6135 X24.152 Y55.548
N6140 X25.11 Y55.53
N6145 X26.067 Y55.519
N6150 X27.025 Y55.512
N6155 X27.983 Y55.508
N6160 X28.94 Y55.505
N6165 X30.856 Y55.502
N6170 X35.644 Y55.5
N6175 X51.925
N6180 X52.385 Y55.366
N6185 X53.235 Y54.925
N6190 X53.909 Y54.245
N6195 X54.413 Y53.431
N6200 X54.773 Y52.543
N6205 X55.022 Y51.618
N6210 X55.19 Y50.675
N6215 X55.3 Y49.724
N6220 X55.372 Y48.769
N6225 X55.419 Y47.813
N6230 X55.448 Y46.855
N6235 X55.467 Y45.898
N6240 X55.479 Y44.94
N6245 X55.487 Y43.983
N6250 X55.492 Y43.025
N6255 X55.496 Y41.907
N6260 Y41.891
N6265 X55.5 Y41.674
N6270 Y31.022
N6275 X55.548 Y30.065
N6280 X55.53 Y29.108
N6285 X55.519 Y28.15
N6290 X55.512 Y27.192
N6295 X55.508 Y26.235
N6300 X55.505 Y25.277
N6305 X55.502 Y23.362
N6310 X55.5 Y18.573
N6315 Y2.292
N6320 X55.415 Y1.821
N6325 X55.047 Y0.937
N6330 X54.409 Y0.223
N6335 X53.617 Y-0.316
N6340 X52.742 Y-0.705
N6345 X51.823 Y-0.975
N6350 X50.883 Y-1.159
N6355 X49.933 Y-1.28
N6360 X48.979 Y-1.359
N6365 X48.022 Y-1.41
N6370 X47.065 Y-1.443
N6375 X46.108 Y-1.464
N6380 X45.15 Y-1.477
N6385 X44.193 Y-1.486
N6390 X43.235 Y-1.491
N6395 X41.907 Y-1.496
N6400 X41.891
N6405 X41.674 Y-1.5
N6410 X31.022
N6415 X30.065 Y-1.548
N6420 X29.108 Y-1.53
N6425 X28.15 Y-1.519
N6430 X27.192 Y-1.512
N6435 X26.235 Y-1.508
N6440 X25.277 Y-1.505
N6445 X23.362 Y-1.502
N6450 X18.573 Y-1.5
N6455 X3.729
N6460 X3.259 Y-1.41
N6465 X2.379 Y-1.03
N6470 X1.674 Y-0.382
N6475 X1.144 Y0.415
N6480 X0.764 Y1.295
N6485 X0.501 Y2.216
N6490 X0.324 Y3.157
N6495 X0.208 Y4.107
N6500 X0.132 Y5.062
N6505 X0.121 Y5.283
N6510 X0.085 Y5.574
N6515 X0.006 Y5.857
N6520 X-0.113 Y6.125
N6525 X-0.29 Y6.457
N6530 X-0.397 Y6.674
N6535 X-0.559 Y7.109
N6540 X-0.639 Y7.327
N6545 X-1.035 Y8.631
N6550 X-1.097 Y8.848
N6555 X-1.214 Y9.283
N6560 X-1.258 Y9.5
N6565 X-1.31 Y9.935
N6570 X-1.335 Y10.153
N6575 X-1.463 Y11.457
N6580 X-1.476 Y11.674
N6585 X-1.496 Y12.109
N6590 G3 X-1.987 Y12.65 I-0.598 J-0.049
N6595 G1 X-2.079 Y12.667 Z-26.493
N6600 X-2.169 Y12.683 Z-26.471
N6605 X-2.255 Y12.699 Z-26.435
N6610 X-2.334 Y12.713 Z-26.385
N6615 X-2.404 Y12.726 Z-26.324
N6620 X-2.464 Y12.737 Z-26.253
N6625 X-2.513 Y12.746 Z-26.172
N6630 X-2.548 Y12.752 Z-26.085
N6635 X-2.57 Y12.756 Z-25.994
N6640 X-2.577 Y12.757 Z-25.9
N6645 G0 Z5.
N6650 X-2.05 Y40.414
N6655 Z-25.3
N6660 G1 Z-25.9 F2880.
N6665 X-2.046 Y40.42 Z-25.994
N6670 X-2.035 Y40.439 Z-26.085
N6675 X-2.016 Y40.469 Z-26.172
N6680 X-1.99 Y40.511 Z-26.253
N6685 X-1.958 Y40.563 Z-26.324
N6690 X-1.92 Y40.624 Z-26.385
N6695 X-1.878 Y40.692 Z-26.435
N6700 X-1.832 Y40.766 Z-26.471
N6705 X-1.784 Y40.844 Z-26.493
N6710 X-1.734 Y40.924 Z-26.5
N6715 G3 X-1.5 Y41.674 I-1.346 J0.832
N6720 G1 X-1.496 Y41.891
N6725 X-1.476 Y42.326
N6730 X-1.463 Y42.543
N6735 X-1.335 Y43.847
N6740 X-1.31 Y44.065
N6745 X-1.258 Y44.5
N6750 X-1.214 Y44.717
N6755 X-1.097 Y45.152
N6760 X-1.035 Y45.369
N6765 X-0.639 Y46.674
N6770 X-0.571 Y46.9
N6775 X-0.445 Y47.417
N6780 X-0.313 Y48.133
N6785 X-0.194 Y49.083
N6790 X-0.089 Y50.035
N6795 X0.272 Y50.922
N6800 X0.851 Y51.685
N6805 X1.581 Y52.305
N6810 X2.409 Y52.786
N6815 X3.297 Y53.146
N6820 X4.217 Y53.409
N6825 X4.868 Y53.539
N6830 X5.059 Y53.586
N6835 X5.243 Y53.652
N6840 X5.421 Y53.736
N6845 X6.457 Y54.29
N6850 X6.674 Y54.397
N6855 X7.109 Y54.559
N6860 X7.327 Y54.639
N6865 X8.631 Y55.035
N6870 X8.848 Y55.097
N6875 X9.283 Y55.214
N6880 X9.5 Y55.258
N6885 X9.935 Y55.31
N6890 X10.153 Y55.335
N6895 X11.457 Y55.463
N6900 X11.674 Y55.476
N6905 X12.109 Y55.496
N6910 X12.326 Y55.5 Z-26.454
N6915 X12.877 Z-26.337
N6920 X13.051 Z-26.3
N6925 X22.254
N6930 X22.427 Z-26.337
N6935 X23.196 Z-26.5
N6940 X31.022
N6945 G3 X31.585 Y55.965 I-0.021 J0.6
N6950 G1 X31.606 Y56.056 Z-26.493
N6955 X31.627 Y56.145 Z-26.471
N6960 X31.647 Y56.23 Z-26.435
N6965 X31.665 Y56.308 Z-26.385
N6970 X31.681 Y56.378 Z-26.324
N6975 X31.695 Y56.438 Z-26.253
N6980 X31.706 Y56.486 Z-26.172
N6985 X31.714 Y56.521 Z-26.085
N6990 X31.719 Y56.542 Z-25.994
N6995 X31.72 Y56.549 Z-25.9
N7000 G0 Z5.
N7005 X40.414 Y56.05
N7010 Z-25.3
N7015 G1 Z-25.9 F2880.
N7020 X40.42 Y56.046 Z-25.994
N7025 X40.439 Y56.035 Z-26.085
N7030 X40.469 Y56.016 Z-26.172
N7035 X40.511 Y55.99 Z-26.253
N7040 X40.563 Y55.958 Z-26.324
N7045 X40.624 Y55.92 Z-26.385
N7050 X40.692 Y55.878 Z-26.435
N7055 X40.766 Y55.832 Z-26.471
N7060 X40.844 Y55.784 Z-26.493
N7065 X40.924 Y55.734 Z-26.5
N7070 G3 X41.674 Y55.5 I0.832 J1.346
N7075 G1 X41.891 Y55.496
N7080 X42.326 Y55.476
N7085 X42.543 Y55.463
N7090 X43.847 Y55.335
N7095 X44.065 Y55.31
N7100 X44.5 Y55.258
N7105 X44.717 Y55.214
N7110 X45.152 Y55.097
N7115 X45.369 Y55.035
N7120 X46.674 Y54.639
N7125 X46.9 Y54.571
N7130 X47.417 Y54.445
N7135 X48.133 Y54.314
N7140 X49.083 Y54.194
N7145 X50.035 Y54.088
N7150 X50.921 Y53.725
N7155 X51.686 Y53.148
N7160 X52.306 Y52.418
N7165 X52.787 Y51.59
N7170 X53.148 Y50.703
N7175 X53.41 Y49.782
N7180 X53.539 Y49.132
N7185 X53.587 Y48.941
N7190 X53.653 Y48.756
N7195 X53.737 Y48.578
N7200 X54.29 Y47.543
N7205 X54.397 Y47.326
N7210 X54.559 Y46.891
N7215 X54.639 Y46.674
N7220 X55.035 Y45.369
N7225 X55.097 Y45.152
N7230 X55.214 Y44.717
N7235 X55.258 Y44.5
N7240 X55.31 Y44.065
N7245 X55.335 Y43.847
N7250 X55.463 Y42.543
N7255 X55.476 Y42.326
N7260 X55.496 Y41.891
N7265 X55.5 Y41.674 Z-26.454
N7270 Y41.123 Z-26.337
N7275 Y40.949 Z-26.3
N7280 Y31.964
N7285 Y31.79 Z-26.337
N7290 Y31.022 Z-26.5
N7295 Y23.196
N7300 G3 X55.965 Y22.632 I0.6 J0.021
N7305 G1 X56.056 Y22.611 Z-26.493
N7310 X56.145 Y22.59 Z-26.471
N7315 X56.23 Y22.571 Z-26.435
N7320 X56.308 Y22.553 Z-26.385
N7325 X56.378 Y22.537 Z-26.324
N7330 X56.438 Y22.523 Z-26.253
N7335 X56.486 Y22.512 Z-26.172
N7340 X56.521 Y22.504 Z-26.085
N7345 X56.542 Y22.499 Z-25.994
N7350 X56.549 Y22.497 Z-25.9
N7355 G0 Z5.
N7360 X56.05 Y13.586
N7365 Z-25.3
N7370 G1 Z-25.9 F2880.
N7375 X56.046 Y13.58 Z-25.994
N7380 X56.035 Y13.561 Z-26.085
N7385 X56.016 Y13.531 Z-26.172
N7390 X55.99 Y13.489 Z-26.253
N7395 X55.958 Y13.437 Z-26.324
N7400 X55.92 Y13.376 Z-26.385
N7405 X55.878 Y13.308 Z-26.435
N7410 X55.832 Y13.234 Z-26.471
N7415 X55.784 Y13.156 Z-26.493
N7420 X55.734 Y13.076 Z-26.5
N7425 G3 X55.5 Y12.326 I1.346 J-0.832
N7430 G1 X55.496 Y12.109
N7435 X55.476 Y11.674
N7440 X55.463 Y11.457
N7445 X55.335 Y10.153
N7450 X55.31 Y9.935
N7455 X55.258 Y9.5
N7460 X55.214 Y9.283
N7465 X55.097 Y8.848
N7470 X55.035 Y8.631
N7475 X54.639 Y7.327
N7480 X54.571 Y7.1
N7485 X54.445 Y6.583
N7490 X54.314 Y5.867
N7495 X54.194 Y4.917
N7500 X54.089 Y3.965
N7505 X53.728 Y3.078
N7510 X53.15 Y2.315
N7515 X52.419 Y1.695
N7520 X51.591 Y1.214
N7525 X50.704 Y0.854
N7530 X49.783 Y0.591
N7535 X49.132 Y0.461
N7540 X48.941 Y0.414
N7545 X48.757 Y0.348
N7550 X48.579 Y0.264
N7555 X47.543 Y-0.29
N7560 X47.326 Y-0.397
N7565 X46.891 Y-0.559
N7570 X46.674 Y-0.639
N7575 X45.369 Y-1.035
N7580 X45.152 Y-1.097
N7585 X44.717 Y-1.214
N7590 X44.5 Y-1.258
N7595 X44.065 Y-1.31
N7600 X43.847 Y-1.335
N7605 X42.543 Y-1.463
N7610 X42.326 Y-1.476
N7615 X41.891 Y-1.496
N7620 X41.674 Y-1.5 Z-26.454
N7625 X41.123 Z-26.337
N7630 X40.949 Z-26.3
N7635 X31.964
N7640 X31.79 Z-26.337
N7645 X31.022 Z-26.5
N7650 X23.196
N7655 X23.174 Y-1.505 Z-26.495
N7660 X23.157 Y-1.518 Z-26.491
N7665 G2 X22.506 Y-2.136 Z-26.3 I-5.396 J5.032
N7670 X19.918 Y-3.542 I-4.745 J5.65
N7675 G1 X19.831 Y-3.561
N7680 X19.742 Y-3.568
N7685 X15.779
N7690 X15.69 Y-3.561
N7695 X15.603 Y-3.542
N7700 G2 X13.016 Y-2.136 I2.157 J7.056
N7705 X12.364 Y-1.518 Z-26.491 I4.745 J5.65
N7710 G1 X12.347 Y-1.505 Z-26.495
N7715 X12.326 Y-1.5 Z-26.5
N7720 X12.109 Y-1.496
N7725 X11.674 Y-1.476
N7730 X11.457 Y-1.463
N7735 X10.153 Y-1.335
N7740 X9.935 Y-1.31
N7745 X9.5 Y-1.258
N7750 X9.283 Y-1.214
N7755 X8.848 Y-1.097
N7760 X8.631 Y-1.035
N7765 X7.327 Y-0.639
N7770 X7.1 Y-0.571
N7775 X6.583 Y-0.445
N7780 X5.641 Y-0.272
N7785 X4.741 Y0.057
N7790 X3.955 Y0.603
N7795 X3.308 Y1.309
N7800 X2.92 Y1.931
N7805 X2.81 Y2.09
N7810 X2.684 Y2.238
N7815 X2.545 Y2.373
N7820 G3 X1.701 Y2.29 Z-26.3 I-0.381 J-0.464
N7825 X1.845 Y1.401 I0.463 J-0.381
N7830 G1 X6.78 Y-1.703
N7835 G3 X7.655 Y-1.421 I0.319 J0.508
N7840 X7.327 Y-0.639 Z-26.5 I-0.556 J0.226
N7845 G1 X7.109 Y-0.559
N7850 X6.674 Y-0.397
N7855 X6.457 Y-0.29
N7860 X5.153 Y0.407
N7865 X4.718 Y0.65
N7870 X4.5 Y0.781
N7875 X4.178 Y1.022
N7880 X4.066 Y1.11
N7885 X2.848 Y2.109
N7890 X2.761 Y2.182
N7895 X2.544 Y2.374
N7900 X2.374 Y2.544
N7905 X2.182 Y2.761
N7910 X2.109 Y2.848
N7915 X1.11 Y4.066
N7920 X1.022 Y4.178
N7925 X0.781 Y4.5
N7930 X0.65 Y4.718
N7935 X0.407 Y5.153
N7940 X-0.113 Y6.125
N7945 G3 X-0.788 Y6.403 I-0.519 J-0.301
N7950 G1 X-0.879 Y6.379 Z-26.493
N7955 X-0.967 Y6.355 Z-26.471
N7960 X-1.051 Y6.332 Z-26.435
N7965 X-1.129 Y6.311 Z-26.385
N7970 X-1.198 Y6.292 Z-26.324
N7975 X-1.257 Y6.276 Z-26.253
N7980 X-1.304 Y6.264 Z-26.172
N7985 X-1.339 Y6.254 Z-26.085
N7990 X-1.36 Y6.248 Z-25.994
N7995 X-1.367 Y6.247 Z-25.9
N8000 G0 Z5.
N8005 X-1.573 Y45.665
N8010 Z-25.3
N8015 G1 Z-25.9 F2880.
N8020 X-1.568 Y45.669 Z-25.994
N8025 X-1.55 Y45.683 Z-26.085
N8030 X-1.522 Y45.706 Z-26.172
N8035 X-1.484 Y45.737 Z-26.253
N8040 X-1.437 Y45.775 Z-26.324
N8045 X-1.381 Y45.82 Z-26.385
N8050 X-1.319 Y45.871 Z-26.435
N8055 X-1.251 Y45.926 Z-26.471
N8060 X-1.18 Y45.984 Z-26.493
N8065 X-1.107 Y46.043 Z-26.5
N8070 G3 X-0.639 Y46.674 I-0.997 J1.229
N8075 G1 X-0.559 Y46.891
N8080 X-0.397 Y47.326
N8085 X-0.29 Y47.543
N8090 X0.407 Y48.847
N8095 X0.65 Y49.282
N8100 X0.781 Y49.5
N8105 X1.022 Y49.822
N8110 X1.11 Y49.934
N8115 X2.109 Y51.152
N8120 X2.182 Y51.239
N8125 X2.374 Y51.456
N8130 X2.544 Y51.626
N8135 X2.761 Y51.818
N8140 X2.848 Y51.891
N8145 X4.066 Y52.89
N8150 X4.178 Y52.978
N8155 X4.5 Y53.219
N8160 X4.718 Y53.35
N8165 X5.153 Y53.593
N8170 X5.421 Y53.736
N8175 G3 X5.699 Y54.412 I-0.301 J0.519
N8180 G1 X5.674 Y54.502 Z-26.493
N8185 X5.65 Y54.591 Z-26.471
N8190 X5.628 Y54.675 Z-26.435
N8195 X5.607 Y54.752 Z-26.385
N8200 X5.588 Y54.821 Z-26.324
N8205 X5.572 Y54.88 Z-26.253
N8210 X5.559 Y54.928 Z-26.172
N8215 X5.55 Y54.963 Z-26.085
N8220 X5.544 Y54.984 Z-25.994
N8225 X5.542 Y54.991 Z-25.9
N8230 G0 Z5.
N8235 X45.665 Y55.573
N8240 Z-25.3
N8245 G1 Z-25.9 F2880.
N8250 X45.669 Y55.568 Z-25.994
N8255 X45.683 Y55.55 Z-26.085
N8260 X45.706 Y55.522 Z-26.172
N8265 X45.737 Y55.484 Z-26.253
N8270 X45.775 Y55.437 Z-26.324
N8275 X45.82 Y55.381 Z-26.385
N8280 X45.871 Y55.319 Z-26.435
N8285 X45.926 Y55.251 Z-26.471
N8290 X45.984 Y55.18 Z-26.493
N8295 X46.043 Y55.107 Z-26.5
N8300 G3 X46.674 Y54.639 I1.229 J0.997
N8305 G1 X46.891 Y54.559
N8310 X47.326 Y54.397
N8315 X47.543 Y54.29
N8320 X48.847 Y53.593
N8325 X49.282 Y53.35
N8330 X49.5 Y53.219
N8335 X49.822 Y52.978
N8340 X49.934 Y52.89
N8345 X51.152 Y51.891
N8350 X51.239 Y51.818
N8355 X51.456 Y51.626
N8360 X51.626 Y51.456
N8365 X51.818 Y51.239
N8370 X51.891 Y51.152
N8375 X52.89 Y49.934
N8380 X52.978 Y49.822
N8385 X53.219 Y49.5
N8390 X53.35 Y49.282
N8395 X53.593 Y48.847
N8400 X53.737 Y48.578
N8405 G3 X54.412 Y48.3 I0.519 J0.301
N8410 G1 X54.503 Y48.325 Z-26.493
N8415 X54.591 Y48.348 Z-26.471
N8420 X54.675 Y48.371 Z-26.435
N8425 X54.753 Y48.392 Z-26.385
N8430 X54.822 Y48.411 Z-26.324
N8435 X54.881 Y48.427 Z-26.253
N8440 X54.928 Y48.44 Z-26.172
N8445 X54.963 Y48.449 Z-26.085
N8450 X54.984 Y48.455 Z-25.994
N8455 X54.992 Y48.457 Z-25.9
N8460 G0 Z5.
N8465 X55.573 Y8.335
N8470 Z-25.3
N8475 G1 Z-25.9 F2880.
N8480 X55.568 Y8.331 Z-25.994
N8485 X55.55 Y8.317 Z-26.085
N8490 X55.522 Y8.294 Z-26.172
N8495 X55.484 Y8.263 Z-26.253
N8500 X55.437 Y8.225 Z-26.324
N8505 X55.381 Y8.18 Z-26.385
N8510 X55.319 Y8.129 Z-26.435
N8515 X55.251 Y8.074 Z-26.471
N8520 X55.18 Y8.016 Z-26.493
N8525 X55.107 Y7.957 Z-26.5
N8530 G3 X54.639 Y7.327 I0.997 J-1.229
N8535 G1 X54.559 Y7.109
N8540 X54.397 Y6.674
N8545 X54.29 Y6.457
N8550 X53.593 Y5.153
N8555 X53.35 Y4.718
N8560 X53.219 Y4.5
N8565 X52.978 Y4.178
N8570 X52.89 Y4.066
N8575 X51.891 Y2.848
N8580 X51.818 Y2.761
N8585 X51.626 Y2.544
N8590 X51.456 Y2.374
N8595 X51.239 Y2.182
N8600 X51.152 Y2.109
N8605 X49.934 Y1.11
N8610 X49.822 Y1.022
N8615 X49.5 Y0.781
N8620 X49.282 Y0.65
N8625 X48.847 Y0.407
N8630 X48.579 Y0.264
N8635 G3 X48.301 Y-0.412 I0.301 J-0.519
N8640 G1 X48.326 Y-0.502 Z-26.493
N8645 X48.35 Y-0.591 Z-26.471
N8650 X48.372 Y-0.675 Z-26.435
N8655 X48.393 Y-0.752 Z-26.385
N8660 X48.412 Y-0.821 Z-26.324
N8665 X48.428 Y-0.88 Z-26.253
N8670 X48.441 Y-0.928 Z-26.172
N8675 X48.45 Y-0.963 Z-26.085
N8680 X48.456 Y-0.984 Z-25.994
N8685 X48.458 Y-0.991 Z-25.9
N8690 G0 Z15.
(2D CONTOUR1)
N8695 G0 X-2.8 Y26.4
N8700 Z15.
N8705 Z5.
N8710 G1 Z1. F480.
N8715 Z-25.9
N8720 G18 G2 X-2.2 Z-26.5 I0.6 K0. F1440.
N8725 G1 X-1.6
N8730 G17 G3 X-1. Y27. I0. J0.6
N8735 G1 Y42.
N8740 G2 X12. Y55. I13. J0.
N8745 G1 X42.
N8750 G2 X55. Y42. I0. J-13.
N8755 G1 Y12.
N8760 G2 X42. Y-1. I-13. J0.
N8765 G1 X12.
N8770 G2 X-1. Y12. I0. J13.
N8775 G1 Y27.
N8780 G3 X-1.6 Y27.6 I-0.6 J0.
N8785 G1 X-2.2
N8790 G18 G3 X-2.8 Z-25.9 I0. K0.6
N8795 G0 Z15.
N8800 G17
(ADAPTIVE2)
N8805 G0 X26.913 Y30.007
N8810 Z15.
N8815 Z5.
N8820 Z2.5
N8825 G3 X24.096 Y26.217 Z2.025 I0.087 J-3.007 F960.
N8830 X28.423 Y24.362 Z1.55 I2.896 J0.78
N8835 X29.222 Y28.989 Z1.075 I-1.427 J2.629
N8840 X24.549 Y28.693 Z0.6 I-2.22 J-1.993
N8845 X25.917 Y24.228 Z0.125 I2.447 J-1.692
N8850 X29.931 Y26.589 Z-0.35 I1.075 J2.765
N8855 X26.713 Y29.936 Z-0.825 I-2.931 J0.403
N8860 X24.21 Y26.04 Z-1.3 I0.287 J-2.936
N8865 X28.569 Y24.514 Z-1.775 I2.781 J0.958
N8870 X29.04 Y29.095 Z-2.25 I-1.572 J2.476
N8875 X24.488 Y28.492 Z-2.725 I-2.038 J-2.098
N8880 X26.126 Y24.216 Z-3.2 I2.507 J-1.491
N8885 X29.894 Y26.794 Z-3.675 I0.867 J2.776
N8890 X26.522 Y29.853 Z-4.15 I-2.893 J0.198
N8895 X24.336 Y25.874 Z-4.625 I0.477 J-2.852
N8900 X28.7 Y24.674 Z-5.1 I2.656 J1.123
N8905 X28.855 Y29.185 Z-5.575 I-1.704 J2.316
N8910 X24.444 Y28.291 Z-6.05 I-1.852 J-2.188
N8915 X26.331 Y24.22 Z-6.525 I2.551 J-1.29
N8920 X29.843 Y26.992 Z-7. I0.661 J2.773
N8925 X24.142 I-2.85 J0.
N8930 X29.843 I2.85 J0.
N8935 G1 X29.847 Y27.232 F2880.
N8940 X30.023 Y28.173
N8945 X30.056 Y28.288
N8950 X30.084 Y28.436
N8955 X30.097 Y28.585
N8960 Y28.735
N8965 X30.084 Y28.892
N8970 X30.056 Y29.058
N8975 X30.012 Y29.232
N8980 X29.951 Y29.413
N8985 X29.872 Y29.598
N8990 X29.773 Y29.786
N8995 X29.653 Y29.974
N9000 X29.513 Y30.16
N9005 X29.351 Y30.341
N9010 X29.168 Y30.516
N9015 X28.965 Y30.682
N9020 X28.741 Y30.835
N9025 X28.499 Y30.975
N9030 X28.239 Y31.098
N9035 X27.963 Y31.202
N9040 X27.672 Y31.286
N9045 X27.37 Y31.348
N9050 X27.058 Y31.386
N9055 X26.738 Y31.398
N9060 X26.413 Y31.385
N9065 X26.085 Y31.346
N9070 X25.758 Y31.279
N9075 X25.434 Y31.185
N9080 X25.115 Y31.065
N9085 X24.804 Y30.918
N9090 X24.504 Y30.745
N9095 X24.216 Y30.547
N9100 X23.944 Y30.325
N9105 X23.689 Y30.081
N9110 X23.453 Y29.816
N9115 X23.238 Y29.532
N9120 X23.047 Y29.23
N9125 X22.879 Y28.913
N9130 X22.737 Y28.583
N9135 X22.622 Y28.241
N9140 X22.534 Y27.891
N9145 X22.475 Y27.534
N9150 X22.444 Y27.173
N9155 X22.443 Y26.81
N9160 X22.471 Y26.447
N9165 X22.527 Y26.088
N9170 X22.613 Y25.734
N9175 X22.727 Y25.388
N9180 X22.868 Y25.051
N9185 X23.036 Y24.727
N9190 X23.229 Y24.417
N9195 X23.447 Y24.124
N9200 X23.688 Y23.849
N9205 X23.95 Y23.594
N9210 X24.232 Y23.361
N9215 X24.532 Y23.151
N9220 X24.847 Y22.966
N9225 X25.177 Y22.807
N9230 X25.518 Y22.674
N9235 X25.869 Y22.57
N9240 X26.228 Y22.494
N9245 X26.591 Y22.447
N9250 X26.957 Y22.429
N9255 X27.323 Y22.441
N9260 X27.687 Y22.482
N9265 X28.047 Y22.552
N9270 X28.4 Y22.651
N9275 X28.743 Y22.778
N9280 X29.076 Y22.932
N9285 X29.395 Y23.112
N9290 X29.699 Y23.317
N9295 X29.985 Y23.546
N9300 X30.252 Y23.797
N9305 X30.498 Y24.069
N9310 X30.721 Y24.36
N9315 X30.93 Y24.682
N9320 X31.283 Y25.337
N9325 X31.568 Y25.985
N9330 X31.75 Y26.51
N9335 X31.872 Y26.983
N9340 X31.95 Y27.427
N9345 X31.989 Y27.857
N9350 X31.995 Y28.273
N9355 X31.967 Y28.677
N9360 X31.908 Y29.071
N9365 X31.818 Y29.456
N9370 X31.698 Y29.832
N9375 X31.548 Y30.198
N9380 X31.368 Y30.553
N9385 X31.159 Y30.894
N9390 X30.921 Y31.22
N9395 X30.655 Y31.529
N9400 X30.362 Y31.819
N9405 X30.042 Y32.088
N9410 X29.697 Y32.333
N9415 X29.329 Y32.553
N9420 X28.939 Y32.746
N9425 X28.528 Y32.909
N9430 X28.101 Y33.04
N9435 X27.659 Y33.138
N9440 X27.205 Y33.2
N9445 X26.742 Y33.226
N9450 X26.274 Y33.215
N9455 X25.804 Y33.166
N9460 X25.335 Y33.079
N9465 X24.871 Y32.953
N9470 X24.415 Y32.789
N9475 X23.971 Y32.588
N9480 X23.541 Y32.35
N9485 X23.13 Y32.077
N9490 X22.74 Y31.77
N9495 X22.374 Y31.431
N9500 X22.034 Y31.062
N9505 X21.724 Y30.665
N9510 X21.446 Y30.243
N9515 X21.202 Y29.799
N9520 X20.994 Y29.335
N9525 X20.823 Y28.855
N9530 X20.691 Y28.361
N9535 X20.598 Y27.858
N9540 X20.547 Y27.347
N9545 X20.536 Y26.833
N9550 X20.567 Y26.319
N9555 X20.639 Y25.809
N9560 X20.752 Y25.305
N9565 X20.905 Y24.812
N9570 X21.097 Y24.332
N9575 X21.328 Y23.869
N9580 X21.595 Y23.425
N9585 X21.897 Y23.004
N9590 X22.232 Y22.608
N9595 X22.598 Y22.241
N9600 X22.992 Y21.903
N9605 X23.412 Y21.599
N9610 X23.856 Y21.329
N9615 X24.32 Y21.095
N9620 X24.801 Y20.9
N9625 X25.296 Y20.743
N9630 X25.803 Y20.627
N9635 X26.317 Y20.552
N9640 X26.836 Y20.518
N9645 X27.356 Y20.526
N9650 X27.873 Y20.576
N9655 X28.385 Y20.667
N9660 X28.888 Y20.799
N9665 X29.379 Y20.971
N9670 X29.854 Y21.182
N9675 X30.311 Y21.43
N9680 X30.747 Y21.714
N9685 X31.161 Y22.035
N9690 X31.603 Y22.437
N9695 X32.038 Y22.902
N9700 X32.446 Y23.415
N9705 X32.819 Y23.971
N9710 X33.143 Y24.549
N9715 X33.413 Y25.139
N9720 X33.63 Y25.732
N9725 X33.794 Y26.326
N9730 X33.908 Y26.919
N9735 X33.972 Y27.509
N9740 X33.989 Y28.095
N9745 X33.959 Y28.673
N9750 X33.884 Y29.243
N9755 X33.763 Y29.801
N9760 X33.599 Y30.346
N9765 X33.392 Y30.876
N9770 X33.143 Y31.387
N9775 X32.853 Y31.877
N9780 X32.524 Y32.345
N9785 X32.156 Y32.786
N9790 X31.751 Y33.2
N9795 X31.312 Y33.582
N9800 X30.84 Y33.93
N9805 X30.337 Y34.242
N9810 X29.806 Y34.515
N9815 X29.25 Y34.746
N9820 X28.673 Y34.934
N9825 X28.078 Y35.075
N9830 X27.469 Y35.169
N9835 X26.849 Y35.215
N9840 X26.224 Y35.21
N9845 X25.596 Y35.155
N9850 X24.971 Y35.049
N9855 X24.353 Y34.892
N9860 X23.745 Y34.685
N9865 X23.153 Y34.428
N9870 X22.58 Y34.123
N9875 X22.031 Y33.771
N9880 X21.509 Y33.375
N9885 X21.019 Y32.936
N9890 X20.564 Y32.457
N9895 X20.147 Y31.941
N9900 X19.772 Y31.391
N9905 X19.441 Y30.812
N9910 X19.156 Y30.206
N9915 X18.921 Y29.577
N9920 X18.736 Y28.93
N9925 X18.604 Y28.27
N9930 X18.525 Y27.599
N9935 X18.5 Y26.923
N9940 X18.529 Y26.247
N9945 X18.613 Y25.574
N9950 X18.751 Y24.909
N9955 X18.941 Y24.257
N9960 X19.184 Y23.622
N9965 X19.477 Y23.008
N9970 X19.818 Y22.419
N9975 X20.206 Y21.858
N9980 X20.638 Y21.331
N9985 X21.111 Y20.84
N9990 X21.622 Y20.388
N9995 X22.168 Y19.978
N10000 X22.746 Y19.614
N10005 X23.351 Y19.296
N10010 X23.979 Y19.029
N10015 X24.627 Y18.812
N10020 X25.291 Y18.649
N10025 X25.965 Y18.539
N10030 X26.646 Y18.483
N10035 X27.33
N10040 X28.012 Y18.537
N10045 X28.687 Y18.646
N10050 X29.351 Y18.808
N10055 X30. Y19.024
N10060 X30.63 Y19.291
N10065 X31.254 Y19.616
N10070 X31.869 Y20.004
N10075 X32.47 Y20.453
N10080 X33.048 Y20.962
N10085 X33.594 Y21.527
N10090 X34.097 Y22.139
N10095 X34.551 Y22.792
N10100 X34.95 Y23.476
N10105 X35.29 Y24.187
N10110 X35.57 Y24.916
N10115 X35.789 Y25.659
N10120 X35.946 Y26.411
N10125 X36.041 Y27.167
N10130 X36.075 Y27.922
N10135 X36.049 Y28.673
N10140 X35.963 Y29.415
N10145 X35.818 Y30.146
N10150 X35.615 Y30.86
N10155 X35.356 Y31.555
N10160 X35.043 Y32.227
N10165 X34.676 Y32.872
N10170 X34.257 Y33.487
N10175 X33.789 Y34.068
N10180 X33.274 Y34.612
N10185 X32.715 Y35.115
N10190 X32.113 Y35.573
N10195 X31.473 Y35.985
N10200 X30.799 Y36.346
N10205 X30.093 Y36.653
N10210 X29.361 Y36.904
N10215 X28.606 Y37.097
N10220 X27.834 Y37.23
N10225 X27.049 Y37.3
N10230 X26.257 Y37.307
N10235 X25.462 Y37.251
N10240 X24.67 Y37.13
N10245 X23.886 Y36.945
N10250 X23.116 Y36.696
N10255 X22.366 Y36.385
N10260 X21.639 Y36.013
N10265 X20.941 Y35.582
N10270 X20.278 Y35.095
N10275 X19.654 Y34.554
N10280 X19.073 Y33.963
N10285 X18.54 Y33.325
N10290 X18.058 Y32.645
N10295 X17.632 Y31.926
N10300 X17.264 Y31.173
N10305 X16.956 Y30.392
N10310 X16.712 Y29.586
N10315 X16.533 Y28.763
N10320 X16.42 Y27.926
N10325 X16.375 Y27.081
N10330 X16.398 Y26.235
N10335 X16.489 Y25.392
N10340 X16.647 Y24.558
N10345 X16.872 Y23.739
N10350 X17.162 Y22.94
N10355 X17.516 Y22.166
N10360 X17.931 Y21.422
N10365 X18.404 Y20.714
N10370 X18.933 Y20.046
N10375 X19.514 Y19.422
N10380 X20.144 Y18.847
N10385 X20.818 Y18.324
N10390 X21.532 Y17.856
N10395 X22.282 Y17.447
N10400 X23.062 Y17.1
N10405 X23.867 Y16.816
N10410 X24.693 Y16.597
N10415 X25.534 Y16.446
N10420 X26.385 Y16.363
N10425 X27.239 Y16.348
N10430 X28.092 Y16.402
N10435 X28.939 Y16.524
N10440 X29.775 Y16.714
N10445 X30.601 Y16.973
N10450 X31.413 Y17.302
N10455 X32.206 Y17.699
N10460 X32.978 Y18.167
N10465 X33.724 Y18.706
N10470 X34.435 Y19.312
N10475 X35.103 Y19.981
N10480 X35.719 Y20.706
N10485 X36.277 Y21.481
N10490 X36.771 Y22.298
N10495 X37.197 Y23.15
N10500 X37.552 Y24.031
N10505 X37.833 Y24.933
N10510 X38.041 Y25.85
N10515 X38.173 Y26.776
N10520 X38.23 Y27.704
N10525 X38.213 Y28.631
N10530 X38.122 Y29.55
N10535 X37.957 Y30.455
N10540 X37.722 Y31.343
N10545 X37.416 Y32.208
N10550 X37.041 Y33.045
N10555 X36.601 Y33.85
N10560 X36.096 Y34.618
N10565 X35.53 Y35.345
N10570 X34.906 Y36.026
N10575 X34.227 Y36.657
N10580 X33.497 Y37.234
N10585 X32.719 Y37.752
N10590 X31.899 Y38.208
N10595 X31.041 Y38.599
N10600 X30.15 Y38.921
N10605 X29.232 Y39.172
N10610 X28.292 Y39.349
N10615 X27.34 Y39.45
N10620 X26.383 Y39.475
N10625 X25.426 Y39.423
N10630 X24.477 Y39.296
N10635 X23.541 Y39.095
N10640 X22.623 Y38.82
N10645 X21.73 Y38.475
N10650 X20.866 Y38.061
N10655 X20.037 Y37.582
N10660 X19.248 Y37.04
N10665 X18.502 Y36.439
N10670 X17.805 Y35.782
N10675 X17.16 Y35.074
N10680 X16.571 Y34.319
N10685 X16.041 Y33.521
N10690 X15.573 Y32.686
N10695 X15.17 Y31.817
N10700 X14.834 Y30.92
N10705 X14.567 Y30.
N10710 X14.372 Y29.063
N10715 X14.248 Y28.113
N10720 X14.197 Y27.157
N10725 X14.217 Y26.199
N10730 X14.31 Y25.246
N10735 X14.474 Y24.303
N10740 X14.708 Y23.374
N10745 X15.011 Y22.465
N10750 X15.381 Y21.582
N10755 X15.815 Y20.729
N10760 X16.312 Y19.91
N10765 X16.869 Y19.131
N10770 X17.482 Y18.395
N10775 X18.148 Y17.707
N10780 X18.865 Y17.072
N10785 X19.627 Y16.492
N10790 X20.431 Y15.972
N10795 X21.272 Y15.513
N10800 X22.145 Y15.119
N10805 X23.045 Y14.791
N10810 X23.966 Y14.53
N10815 X24.905 Y14.339
N10820 X25.855 Y14.219
N10825 X26.811 Y14.169
N10830 X27.769 Y14.19
N10835 X28.722 Y14.283
N10840 X29.666 Y14.445
N10845 X30.595 Y14.677
N10850 X31.504 Y14.977
N10855 X32.389 Y15.345
N10860 X33.244 Y15.776
N10865 X34.066 Y16.267
N10870 X34.852 Y16.815
N10875 X35.598 Y17.415
N10880 X36.302 Y18.065
N10885 X36.959 Y18.761
N10890 X37.565 Y19.502
N10895 X38.119 Y20.284
N10900 X38.617 Y21.102
N10905 X39.06 Y21.951
N10910 X39.444 Y22.828
N10915 X39.769 Y23.729
N10920 X40.03 Y24.65
N10925 X40.226 Y25.588
N10930 X40.355 Y26.537
N10935 X40.419 Y27.492
N10940 X40.416 Y28.45
N10945 X40.347 Y29.405
N10950 X40.213 Y30.354
N10955 X40.014 Y31.29
N10960 X39.748 Y32.21
N10965 X39.417 Y33.109
N10970 X39.023 Y33.982
N10975 X38.569 Y34.825
N10980 X38.057 Y35.635
N10985 X37.491 Y36.407
N10990 X36.872 Y37.138
N10995 X36.205 Y37.825
N11000 X35.49 Y38.463
N11005 X34.732 Y39.048
N11010 X33.935 Y39.579
N11015 X33.104 Y40.054
N11020 X32.242 Y40.471
N11025 X31.354 Y40.83
N11030 X30.443 Y41.128
N11035 X29.515 Y41.361
N11040 X28.572 Y41.529
N11045 X27.62 Y41.632
N11050 X26.663 Y41.672
N11055 X25.705 Y41.649
N11060 X24.752 Y41.562
N11065 X23.806 Y41.411
N11070 X22.873 Y41.196
N11075 X21.956 Y40.918
N11080 X21.06 Y40.581
N11085 X20.187 Y40.186
N11090 X19.342 Y39.735
N11095 X18.528 Y39.231
N11100 X17.75 Y38.673
N11105 X17.011 Y38.064
N11110 X16.313 Y37.408
N11115 X15.659 Y36.708
N11120 X15.051 Y35.968
N11125 X14.491 Y35.192
N11130 X13.982 Y34.38
N11135 X13.529 Y33.536
N11140 X13.132 Y32.665
N11145 X12.793 Y31.769
N11150 X12.512 Y30.854
N11155 X12.289 Y29.922
N11160 X12.126 Y28.979
N11165 X12.024 Y28.026
N11170 X11.987 Y27.069
N11175 X12.011 Y26.112
N11180 X12.096 Y25.158
N11185 X12.242 Y24.211
N11190 X12.446 Y23.276
N11195 X12.709 Y22.355
N11200 X13.031 Y21.453
N11205 X13.412 Y20.574
N11210 X13.848 Y19.721
N11215 X14.337 Y18.898
N11220 X14.876 Y18.107
N11225 X15.464 Y17.351
N11230 X16.099 Y16.634
N11235 X16.779 Y15.96
N11240 X17.503 Y15.332
N11245 X18.265 Y14.752
N11250 X19.062 Y14.221
N11255 X19.891 Y13.742
N11260 X20.749 Y13.316
N11265 X21.632 Y12.945
N11270 X22.537 Y12.632
N11275 X23.461 Y12.379
N11280 X24.398 Y12.185
N11285 X25.347 Y12.05
N11290 X26.301 Y11.975
N11295 X27.259 Y11.959
N11300 X28.215 Y12.004
N11305 X29.167 Y12.111
N11310 X30.11 Y12.279
N11315 X31.04 Y12.507
N11320 X31.954 Y12.792
N11325 X32.849 Y13.134
N11330 X33.721 Y13.529
N11335 X34.568 Y13.978
N11340 X35.384 Y14.479
N11345 X36.168 Y15.028
N11350 X36.918 Y15.624
N11355 X37.631 Y16.263
N11360 X38.305 Y16.943
N11365 X38.938 Y17.662
N11370 X39.528 Y18.417
N11375 X40.07 Y19.206
N11380 X40.564 Y20.027
N11385 X41.009 Y20.875
N11390 X41.404 Y21.747
N11395 X41.747 Y22.641
N11400 X42.037 Y23.554
N11405 X42.273 Y24.482
N11410 X42.451 Y25.423
N11415 X42.572 Y26.373
N11420 X42.635 Y27.329
N11425 X42.642 Y28.287
N11430 X42.592 Y29.243
N11435 X42.487 Y30.195
N11440 X42.325 Y31.139
N11445 X42.106 Y32.071
N11450 X41.828 Y32.988
N11455 X41.495 Y33.886
N11460 X41.109 Y34.762
N11465 X40.671 Y35.614
N11470 X40.184 Y36.438
N11475 X39.649 Y37.233
N11480 X39.068 Y37.994
N11485 X38.44 Y38.717
N11490 X37.769 Y39.4
N11495 X37.058 Y40.042
N11500 X36.31 Y40.64
N11505 X35.529 Y41.194
N11510 X34.716 Y41.7
N11515 X33.875 Y42.159
N11520 X33.008 Y42.565
N11525 X32.118 Y42.918
N11530 X31.208 Y43.218
N11535 X30.282 Y43.464
N11540 X30.133 Y43.494
N11545 X30.04 Y43.51
N11550 X29.947 Y43.519
N11555 X29.853 Y43.522
N11560 X25.042
N11565 X24.086 Y43.475
N11570 X23.609 Y43.429
N11575 X22.678 Y43.3
N11580 X21.743 Y43.092
N11585 X20.826 Y42.817
N11590 X19.929 Y42.48
N11595 X19.057 Y42.086
N11600 X18.211 Y41.637
N11605 X17.394 Y41.137
N11610 X16.607 Y40.59
N11615 X15.854 Y39.999
N11620 X15.136 Y39.366
N11625 X14.454 Y38.693
N11630 X13.811 Y37.983
N11635 X13.211 Y37.237
N11640 X12.654 Y36.458
N11645 X12.143 Y35.648
N11650 X11.678 Y34.811
N11655 X11.26 Y33.949
N11660 X10.891 Y33.065
N11665 X10.571 Y32.162
N11670 X10.533 Y32.032
N11675 X10.502 Y31.903
N11680 X10.484 Y31.772
N11685 X10.478 Y31.64
N11690 Y24.172
N11695 X10.525 Y23.215
N11700 X10.621 Y22.446
N11705 X10.797 Y21.597
N11710 X11.067 Y20.678
N11715 X11.406 Y19.783
N11720 X11.808 Y18.913
N11725 X12.264 Y18.071
N11730 X12.771 Y17.259
N11735 X13.324 Y16.477
N11740 X13.922 Y15.729
N11745 X14.563 Y15.018
N11750 X15.245 Y14.345
N11755 X15.964 Y13.713
N11760 X16.717 Y13.121
N11765 X17.502 Y12.572
N11770 X18.315 Y12.066
N11775 X19.155 Y11.605
N11780 X20.019 Y11.193
N11785 X20.906 Y10.832
N11790 X21.716 Y10.553
N11795 X21.864 Y10.511
N11800 X22.016 Y10.486
N11805 X22.171 Y10.478
N11810 X29.828
N11815 X30.785 Y10.525
N11820 X31.26 Y10.582
N11825 X32.095 Y10.722
N11830 X32.999 Y10.951
N11835 X33.906 Y11.259
N11840 X34.788 Y11.633
N11845 X35.642 Y12.066
N11850 X36.468 Y12.55
N11855 X37.265 Y13.082
N11860 X38.031 Y13.657
N11865 X38.764 Y14.272
N11870 X39.464 Y14.926
N11875 X40.129 Y15.616
N11880 X40.754 Y16.341
N11885 X41.34 Y17.099
N11890 X41.885 Y17.887
N11895 X42.388 Y18.702
N11900 X42.848 Y19.541
N11905 X43.265 Y20.404
N11910 X43.412 Y20.753
N11915 X43.473 Y20.929
N11920 X43.51 Y21.112
N11925 X43.522 Y21.298
N11930 Y32.439
N11935 X43.479 Y33.307
N11940 X43.398 Y33.926
N11945 X43.251 Y34.611
N11950 X43.014 Y35.404
N11955 X42.67 Y36.287
N11960 X42.252 Y37.148
N11965 X41.774 Y37.978
N11970 X41.242 Y38.774
N11975 X40.661 Y39.536
N11980 X40.036 Y40.261
N11985 X39.37 Y40.95
N11990 X38.667 Y41.6
N11995 X37.931 Y42.213
N12000 X37.164 Y42.786
N12005 X36.368 Y43.319
N12010 X36.357 Y43.325
N12015 X36.131 Y43.434
N12020 X35.89 Y43.5
N12025 X35.64 Y43.522
N12030 X29.853
N12035 G3 X29.274 Y42.902 Z-6.8 I0.021 J-0.6
N12040 X29.498 Y42.455 I0.6 J0.02
N12045 G1 X42.548 Y31.992
N12050 G3 X42.902 Y31.86 I0.375 J0.468
N12055 X43.522 Y32.439 Z-7. I0.02 J0.6
N12060 G1 Y37.007
N12065 X43.499 Y37.485
N12070 X43.449 Y37.864
N12075 X43.352 Y38.319
N12080 X43.204 Y38.813
N12085 X42.976 Y39.397
N12090 X42.676 Y40.017
N12095 X42.26 Y40.722
N12100 X41.711 Y41.503
N12105 X41.1 Y42.24
N12110 X40.439 Y42.933
N12115 X40.207 Y43.149
N12120 X39.999 Y43.308
N12125 X39.766 Y43.426
N12130 X39.515 Y43.498
N12135 X39.254 Y43.522
N12140 G3 X38.676 Y42.902 Z-6.8 I0.021 J-0.6
N12145 X38.765 Y42.607 I0.6 J0.02
N12150 G1 X42.413 Y36.713
N12155 G3 X42.902 Y36.429 I0.51 J0.316
N12160 X43.522 Y37.007 Z-7. I0.02 J0.6
N12165 G1 Y40.488
N12170 X43.507 Y40.788
N12175 X43.463 Y41.123
N12180 X43.387 Y41.483
N12185 X43.264 Y41.894
N12190 X43.084 Y42.355
N12195 X42.869 Y42.797
N12200 X42.849 Y42.831
N12205 X42.677 Y43.064
N12210 X42.461 Y43.257
N12215 X42.21 Y43.401
N12220 X41.935 Y43.49
N12225 X41.647 Y43.521
N12230 G3 X41.066 Y42.903 Z-6.8 I0.019 J-0.6
N12235 X41.134 Y42.644 I0.6 J0.019
N12240 G1 X42.391 Y40.232
N12245 G3 X42.902 Y39.91 I0.532 J0.277
N12250 X43.522 Y40.488 Z-7. I0.02 J0.6
N12255 G1 Y41.359
N12260 X43.52 Y41.794
N12265 X43.503 Y42.011
N12270 X43.475 Y42.229
N12275 X43.444 Y42.446
N12280 X43.364 Y42.664
N12285 X43.316 Y42.774
N12290 X43.286 Y42.828
N12295 X43.249 Y42.881
N12300 X43.099 Y43.071
N12305 X43.071 Y43.099
N12310 X42.881 Y43.249
N12315 X42.828 Y43.286
N12320 X42.774 Y43.316
N12325 X42.664 Y43.364
N12330 X42.446 Y43.444
N12335 X42.229 Y43.475
N12340 X42.011 Y43.503
N12345 X41.794 Y43.52
N12350 X40.923 Y43.522
N12355 X35.64
N12360 G3 X35.076 Y43.058 I0.021 J-0.6
N12365 G1 X35.055 Y42.966 Z-6.993
N12370 X35.035 Y42.877 Z-6.971
N12375 X35.015 Y42.792 Z-6.935
N12380 X34.997 Y42.714 Z-6.885
N12385 X34.981 Y42.644 Z-6.824
N12390 X34.967 Y42.585 Z-6.753
N12395 X34.956 Y42.537 Z-6.672
N12400 X34.948 Y42.502 Z-6.585
N12405 X34.943 Y42.48 Z-6.494
N12410 X34.941 Y42.473 Z-6.4
N12415 G0 Z5.
N12420 X11.005 Y25.441
N12425 Z-5.8
N12430 G1 Z-6.4 F2880.
N12435 X11.002 Y25.435 Z-6.494
N12440 X10.99 Y25.416 Z-6.585
N12445 X10.972 Y25.385 Z-6.672
N12450 X10.947 Y25.343 Z-6.753
N12455 X10.916 Y25.29 Z-6.824
N12460 X10.879 Y25.229 Z-6.885
N12465 X10.838 Y25.16 Z-6.935
N12470 X10.794 Y25.085 Z-6.971
N12475 X10.747 Y25.006 Z-6.993
N12480 X10.699 Y24.925 Z-7.
N12485 G3 X10.478 Y24.172 I1.36 J-0.809
N12490 G1 Y19.168
N12495 X10.508 Y18.556
N12500 X10.562 Y18.146
N12505 X10.669 Y17.646
N12510 X10.828 Y17.116
N12515 X11.07 Y16.494
N12520 X11.41 Y15.794
N12525 X11.847 Y15.052
N12530 X12.397 Y14.268
N12535 X13.006 Y13.529
N12540 X13.664 Y12.832
N12545 X14.362 Y12.177
N12550 X15.096 Y11.562
N12555 X15.862 Y10.987
N12560 X16.266 Y10.716
N12565 X16.509 Y10.585
N12570 X16.773 Y10.505
N12575 X17.047 Y10.478
N12580 X22.171
N12585 G3 X22.749 Y11.098 Z-6.8 I-0.021 J0.6
N12590 X22.503 Y11.562 I-0.6 J-0.02
N12595 G1 X11.431 Y19.632
N12600 G3 X11.098 Y19.747 I-0.353 J-0.485
N12605 X10.478 Y19.168 Z-7. I-0.02 J-0.6
N12610 G1 Y15.47
N12615 X10.496 Y15.109
N12620 X10.54 Y14.77
N12625 X10.622 Y14.388
N12630 X10.747 Y13.971
N12635 X10.935 Y13.488
N12640 X11.189 Y12.964
N12645 X11.533 Y12.379
N12650 X11.996 Y11.721
N12655 X12.592 Y11.003
N12660 X12.692 Y10.9
N12665 X12.906 Y10.721
N12670 X13.151 Y10.587
N12675 X13.417 Y10.505
N12680 X13.694 Y10.478
N12685 G3 X14.273 Y11.098 Z-6.8 I-0.021 J0.6
N12690 X14.189 Y11.384 I-0.6 J-0.02
N12695 G1 X11.593 Y15.755
N12700 G3 X11.098 Y16.048 I-0.516 J-0.306
N12705 X10.478 Y15.47 Z-7. I-0.02 J-0.6
N12710 G1 Y12.859
N12715 X10.479 Y12.424
N12720 X10.48 Y12.206
N12725 X10.497 Y11.989
N12730 X10.525 Y11.771
N12735 X10.556 Y11.554
N12740 X10.636 Y11.336
N12745 X10.684 Y11.226
N12750 X10.714 Y11.172
N12755 X10.751 Y11.119
N12760 X10.901 Y10.929
N12765 X10.929 Y10.901
N12770 X11.119 Y10.751
N12775 X11.172 Y10.714
N12780 X11.226 Y10.684
N12785 X11.336 Y10.636
N12790 X11.554 Y10.556
N12795 X11.771 Y10.525
N12800 X11.989 Y10.497
N12805 X12.206 Y10.48
N12810 X13.077 Y10.478
N12815 X17.047
N12820 G3 X17.611 Y10.942 I-0.021 J0.6
N12825 G1 X17.632 Y11.034 Z-6.993
N12830 X17.653 Y11.123 Z-6.971
N12835 X17.672 Y11.208 Z-6.935
N12840 X17.69 Y11.286 Z-6.885
N12845 X17.706 Y11.356 Z-6.824
N12850 X17.72 Y11.415 Z-6.753
N12855 X17.731 Y11.463 Z-6.672
N12860 X17.739 Y11.498 Z-6.585
N12865 X17.744 Y11.52 Z-6.494
N12870 X17.746 Y11.527 Z-6.4
N12875 G0 Z5.
N12880 X26.311 Y42.995
N12885 Z-5.8
N12890 G1 Z-6.4 F2880.
N12895 X26.305 Y42.998 Z-6.494
N12900 X26.286 Y43.01 Z-6.585
N12905 X26.255 Y43.028 Z-6.672
N12910 X26.213 Y43.053 Z-6.753
N12915 X26.16 Y43.084 Z-6.824
N12920 X26.099 Y43.121 Z-6.885
N12925 X26.03 Y43.162 Z-6.935
N12930 X25.955 Y43.206 Z-6.971
N12935 X25.876 Y43.253 Z-6.993
N12940 X25.796 Y43.301 Z-7.
N12945 G3 X25.042 Y43.522 I-0.809 J-1.36
N12950 G1 X19.386
N12955 X18.84 Y43.495
N12960 X18.408 Y43.439
N12965 X17.891 Y43.328
N12970 X17.334 Y43.161
N12975 X16.679 Y42.906
N12980 X15.944 Y42.55
N12985 X15.156 Y42.085
N12990 X14.372 Y41.535
N12995 X13.631 Y40.929
N13000 X12.93 Y40.276
N13005 X12.27 Y39.582
N13010 X11.65 Y38.852
N13015 X11.07 Y38.09
N13020 X10.72 Y37.576
N13025 X10.587 Y37.332
N13030 X10.505 Y37.066
N13035 X10.478 Y36.788
N13040 Y31.64
N13045 G3 X11.098 Y31.062 Z-6.8 I0.6 J0.021
N13050 X11.56 Y31.306 I-0.02 J0.6
N13055 G1 X19.848 Y42.567
N13060 G3 X19.964 Y42.902 I-0.483 J0.356
N13065 X19.386 Y43.522 Z-7. I-0.6 J0.02
N13070 G1 X15.687
N13075 X15.292 Y43.503
N13080 X14.95 Y43.458
N13085 X14.552 Y43.373
N13090 X14.129 Y43.246
N13095 X13.629 Y43.051
N13100 X13.093 Y42.791
N13105 X12.49 Y42.436
N13110 X11.814 Y41.961
N13115 X11.079 Y41.351
N13120 X10.9 Y41.177
N13125 X10.721 Y40.963
N13130 X10.587 Y40.718
N13135 X10.505 Y40.452
N13140 X10.478 Y40.174
N13145 G3 X11.098 Y39.596 Z-6.8 I0.6 J0.021
N13150 X11.384 Y39.68 I-0.02 J0.6
N13155 G1 X15.973 Y42.407
N13160 G3 X16.266 Y42.902 I-0.307 J0.516
N13165 X15.687 Y43.522 Z-7. I-0.6 J0.02
N13170 G1 X12.859
N13175 X12.641
N13180 X12.208 Y43.499
N13185 X11.904 Y43.458
N13190 X11.596 Y43.391
N13195 X11.484 Y43.357
N13200 X11.188 Y43.229
N13205 X10.929 Y43.035
N13210 X10.721 Y42.787
N13215 X10.575 Y42.499
N13220 G3 X10.959 Y41.742 Z-6.8 I0.57 J-0.186
N13225 X11.375 Y41.758 I0.187 J0.57
N13230 G1 X12.851 Y42.368
N13235 G3 X13.222 Y42.903 I-0.229 J0.555
N13240 X12.641 Y43.522 Z-7. I-0.6 J0.019
N13245 G1 X12.206 Y43.52
N13250 X11.989 Y43.503
N13255 X11.771 Y43.475
N13260 X11.554 Y43.444
N13265 X11.336 Y43.364
N13270 X11.226 Y43.316
N13275 X11.172 Y43.286
N13280 X11.119 Y43.249
N13285 X10.929 Y43.099
N13290 X10.901 Y43.071
N13295 X10.751 Y42.881
N13300 X10.714 Y42.828
N13305 X10.684 Y42.774
N13310 X10.636 Y42.664
N13315 X10.556 Y42.446
N13320 X10.525 Y42.229
N13325 X10.497 Y42.011
N13330 X10.48 Y41.794
N13335 X10.478 Y40.923
N13340 Y36.788
N13345 G3 X10.942 Y36.225 I0.6 J0.021
N13350 G1 X11.034 Y36.204 Z-6.993
N13355 X11.123 Y36.183 Z-6.971
N13360 X11.208 Y36.163 Z-6.935
N13365 X11.286 Y36.145 Z-6.885
N13370 X11.356 Y36.129 Z-6.824
N13375 X11.415 Y36.115 Z-6.753
N13380 X11.463 Y36.104 Z-6.672
N13385 X11.498 Y36.096 Z-6.585
N13390 X11.52 Y36.091 Z-6.494
N13395 X11.527 Y36.09 Z-6.4
N13400 G0 Z5.
N13405 X28.559 Y11.005
N13410 Z-5.8
N13415 G1 Z-6.4 F2880.
N13420 X28.565 Y11.002 Z-6.494
N13425 X28.584 Y10.99 Z-6.585
N13430 X28.615 Y10.972 Z-6.672
N13435 X28.657 Y10.947 Z-6.753
N13440 X28.71 Y10.916 Z-6.824
N13445 X28.771 Y10.879 Z-6.885
N13450 X28.84 Y10.838 Z-6.935
N13455 X28.915 Y10.794 Z-6.971
N13460 X28.994 Y10.747 Z-6.993
N13465 X29.075 Y10.699 Z-7.
N13470 G3 X29.828 Y10.478 I0.809 J1.36
N13475 G1 X35.049
N13480 X35.489 Y10.5
N13485 X35.929 Y10.557
N13490 X36.405 Y10.659
N13495 X36.978 Y10.831
N13500 X37.596 Y11.072
N13505 X38.308 Y11.417
N13510 X39.107 Y11.887
N13515 X39.891 Y12.438
N13520 X40.634 Y13.043
N13525 X41.337 Y13.693
N13530 X42.001 Y14.383
N13535 X42.627 Y15.108
N13540 X43.214 Y15.865
N13545 X43.271 Y15.947
N13550 X43.409 Y16.195
N13555 X43.494 Y16.465
N13560 X43.522 Y16.747
N13565 Y21.298
N13570 G3 X42.902 Y21.876 Z-6.8 I-0.6 J-0.021
N13575 X42.447 Y21.643 I0.02 J-0.6
N13580 G1 X34.595 Y11.443
N13585 G3 X34.471 Y11.098 I0.475 J-0.366
N13590 X35.049 Y10.478 Z-7. I0.6 J-0.02
N13595 G1 X38.53
N13600 X39.01 Y10.502
N13605 X39.354 Y10.547
N13610 X39.746 Y10.631
N13615 X40.175 Y10.759
N13620 X40.672 Y10.952
N13625 X41.219 Y11.218
N13630 X41.825 Y11.575
N13635 X42.509 Y12.055
N13640 X43.017 Y12.477
N13645 X43.23 Y12.697
N13650 X43.39 Y12.959
N13655 X43.489 Y13.249
N13660 X43.522 Y13.554
N13665 G3 X42.902 Y14.133 Z-6.8 I-0.6 J-0.021
N13670 X42.629 Y14.056 I0.02 J-0.6
N13675 G1 X38.257 Y11.6
N13680 G3 X37.952 Y11.098 I0.294 J-0.523
N13685 X38.53 Y10.478 Z-7. I0.6 J-0.02
N13690 G1 X41.141
N13695 X41.794 Y10.48
N13700 X42.011 Y10.497
N13705 X42.229 Y10.525
N13710 X42.446 Y10.556
N13715 X42.664 Y10.636
N13720 X42.774 Y10.684
N13725 X42.828 Y10.714
N13730 X42.881 Y10.751
N13735 X43.071 Y10.901
N13740 X43.099 Y10.929
N13745 X43.249 Y11.119
N13750 X43.286 Y11.172
N13755 X43.316 Y11.226
N13760 X43.364 Y11.336
N13765 X43.444 Y11.554
N13770 X43.475 Y11.771
N13775 X43.503 Y11.989
N13780 X43.52 Y12.206
N13785 X43.522 Y13.077
N13790 Y16.747
N13795 X43.512 Y16.84
N13800 X43.488 Y16.929
N13805 X43.451 Y16.993 Z-6.995
N13810 X43.414 Y17.056 Z-6.982
N13815 X43.379 Y17.117 Z-6.959
N13820 X43.317 Y17.166 Z-6.921
N13825 X43.261 Y17.212 Z-6.871
N13830 X43.21 Y17.253 Z-6.812
N13835 X43.157 Y17.273 Z-6.741
N13840 X43.114 Y17.29 Z-6.663
N13845 X43.083 Y17.302 Z-6.579
N13850 X43.064 Y17.309 Z-6.491
N13855 X43.058 Y17.311 Z-6.4
N13860 G0 Z5.
N13865 X26.381 Y39.635
N13870 Z-2.8
N13875 G1 Z-3.4 F2880.
N13880 X26.383 Y39.643 Z-3.494
N13885 X26.389 Y39.664 Z-3.585
N13890 X26.398 Y39.699 Z-3.672
N13895 X26.41 Y39.746 Z-3.753
N13900 X26.425 Y39.806 Z-3.824
N13905 X26.443 Y39.875 Z-3.885
N13910 X26.463 Y39.953 Z-3.935
N13915 X26.484 Y40.037 Z-3.971
N13920 X26.507 Y40.126 Z-3.993
N13925 X26.53 Y40.217 Z-4.
N13930 G3 X27. Y43.483 I-14.839 J3.801
N13935 G1 Y43.633
N13940 X26.879 Y43.805
N13945 X26.717 Y43.939
N13950 X26.524 Y44.023
N13955 X26.315 Y44.051
N13960 X12.206
N13965 X11.989 Y44.046
N13970 X11.554 Y44.029
N13975 X11.336 Y44.016
N13980 X11.119 Y43.988
N13985 X11.007 Y43.969
N13990 X10.901 Y43.932
N13995 X10.684 Y43.838
N14000 X10.556 Y43.752
N14005 X10.466 Y43.683
N14010 X10.391 Y43.619
N14015 X10.317 Y43.534
N14020 X10.248 Y43.444
N14025 X10.162 Y43.316
N14030 X10.068 Y43.099
N14035 X10.031 Y42.993
N14040 X10.012 Y42.881
N14045 X9.984 Y42.664
N14050 X9.971 Y42.446
N14055 X9.954 Y42.011
N14060 X9.949 Y41.794
N14065 Y12.206
N14070 X9.954 Y11.989
N14075 X9.971 Y11.554
N14080 X9.984 Y11.336
N14085 X10.012 Y11.119
N14090 X10.031 Y11.007
N14095 X10.068 Y10.901
N14100 X10.162 Y10.684
N14105 X10.248 Y10.556
N14110 X10.317 Y10.466
N14115 X10.381 Y10.391
N14120 X10.466 Y10.317
N14125 X10.556 Y10.248
N14130 X10.684 Y10.162
N14135 X10.901 Y10.068
N14140 X11.007 Y10.031
N14145 X11.119 Y10.012
N14150 X11.336 Y9.984
N14155 X11.554 Y9.971
N14160 X11.989 Y9.954
N14165 X12.206 Y9.949
N14170 X41.794
N14175 X42.011 Y9.954
N14180 X42.446 Y9.971
N14185 X42.664 Y9.984
N14190 X42.881 Y10.012
N14195 X42.993 Y10.031
N14200 X43.099 Y10.068
N14205 X43.316 Y10.162
N14210 X43.444 Y10.248
N14215 X43.534 Y10.317
N14220 X43.619 Y10.391
N14225 X43.683 Y10.466
N14230 X43.752 Y10.556
N14235 X43.838 Y10.684
N14240 X43.932 Y10.901
N14245 X43.969 Y11.007
N14250 X43.988 Y11.119
N14255 X44.016 Y11.336
N14260 X44.029 Y11.554
N14265 X44.046 Y11.989
N14270 X44.051 Y12.206
N14275 Y41.794
N14280 X44.046 Y42.011
N14285 X44.029 Y42.446
N14290 X44.016 Y42.664
N14295 X43.988 Y42.881
N14300 X43.969 Y42.993
N14305 X43.932 Y43.099
N14310 X43.838 Y43.316
N14315 X43.752 Y43.444
N14320 X43.683 Y43.534
N14325 X43.619 Y43.609
N14330 X43.534 Y43.683
N14335 X43.444 Y43.752
N14340 X43.316 Y43.838
N14345 X43.099 Y43.932
N14350 X42.993 Y43.969
N14355 X42.881 Y43.988
N14360 X42.664 Y44.016
N14365 X42.446 Y44.029
N14370 X42.011 Y44.046
N14375 X41.794 Y44.051
N14380 X26.315
N14385 X26.223 Y44.041
N14390 X26.134 Y44.017
N14395 X26.07 Y43.98 Z-3.995
N14400 X26.007 Y43.943 Z-3.982
N14405 X25.946 Y43.908 Z-3.959
N14410 X25.896 Y43.846 Z-3.921
N14415 X25.85 Y43.79 Z-3.871
N14420 X25.81 Y43.739 Z-3.812
N14425 X25.789 Y43.686 Z-3.741
N14430 X25.773 Y43.643 Z-3.663
N14435 X25.761 Y43.612 Z-3.579
N14440 X25.754 Y43.593 Z-3.491
N14445 X25.752 Y43.587 Z-3.4
N14450 G0 Z5.
N14455 X28.434 Y24.376
N14460 Z-4.5
N14465 G3 X29.22 Y29.004 Z-4.972 I-1.434 J2.624 F960.
N14470 X24.549 Y28.696 Z-5.444 I-2.214 J-1.998
N14475 X25.928 Y24.236 Z-5.917 I2.45 J-1.686
N14480 X29.935 Y26.605 Z-6.389 I1.068 J2.767
N14485 X26.711 Y29.944 Z-6.861 I-2.931 J0.397
N14490 X24.217 Y26.044 Z-7.333 I0.293 J-2.935
N14495 X28.577 Y24.527 Z-7.806 I2.779 J0.963
N14500 X29.041 Y29.107 Z-8.278 I-1.577 J2.473
N14505 X24.49 Y28.498 Z-8.75 I-2.034 J-2.101
N14510 X26.134 Y24.225 Z-9.222 I2.509 J-1.488
N14515 X29.898 Y26.807 Z-9.694 I0.863 J2.777
N14520 X26.523 Y29.861 Z-10.167 I-2.893 J0.195
N14525 X24.341 Y25.882 Z-10.639 I0.48 J-2.852
N14530 X28.706 Y24.685 Z-11.111 I2.655 J1.125
N14535 X28.857 Y29.195 Z-11.583 I-1.705 J2.315
N14540 X24.447 Y28.3 Z-12.056 I-1.851 J-2.189
N14545 X26.336 Y24.229 Z-12.528 I2.551 J-1.29
N14550 X29.847 Y27.002 Z-13. I0.661 J2.773
N14555 X24.146 I-2.851 J0.
N14560 X29.847 I2.851 J0.
N14565 G1 X29.851 Y27.241 F2880.
N14570 X30.027 Y28.183
N14575 X30.06 Y28.298
N14580 X30.088 Y28.445
N14585 X30.101 Y28.595
N14590 Y28.745
N14595 X30.088 Y28.901
N14600 X30.06 Y29.068
N14605 X30.016 Y29.242
N14610 X29.955 Y29.422
N14615 X29.876 Y29.608
N14620 X29.777 Y29.795
N14625 X29.657 Y29.983
N14630 X29.517 Y30.169
N14635 X29.355 Y30.351
N14640 X29.172 Y30.526
N14645 X28.969 Y30.691
N14650 X28.745 Y30.845
N14655 X28.503 Y30.984
N14660 X28.243 Y31.107
N14665 X27.967 Y31.212
N14670 X27.677 Y31.296
N14675 X27.374 Y31.357
N14680 X27.062 Y31.395
N14685 X26.742 Y31.408
N14690 X26.417 Y31.395
N14695 X26.09 Y31.355
N14700 X25.762 Y31.289
N14705 X25.438 Y31.195
N14710 X25.119 Y31.074
N14715 X24.808 Y30.927
N14720 X24.508 Y30.754
N14725 X24.22 Y30.556
N14730 X23.948 Y30.335
N14735 X23.693 Y30.091
N14740 X23.457 Y29.826
N14745 X23.242 Y29.542
N14750 X23.051 Y29.24
N14755 X22.883 Y28.923
N14760 X22.741 Y28.593
N14765 X22.626 Y28.251
N14770 X22.538 Y27.901
N14775 X22.479 Y27.544
N14780 X22.448 Y27.182
N14785 X22.447 Y26.819
N14790 X22.474 Y26.457
N14795 X22.531 Y26.097
N14800 X22.617 Y25.743
N14805 X22.73 Y25.397
N14810 X22.872 Y25.061
N14815 X23.04 Y24.737
N14820 X23.233 Y24.427
N14825 X23.451 Y24.133
N14830 X23.692 Y23.858
N14835 X23.954 Y23.603
N14840 X24.236 Y23.37
N14845 X24.536 Y23.16
N14850 X24.851 Y22.975
N14855 X25.181 Y22.816
N14860 X25.522 Y22.684
N14865 X25.873 Y22.579
N14870 X26.232 Y22.503
N14875 X26.595 Y22.456
N14880 X26.961 Y22.438
N14885 X27.327 Y22.45
N14890 X27.691 Y22.491
N14895 X28.051 Y22.561
N14900 X28.404 Y22.66
N14905 X28.747 Y22.787
N14910 X29.08 Y22.941
N14915 X29.399 Y23.121
N14920 X29.703 Y23.327
N14925 X29.989 Y23.556
N14930 X30.256 Y23.807
N14935 X30.502 Y24.079
N14940 X30.725 Y24.369
N14945 X30.934 Y24.692
N14950 X31.287 Y25.346
N14955 X31.572 Y25.995
N14960 X31.754 Y26.52
N14965 X31.876 Y26.993
N14970 X31.954 Y27.436
N14975 X31.994 Y27.866
N14980 X31.999 Y28.282
N14985 X31.971 Y28.686
N14990 X31.912 Y29.08
N14995 X31.823 Y29.466
N15000 X31.702 Y29.842
N15005 X31.552 Y30.208
N15010 X31.372 Y30.562
N15015 X31.163 Y30.903
N15020 X30.925 Y31.23
N15025 X30.659 Y31.539
N15030 X30.366 Y31.828
N15035 X30.046 Y32.097
N15040 X29.702 Y32.343
N15045 X29.333 Y32.563
N15050 X28.943 Y32.756
N15055 X28.533 Y32.918
N15060 X28.105 Y33.049
N15065 X27.663 Y33.147
N15070 X27.209 Y33.21
N15075 X26.746 Y33.236
N15080 X26.278 Y33.225
N15085 X25.808 Y33.176
N15090 X25.339 Y33.088
N15095 X24.875 Y32.962
N15100 X24.419 Y32.798
N15105 X23.975 Y32.597
N15110 X23.545 Y32.359
N15115 X23.134 Y32.086
N15120 X22.744 Y31.779
N15125 X22.378 Y31.44
N15130 X22.038 Y31.071
N15135 X21.729 Y30.675
N15140 X21.45 Y30.253
N15145 X21.206 Y29.809
N15150 X20.998 Y29.345
N15155 X20.827 Y28.865
N15160 X20.695 Y28.371
N15165 X20.602 Y27.867
N15170 X20.551 Y27.357
N15175 X20.54 Y26.843
N15180 X20.571 Y26.329
N15185 X20.643 Y25.818
N15190 X20.756 Y25.315
N15195 X20.909 Y24.821
N15200 X21.101 Y24.341
N15205 X21.332 Y23.878
N15210 X21.599 Y23.434
N15215 X21.901 Y23.013
N15220 X22.236 Y22.618
N15225 X22.602 Y22.25
N15230 X22.996 Y21.913
N15235 X23.416 Y21.608
N15240 X23.86 Y21.338
N15245 X24.324 Y21.105
N15250 X24.805 Y20.909
N15255 X25.3 Y20.753
N15260 X25.807 Y20.636
N15265 X26.321 Y20.561
N15270 X26.84 Y20.528
N15275 X27.359 Y20.536
N15280 X27.877 Y20.585
N15285 X28.389 Y20.677
N15290 X28.892 Y20.809
N15295 X29.383 Y20.98
N15300 X29.858 Y21.191
N15305 X30.315 Y21.439
N15310 X30.751 Y21.724
N15315 X31.165 Y22.044
N15320 X31.607 Y22.446
N15325 X32.042 Y22.911
N15330 X32.45 Y23.425
N15335 X32.823 Y23.98
N15340 X33.147 Y24.559
N15345 X33.417 Y25.148
N15350 X33.634 Y25.741
N15355 X33.798 Y26.336
N15360 X33.912 Y26.928
N15365 X33.977 Y27.518
N15370 X33.993 Y28.104
N15375 X33.964 Y28.682
N15380 X33.888 Y29.252
N15385 X33.768 Y29.811
N15390 X33.603 Y30.356
N15395 X33.396 Y30.885
N15400 X33.147 Y31.396
N15405 X32.857 Y31.887
N15410 X32.528 Y32.354
N15415 X32.16 Y32.796
N15420 X31.756 Y33.209
N15425 X31.316 Y33.591
N15430 X30.844 Y33.94
N15435 X30.341 Y34.252
N15440 X29.81 Y34.524
N15445 X29.255 Y34.756
N15450 X28.677 Y34.943
N15455 X28.082 Y35.085
N15460 X27.473 Y35.179
N15465 X26.853 Y35.224
N15470 X26.228 Y35.22
N15475 X25.6 Y35.165
N15480 X24.975 Y35.059
N15485 X24.357 Y34.902
N15490 X23.749 Y34.695
N15495 X23.157 Y34.438
N15500 X22.584 Y34.133
N15505 X22.035 Y33.781
N15510 X21.514 Y33.384
N15515 X21.023 Y32.945
N15520 X20.568 Y32.466
N15525 X20.151 Y31.951
N15530 X19.776 Y31.401
N15535 X19.445 Y30.821
N15540 X19.16 Y30.215
N15545 X18.925 Y29.587
N15550 X18.74 Y28.94
N15555 X18.608 Y28.279
N15560 X18.529 Y27.609
N15565 X18.504 Y26.933
N15570 X18.533 Y26.256
N15575 X18.617 Y25.584
N15580 X18.755 Y24.919
N15585 X18.945 Y24.267
N15590 X19.188 Y23.631
N15595 X19.481 Y23.017
N15600 X19.822 Y22.428
N15605 X20.21 Y21.868
N15610 X20.642 Y21.34
N15615 X21.115 Y20.849
N15620 X21.626 Y20.397
N15625 X22.172 Y19.988
N15630 X22.75 Y19.623
N15635 X23.354 Y19.306
N15640 X23.983 Y19.038
N15645 X24.631 Y18.822
N15650 X25.294 Y18.658
N15655 X25.969 Y18.548
N15660 X26.65 Y18.493
N15665 X27.334 Y18.492
N15670 X28.015 Y18.546
N15675 X28.69 Y18.655
N15680 X29.355 Y18.818
N15685 X30.004 Y19.033
N15690 X30.634 Y19.3
N15695 X31.258 Y19.626
N15700 X31.873 Y20.013
N15705 X32.474 Y20.462
N15710 X33.052 Y20.971
N15715 X33.598 Y21.536
N15720 X34.101 Y22.148
N15725 X34.555 Y22.801
N15730 X34.954 Y23.486
N15735 X35.294 Y24.196
N15740 X35.574 Y24.925
N15745 X35.793 Y25.668
N15750 X35.95 Y26.42
N15755 X36.045 Y27.176
N15760 X36.079 Y27.931
N15765 X36.053 Y28.682
N15770 X35.967 Y29.425
N15775 X35.822 Y30.155
N15780 X35.619 Y30.869
N15785 X35.361 Y31.564
N15790 X35.047 Y32.236
N15795 X34.68 Y32.881
N15800 X34.262 Y33.496
N15805 X33.794 Y34.077
N15810 X33.279 Y34.621
N15815 X32.719 Y35.124
N15820 X32.118 Y35.583
N15825 X31.478 Y35.994
N15830 X30.803 Y36.355
N15835 X30.097 Y36.663
N15840 X29.365 Y36.914
N15845 X28.61 Y37.107
N15850 X27.838 Y37.239
N15855 X27.053 Y37.31
N15860 X26.261 Y37.317
N15865 X25.466 Y37.26
N15870 X24.674 Y37.139
N15875 X23.891 Y36.954
N15880 X23.121 Y36.706
N15885 X22.37 Y36.395
N15890 X21.643 Y36.023
N15895 X20.945 Y35.592
N15900 X20.282 Y35.105
N15905 X19.658 Y34.564
N15910 X19.077 Y33.973
N15915 X18.544 Y33.335
N15920 X18.062 Y32.654
N15925 X17.636 Y31.935
N15930 X17.268 Y31.183
N15935 X16.96 Y30.401
N15940 X16.716 Y29.596
N15945 X16.537 Y28.772
N15950 X16.424 Y27.935
N15955 X16.379 Y27.091
N15960 X16.402 Y26.244
N15965 X16.493 Y25.401
N15970 X16.651 Y24.568
N15975 X16.876 Y23.748
N15980 X17.166 Y22.949
N15985 X17.52 Y22.175
N15990 X17.934 Y21.432
N15995 X18.408 Y20.724
N16000 X18.937 Y20.056
N16005 X19.518 Y19.432
N16010 X20.148 Y18.856
N16015 X20.822 Y18.333
N16020 X21.536 Y17.865
N16025 X22.285 Y17.456
N16030 X23.066 Y17.109
N16035 X23.871 Y16.825
N16040 X24.697 Y16.607
N16045 X25.538 Y16.455
N16050 X26.389 Y16.372
N16055 X27.243 Y16.357
N16060 X28.096 Y16.411
N16065 X28.942 Y16.533
N16070 X29.779 Y16.724
N16075 X30.605 Y16.983
N16080 X31.417 Y17.311
N16085 X32.21 Y17.709
N16090 X32.982 Y18.177
N16095 X33.728 Y18.715
N16100 X34.439 Y19.322
N16105 X35.107 Y19.99
N16110 X35.723 Y20.715
N16115 X36.281 Y21.49
N16120 X36.775 Y22.307
N16125 X37.201 Y23.16
N16130 X37.556 Y24.04
N16135 X37.837 Y24.942
N16140 X38.045 Y25.859
N16145 X38.177 Y26.785
N16150 X38.234 Y27.714
N16155 X38.217 Y28.64
N16160 X38.126 Y29.559
N16165 X37.962 Y30.464
N16170 X37.726 Y31.352
N16175 X37.42 Y32.217
N16180 X37.045 Y33.054
N16185 X36.605 Y33.859
N16190 X36.1 Y34.628
N16195 X35.534 Y35.355
N16200 X34.91 Y36.036
N16205 X34.231 Y36.666
N16210 X33.501 Y37.243
N16215 X32.724 Y37.761
N16220 X31.903 Y38.218
N16225 X31.045 Y38.608
N16230 X30.154 Y38.93
N16235 X29.236 Y39.181
N16240 X28.297 Y39.358
N16245 X27.344 Y39.46
N16250 X26.387 Y39.484
N16255 X25.43 Y39.433
N16260 X24.481 Y39.306
N16265 X23.545 Y39.104
N16270 X22.627 Y38.83
N16275 X21.734 Y38.485
N16280 X20.87 Y38.071
N16285 X20.041 Y37.592
N16290 X19.252 Y37.05
N16295 X18.506 Y36.448
N16300 X17.809 Y35.792
N16305 X17.164 Y35.084
N16310 X16.575 Y34.329
N16315 X16.045 Y33.531
N16320 X15.577 Y32.695
N16325 X15.174 Y31.827
N16330 X14.838 Y30.93
N16335 X14.571 Y30.01
N16340 X14.376 Y29.073
N16345 X14.252 Y28.123
N16350 X14.2 Y27.167
N16355 X14.221 Y26.209
N16360 X14.314 Y25.256
N16365 X14.478 Y24.312
N16370 X14.712 Y23.384
N16375 X15.014 Y22.475
N16380 X15.384 Y21.592
N16385 X15.819 Y20.738
N16390 X16.316 Y19.92
N16395 X16.873 Y19.14
N16400 X17.486 Y18.405
N16405 X18.152 Y17.717
N16410 X18.868 Y17.081
N16415 X19.631 Y16.502
N16420 X20.435 Y15.981
N16425 X21.276 Y15.523
N16430 X22.148 Y15.128
N16435 X23.048 Y14.8
N16440 X23.97 Y14.54
N16445 X24.908 Y14.349
N16450 X25.858 Y14.228
N16455 X26.815 Y14.178
N16460 X27.772 Y14.2
N16465 X28.725 Y14.292
N16470 X29.669 Y14.454
N16475 X30.598 Y14.686
N16480 X31.508 Y14.987
N16485 X32.392 Y15.354
N16490 X33.247 Y15.785
N16495 X34.07 Y16.276
N16500 X34.855 Y16.823
N16505 X35.602 Y17.424
N16510 X36.305 Y18.073
N16515 X36.963 Y18.77
N16520 X37.569 Y19.511
N16525 X38.122 Y20.293
N16530 X38.621 Y21.11
N16535 X39.064 Y21.96
N16540 X39.448 Y22.837
N16545 X39.773 Y23.738
N16550 X40.034 Y24.659
N16555 X40.23 Y25.597
N16560 X40.359 Y26.546
N16565 X40.423 Y27.501
N16570 X40.42 Y28.459
N16575 X40.352 Y29.414
N16580 X40.217 Y30.362
N16585 X40.018 Y31.299
N16590 X39.753 Y32.219
N16595 X39.421 Y33.118
N16600 X39.028 Y33.991
N16605 X38.573 Y34.834
N16610 X38.062 Y35.643
N16615 X37.495 Y36.416
N16620 X36.877 Y37.147
N16625 X36.21 Y37.834
N16630 X35.495 Y38.472
N16635 X34.737 Y39.057
N16640 X33.94 Y39.588
N16645 X33.109 Y40.063
N16650 X32.247 Y40.481
N16655 X31.359 Y40.839
N16660 X30.448 Y41.137
N16665 X29.52 Y41.37
N16670 X28.577 Y41.538
N16675 X27.625 Y41.642
N16680 X26.668 Y41.682
N16685 X25.71 Y41.658
N16690 X24.757 Y41.572
N16695 X23.811 Y41.421
N16700 X22.878 Y41.206
N16705 X21.961 Y40.928
N16710 X21.065 Y40.591
N16715 X20.192 Y40.196
N16720 X19.347 Y39.745
N16725 X18.533 Y39.241
N16730 X17.755 Y38.683
N16735 X17.015 Y38.074
N16740 X16.318 Y37.418
N16745 X15.664 Y36.719
N16750 X15.055 Y35.979
N16755 X14.495 Y35.202
N16760 X13.987 Y34.39
N16765 X13.534 Y33.547
N16770 X13.137 Y32.675
N16775 X12.797 Y31.78
N16780 X12.516 Y30.864
N16785 X12.293 Y29.933
N16790 X12.13 Y28.989
N16795 X12.028 Y28.037
N16800 X11.991 Y27.08
N16805 X12.015 Y26.122
N16810 X12.1 Y25.169
N16815 X12.245 Y24.222
N16820 X12.45 Y23.286
N16825 X12.713 Y22.365
N16830 X13.035 Y21.464
N16835 X13.415 Y20.585
N16840 X13.851 Y19.732
N16845 X14.34 Y18.908
N16850 X14.88 Y18.117
N16855 X15.468 Y17.361
N16860 X16.102 Y16.644
N16865 X16.783 Y15.97
N16870 X17.506 Y15.342
N16875 X18.268 Y14.762
N16880 X19.065 Y14.232
N16885 X19.894 Y13.752
N16890 X20.752 Y13.326
N16895 X21.634 Y12.954
N16900 X22.54 Y12.642
N16905 X23.463 Y12.389
N16910 X24.401 Y12.194
N16915 X25.349 Y12.06
N16920 X26.304 Y11.984
N16925 X27.262 Y11.968
N16930 X28.218 Y12.013
N16935 X29.17 Y12.12
N16940 X30.113 Y12.288
N16945 X31.043 Y12.516
N16950 X31.957 Y12.801
N16955 X32.852 Y13.142
N16960 X33.724 Y13.538
N16965 X34.57 Y13.986
N16970 X35.387 Y14.487
N16975 X36.171 Y15.037
N16980 X36.921 Y15.632
N16985 X37.634 Y16.271
N16990 X38.309 Y16.951
N16995 X38.942 Y17.67
N17000 X39.531 Y18.425
N17005 X40.073 Y19.214
N17010 X40.567 Y20.035
N17015 X41.012 Y20.883
N17020 X41.407 Y21.755
N17025 X41.75 Y22.649
N17030 X42.041 Y23.562
N17035 X42.276 Y24.49
N17040 X42.44 Y25.353
N17045 X42.454 Y25.439
N17050 X42.462 Y25.526
N17055 X42.465 Y25.613
N17060 Y28.523
N17065 X42.417 Y29.479
N17070 X42.349 Y30.435
N17075 X42.206 Y31.382
N17080 X41.995 Y32.316
N17085 X41.72 Y33.233
N17090 X41.383 Y34.13
N17095 X40.988 Y35.002
N17100 X40.54 Y35.848
N17105 X40.04 Y36.666
N17110 X39.493 Y37.451
N17115 X38.899 Y38.203
N17120 X38.262 Y38.918
N17125 X37.581 Y39.592
N17130 X36.86 Y40.222
N17135 X36.103 Y40.808
N17140 X35.311 Y41.347
N17145 X34.49 Y41.839
N17150 X33.641 Y42.283
N17155 X33.513 Y42.341
N17160 X33.328 Y42.409
N17165 X33.134 Y42.451
N17170 X32.937 Y42.465
N17175 X21.996
N17180 X21.407 Y42.435
N17185 X20.825 Y42.359
N17190 X20.211 Y42.227
N17195 X19.502 Y42.015
N17200 X18.712 Y41.707
N17205 X17.868 Y41.298
N17210 X17.043 Y40.812
N17215 X16.256 Y40.265
N17220 X15.51 Y39.666
N17225 X14.803 Y39.019
N17230 X14.137 Y38.331
N17235 X13.512 Y37.605
N17240 X12.93 Y36.844
N17245 X12.393 Y36.052
N17250 X11.902 Y35.23
N17255 X11.693 Y34.829
N17260 X11.606 Y34.623
N17265 X11.553 Y34.406
N17270 X11.535 Y34.183
N17275 Y21.779
N17280 X11.572 Y21.044
N17285 X11.639 Y20.534
N17290 X11.762 Y19.957
N17295 X11.964 Y19.285
N17300 X12.24 Y18.575
N17305 X12.624 Y17.784
N17310 X13.11 Y16.959
N17315 X13.658 Y16.174
N17320 X14.26 Y15.429
N17325 X14.91 Y14.725
N17330 X15.601 Y14.062
N17335 X16.331 Y13.442
N17340 X17.097 Y12.867
N17345 X17.894 Y12.337
N17350 X18.721 Y11.853
N17355 X19.039 Y11.69
N17360 X19.243 Y11.605
N17365 X19.457 Y11.553
N17370 X19.678 Y11.535
N17375 X32.439
N17380 X33.012 Y11.564
N17385 X33.512 Y11.63
N17390 X34.117 Y11.759
N17395 X34.767 Y11.954
N17400 X35.504 Y12.241
N17405 X36.327 Y12.64
N17410 X37.153 Y13.126
N17415 X37.94 Y13.671
N17420 X38.69 Y14.267
N17425 X39.402 Y14.908
N17430 X40.075 Y15.589
N17435 X40.707 Y16.308
N17440 X41.299 Y17.061
N17445 X41.848 Y17.846
N17450 X42.252 Y18.491
N17455 X42.369 Y18.723
N17460 X42.44 Y18.974
N17465 X42.465 Y19.233
N17470 Y25.613
N17475 G3 X41.844 Y26.192 Z-12.8 I-0.6 J-0.021
N17480 X41.373 Y25.936 I0.02 J-0.6
N17485 G1 X31.968 Y12.479
N17490 G3 X31.86 Y12.156 I0.492 J-0.344
N17495 X32.439 Y11.535 Z-13. I0.6 J-0.02
N17500 G1 X36.355
N17505 X36.845 Y11.56
N17510 X37.199 Y11.606
N17515 X37.627 Y11.698
N17520 X38.077 Y11.833
N17525 X38.617 Y12.043
N17530 X39.187 Y12.32
N17535 X39.834 Y12.7
N17540 X40.551 Y13.204
N17545 X41.288 Y13.816
N17550 X41.976 Y14.482
N17555 X42.102 Y14.621
N17560 X42.257 Y14.827
N17565 X42.371 Y15.057
N17570 X42.441 Y15.305
N17575 X42.465 Y15.561
N17580 G3 X41.844 Y16.139 Z-12.8 I-0.6 J-0.021
N17585 X41.549 Y16.05 I0.02 J-0.6
N17590 G1 X36.059 Y12.645
N17595 G3 X35.776 Y12.156 I0.316 J-0.51
N17600 X36.355 Y11.535 Z-13. I0.6 J-0.02
N17605 G1 X39.618
N17610 X40.013 Y11.555
N17615 X40.338 Y11.598
N17620 X40.674 Y11.67
N17625 X41.077 Y11.79
N17630 X41.498 Y11.955
N17635 X41.662 Y12.034
N17640 X41.918 Y12.194
N17645 X42.133 Y12.405
N17650 X42.298 Y12.657
N17655 X42.405 Y12.939
N17660 X42.45 Y13.237
N17665 G3 X41.854 Y13.84 Z-12.8 I-0.6 J0.003
N17670 X41.582 Y13.777 I-0.004 J-0.6
N17675 G1 X39.371 Y12.672
N17680 G3 X39.039 Y12.156 I0.268 J-0.537
N17685 X39.618 Y11.535 Z-13. I0.6 J-0.02
N17690 G1 X40.271
N17695 X40.488 Y11.539
N17700 X40.923 Y11.557
N17705 X41.141 Y11.579
N17710 X41.359 Y11.608
N17715 X41.467 Y11.638
N17720 X41.576 Y11.682
N17725 X41.77 Y11.771
N17730 X41.794 Y11.787
N17735 X42.011 Y11.957
N17740 X42.042 Y11.989
N17745 X42.213 Y12.206
N17750 X42.229 Y12.23
N17755 X42.257 Y12.279
N17760 X42.279 Y12.327
N17765 X42.363 Y12.533
N17770 X42.392 Y12.641
N17775 X42.421 Y12.859
N17780 X42.443 Y13.077
N17785 X42.461 Y13.512
N17790 X42.465 Y13.729
N17795 Y19.233
N17800 G3 X42. Y19.796 I-0.6 J-0.021
N17805 G1 X41.908 Y19.818 Z-12.993
N17810 X41.819 Y19.838 Z-12.971
N17815 X41.734 Y19.858 Z-12.935
N17820 X41.656 Y19.876 Z-12.885
N17825 X41.586 Y19.892 Z-12.824
N17830 X41.527 Y19.906 Z-12.753
N17835 X41.479 Y19.917 Z-12.672
N17840 X41.444 Y19.925 Z-12.585
N17845 X41.422 Y19.93 Z-12.494
N17850 X41.415 Y19.931 Z-12.4
N17855 G0 Z5.
N17860 X23.266 Y41.937
N17865 Z-11.8
N17870 G1 Z-12.4 F2880.
N17875 X23.259 Y41.94 Z-12.494
N17880 X23.24 Y41.952 Z-12.585
N17885 X23.209 Y41.97 Z-12.672
N17890 X23.167 Y41.995 Z-12.753
N17895 X23.115 Y42.026 Z-12.824
N17900 X23.053 Y42.063 Z-12.885
N17905 X22.984 Y42.104 Z-12.935
N17910 X22.909 Y42.148 Z-12.971
N17915 X22.831 Y42.195 Z-12.993
N17920 X22.75 Y42.243 Z-13.
N17925 G3 X21.996 Y42.465 I-0.809 J-1.36
N17930 G1 X17.863
N17935 X17.437 Y42.443
N17940 X17.085 Y42.397
N17945 X16.66 Y42.306
N17950 X16.204 Y42.17
N17955 X15.668 Y41.961
N17960 X15.105 Y41.688
N17965 X14.458 Y41.307
N17970 X13.746 Y40.807
N17975 X13.009 Y40.195
N17980 X12.322 Y39.528
N17985 X11.893 Y39.05
N17990 X11.741 Y38.845
N17995 X11.628 Y38.615
N18000 X11.559 Y38.369
N18005 X11.535 Y38.115
N18010 G3 X12.156 Y37.536 Z-12.8 I0.6 J0.021
N18015 X12.463 Y37.634 I-0.02 J0.6
N18020 G1 X18.17 Y41.363
N18025 G3 X18.441 Y41.844 I-0.328 J0.502
N18030 X17.863 Y42.465 Z-13. I-0.6 J0.02
N18035 G1 X14.599
N18040 X14.276 Y42.448
N18045 X13.951 Y42.406
N18050 X13.617 Y42.334
N18055 X13.216 Y42.214
N18060 X12.794 Y42.05
N18065 X12.332 Y41.826
N18070 X12.233 Y41.767
N18075 X12.008 Y41.602
N18080 X11.82 Y41.396
N18085 X11.676 Y41.157
N18090 X11.583 Y40.894
N18095 X11.544 Y40.618
N18100 G3 X12.14 Y40.014 Z-12.8 I0.6 J-0.003
N18105 X12.418 Y40.081 I0.004 J0.6
N18110 G1 X14.853 Y41.331
N18115 G3 X15.178 Y41.844 I-0.274 J0.534
N18120 X14.599 Y42.465 Z-13. I-0.6 J0.02
N18125 G1 X13.729
N18130 X13.512 Y42.461
N18135 X13.077 Y42.443
N18140 X12.859 Y42.421
N18145 X12.641 Y42.392
N18150 X12.533 Y42.363
N18155 X12.327 Y42.279
N18160 X12.279 Y42.257
N18165 X12.23 Y42.229
N18170 X12.206 Y42.213
N18175 X11.989 Y42.042
N18180 X11.957 Y42.011
N18185 X11.787 Y41.794
N18190 X11.771 Y41.77
N18195 X11.682 Y41.576
N18200 X11.638 Y41.467
N18205 X11.608 Y41.359
N18210 X11.579 Y41.141
N18215 X11.557 Y40.923
N18220 X11.539 Y40.488
N18225 X11.535 Y40.271
N18230 Y34.183
N18235 G3 X12. Y33.619 I0.6 J0.021
N18240 G1 X12.092 Y33.598 Z-12.993
N18245 X12.181 Y33.578 Z-12.971
N18250 X12.266 Y33.558 Z-12.935
N18255 X12.344 Y33.54 Z-12.885
N18260 X12.414 Y33.524 Z-12.824
N18265 X12.473 Y33.51 Z-12.753
N18270 X12.521 Y33.499 Z-12.672
N18275 X12.556 Y33.491 Z-12.585
N18280 X12.578 Y33.486 Z-12.494
N18285 X12.585 Y33.484 Z-12.4
N18290 G0 Z5.
N18295 X41.937 Y27.254
N18300 Z-11.8
N18305 G1 Z-12.4 F2880.
N18310 X41.94 Y27.26 Z-12.494
N18315 X41.952 Y27.279 Z-12.585
N18320 X41.97 Y27.31 Z-12.672
N18325 X41.995 Y27.352 Z-12.753
N18330 X42.026 Y27.405 Z-12.824
N18335 X42.063 Y27.466 Z-12.885
N18340 X42.104 Y27.535 Z-12.935
N18345 X42.148 Y27.61 Z-12.971
N18350 X42.195 Y27.689 Z-12.993
N18355 X42.243 Y27.769 Z-13.
N18360 G3 X42.465 Y28.523 I-1.36 J0.809
N18365 G1 Y34.614
N18370 X42.437 Y35.155
N18375 X42.38 Y35.596
N18380 X42.269 Y36.111
N18385 X42.1 Y36.676
N18390 X41.843 Y37.336
N18395 X41.494 Y38.056
N18400 X41.042 Y38.824
N18405 X40.491 Y39.608
N18410 X39.883 Y40.348
N18415 X39.226 Y41.045
N18420 X38.527 Y41.699
N18425 X37.997 Y42.141
N18430 X37.798 Y42.279
N18435 X37.578 Y42.381
N18440 X37.343 Y42.443
N18445 X37.101 Y42.465
N18450 G3 X36.523 Y41.844 Z-12.8 I0.021 J-0.6
N18455 X36.621 Y41.536 I0.6 J0.02
N18460 G1 X41.363 Y34.306
N18465 G3 X41.844 Y34.036 I0.502 J0.329
N18470 X42.465 Y34.614 Z-13. I0.02 J0.6
N18475 G1 Y38.313
N18480 X42.445 Y38.704
N18485 X42.4 Y39.044
N18490 X42.316 Y39.437
N18495 X42.191 Y39.854
N18500 X41.999 Y40.347
N18505 X41.746 Y40.87
N18510 X41.398 Y41.461
N18515 X41.111 Y41.869
N18520 X40.937 Y42.073
N18525 X40.727 Y42.239
N18530 X40.489 Y42.363
N18535 X40.232 Y42.439
N18540 X39.965 Y42.465
N18545 G3 X39.387 Y41.844 Z-12.8 I0.021 J-0.6
N18550 X39.457 Y41.583 I0.6 J0.02
N18555 G1 X41.335 Y38.052
N18560 G3 X41.844 Y37.734 I0.53 J0.282
N18565 X42.465 Y38.313 Z-13. I0.02 J0.6
N18570 G1 Y40.271
N18575 X42.461 Y40.488
N18580 X42.443 Y40.923
N18585 X42.421 Y41.141
N18590 X42.392 Y41.359
N18595 X42.362 Y41.467
N18600 X42.318 Y41.576
N18605 X42.229 Y41.77
N18610 X42.213 Y41.794
N18615 X42.043 Y42.011
N18620 X42.011 Y42.042
N18625 X41.794 Y42.213
N18630 X41.77 Y42.229
N18635 X41.721 Y42.257
N18640 X41.673 Y42.279
N18645 X41.467 Y42.363
N18650 X41.359 Y42.392
N18655 X41.141 Y42.421
N18660 X40.923 Y42.443
N18665 X40.488 Y42.461
N18670 X40.271 Y42.465
N18675 X32.937
N18680 G3 X32.541 Y42.297 Z-12.907 I0.021 J-0.6
N18685 G1 X32.305 Y42.068 Z-12.837
N18690 X32.18 Y41.948 Z-12.8
N18695 X12.064 Y22.524
N18700 X11.94 Y22.403 Z-12.837
N18705 X11.718 Y22.189 Z-12.902
N18710 G3 X11.535 Y21.779 Z-13. I0.417 J-0.432
N18715 G1 Y17.645
N18720 X11.555 Y17.259
N18725 X11.6 Y16.913
N18730 X11.69 Y16.492
N18735 X11.821 Y16.055
N18740 X12.026 Y15.529
N18745 X12.291 Y14.983
N18750 X12.66 Y14.355
N18755 X13.146 Y13.663
N18760 X13.755 Y12.93
N18765 X14.424 Y12.245
N18770 X14.825 Y11.888
N18775 X15.03 Y11.738
N18780 X15.258 Y11.627
N18785 X15.502 Y11.558
N18790 X15.755 Y11.535
N18795 G3 X16.333 Y12.156 Z-12.8 I-0.021 J0.6
N18800 X16.236 Y12.464 I-0.6 J-0.02
N18805 G1 X12.637 Y17.953
N18810 G3 X12.156 Y18.224 I-0.502 J-0.329
N18815 X11.535 Y17.645 Z-13. I-0.02 J-0.6
N18820 G1 Y14.382
N18825 X11.548 Y14.141
N18830 X11.589 Y13.826
N18835 X11.66 Y13.494
N18840 X11.779 Y13.096
N18845 X11.939 Y12.686
N18850 X12.148 Y12.254
N18855 X12.159 Y12.236
N18860 X12.324 Y12.011
N18865 X12.53 Y11.823
N18870 X12.769 Y11.679
N18875 X13.032 Y11.586
N18880 X13.309 Y11.547
N18885 G3 X13.912 Y12.143 Z-12.8 I0.003 J0.6
N18890 X13.842 Y12.429 I-0.6 J0.004
N18895 G1 X12.665 Y14.643
N18900 G3 X12.156 Y14.961 I-0.53 J-0.282
N18905 X11.535 Y14.382 Z-13. I-0.02 J-0.6
N18910 G1 Y13.729
N18915 X11.539 Y13.512
N18920 X11.557 Y13.077
N18925 X11.579 Y12.859
N18930 X11.608 Y12.641
N18935 X11.638 Y12.533
N18940 X11.682 Y12.424
N18945 X11.771 Y12.23
N18950 X11.787 Y12.206
N18955 X11.957 Y11.989
N18960 X11.989 Y11.958
N18965 X12.206 Y11.787
N18970 X12.23 Y11.771
N18975 X12.279 Y11.743
N18980 X12.327 Y11.721
N18985 X12.533 Y11.637
N18990 X12.641 Y11.608
N18995 X12.859 Y11.579
N19000 X13.077 Y11.557
N19005 X13.512 Y11.539
N19010 X13.729 Y11.535
N19015 X19.678
N19020 X19.77 Y11.546
N19025 X19.859 Y11.57
N19030 X19.923 Y11.607 Z-12.995
N19035 X19.986 Y11.644 Z-12.982
N19040 X20.047 Y11.679 Z-12.959
N19045 X20.097 Y11.741 Z-12.921
N19050 X20.142 Y11.797 Z-12.871
N19055 X20.183 Y11.848 Z-12.812
N19060 X20.203 Y11.901 Z-12.741
N19065 X20.22 Y11.944 Z-12.663
N19070 X20.232 Y11.975 Z-12.579
N19075 X20.239 Y11.994 Z-12.491
N19080 X20.241 Y12. Z-12.4
N19085 G0 Z5.
N19090 X38.575 Y27.619
N19095 Z-8.8
N19100 G1 Z-9.4 F2880.
N19105 X38.582 Y27.617 Z-9.494
N19110 X38.603 Y27.611 Z-9.585
N19115 X38.638 Y27.602 Z-9.672
N19120 X38.686 Y27.59 Z-9.753
N19125 X38.745 Y27.575 Z-9.824
N19130 X38.814 Y27.557 Z-9.885
N19135 X38.892 Y27.537 Z-9.935
N19140 X38.976 Y27.516 Z-9.971
N19145 X39.065 Y27.493 Z-9.993
N19150 X39.156 Y27.47 Z-10.
N19155 G3 X42.422 Y27. I3.801 J14.839
N19160 G1 X42.572
N19165 X42.746 Y27.121
N19170 X42.88 Y27.284
N19175 X42.965 Y27.477
N19180 X42.994 Y27.687
N19185 X42.993 Y41.141
N19190 X42.979 Y41.359
N19195 X42.962 Y41.576
N19200 X42.934 Y41.794
N19205 X42.919 Y41.902
N19210 X42.905 Y41.957
N19215 X42.886 Y42.011
N19220 X42.796 Y42.229
N19225 X42.77 Y42.278
N19230 X42.739 Y42.327
N19235 X42.648 Y42.446
N19240 X42.566 Y42.547
N19245 X42.446 Y42.648
N19250 X42.327 Y42.738
N19255 X42.229 Y42.796
N19260 X42.011 Y42.886
N19265 X41.957 Y42.905
N19270 X41.902 Y42.919
N19275 X41.794 Y42.934
N19280 X41.576 Y42.962
N19285 X41.359 Y42.979
N19290 X41.141 Y42.993
N19295 X12.859
N19300 X12.641 Y42.979
N19305 X12.424 Y42.962
N19310 X12.206 Y42.934
N19315 X12.098 Y42.919
N19320 X12.043 Y42.905
N19325 X11.989 Y42.886
N19330 X11.771 Y42.796
N19335 X11.673 Y42.738
N19340 X11.554 Y42.648
N19345 X11.453 Y42.566
N19350 X11.352 Y42.446
N19355 X11.261 Y42.327
N19360 X11.23 Y42.278
N19365 X11.204 Y42.229
N19370 X11.114 Y42.011
N19375 X11.095 Y41.957
N19380 X11.081 Y41.902
N19385 X11.066 Y41.794
N19390 X11.038 Y41.576
N19395 X11.021 Y41.359
N19400 X11.007 Y41.141
N19405 Y12.859
N19410 X11.021 Y12.641
N19415 X11.038 Y12.424
N19420 X11.066 Y12.206
N19425 X11.081 Y12.098
N19430 X11.095 Y12.043
N19435 X11.114 Y11.989
N19440 X11.204 Y11.771
N19445 X11.262 Y11.673
N19450 X11.352 Y11.554
N19455 X11.453 Y11.434
N19460 X11.554 Y11.352
N19465 X11.673 Y11.261
N19470 X11.722 Y11.23
N19475 X11.771 Y11.204
N19480 X11.989 Y11.114
N19485 X12.043 Y11.095
N19490 X12.098 Y11.081
N19495 X12.206 Y11.066
N19500 X12.424 Y11.038
N19505 X12.641 Y11.021
N19510 X12.859 Y11.007
N19515 X41.141
N19520 X41.359 Y11.021
N19525 X41.576 Y11.038
N19530 X41.794 Y11.066
N19535 X41.902 Y11.081
N19540 X41.957 Y11.095
N19545 X42.011 Y11.114
N19550 X42.229 Y11.204
N19555 X42.278 Y11.23
N19560 X42.327 Y11.261
N19565 X42.446 Y11.352
N19570 X42.566 Y11.453
N19575 X42.648 Y11.554
N19580 X42.738 Y11.673
N19585 X42.796 Y11.771
N19590 X42.886 Y11.989
N19595 X42.905 Y12.043
N19600 X42.919 Y12.098
N19605 X42.934 Y12.206
N19610 X42.962 Y12.424
N19615 X42.979 Y12.641
N19620 X42.993 Y12.859
N19625 X42.994 Y27.687
N19630 X42.983 Y27.779
N19635 X42.959 Y27.868
N19640 X42.922 Y27.932 Z-9.995
N19645 X42.885 Y27.995 Z-9.982
N19650 X42.85 Y28.056 Z-9.959
N19655 X42.788 Y28.106 Z-9.921
N19660 X42.732 Y28.151 Z-9.871
N19665 X42.681 Y28.192 Z-9.812
N19670 X42.628 Y28.212 Z-9.741
N19675 X42.585 Y28.229 Z-9.663
N19680 X42.554 Y28.241 Z-9.579
N19685 X42.535 Y28.248 Z-9.491
N19690 X42.529 Y28.25 Z-9.4
N19695 G0 Z5.
N19700 X28.462 Y24.391
N19705 Z-10.5
N19710 G3 X29.2 Y29.025 Z-10.972 I-1.462 J2.609 F960.
N19715 X24.533 Y28.673 Z-11.444 I-2.194 J-2.02
N19720 X25.952 Y24.227 Z-11.916 I2.466 J-1.663
N19725 X29.939 Y26.628 Z-12.388 I1.045 J2.776
N19730 X26.689 Y29.942 Z-12.86 I-2.934 J0.373
N19735 X24.223 Y26.025 Z-13.332 I0.315 J-2.933
N19740 X28.592 Y24.537 Z-13.804 I2.772 J0.982
N19745 X29.028 Y29.119 Z-14.277 I-1.592 J2.463
N19750 X24.483 Y28.485 Z-14.749 I-2.022 J-2.113
N19755 X26.146 Y24.221 Z-15.221 I2.516 J-1.475
N19760 X29.899 Y26.818 Z-15.693 I0.85 J2.781
N19765 X26.514 Y29.86 Z-16.165 I-2.894 J0.183
N19770 X24.344 Y25.874 Z-16.637 I0.49 J-2.85
N19775 X28.711 Y24.689 Z-17.109 I2.652 J1.133
N19780 X28.854 Y29.199 Z-17.581 I-1.71 J2.311
N19785 X24.446 Y28.297 Z-18.053 I-1.848 J-2.192
N19790 X26.337 Y24.229 Z-18.525 I2.553 J-1.287
N19795 X29.847 Y27.002 Z-18.997 I0.659 J2.773
N19800 X24.146 I-2.851 J0.
N19805 X29.847 I2.851 J0.
N19810 G1 X29.851 Y27.241 F2880.
N19815 X30.027 Y28.183
N19820 X30.06 Y28.298
N19825 X30.088 Y28.445
N19830 X30.101 Y28.595
N19835 Y28.745
N19840 X30.088 Y28.901
N19845 X30.06 Y29.068
N19850 X30.016 Y29.242
N19855 X29.955 Y29.423
N19860 X29.876 Y29.608
N19865 X29.777 Y29.795
N19870 X29.657 Y29.983
N19875 X29.517 Y30.169
N19880 X29.355 Y30.351
N19885 X29.172 Y30.526
N19890 X28.969 Y30.691
N19895 X28.745 Y30.845
N19900 X28.503 Y30.984
N19905 X28.243 Y31.107
N19910 X27.967 Y31.212
N19915 X27.677 Y31.296
N19920 X27.374 Y31.357
N19925 X27.062 Y31.395
N19930 X26.742 Y31.408
N19935 X26.417 Y31.395
N19940 X26.09 Y31.355
N19945 X25.762 Y31.289
N19950 X25.438 Y31.195
N19955 X25.119 Y31.074
N19960 X24.808 Y30.927
