%
(BOX_50X50X25_S2)
(T1  D=6. CR=0. TAPER=45DEG - ZMIN=23.5 - CHAMFER MILL)
(T10  D=6. CR=0. - ZMIN=25. - FLAT END MILL)
N10 G90 G94 G17 G91.1
N15 G21
N20 G53 G0 Z0.
(FACE3)
N25 T10 M6
N30 S18000 M3
N35 G54
N40 G0 X55.823 Y-58.836
N45 G43 Z43.5 H10
N50 G0 Z33.5
N55 G1 Z25.6 F960.
N60 G18 G3 X55.223 Z25. I-0.6 K0. F2880.
N65 G1 X-5.223
N70 X-9.215
N75 G17 G2 Y-54.715 I0. J2.061
N80 G1 X59.215
N85 X61.511
N90 G3 Y-50.593 I0. J2.061
N95 G1 X-11.511
N100 X-12.706
N105 G2 Y-46.472 I0. J2.061
N110 G1 X62.706
N115 X63.01
N120 G3 Y-42.35 I0. J2.061
N125 G1 X-13.01
N130 G2 Y-38.229 I0. J2.061
N135 G1 X63.01
N140 G3 Y-34.107 I0. J2.061
N145 G1 X-13.01
N150 G2 Y-29.986 I0. J2.061
N155 G1 X63.01
N160 G3 Y-25.864 I0. J2.061
N165 G1 X-13.01
N170 G2 Y-21.743 I0. J2.061
N175 G1 X63.01
N180 G3 Y-17.621 I0. J2.061
N185 G1 X-13.01
N190 G2 Y-13.5 I0. J2.061
N195 G1 X63.01
N200 G3 Y-9.378 I0. J2.061
N205 G1 X-13.01
N210 G2 Y-5.257 I0. J2.061
N215 G1 X-12.934
N220 X62.934
N225 G3 Y-1.135 I0. J2.061
N230 G1 X62.128
N235 X-12.128
N240 G2 Y2.986 I0. J2.061
N245 G1 X-10.338
N250 X60.338
N255 G3 Y7.108 I0. J2.061
N260 G1 X57.185
N265 X-7.185
N270 G18 G3 X-7.785 Z25.6 I0. K0.6
N275 G0 Z43.5
N280 G17
N285 M5
N290 G53 G0 Z0.
(2D CHAMFER2)
N295 T1 M6
N300 S18000 M3
N305 G54
N310 G0 X-1.65 Y-25.
N315 G43 Z43.5 H1
N320 G0 Z33.5
N325 G1 Z30.5 F466.67
N330 Z23.5
N335 X-1.05 F1400.
N340 Y-10.
N345 G2 X10. Y1.05 I11.05 J0.
N350 G1 X40.
N355 G2 X51.05 Y-10. I0. J-11.05
N360 G1 Y-40.
N365 G2 X40. Y-51.05 I-11.05 J0.
N370 G1 X10.
N375 G2 X-1.05 Y-40. I0. J11.05
N380 G1 Y-25.
N385 X-1.65
N390 G0 Z43.5
N395 G53 Z0.
N400 M30
%
