%
(CHAMFER)
(T1  D=6. CR=0. TAPER=45DEG - ZMIN=-6.55 - CHAMFER MILL)
N10 G90 G94 G17 G91.1
N15 G21
N20 G53 G0 Z0.
(2D CHAMFER1)
N25 T1 M6
N30 S16000 M3
N35 G54
N40 M8
N45 G0 X66.583 Y-14.702
N50 G43 Z15. H1
N55 G0 Z5.
N60 G1 Z2. F333.33
N65 Z-1.8
N70 X67.179 Y-14.633 F1000.
N75 G3 X64. Y-11.8 I-3.179 J-0.367
N80 G1 X27.
N85 G3 Y-18.2 I0. J-3.2
N90 G1 X64.
N95 G3 X67.179 Y-14.633 I0. J3.2
N100 G1 X66.583 Y-14.702
N105 G0 Z5.
N110 X75.65 Y-15.
N115 G1 Z2. F333.33
N120 Z-1.8
N125 X75.05 F1000.
N130 Y-24.615
N135 G2 X74.525 Y-25.525 I-1.05 J0.
N140 G1 X69.525 Y-28.409
N145 G2 X69. Y-28.55 I-0.525 J0.909
N150 G1 X3.
N155 G2 X2.258 Y-28.242 I0. J1.05
N160 G1 X1.258 Y-27.242
N165 G2 X0.95 Y-26.5 I0.742 J0.742
N170 G1 Y-3.5
N175 G2 X1.258 Y-2.758 I1.05 J0.
N180 G1 X2.258 Y-1.758
N185 G2 X3. Y-1.45 I0.742 J-0.742
N190 G1 X69.
N195 G2 X69.525 Y-1.591 I0. J-1.05
N200 G1 X74.525 Y-4.475
N205 G2 X75.05 Y-5.385 I-0.525 J-0.909
N210 G1 Y-15.
N215 X75.65
N220 G0 Z5.
N225 X10.07 Y-13.262
N230 G1 Z2. F333.33
N235 Z-1.8
N240 X10.094 Y-12.662 F1000.
N245 G3 X7.66 Y-15. I-0.094 J-2.338
N250 X12.34 I2.34 J0.
N255 X10.094 Y-12.662 I-2.34 J0.
N260 G1 X10.07 Y-13.262
N265 G0 Z15.
(2D CHAMFER1 2)
N270 G0 X66.583 Y-14.702
N275 Z15.
N280 Z5.
N285 G1 Z2. F333.33
N290 Z-1.55
N295 X67.179 Y-14.633 F1000.
N300 G3 X64. Y-11.8 I-3.179 J-0.367
N305 G1 X27.
N310 G3 Y-18.2 I0. J-3.2
N315 G1 X64.
N320 G3 X67.179 Y-14.633 I0. J3.2
N325 G1 X66.583 Y-14.702
N330 G0 Z5.
N335 X75.65 Y-15.
N340 G1 Z2. F333.33
N345 Z-1.55
N350 X75.05 F1000.
N355 Y-24.615
N360 G2 X74.525 Y-25.525 I-1.05 J0.
N365 G1 X69.525 Y-28.409
N370 G2 X69. Y-28.55 I-0.525 J0.909
N375 G1 X3.
N380 G2 X2.258 Y-28.242 I0. J1.05
N385 G1 X1.258 Y-27.242
N390 G2 X0.95 Y-26.5 I0.742 J0.742
N395 G1 Y-3.5
N400 G2 X1.258 Y-2.758 I1.05 J0.
N405 G1 X2.258 Y-1.758
N410 G2 X3. Y-1.45 I0.742 J-0.742
N415 G1 X69.
N420 G2 X69.525 Y-1.591 I0. J-1.05
N425 G1 X74.525 Y-4.475
N430 G2 X75.05 Y-5.385 I-0.525 J-0.909
N435 G1 Y-15.
N440 X75.65
N445 G0 Z5.
N450 X10.07 Y-13.262
N455 G1 Z2. F333.33
N460 Z-1.55
N465 X10.094 Y-12.662 F1000.
N470 G3 X7.66 Y-15. I-0.094 J-2.338
N475 X12.34 I2.34 J0.
N480 X10.094 Y-12.662 I-2.34 J0.
N485 G1 X10.07 Y-13.262
N490 G0 Z15.
N495 X77.9 Y-5.73
N500 Z5.
N505 G1 Z2. F333.33
N510 Z-6.55
N515 X77.6 Y-6.249 F1000.
N520 X82.092 Y-8.841
N525 G2 X82.476 Y-9.225 I-0.525 J-0.909
N530 G1 X82.909 Y-9.975
N535 G2 X83.05 Y-10.5 I-0.909 J-0.525
N540 G1 Y-19.5
N545 G2 X82.909 Y-20.025 I-1.05 J0.
N550 G1 X82.476 Y-20.775
N555 G2 X82.092 Y-21.159 I-0.909 J0.525
N560 G1 X77.6 Y-23.751
N565 X77.9 Y-24.27
N570 G0 Z15.
N575 M9
N580 G53 Z0.
N585 M30
%
