%
(CLAMP_V3_S2)
(T1  D=6. CR=0. TAPER=45DEG - ZMIN=-4. - CHAMFER MILL)
(T16  D=6. CR=0.5 - ZMIN=-2.5 - BULLNOSE END MILL)
N10 G90 G94 G17 G91.1
N15 G21
N20 G53 G0 Z0.
(FACE4)
N25 T16 M6
N30 T1
N35 S18568 M3
N40 G54
N45 M8
N50 G0 X68.9 Y-29.57
N55 G43 Z15. H16
N60 G0 Z5.
N65 G1 Z-1.9 F1800.
N70 G18 G3 X68.3 Z-2.5 I-0.6 K0.
N75 G1 X68.01
N80 X-3.01
N85 G17 G2 Y-26.175 I0. J1.698
N90 G1 X68.01
N95 G3 Y-22.78 I0. J1.697
N100 G1 X-3.01
N105 G2 Y-19.385 I0. J1.698
N110 G1 X68.01
N115 G3 Y-15.99 I0. J1.698
N120 G1 X-3.01
N125 G2 Y-12.595 I0. J1.698
N130 G1 X68.01
N135 G3 Y-9.2 I0. J1.698
N140 G1 X-3.01
N145 G2 Y-5.805 I0. J1.697
N150 G1 X68.01
N155 G3 Y-2.41 I0. J1.697
N160 G1 X-3.01
N165 G18 G3 X-3.61 Z-1.9 I0. K0.6
N170 G0 Z15.
N175 G17
N180 M5
N185 G53 G0 Z0.
(2D CHAMFER2)
N190 M9
N195 M1
N200 T1 M6
N205 T16
N210 S18000 M3
N215 G54
N220 M8
N225 G0 X27.5 Y-17.6
N230 G43 Z15. H1
N235 G0 Z5.
N240 G1 Z2. F500.
N245 Z-4.
N250 Y-18.2 F1500.
N255 X44.5
N260 G3 Y-11.8 I0. J3.2
N265 G1 X27.5
N270 G3 Y-18.2 I0. J-3.2
N275 G1 Y-17.6
N280 G0 Z5.
N285 X0.85 Y-15.
N290 G1 Z2. F500.
N295 Z-4.
N300 X1.45 F1500.
N305 Y-3.5
N310 G2 X1.758 Y-2.758 I1.05 J0.
N315 G1 X2.758 Y-1.758
N320 G2 X3.5 Y-1.45 I0.742 J-0.742
N325 G1 X49.5
N330 G2 X50.025 Y-1.591 I0. J-1.05
N335 G1 X62.592 Y-8.841
N340 G2 X62.976 Y-9.225 I-0.525 J-0.909
N345 G1 X63.409 Y-9.975
N350 G2 X63.55 Y-10.5 I-0.909 J-0.525
N355 G1 Y-19.5
N360 G2 X63.409 Y-20.025 I-1.05 J0.
N365 G1 X62.976 Y-20.775
N370 G2 X62.592 Y-21.159 I-0.909 J0.525
N375 G1 X50.025 Y-28.409
N380 G2 X49.5 Y-28.55 I-0.525 J0.909
N385 G1 X3.5
N390 G2 X2.758 Y-28.242 I0. J1.05
N395 G1 X1.758 Y-27.242
N400 G2 X1.45 Y-26.5 I0.742 J0.742
N405 G1 Y-15.
N410 X0.85
N415 G0 Z5.
N420 X10.535 Y-13.261
N425 G1 Z2. F500.
N430 Z-4.
N435 X10.547 Y-12.661 F1500.
N440 G3 X8.16 Y-15. I-0.047 J-2.339
N445 X12.84 I2.34 J0.
N450 X10.547 Y-12.661 I-2.34 J0.
N455 G1 X10.535 Y-13.261
N460 G0 Z15.
N465 M9
N470 G53 Z0.
N475 M30
%
