%
(CLAMP_V10_S2)
(T1  D=6. CR=0. TAPER=45DEG - ZMIN=10.5 - CHAMFER MILL)
(T16  D=6. CR=0.5 - ZMIN=12. - BULLNOSE END MILL)
N10 G90 G94 G17 G91.1
N15 G21
N20 G53 G0 Z0.
(FACE4)
N25 T16 M6
N30 T1
N35 S18568 M3
N40 G54
N45 M8
N50 G0 X66.4 Y-27.07
N55 G43 Z29.5 H16
N60 G0 Z19.5
N65 G1 Z12.6 F1800.
N70 G18 G3 X65.8 Z12. I-0.6 K0.
N75 G1 X65.51
N80 X-5.51
N85 G17 G2 Y-23.675 I0. J1.698
N90 G1 X65.51
N95 G3 Y-20.28 I0. J1.697
N100 G1 X-5.51
N105 G2 Y-16.885 I0. J1.698
N110 G1 X65.51
N115 G3 Y-13.49 I0. J1.698
N120 G1 X-5.51
N125 G2 Y-10.095 I0. J1.698
N130 G1 X65.51
N135 G3 Y-6.7 I0. J1.698
N140 G1 X-5.51
N145 G2 Y-3.305 I0. J1.697
N150 G1 X65.51
N155 G3 Y0.09 I0. J1.698
N160 G1 X-5.51
N165 G18 G3 X-6.11 Z12.6 I0. K0.6
N170 G0 Z29.5
N175 G17
N180 M5
N185 G53 G0 Z0.
(2D CHAMFER2)
N190 M9
N195 M1
N200 T1 M6
N205 T16
N210 S18000 M3
N215 G54
N220 M8
N225 G0 X25. Y-15.1
N230 G43 Z29.5 H1
N235 G0 Z19.5
N240 G1 Z16.5 F500.
N245 Z10.5
N250 Y-15.7 F1500.
N255 X42.
N260 G3 Y-9.3 I0. J3.2
N265 G1 X25.
N270 G3 Y-15.7 I0. J-3.2
N275 G1 Y-15.1
N280 G0 Z19.5
N285 X-1.65 Y-12.5
N290 G1 Z16.5 F500.
N295 Z10.5
N300 X-1.05 F1500.
N305 Y-1.
N310 G2 X-0.742 Y-0.258 I1.05 J0.
N315 G1 X0.258 Y0.742
N320 G2 X1. Y1.05 I0.742 J-0.742
N325 G1 X47.
N330 G2 X47.525 Y0.909 I0. J-1.05
N335 G1 X60.092 Y-6.341
N340 G2 X60.476 Y-6.725 I-0.525 J-0.909
N345 G1 X60.909 Y-7.475
N350 G2 X61.05 Y-8. I-0.909 J-0.525
N355 G1 Y-17.
N360 G2 X60.909 Y-17.525 I-1.05 J0.
N365 G1 X60.476 Y-18.275
N370 G2 X60.092 Y-18.659 I-0.909 J0.525
N375 G1 X47.525 Y-25.909
N380 G2 X47. Y-26.05 I-0.525 J0.909
N385 G1 X1.
N390 G2 X0.258 Y-25.742 I0. J1.05
N395 G1 X-0.742 Y-24.742
N400 G2 X-1.05 Y-24. I0.742 J0.742
N405 G1 Y-12.5
N410 X-1.65
N415 G0 Z19.5
N420 X8.035 Y-10.761
N425 G1 Z16.5 F500.
N430 Z10.5
N435 X8.047 Y-10.161 F1500.
N440 G3 X5.66 Y-12.5 I-0.047 J-2.339
N445 X10.34 I2.34 J0.
N450 X8.047 Y-10.161 I-2.34 J0.
N455 G1 X8.035 Y-10.761
N460 G0 Z29.5
N465 M9
N470 G53 Z0.
N475 M30
%
