%
(CLAMP_V6_S1)
(T1  D=6. CR=0. TAPER=45DEG - ZMIN=-2. - CHAMFER MILL)
(T16  D=6. CR=0.5 - ZMIN=-13.5 - BULLNOSE END MILL)
N10 G90 G94 G17 G91.1
N15 G21
N20 G53 G0 Z0.
(FACE2)
N25 T16 M6
N30 T1
N35 S15000 M3
N40 G54
N45 M8
N50 G0 X73.145 Y-33.449
N55 G43 Z15. H16
N60 G0 Z5.
N65 G1 Z0.1 F1000.
N70 G18 G3 X72.545 Z-0.5 I-0.6 K0.
N75 G1 X69.979
N80 X-4.979 F1200.
N85 X-5.
N90 G17 G2 Y-28.946 I0. J2.252
N95 G1 X70.
N100 G3 Y-24.442 I0. J2.252
N105 G1 X-5.
N110 G2 Y-19.939 I0. J2.252
N115 G1 X70.
N120 G3 Y-15.436 I0. J2.252
N125 G1 X-5.
N130 G2 Y-10.932 I0. J2.252
N135 G1 X70.
N140 G3 Y-6.429 I0. J2.252
N145 G1 X-5.
N150 G2 Y-1.926 I0. J2.252
N155 G1 X70.
N160 G3 Y2.578 I0. J2.252
N165 G1 X-5.
N170 G18 G3 X-5.6 Z0.1 I0. K0.6 F1000.
N175 G0 Z15.
N180 G17
(2D ADAPTIVE3)
N185 S14000 M3
N190 G0 X43.497 Y-14.3
N195 Z15.
N200 Z5.
N205 Z2.5
N210 G3 X42.677 Y-15.178 Z2.4 I-0.131 J-0.7 F400.
N215 X43.817 Y-15.548 Z2.3 I0.688 J0.178
N220 X43.669 Y-14.361 Z2.2 I-0.451 J0.546
N225 X42.66 Y-14.997 Z2.1 I-0.302 J-0.639
N230 X43.661 Y-15.64 Z2. I0.705 J-0.003
N235 X43.818 Y-14.464 Z1.9 I-0.295 J0.638
N240 X42.689 Y-14.819 Z1.8 I-0.452 J-0.537
N245 X43.487 Y-15.689 Z1.7 I0.676 J-0.181
N250 X43.936 Y-14.6 Z1.6 I-0.122 J0.687
N255 X42.762 Y-14.655 Z1.5 I-0.569 J-0.401
N260 X43.309 Y-15.692 Z1.4 I0.603 J-0.344
N265 X44.014 Y-14.76 Z1.3 I0.056 J0.69
N270 X42.873 Y-14.517 Z1.2 I-0.648 J-0.241
N275 X43.136 Y-15.65 Z1.1 I0.492 J-0.483
N280 X44.049 Y-14.933 Z1. I0.228 J0.649
N285 X43.015 Y-14.412 Z0.9 I-0.682 J-0.068
N290 X42.982 Y-15.566 Z0.8 I0.35 J-0.588
N295 X44.038 Y-15.108 Z0.7 I0.383 J0.565
N300 X43.178 Y-14.347 Z0.6 I-0.672 J0.107
N305 X42.854 Y-15.446 Z0.5 I0.188 J-0.652
N310 X43.984 Y-15.274 Z0.4 I0.51 J0.445
N315 X43.351 Y-14.326 Z0.3 I-0.618 J0.272
N320 X42.763 Y-15.299 Z0.2 I0.015 J-0.673
N325 X43.89 Y-15.419 Z0.1 I0.602 J0.299
N330 X43.521 Y-14.35 Z0. I-0.524 J0.417
N335 X42.712 Y-15.135 Z-0.1 I-0.155 J-0.65
N340 X43.763 Y-15.535 Z-0.2 I0.653 J0.135
N345 X43.679 Y-14.416 Z-0.3 I-0.398 J0.533
N350 X42.704 Y-14.964 Z-0.4 I-0.313 J-0.584
N355 X43.612 Y-15.613 Z-0.5 I0.66 J-0.036
N360 X43.814 Y-14.519 Z-0.6 I-0.247 J0.612
N365 X42.74 Y-14.799 Z-0.7 I-0.448 J-0.482
N370 X43.448 Y-15.651 Z-0.8 I0.625 J-0.201
N375 X43.918 Y-14.652 Z-0.9 I-0.083 J0.649
N380 X42.817 Y-14.649 Z-1. I-0.551 J-0.349
N385 X43.28 Y-15.645 Z-1.1 I0.548 J-0.35
N390 X43.984 Y-14.805 Z-1.2 I0.085 J0.644
N395 X42.928 Y-14.525 Z-1.3 I-0.617 J-0.196
N400 X43.121 Y-15.597 Z-1.4 I0.438 J-0.475
N405 X44.008 Y-14.969 Z-1.5 I0.244 J0.596
N410 X43.065 Y-14.434 Z-1.6 I-0.641 J-0.032
N415 X42.98 Y-15.511 Z-1.7 I0.3 J-0.566
N420 X43.989 Y-15.133 Z-1.8 I0.384 J0.51
N425 X43.221 Y-14.381 Z-1.9 I-0.623 J0.131
N430 X42.867 Y-15.393 Z-2. I0.145 J-0.618
N435 X43.931 Y-15.285 Z-2.1 I0.497 J0.392
N440 X43.383 Y-14.37 Z-2.2 I-0.565 J0.283
N445 X42.788 Y-15.251 Z-2.3 I-0.017 J-0.63
N450 X43.836 Y-15.416 Z-2.4 I0.576 J0.251
N455 X43.541 Y-14.4 Z-2.5 I-0.47 J0.414
N460 X42.749 Y-15.096 Z-2.6 I-0.175 J-0.6
N465 X43.712 Y-15.518 Z-2.7 I0.616 J0.095
N470 X43.686 Y-14.469 Z-2.8 I-0.346 J0.516
N475 X42.75 Y-14.936 Z-2.9 I-0.319 J-0.531
N480 X43.567 Y-15.584 Z-3. I0.614 J-0.064
N485 X43.807 Y-14.572 Z-3.1 I-0.202 J0.582
N490 X42.792 Y-14.784 Z-3.2 I-0.44 J-0.428
N495 X43.412 Y-15.611 Z-3.3 I0.573 J-0.216
N500 X43.897 Y-14.701 Z-3.4 I-0.047 J0.609
N505 X42.87 Y-14.648 Z-3.5 I-0.53 J-0.3
N510 X43.256 Y-15.597 Z-3.6 I0.495 J-0.352
N515 X43.95 Y-14.847 Z-3.7 I0.109 J0.596
N520 X42.98 Y-14.537 Z-3.8 I-0.584 J-0.154
N525 X43.11 Y-15.545 Z-3.9 I0.386 J-0.462
N530 X43.965 Y-15.001 Z-4. I0.255 J0.544
N535 X42.764 I-0.6 J0.
N540 X43.965 I0.6 J0.
N545 S15000
N550 G1 X43.994 Y-14.754 F1000.
N555 X44.022 Y-14.616
N560 X43.996 Y-14.477
N565 X43.919 Y-14.36
N570 X43.802 Y-14.28
N575 X43.665 Y-14.251
N580 X43.583 Y-14.25
N585 X42.931
N590 X42.782 Y-14.257
N595 X42.638 Y-14.301
N600 X42.506 Y-14.373
N605 X42.347 Y-14.548
N610 X42.248 Y-14.764
N615 X42.219 Y-15.
N620 X42.263 Y-15.234
N625 X42.376 Y-15.443
N630 X42.547 Y-15.608
N635 X42.759 Y-15.714
N640 X42.994 Y-15.75
N645 X43.583
N650 X43.801 Y-15.747
N655 X43.888 Y-15.739
N660 X44.035 Y-15.709
N665 X44.231 Y-15.589
N670 X44.382 Y-15.417
N675 X44.474 Y-15.207
N680 X44.5 Y-14.98
N685 X44.456 Y-14.755
N690 X44.347 Y-14.553
N695 X44.183 Y-14.393
N700 X43.979 Y-14.29
N705 X43.753 Y-14.252
N710 X43.661 Y-14.261
N715 X43.571 Y-14.284
N720 G2 X43.213 Y-14.294 I-0.194 J0.568
N725 G3 X42.931 Y-14.25 I-0.323 J-1.142
N730 G1 X42.377
N735 X42.227 Y-14.257
N740 X42.085 Y-14.304
N745 X41.954 Y-14.377
N750 X41.798 Y-14.555
N755 X41.704 Y-14.772
N760 X41.678 Y-15.007
N765 X41.725 Y-15.239
N770 X41.839 Y-15.446
N775 X42.009 Y-15.61
N780 X42.222 Y-15.714
N785 X42.455 Y-15.75
N790 X42.994
N795 X43.082 Y-15.74
N800 X43.167 Y-15.718
N805 G2 X43.467 Y-15.704 I0.175 J-0.512
N810 G3 X43.801 Y-15.747 I0.368 J1.539
N815 G1 X44.355 Y-15.72
N820 X44.431 Y-15.713
N825 X44.578 Y-15.683
N830 X44.714 Y-15.62
N835 X44.874 Y-15.458
N840 X44.978 Y-15.256
N845 X45.016 Y-15.031
N850 X44.984 Y-14.806
N855 X44.886 Y-14.6
N860 X44.73 Y-14.434
N865 X44.531 Y-14.323
N870 X44.308 Y-14.278
N875 X44.261 Y-14.28
N880 G3 X44.355 Y-15.72 I0.084 J-0.718
N885 G1 X44.453 Y-15.715
N890 X44.561 Y-15.705
N895 X44.67 Y-15.687
N900 X44.724 Y-15.671
N905 X44.779 Y-15.649
N910 X44.887 Y-15.592
N915 X44.952 Y-15.543
N920 X45.042 Y-15.455
N925 X45.105 Y-15.366
N930 X45.127 Y-15.326
N935 X45.173 Y-15.217
N940 X45.199 Y-15.109
N945 X45.207 Y-15.
N950 X45.199 Y-14.891
N955 X45.173 Y-14.783
N960 X45.127 Y-14.674
N965 X45.105 Y-14.634
N970 X45.042 Y-14.545
N975 X44.952 Y-14.457
N980 X44.887 Y-14.408
N985 X44.779 Y-14.351
N990 X44.724 Y-14.329
N995 X44.67 Y-14.313
N1000 X44.561 Y-14.295
N1005 X44.453 Y-14.285
N1010 X43.801 Y-14.253
N1015 X43.753 Y-14.252
N1020 G3 X43.458 Y-14.337 I0.013 J-0.6
N1025 G1 X43.233 Y-14.471
N1030 X43.2 Y-14.484
N1035 X43.164
N1040 X43.131 Y-14.471
N1045 G3 X42.377 Y-14.25 I-0.809 J-1.36
N1050 G1 X41.845
N1055 X41.695 Y-14.257
N1060 X41.552 Y-14.302
N1065 X41.42 Y-14.374
N1070 X41.263 Y-14.551
N1075 X41.166 Y-14.768
N1080 X41.14 Y-15.004
N1085 X41.185 Y-15.236
N1090 X41.299 Y-15.444
N1095 X41.47 Y-15.609
N1100 X41.683 Y-15.714
N1105 X41.917 Y-15.75
N1110 X42.455
N1115 G3 X42.806 Y-15.448 I-0.013 J0.37
N1120 X41.845 Y-14.25 I-0.997 J0.185
N1125 G1 X41.291
N1130 X41.141 Y-14.257
N1135 X40.999 Y-14.305
N1140 X40.868 Y-14.38
N1145 X40.715 Y-14.559
N1150 X40.621 Y-14.775
N1155 X40.597 Y-15.01
N1160 X40.645 Y-15.241
N1165 X40.759 Y-15.448
N1170 X40.93 Y-15.61
N1175 X41.142 Y-15.714
N1180 X41.375 Y-15.75
N1185 X41.917
N1190 G3 X42.269 Y-15.439 I-0.013 J0.37
N1195 X41.291 Y-14.25 I-1.014 J0.162
N1200 G1 X40.758
N1205 X40.608 Y-14.257
N1210 X40.466 Y-14.303
N1215 X40.334 Y-14.376
N1220 X40.178 Y-14.554
N1225 X40.083 Y-14.771
N1230 X40.058 Y-15.006
N1235 X40.104 Y-15.238
N1240 X40.218 Y-15.446
N1245 X40.389 Y-15.609
N1250 X40.601 Y-15.714
N1255 X40.835 Y-15.75
N1260 X41.375
N1265 G3 X41.727 Y-15.444 I-0.013 J0.37
N1270 X40.758 Y-14.25 I-1.004 J0.176
N1275 G1 X40.204
N1280 X40.054 Y-14.257
N1285 X39.912 Y-14.306
N1290 X39.783 Y-14.381
N1295 X39.63 Y-14.561
N1300 X39.538 Y-14.778
N1305 X39.514 Y-15.012
N1310 X39.562 Y-15.243
N1315 X39.677 Y-15.449
N1320 X39.848 Y-15.611
N1325 X40.06 Y-15.714
N1330 X40.293 Y-15.75
N1335 X40.835
N1340 G3 X41.188 Y-15.436 I-0.013 J0.369
N1345 X40.204 Y-14.25 I-1.02 J0.155
N1350 G1 X39.672
N1355 X39.522 Y-14.257
N1360 X39.379 Y-14.304
N1365 X39.248 Y-14.377
N1370 X39.093 Y-14.556
N1375 X38.999 Y-14.773
N1380 X38.974 Y-15.008
N1385 X39.021 Y-15.239
N1390 X39.135 Y-15.446
N1395 X39.306 Y-15.61
N1400 X39.518 Y-15.714
N1405 X39.752 Y-15.75
N1410 X40.293
N1415 G3 X40.644 Y-15.442 I-0.013 J0.37
N1420 X39.672 Y-14.25 I-1.008 J0.17
N1425 G1 X39.117
N1430 X38.968 Y-14.257
N1435 X38.826 Y-14.307
N1440 X38.697 Y-14.383
N1445 X38.544 Y-14.562
N1450 X38.453 Y-14.779
N1455 X38.43 Y-15.013
N1460 X38.478 Y-15.244
N1465 X38.593 Y-15.449
N1470 X38.764 Y-15.611
N1475 X38.976 Y-15.714
N1480 X39.208 Y-15.75
N1485 X39.752
N1490 G3 X40.105 Y-15.434 I-0.013 J0.369
N1495 X39.117 Y-14.25 I-1.023 J0.15
N1500 G1 X38.585
N1505 X38.435 Y-14.257
N1510 X38.293 Y-14.304
N1515 X38.162 Y-14.378
N1520 X38.008 Y-14.557
N1525 X37.914 Y-14.774
N1530 X37.889 Y-15.009
N1535 X37.936 Y-15.24
N1540 X38.051 Y-15.447
N1545 X38.222 Y-15.61
N1550 X38.434 Y-15.714
N1555 X38.667 Y-15.75
N1560 X39.208
N1565 G3 X39.56 Y-15.44 I-0.013 J0.37
N1570 X38.585 Y-14.25 I-1.011 J0.166
N1575 G1 X38.031
N1580 X37.881 Y-14.257
N1585 X37.74 Y-14.307
N1590 X37.61 Y-14.383
N1595 X37.458 Y-14.563
N1600 X37.367 Y-14.78
N1605 X37.345 Y-15.014
N1610 X37.393 Y-15.244
N1615 X37.508 Y-15.45
N1620 X37.679 Y-15.611
N1625 X37.891 Y-15.715
N1630 X38.123 Y-15.75
N1635 X38.667
N1640 G3 X39.02 Y-15.433 I-0.013 J0.369
N1645 X38.031 Y-14.25 I-1.026 J0.148
N1650 G1 X37.498
N1655 X37.349 Y-14.257
N1660 X37.206 Y-14.305
N1665 X37.076 Y-14.379
N1670 X36.921 Y-14.557
N1675 X36.828 Y-14.774
N1680 X36.804 Y-15.009
N1685 X36.851 Y-15.241
N1690 X36.965 Y-15.447
N1695 X37.136 Y-15.61
N1700 X37.348 Y-15.714
N1705 X37.582 Y-15.75
N1710 X38.123
N1715 G3 X38.476 Y-15.44 I-0.013 J0.37
N1720 X37.498 Y-14.25 I-1.013 J0.164
N1725 G1 X36.944
N1730 X36.794 Y-14.257
N1735 X36.653 Y-14.307
N1740 X36.524 Y-14.384
N1745 X36.372 Y-14.564
N1750 X36.281 Y-14.78
N1755 X36.259 Y-15.015
N1760 X36.308 Y-15.245
N1765 X36.423 Y-15.45
N1770 X36.594 Y-15.611
N1775 X36.805 Y-15.715
N1780 X37.038 Y-15.75
N1785 X37.582
N1790 G3 X37.935 Y-15.433 I-0.013 J0.369
N1795 X36.944 Y-14.25 I-1.027 J0.146
N1800 G1 X36.412
N1805 X36.262 Y-14.257
N1810 X36.12 Y-14.305
N1815 X35.989 Y-14.379
N1820 X35.835 Y-14.558
N1825 X35.742 Y-14.775
N1830 X35.718 Y-15.01
N1835 X35.765 Y-15.241
N1840 X35.88 Y-15.447
N1845 X36.051 Y-15.61
N1850 X36.263 Y-15.714
N1855 X36.496 Y-15.75
N1860 X37.038
N1865 G3 X37.39 Y-15.439 I-0.013 J0.37
N1870 X36.412 Y-14.25 I-1.014 J0.163
N1875 G1 X35.858
N1880 X35.708 Y-14.257
N1885 X35.566 Y-14.308
N1890 X35.437 Y-14.384
N1895 X35.286 Y-14.564
N1900 X35.195 Y-14.781
N1905 X35.173 Y-15.015
N1910 X35.222 Y-15.245
N1915 X35.337 Y-15.45
N1920 X35.508 Y-15.611
N1925 X35.719 Y-15.715
N1930 X35.952 Y-15.75
N1935 X36.496
N1940 G3 X36.849 Y-15.432 I-0.013 J0.369
N1945 X35.858 Y-14.25 I-1.028 J0.145
N1950 G1 X35.325
N1955 X35.175 Y-14.257
N1960 X35.033 Y-14.305
N1965 X34.903 Y-14.379
N1970 X34.749 Y-14.558
N1975 X34.656 Y-14.775
N1980 X34.632 Y-15.01
N1985 X34.679 Y-15.241
N1990 X34.794 Y-15.448
N1995 X34.965 Y-15.61
N2000 X35.177 Y-15.714
N2005 X35.41 Y-15.75
N2010 X35.952
N2015 G3 X36.304 Y-15.439 I-0.013 J0.37
N2020 X35.325 Y-14.25 I-1.015 J0.162
N2025 G1 X34.771
N2030 X34.621 Y-14.257
N2035 X34.48 Y-14.308
N2040 X34.351 Y-14.384
N2045 X34.199 Y-14.564
N2050 X34.109 Y-14.781
N2055 X34.087 Y-15.015
N2060 X34.136 Y-15.245
N2065 X34.251 Y-15.45
N2070 X34.422 Y-15.611
N2075 X34.633 Y-15.715
N2080 X34.865 Y-15.75
N2085 X35.41
N2090 G3 X35.763 Y-15.432 I-0.013 J0.369
N2095 X34.771 Y-14.25 I-1.028 J0.144
N2100 G1 X34.239
N2105 X34.089 Y-14.257
N2110 X33.946 Y-14.305
N2115 X33.816 Y-14.379
N2120 X33.662 Y-14.558
N2125 X33.569 Y-14.775
N2130 X33.545 Y-15.01
N2135 X33.593 Y-15.241
N2140 X33.707 Y-15.448
N2145 X33.878 Y-15.61
N2150 X34.09 Y-15.714
N2155 X34.324 Y-15.75
N2160 X34.865
N2165 G3 X35.218 Y-15.439 I-0.013 J0.37
N2170 X34.239 Y-14.25 I-1.015 J0.161
N2175 G1 X33.684
N2180 X33.535 Y-14.257
N2185 X33.393 Y-14.308
N2190 X33.264 Y-14.384
N2195 X33.113 Y-14.564
N2200 X33.022 Y-14.781
N2205 X33. Y-15.015
N2210 X33.049 Y-15.245
N2215 X33.164 Y-15.45
N2220 X33.335 Y-15.611
N2225 X33.547 Y-15.715
N2230 X33.779 Y-15.75
N2235 X34.324
N2240 G3 X34.677 Y-15.432 I-0.013 J0.369
N2245 X33.684 Y-14.25 I-1.029 J0.144
N2250 G1 X33.152
N2255 X33.002 Y-14.257
N2260 X32.86 Y-14.305
N2265 X32.73 Y-14.379
N2270 X32.576 Y-14.558
N2275 X32.483 Y-14.775
N2280 X32.459 Y-15.01
N2285 X32.506 Y-15.241
N2290 X32.621 Y-15.448
N2295 X32.792 Y-15.61
N2300 X33.004 Y-15.714
N2305 X33.237 Y-15.75
N2310 X33.779
N2315 G3 X34.131 Y-15.438 I-0.013 J0.37
N2320 X33.152 Y-14.25 I-1.015 J0.161
N2325 G1 X32.598
N2330 X32.448 Y-14.257
N2335 X32.307 Y-14.308
N2340 X32.178 Y-14.384
N2345 X32.026 Y-14.564
N2350 X31.936 Y-14.781
N2355 X31.914 Y-15.015
N2360 X31.963 Y-15.245
N2365 X32.078 Y-15.45
N2370 X32.249 Y-15.611
N2375 X32.46 Y-15.715
N2380 X32.693 Y-15.75
N2385 X33.237
N2390 G3 X33.59 Y-15.432 I-0.013 J0.369
N2395 X32.598 Y-14.25 I-1.029 J0.144
N2400 G1 X32.065
N2405 X31.916 Y-14.257
N2410 X31.773 Y-14.305
N2415 X31.643 Y-14.379
N2420 X31.489 Y-14.558
N2425 X31.396 Y-14.775
N2430 X31.372 Y-15.01
N2435 X31.42 Y-15.241
N2440 X31.534 Y-15.448
N2445 X31.705 Y-15.61
N2450 X31.917 Y-15.714
N2455 X32.151 Y-15.75
N2460 X32.693
N2465 G3 X33.045 Y-15.438 I-0.013 J0.37
N2470 X32.065 Y-14.25 I-1.015 J0.161
N2475 G1 X31.511
N2480 X31.361 Y-14.257
N2485 X31.22 Y-14.308
N2490 X31.091 Y-14.384
N2495 X30.94 Y-14.564
N2500 X30.849 Y-14.781
N2505 X30.827 Y-15.015
N2510 X30.876 Y-15.245
N2515 X30.991 Y-15.45
N2520 X31.162 Y-15.612
N2525 X31.374 Y-15.715
N2530 X31.606 Y-15.75
N2535 X32.151
N2540 G3 X32.504 Y-15.432 I-0.013 J0.369
N2545 X31.511 Y-14.25 I-1.029 J0.143
N2550 G1 X30.979
N2555 X30.829 Y-14.257
N2560 X30.687 Y-14.305
N2565 X30.556 Y-14.379
N2570 X30.403 Y-14.558
N2575 X30.31 Y-14.775
N2580 X30.286 Y-15.01
N2585 X30.333 Y-15.241
N2590 X30.448 Y-15.448
N2595 X30.619 Y-15.61
N2600 X30.831 Y-15.714
N2605 X31.064 Y-15.75
N2610 X31.606
N2615 G3 X31.958 Y-15.438 I-0.013 J0.37
N2620 X30.979 Y-14.25 I-1.015 J0.161
N2625 G1 X30.425
N2630 X30.275 Y-14.257
N2635 X30.133 Y-14.308
N2640 X30.004 Y-14.384
N2645 X29.853 Y-14.564
N2650 X29.763 Y-14.781
N2655 X29.741 Y-15.015
N2660 X29.79 Y-15.245
N2665 X29.905 Y-15.45
N2670 X30.076 Y-15.612
N2675 X30.287 Y-15.715
N2680 X30.519 Y-15.75
N2685 X31.064
N2690 G3 X31.417 Y-15.432 I-0.013 J0.369
N2695 X30.425 Y-14.25 I-1.029 J0.143
N2700 G1 X29.892
N2705 X29.742 Y-14.257
N2710 X29.6 Y-14.305
N2715 X29.47 Y-14.379
N2720 X29.316 Y-14.558
N2725 X29.223 Y-14.775
N2730 X29.199 Y-15.01
N2735 X29.247 Y-15.241
N2740 X29.361 Y-15.448
N2745 X29.532 Y-15.61
N2750 X29.744 Y-15.714
N2755 X29.977 Y-15.75
N2760 X30.519
N2765 G3 X30.872 Y-15.438 I-0.013 J0.37
N2770 X29.892 Y-14.25 I-1.016 J0.161
N2775 G1 X29.338
N2780 X29.188 Y-14.257
N2785 X29.047 Y-14.308
N2790 X28.918 Y-14.384
N2795 X28.767 Y-14.564
N2800 X28.676 Y-14.781
N2805 X28.654 Y-15.015
N2810 X28.703 Y-15.245
N2815 X28.818 Y-15.45
N2820 X28.989 Y-15.612
N2825 X29.201 Y-15.715
N2830 X29.433 Y-15.75
N2835 X29.977
N2840 G3 X30.331 Y-15.432 I-0.013 J0.369
N2845 X29.338 Y-14.25 I-1.029 J0.143
N2850 G1 X28.806
N2855 X28.656 Y-14.257
N2860 X28.513 Y-14.305
N2865 X28.383 Y-14.379
N2870 X28.229 Y-14.558
N2875 X28.136 Y-14.775
N2880 X28.113 Y-15.01
N2885 X28.16 Y-15.241
N2890 X28.275 Y-15.448
N2895 X28.446 Y-15.61
N2900 X28.658 Y-15.714
N2905 X28.891 Y-15.75
N2910 X29.433
N2915 G3 X29.785 Y-15.438 I-0.013 J0.37
N2920 X28.806 Y-14.25 I-1.016 J0.161
N2925 G1 X28.251
N2930 X28.102 Y-14.258
N2935 X27.96 Y-14.308
N2940 X27.831 Y-14.384
N2945 X27.68 Y-14.564
N2950 X27.59 Y-14.781
N2955 X27.568 Y-15.015
N2960 X27.616 Y-15.245
N2965 X27.732 Y-15.45
N2970 X27.902 Y-15.611
N2975 X28.114 Y-15.714
N2980 X28.346 Y-15.75
N2985 X28.891
N2990 G3 X29.244 Y-15.432 I-0.013 J0.369
N2995 X28.251 Y-14.25 I-1.029 J0.144
N3000 G1 X27.936
N3005 X27.719 Y-14.255
N3010 X27.606 Y-14.277
N3015 X27.461 Y-14.314
N3020 X27.327 Y-14.382
N3025 X27.176 Y-14.545
N3030 X27.077 Y-14.744
N3035 X27.039 Y-14.963
N3040 X27.066 Y-15.184
N3045 X27.155 Y-15.388
N3050 X27.298 Y-15.558
N3055 X27.485 Y-15.679
N3060 X27.698 Y-15.742
N3065 X27.767 Y-15.743
N3070 G3 X27.719 Y-14.255 I-0.059 J0.743
N3075 G1 X27.502 Y-14.286
N3080 X27.284 Y-14.326
N3085 X27.176 Y-14.372
N3090 X27.121 Y-14.403
N3095 X27.067 Y-14.441
N3100 X27.048 Y-14.457
N3105 X26.99 Y-14.511
N3110 X26.942 Y-14.565
N3115 X26.904 Y-14.62
N3120 X26.873 Y-14.674
N3125 X26.85 Y-14.722
N3130 X26.82 Y-14.807
N3135 X26.801 Y-14.891
N3140 X26.793 Y-15.
N3145 X26.801 Y-15.109
N3150 X26.82 Y-15.193
N3155 X26.85 Y-15.278
N3160 X26.873 Y-15.326
N3165 X26.904 Y-15.38
N3170 X26.942 Y-15.435
N3175 X26.99 Y-15.489
N3180 X27.048 Y-15.543
N3185 X27.067 Y-15.559
N3190 X27.121 Y-15.597
N3195 X27.176 Y-15.628
N3200 X27.284 Y-15.674
N3205 X27.502 Y-15.714
N3210 X27.719 Y-15.745
N3215 X27.936 Y-15.75
N3220 X28.346
N3225 X28.438 Y-15.74
N3230 X28.527 Y-15.715
N3235 X28.591 Y-15.678 Z-3.995
N3240 X28.654 Y-15.642 Z-3.982
N3245 X28.715 Y-15.606 Z-3.959
N3250 X28.765 Y-15.545 Z-3.921
N3255 X28.811 Y-15.488 Z-3.871
N3260 X28.852 Y-15.438 Z-3.812
N3265 X28.872 Y-15.385 Z-3.741
N3270 X28.888 Y-15.342 Z-3.663
N3275 X28.9 Y-15.311 Z-3.579
N3280 X28.907 Y-15.292 Z-3.491
N3285 X28.91 Y-15.285 Z-3.4
N3290 G0 Z5.
N3295 X43.497 Y-14.3
N3300 Z-1.5
N3305 S14000
N3310 G3 X42.677 Y-15.178 Z-1.6 I-0.131 J-0.7 F400.
N3315 X43.817 Y-15.548 Z-1.7 I0.688 J0.178
N3320 X43.669 Y-14.361 Z-1.8 I-0.451 J0.546
N3325 X42.66 Y-14.997 Z-1.9 I-0.302 J-0.639
N3330 X43.661 Y-15.64 Z-2. I0.705 J-0.003
N3335 X43.818 Y-14.464 Z-2.1 I-0.295 J0.638
N3340 X42.689 Y-14.819 Z-2.2 I-0.452 J-0.537
N3345 X43.487 Y-15.689 Z-2.3 I0.676 J-0.181
N3350 X43.936 Y-14.6 Z-2.4 I-0.122 J0.687
N3355 X42.762 Y-14.655 Z-2.5 I-0.569 J-0.401
N3360 X43.309 Y-15.692 Z-2.6 I0.603 J-0.344
N3365 X44.014 Y-14.76 Z-2.7 I0.056 J0.69
N3370 X42.873 Y-14.517 Z-2.8 I-0.648 J-0.241
N3375 X43.136 Y-15.65 Z-2.9 I0.492 J-0.483
N3380 X44.049 Y-14.933 Z-3. I0.228 J0.649
N3385 X43.015 Y-14.412 Z-3.1 I-0.682 J-0.068
N3390 X42.982 Y-15.566 Z-3.2 I0.35 J-0.588
N3395 X44.038 Y-15.108 Z-3.3 I0.383 J0.565
N3400 X43.178 Y-14.347 Z-3.4 I-0.672 J0.107
N3405 X42.854 Y-15.446 Z-3.5 I0.188 J-0.652
N3410 X43.984 Y-15.274 Z-3.6 I0.51 J0.445
N3415 X43.351 Y-14.326 Z-3.7 I-0.618 J0.272
N3420 X42.763 Y-15.299 Z-3.8 I0.015 J-0.673
N3425 X43.89 Y-15.419 Z-3.9 I0.602 J0.299
N3430 X43.521 Y-14.35 Z-4. I-0.524 J0.417
N3435 X42.712 Y-15.135 Z-4.1 I-0.155 J-0.65
N3440 X43.763 Y-15.535 Z-4.2 I0.653 J0.135
N3445 X43.679 Y-14.416 Z-4.3 I-0.398 J0.533
N3450 X42.704 Y-14.964 Z-4.4 I-0.313 J-0.584
N3455 X43.612 Y-15.613 Z-4.5 I0.66 J-0.036
N3460 X43.814 Y-14.519 Z-4.6 I-0.247 J0.612
N3465 X42.74 Y-14.799 Z-4.7 I-0.448 J-0.482
N3470 X43.448 Y-15.651 Z-4.8 I0.625 J-0.201
N3475 X43.918 Y-14.652 Z-4.9 I-0.083 J0.649
N3480 X42.817 Y-14.649 Z-5. I-0.551 J-0.349
N3485 X43.28 Y-15.645 Z-5.1 I0.548 J-0.35
N3490 X43.984 Y-14.805 Z-5.2 I0.085 J0.644
N3495 X42.928 Y-14.525 Z-5.3 I-0.617 J-0.196
N3500 X43.121 Y-15.597 Z-5.4 I0.438 J-0.475
N3505 X44.008 Y-14.969 Z-5.5 I0.244 J0.596
N3510 X43.065 Y-14.434 Z-5.6 I-0.641 J-0.032
N3515 X42.98 Y-15.511 Z-5.7 I0.3 J-0.566
N3520 X43.989 Y-15.133 Z-5.8 I0.384 J0.51
N3525 X43.221 Y-14.381 Z-5.9 I-0.623 J0.131
N3530 X42.867 Y-15.393 Z-6. I0.145 J-0.618
N3535 X43.931 Y-15.285 Z-6.1 I0.497 J0.392
N3540 X43.383 Y-14.37 Z-6.2 I-0.565 J0.283
N3545 X42.788 Y-15.251 Z-6.3 I-0.017 J-0.63
N3550 X43.836 Y-15.416 Z-6.4 I0.576 J0.251
N3555 X43.541 Y-14.4 Z-6.5 I-0.47 J0.414
N3560 X42.749 Y-15.096 Z-6.6 I-0.175 J-0.6
N3565 X43.712 Y-15.518 Z-6.7 I0.616 J0.095
N3570 X43.686 Y-14.469 Z-6.8 I-0.346 J0.516
N3575 X42.75 Y-14.936 Z-6.9 I-0.319 J-0.531
N3580 X43.567 Y-15.584 Z-7. I0.614 J-0.064
N3585 X43.807 Y-14.572 Z-7.1 I-0.202 J0.582
N3590 X42.792 Y-14.784 Z-7.2 I-0.44 J-0.428
N3595 X43.412 Y-15.611 Z-7.3 I0.573 J-0.216
N3600 X43.897 Y-14.701 Z-7.4 I-0.047 J0.609
N3605 X42.87 Y-14.648 Z-7.5 I-0.53 J-0.3
N3610 X43.256 Y-15.597 Z-7.6 I0.495 J-0.352
N3615 X43.95 Y-14.847 Z-7.7 I0.109 J0.596
N3620 X42.98 Y-14.537 Z-7.8 I-0.584 J-0.154
N3625 X43.11 Y-15.545 Z-7.9 I0.386 J-0.462
N3630 X43.965 Y-15.001 Z-8. I0.255 J0.544
N3635 X42.764 I-0.6 J0.
N3640 X43.965 I0.6 J0.
N3645 S15000
N3650 G1 X43.994 Y-14.754 F1000.
N3655 X44.022 Y-14.616
N3660 X43.996 Y-14.477
N3665 X43.919 Y-14.36
N3670 X43.802 Y-14.28
N3675 X43.665 Y-14.251
N3680 X43.583 Y-14.25
N3685 X42.931
N3690 X42.782 Y-14.257
N3695 X42.638 Y-14.301
N3700 X42.506 Y-14.373
N3705 X42.347 Y-14.548
N3710 X42.248 Y-14.764
N3715 X42.219 Y-15.
N3720 X42.263 Y-15.234
N3725 X42.376 Y-15.443
N3730 X42.547 Y-15.608
N3735 X42.759 Y-15.714
N3740 X42.994 Y-15.75
N3745 X43.583
N3750 X43.801 Y-15.747
N3755 X43.888 Y-15.739
N3760 X44.035 Y-15.709
N3765 X44.231 Y-15.589
N3770 X44.382 Y-15.417
N3775 X44.474 Y-15.207
N3780 X44.5 Y-14.98
N3785 X44.456 Y-14.755
N3790 X44.347 Y-14.553
N3795 X44.183 Y-14.393
N3800 X43.979 Y-14.29
N3805 X43.753 Y-14.252
N3810 X43.661 Y-14.261
N3815 X43.571 Y-14.284
N3820 G2 X43.213 Y-14.294 I-0.194 J0.568
N3825 G3 X42.931 Y-14.25 I-0.323 J-1.142
N3830 G1 X42.377
N3835 X42.227 Y-14.257
N3840 X42.085 Y-14.304
N3845 X41.954 Y-14.377
N3850 X41.798 Y-14.555
N3855 X41.704 Y-14.772
N3860 X41.678 Y-15.007
N3865 X41.725 Y-15.239
N3870 X41.839 Y-15.446
N3875 X42.009 Y-15.61
N3880 X42.222 Y-15.714
N3885 X42.455 Y-15.75
N3890 X42.994
N3895 X43.082 Y-15.74
N3900 X43.167 Y-15.718
N3905 G2 X43.467 Y-15.704 I0.175 J-0.512
N3910 G3 X43.801 Y-15.747 I0.368 J1.539
N3915 G1 X44.355 Y-15.72
N3920 X44.431 Y-15.713
N3925 X44.578 Y-15.683
N3930 X44.714 Y-15.62
N3935 X44.874 Y-15.458
N3940 X44.978 Y-15.256
N3945 X45.016 Y-15.031
N3950 X44.984 Y-14.806
N3955 X44.886 Y-14.6
N3960 X44.73 Y-14.434
N3965 X44.531 Y-14.323
N3970 X44.308 Y-14.278
N3975 X44.261 Y-14.28
N3980 G3 X44.355 Y-15.72 I0.084 J-0.718
N3985 G1 X44.453 Y-15.715
N3990 X44.561 Y-15.705
N3995 X44.67 Y-15.687
N4000 X44.724 Y-15.671
N4005 X44.779 Y-15.649
N4010 X44.887 Y-15.592
N4015 X44.952 Y-15.543
N4020 X45.042 Y-15.455
N4025 X45.105 Y-15.366
N4030 X45.127 Y-15.326
N4035 X45.173 Y-15.217
N4040 X45.199 Y-15.109
N4045 X45.207 Y-15.
N4050 X45.199 Y-14.891
N4055 X45.173 Y-14.783
N4060 X45.127 Y-14.674
N4065 X45.105 Y-14.634
N4070 X45.042 Y-14.545
N4075 X44.952 Y-14.457
N4080 X44.887 Y-14.408
N4085 X44.779 Y-14.351
N4090 X44.724 Y-14.329
N4095 X44.67 Y-14.313
N4100 X44.561 Y-14.295
N4105 X44.453 Y-14.285
N4110 X43.801 Y-14.253
N4115 X43.753 Y-14.252
N4120 G3 X43.458 Y-14.337 I0.013 J-0.6
N4125 G1 X43.233 Y-14.471
N4130 X43.2 Y-14.484
N4135 X43.164
N4140 X43.131 Y-14.471
N4145 G3 X42.377 Y-14.25 I-0.809 J-1.36
N4150 G1 X41.845
N4155 X41.695 Y-14.257
N4160 X41.552 Y-14.302
N4165 X41.42 Y-14.374
N4170 X41.263 Y-14.551
N4175 X41.166 Y-14.768
N4180 X41.14 Y-15.004
N4185 X41.185 Y-15.236
N4190 X41.299 Y-15.444
N4195 X41.47 Y-15.609
N4200 X41.683 Y-15.714
N4205 X41.917 Y-15.75
N4210 X42.455
N4215 G3 X42.806 Y-15.448 I-0.013 J0.37
N4220 X41.845 Y-14.25 I-0.997 J0.185
N4225 G1 X41.291
N4230 X41.141 Y-14.257
N4235 X40.999 Y-14.305
N4240 X40.868 Y-14.38
N4245 X40.715 Y-14.559
N4250 X40.621 Y-14.775
N4255 X40.597 Y-15.01
N4260 X40.645 Y-15.241
N4265 X40.759 Y-15.448
N4270 X40.93 Y-15.61
N4275 X41.142 Y-15.714
N4280 X41.375 Y-15.75
N4285 X41.917
N4290 G3 X42.269 Y-15.439 I-0.013 J0.37
N4295 X41.291 Y-14.25 I-1.014 J0.162
N4300 G1 X40.758
N4305 X40.608 Y-14.257
N4310 X40.466 Y-14.303
N4315 X40.334 Y-14.376
N4320 X40.178 Y-14.554
N4325 X40.083 Y-14.771
N4330 X40.058 Y-15.006
N4335 X40.104 Y-15.238
N4340 X40.218 Y-15.446
N4345 X40.389 Y-15.609
N4350 X40.601 Y-15.714
N4355 X40.835 Y-15.75
N4360 X41.375
N4365 G3 X41.727 Y-15.444 I-0.013 J0.37
N4370 X40.758 Y-14.25 I-1.004 J0.176
N4375 G1 X40.204
N4380 X40.054 Y-14.257
N4385 X39.912 Y-14.306
N4390 X39.783 Y-14.381
N4395 X39.63 Y-14.561
N4400 X39.538 Y-14.778
N4405 X39.514 Y-15.012
N4410 X39.562 Y-15.243
N4415 X39.677 Y-15.449
N4420 X39.848 Y-15.611
N4425 X40.06 Y-15.714
N4430 X40.293 Y-15.75
N4435 X40.835
N4440 G3 X41.188 Y-15.436 I-0.013 J0.369
N4445 X40.204 Y-14.25 I-1.02 J0.155
N4450 G1 X39.672
N4455 X39.522 Y-14.257
N4460 X39.379 Y-14.304
N4465 X39.248 Y-14.377
N4470 X39.093 Y-14.556
N4475 X38.999 Y-14.773
N4480 X38.974 Y-15.008
N4485 X39.021 Y-15.239
N4490 X39.135 Y-15.446
N4495 X39.306 Y-15.61
N4500 X39.518 Y-15.714
N4505 X39.752 Y-15.75
N4510 X40.293
N4515 G3 X40.644 Y-15.442 I-0.013 J0.37
N4520 X39.672 Y-14.25 I-1.008 J0.17
N4525 G1 X39.117
N4530 X38.968 Y-14.257
N4535 X38.826 Y-14.307
N4540 X38.697 Y-14.383
N4545 X38.544 Y-14.562
N4550 X38.453 Y-14.779
N4555 X38.43 Y-15.013
N4560 X38.478 Y-15.244
N4565 X38.593 Y-15.449
N4570 X38.764 Y-15.611
N4575 X38.976 Y-15.714
N4580 X39.208 Y-15.75
N4585 X39.752
N4590 G3 X40.105 Y-15.434 I-0.013 J0.369
N4595 X39.117 Y-14.25 I-1.023 J0.15
N4600 G1 X38.585
N4605 X38.435 Y-14.257
N4610 X38.293 Y-14.304
N4615 X38.162 Y-14.378
N4620 X38.008 Y-14.557
N4625 X37.914 Y-14.774
N4630 X37.889 Y-15.009
N4635 X37.936 Y-15.24
N4640 X38.051 Y-15.447
N4645 X38.222 Y-15.61
N4650 X38.434 Y-15.714
N4655 X38.667 Y-15.75
N4660 X39.208
N4665 G3 X39.56 Y-15.44 I-0.013 J0.37
N4670 X38.585 Y-14.25 I-1.011 J0.166
N4675 G1 X38.031
N4680 X37.881 Y-14.257
N4685 X37.74 Y-14.307
N4690 X37.61 Y-14.383
N4695 X37.458 Y-14.563
N4700 X37.367 Y-14.78
N4705 X37.345 Y-15.014
N4710 X37.393 Y-15.244
N4715 X37.508 Y-15.45
N4720 X37.679 Y-15.611
N4725 X37.891 Y-15.715
N4730 X38.123 Y-15.75
N4735 X38.667
N4740 G3 X39.02 Y-15.433 I-0.013 J0.369
N4745 X38.031 Y-14.25 I-1.026 J0.148
N4750 G1 X37.498
N4755 X37.349 Y-14.257
N4760 X37.206 Y-14.305
N4765 X37.076 Y-14.379
N4770 X36.921 Y-14.557
N4775 X36.828 Y-14.774
N4780 X36.804 Y-15.009
N4785 X36.851 Y-15.241
N4790 X36.965 Y-15.447
N4795 X37.136 Y-15.61
N4800 X37.348 Y-15.714
N4805 X37.582 Y-15.75
N4810 X38.123
N4815 G3 X38.476 Y-15.44 I-0.013 J0.37
N4820 X37.498 Y-14.25 I-1.013 J0.164
N4825 G1 X36.944
N4830 X36.794 Y-14.257
N4835 X36.653 Y-14.307
N4840 X36.524 Y-14.384
N4845 X36.372 Y-14.564
N4850 X36.281 Y-14.78
N4855 X36.259 Y-15.015
N4860 X36.308 Y-15.245
N4865 X36.423 Y-15.45
N4870 X36.594 Y-15.611
N4875 X36.805 Y-15.715
N4880 X37.038 Y-15.75
N4885 X37.582
N4890 G3 X37.935 Y-15.433 I-0.013 J0.369
N4895 X36.944 Y-14.25 I-1.027 J0.146
N4900 G1 X36.412
N4905 X36.262 Y-14.257
N4910 X36.12 Y-14.305
N4915 X35.989 Y-14.379
N4920 X35.835 Y-14.558
N4925 X35.742 Y-14.775
N4930 X35.718 Y-15.01
N4935 X35.765 Y-15.241
N4940 X35.88 Y-15.447
N4945 X36.051 Y-15.61
N4950 X36.263 Y-15.714
N4955 X36.496 Y-15.75
N4960 X37.038
N4965 G3 X37.39 Y-15.439 I-0.013 J0.37
N4970 X36.412 Y-14.25 I-1.014 J0.163
N4975 G1 X35.858
N4980 X35.708 Y-14.257
N4985 X35.566 Y-14.308
N4990 X35.437 Y-14.384
N4995 X35.286 Y-14.564
N5000 X35.195 Y-14.781
N5005 X35.173 Y-15.015
N5010 X35.222 Y-15.245
N5015 X35.337 Y-15.45
N5020 X35.508 Y-15.611
N5025 X35.719 Y-15.715
N5030 X35.952 Y-15.75
N5035 X36.496
N5040 G3 X36.849 Y-15.432 I-0.013 J0.369
N5045 X35.858 Y-14.25 I-1.028 J0.145
N5050 G1 X35.325
N5055 X35.175 Y-14.257
N5060 X35.033 Y-14.305
N5065 X34.903 Y-14.379
N5070 X34.749 Y-14.558
N5075 X34.656 Y-14.775
N5080 X34.632 Y-15.01
N5085 X34.679 Y-15.241
N5090 X34.794 Y-15.448
N5095 X34.965 Y-15.61
N5100 X35.177 Y-15.714
N5105 X35.41 Y-15.75
N5110 X35.952
N5115 G3 X36.304 Y-15.439 I-0.013 J0.37
N5120 X35.325 Y-14.25 I-1.015 J0.162
N5125 G1 X34.771
N5130 X34.621 Y-14.257
N5135 X34.48 Y-14.308
N5140 X34.351 Y-14.384
N5145 X34.199 Y-14.564
N5150 X34.109 Y-14.781
N5155 X34.087 Y-15.015
N5160 X34.136 Y-15.245
N5165 X34.251 Y-15.45
N5170 X34.422 Y-15.611
N5175 X34.633 Y-15.715
N5180 X34.865 Y-15.75
N5185 X35.41
N5190 G3 X35.763 Y-15.432 I-0.013 J0.369
N5195 X34.771 Y-14.25 I-1.028 J0.144
N5200 G1 X34.239
N5205 X34.089 Y-14.257
N5210 X33.946 Y-14.305
N5215 X33.816 Y-14.379
N5220 X33.662 Y-14.558
N5225 X33.569 Y-14.775
N5230 X33.545 Y-15.01
N5235 X33.593 Y-15.241
N5240 X33.707 Y-15.448
N5245 X33.878 Y-15.61
N5250 X34.09 Y-15.714
N5255 X34.324 Y-15.75
N5260 X34.865
N5265 G3 X35.218 Y-15.439 I-0.013 J0.37
N5270 X34.239 Y-14.25 I-1.015 J0.161
N5275 G1 X33.684
N5280 X33.535 Y-14.257
N5285 X33.393 Y-14.308
N5290 X33.264 Y-14.384
N5295 X33.113 Y-14.564
N5300 X33.022 Y-14.781
N5305 X33. Y-15.015
N5310 X33.049 Y-15.245
N5315 X33.164 Y-15.45
N5320 X33.335 Y-15.611
N5325 X33.547 Y-15.715
N5330 X33.779 Y-15.75
N5335 X34.324
N5340 G3 X34.677 Y-15.432 I-0.013 J0.369
N5345 X33.684 Y-14.25 I-1.029 J0.144
N5350 G1 X33.152
N5355 X33.002 Y-14.257
N5360 X32.86 Y-14.305
N5365 X32.73 Y-14.379
N5370 X32.576 Y-14.558
N5375 X32.483 Y-14.775
N5380 X32.459 Y-15.01
N5385 X32.506 Y-15.241
N5390 X32.621 Y-15.448
N5395 X32.792 Y-15.61
N5400 X33.004 Y-15.714
N5405 X33.237 Y-15.75
N5410 X33.779
N5415 G3 X34.131 Y-15.438 I-0.013 J0.37
N5420 X33.152 Y-14.25 I-1.015 J0.161
N5425 G1 X32.598
N5430 X32.448 Y-14.257
N5435 X32.307 Y-14.308
N5440 X32.178 Y-14.384
N5445 X32.026 Y-14.564
N5450 X31.936 Y-14.781
N5455 X31.914 Y-15.015
N5460 X31.963 Y-15.245
N5465 X32.078 Y-15.45
N5470 X32.249 Y-15.611
N5475 X32.46 Y-15.715
N5480 X32.693 Y-15.75
N5485 X33.237
N5490 G3 X33.59 Y-15.432 I-0.013 J0.369
N5495 X32.598 Y-14.25 I-1.029 J0.144
N5500 G1 X32.065
N5505 X31.916 Y-14.257
N5510 X31.773 Y-14.305
N5515 X31.643 Y-14.379
N5520 X31.489 Y-14.558
N5525 X31.396 Y-14.775
N5530 X31.372 Y-15.01
N5535 X31.42 Y-15.241
N5540 X31.534 Y-15.448
N5545 X31.705 Y-15.61
N5550 X31.917 Y-15.714
N5555 X32.151 Y-15.75
N5560 X32.693
N5565 G3 X33.045 Y-15.438 I-0.013 J0.37
N5570 X32.065 Y-14.25 I-1.015 J0.161
N5575 G1 X31.511
N5580 X31.361 Y-14.257
N5585 X31.22 Y-14.308
N5590 X31.091 Y-14.384
N5595 X30.94 Y-14.564
N5600 X30.849 Y-14.781
N5605 X30.827 Y-15.015
N5610 X30.876 Y-15.245
N5615 X30.991 Y-15.45
N5620 X31.162 Y-15.612
N5625 X31.374 Y-15.715
N5630 X31.606 Y-15.75
N5635 X32.151
N5640 G3 X32.504 Y-15.432 I-0.013 J0.369
N5645 X31.511 Y-14.25 I-1.029 J0.143
N5650 G1 X30.979
N5655 X30.829 Y-14.257
N5660 X30.687 Y-14.305
N5665 X30.556 Y-14.379
N5670 X30.403 Y-14.558
N5675 X30.31 Y-14.775
N5680 X30.286 Y-15.01
N5685 X30.333 Y-15.241
N5690 X30.448 Y-15.448
N5695 X30.619 Y-15.61
N5700 X30.831 Y-15.714
N5705 X31.064 Y-15.75
N5710 X31.606
N5715 G3 X31.958 Y-15.438 I-0.013 J0.37
N5720 X30.979 Y-14.25 I-1.015 J0.161
N5725 G1 X30.425
N5730 X30.275 Y-14.257
N5735 X30.133 Y-14.308
N5740 X30.004 Y-14.384
N5745 X29.853 Y-14.564
N5750 X29.763 Y-14.781
N5755 X29.741 Y-15.015
N5760 X29.79 Y-15.245
N5765 X29.905 Y-15.45
N5770 X30.076 Y-15.612
N5775 X30.287 Y-15.715
N5780 X30.519 Y-15.75
N5785 X31.064
N5790 G3 X31.417 Y-15.432 I-0.013 J0.369
N5795 X30.425 Y-14.25 I-1.029 J0.143
N5800 G1 X29.892
N5805 X29.742 Y-14.257
N5810 X29.6 Y-14.305
N5815 X29.47 Y-14.379
N5820 X29.316 Y-14.558
N5825 X29.223 Y-14.775
N5830 X29.199 Y-15.01
N5835 X29.247 Y-15.241
N5840 X29.361 Y-15.448
N5845 X29.532 Y-15.61
N5850 X29.744 Y-15.714
N5855 X29.977 Y-15.75
N5860 X30.519
N5865 G3 X30.872 Y-15.438 I-0.013 J0.37
N5870 X29.892 Y-14.25 I-1.016 J0.161
N5875 G1 X29.338
N5880 X29.188 Y-14.257
N5885 X29.047 Y-14.308
N5890 X28.918 Y-14.384
N5895 X28.767 Y-14.564
N5900 X28.676 Y-14.781
N5905 X28.654 Y-15.015
N5910 X28.703 Y-15.245
N5915 X28.818 Y-15.45
N5920 X28.989 Y-15.612
N5925 X29.201 Y-15.715
N5930 X29.433 Y-15.75
N5935 X29.977
N5940 G3 X30.331 Y-15.432 I-0.013 J0.369
N5945 X29.338 Y-14.25 I-1.029 J0.143
N5950 G1 X28.806
N5955 X28.656 Y-14.257
N5960 X28.513 Y-14.305
N5965 X28.383 Y-14.379
N5970 X28.229 Y-14.558
N5975 X28.136 Y-14.775
N5980 X28.113 Y-15.01
N5985 X28.16 Y-15.241
N5990 X28.275 Y-15.448
N5995 X28.446 Y-15.61
N6000 X28.658 Y-15.714
N6005 X28.891 Y-15.75
N6010 X29.433
N6015 G3 X29.785 Y-15.438 I-0.013 J0.37
N6020 X28.806 Y-14.25 I-1.016 J0.161
N6025 G1 X28.251
N6030 X28.102 Y-14.258
N6035 X27.96 Y-14.308
N6040 X27.831 Y-14.384
N6045 X27.68 Y-14.564
N6050 X27.59 Y-14.781
N6055 X27.568 Y-15.015
N6060 X27.616 Y-15.245
N6065 X27.732 Y-15.45
N6070 X27.902 Y-15.611
N6075 X28.114 Y-15.714
N6080 X28.346 Y-15.75
N6085 X28.891
N6090 G3 X29.244 Y-15.432 I-0.013 J0.369
N6095 X28.251 Y-14.25 I-1.029 J0.144
N6100 G1 X27.936
N6105 X27.719 Y-14.255
N6110 X27.606 Y-14.277
N6115 X27.461 Y-14.314
N6120 X27.327 Y-14.382
N6125 X27.176 Y-14.545
N6130 X27.077 Y-14.744
N6135 X27.039 Y-14.963
N6140 X27.066 Y-15.184
N6145 X27.155 Y-15.388
N6150 X27.298 Y-15.558
N6155 X27.485 Y-15.679
N6160 X27.698 Y-15.742
N6165 X27.767 Y-15.743
N6170 G3 X27.719 Y-14.255 I-0.059 J0.743
N6175 G1 X27.502 Y-14.286
N6180 X27.284 Y-14.326
N6185 X27.176 Y-14.372
N6190 X27.121 Y-14.403
N6195 X27.067 Y-14.441
N6200 X27.048 Y-14.457
N6205 X26.99 Y-14.511
N6210 X26.942 Y-14.565
N6215 X26.904 Y-14.62
N6220 X26.873 Y-14.674
N6225 X26.85 Y-14.722
N6230 X26.82 Y-14.807
N6235 X26.801 Y-14.891
N6240 X26.793 Y-15.
N6245 X26.801 Y-15.109
N6250 X26.82 Y-15.193
N6255 X26.85 Y-15.278
N6260 X26.873 Y-15.326
N6265 X26.904 Y-15.38
N6270 X26.942 Y-15.435
N6275 X26.99 Y-15.489
N6280 X27.048 Y-15.543
N6285 X27.067 Y-15.559
N6290 X27.121 Y-15.597
N6295 X27.176 Y-15.628
N6300 X27.284 Y-15.674
N6305 X27.502 Y-15.714
N6310 X27.719 Y-15.745
N6315 X27.936 Y-15.75
N6320 X28.346
N6325 X28.438 Y-15.74
N6330 X28.527 Y-15.715
N6335 X28.591 Y-15.678 Z-7.995
N6340 X28.654 Y-15.642 Z-7.982
N6345 X28.715 Y-15.606 Z-7.959
N6350 X28.765 Y-15.545 Z-7.921
N6355 X28.811 Y-15.488 Z-7.871
N6360 X28.852 Y-15.438 Z-7.812
N6365 X28.872 Y-15.385 Z-7.741
N6370 X28.888 Y-15.342 Z-7.663
N6375 X28.9 Y-15.311 Z-7.579
N6380 X28.907 Y-15.292 Z-7.491
N6385 X28.91 Y-15.285 Z-7.4
N6390 G0 Z5.
N6395 X43.497 Y-14.3
N6400 Z-5.5
N6405 S14000
N6410 G3 X42.677 Y-15.178 Z-5.6 I-0.131 J-0.7 F400.
N6415 X43.817 Y-15.548 Z-5.7 I0.688 J0.178
N6420 X43.669 Y-14.361 Z-5.8 I-0.451 J0.546
N6425 X42.66 Y-14.997 Z-5.9 I-0.302 J-0.639
N6430 X43.661 Y-15.64 Z-6. I0.705 J-0.003
N6435 X43.818 Y-14.464 Z-6.1 I-0.295 J0.638
N6440 X42.689 Y-14.819 Z-6.2 I-0.452 J-0.537
N6445 X43.487 Y-15.689 Z-6.3 I0.676 J-0.181
N6450 X43.936 Y-14.6 Z-6.4 I-0.122 J0.687
N6455 X42.762 Y-14.655 Z-6.5 I-0.569 J-0.401
N6460 X43.309 Y-15.692 Z-6.6 I0.603 J-0.344
N6465 X44.014 Y-14.76 Z-6.7 I0.056 J0.69
N6470 X42.873 Y-14.517 Z-6.8 I-0.648 J-0.241
N6475 X43.136 Y-15.65 Z-6.9 I0.492 J-0.483
N6480 X44.049 Y-14.933 Z-7. I0.228 J0.649
N6485 X43.015 Y-14.412 Z-7.1 I-0.682 J-0.068
N6490 X42.982 Y-15.566 Z-7.2 I0.35 J-0.588
N6495 X44.038 Y-15.108 Z-7.3 I0.383 J0.565
N6500 X43.178 Y-14.347 Z-7.4 I-0.672 J0.107
N6505 X42.854 Y-15.446 Z-7.5 I0.188 J-0.652
N6510 X43.984 Y-15.274 Z-7.6 I0.51 J0.445
N6515 X43.351 Y-14.326 Z-7.7 I-0.618 J0.272
N6520 X42.763 Y-15.299 Z-7.8 I0.015 J-0.673
N6525 X43.89 Y-15.419 Z-7.9 I0.602 J0.299
N6530 X43.521 Y-14.35 Z-8. I-0.524 J0.417
N6535 X42.712 Y-15.135 Z-8.1 I-0.155 J-0.65
N6540 X43.763 Y-15.535 Z-8.2 I0.653 J0.135
N6545 X43.679 Y-14.416 Z-8.3 I-0.398 J0.533
N6550 X42.704 Y-14.964 Z-8.4 I-0.313 J-0.584
N6555 X43.612 Y-15.613 Z-8.5 I0.66 J-0.036
N6560 X43.814 Y-14.519 Z-8.6 I-0.247 J0.612
N6565 X42.74 Y-14.799 Z-8.7 I-0.448 J-0.482
N6570 X43.448 Y-15.651 Z-8.8 I0.625 J-0.201
N6575 X43.918 Y-14.652 Z-8.9 I-0.083 J0.649
N6580 X42.817 Y-14.649 Z-9. I-0.551 J-0.349
N6585 X43.28 Y-15.645 Z-9.1 I0.548 J-0.35
N6590 X43.984 Y-14.805 Z-9.2 I0.085 J0.644
N6595 X42.928 Y-14.525 Z-9.3 I-0.617 J-0.196
N6600 X43.121 Y-15.597 Z-9.4 I0.438 J-0.475
N6605 X44.008 Y-14.969 Z-9.5 I0.244 J0.596
N6610 X43.065 Y-14.434 Z-9.6 I-0.641 J-0.032
N6615 X42.98 Y-15.511 Z-9.7 I0.3 J-0.566
N6620 X43.989 Y-15.133 Z-9.8 I0.384 J0.51
N6625 X43.221 Y-14.381 Z-9.9 I-0.623 J0.131
N6630 X42.867 Y-15.393 Z-10. I0.145 J-0.618
N6635 X43.931 Y-15.285 Z-10.1 I0.497 J0.392
N6640 X43.383 Y-14.37 Z-10.2 I-0.565 J0.283
N6645 X42.788 Y-15.251 Z-10.3 I-0.017 J-0.63
N6650 X43.836 Y-15.416 Z-10.4 I0.576 J0.251
N6655 X43.541 Y-14.4 Z-10.5 I-0.47 J0.414
N6660 X42.749 Y-15.096 Z-10.6 I-0.175 J-0.6
N6665 X43.712 Y-15.518 Z-10.7 I0.616 J0.095
N6670 X43.686 Y-14.469 Z-10.8 I-0.346 J0.516
N6675 X42.75 Y-14.936 Z-10.9 I-0.319 J-0.531
N6680 X43.567 Y-15.584 Z-11. I0.614 J-0.064
N6685 X43.807 Y-14.572 Z-11.1 I-0.202 J0.582
N6690 X42.792 Y-14.784 Z-11.2 I-0.44 J-0.428
N6695 X43.412 Y-15.611 Z-11.3 I0.573 J-0.216
N6700 X43.897 Y-14.701 Z-11.4 I-0.047 J0.609
N6705 X42.87 Y-14.648 Z-11.5 I-0.53 J-0.3
N6710 X43.256 Y-15.597 Z-11.6 I0.495 J-0.352
N6715 X43.95 Y-14.847 Z-11.7 I0.109 J0.596
N6720 X42.98 Y-14.537 Z-11.8 I-0.584 J-0.154
N6725 X43.11 Y-15.545 Z-11.9 I0.386 J-0.462
N6730 X43.965 Y-15.001 Z-12. I0.255 J0.544
N6735 X42.764 I-0.6 J0.
N6740 X43.965 I0.6 J0.
N6745 S15000
N6750 G1 X43.994 Y-14.754 F1000.
N6755 X44.022 Y-14.616
N6760 X43.996 Y-14.477
N6765 X43.919 Y-14.36
N6770 X43.802 Y-14.28
N6775 X43.665 Y-14.251
N6780 X43.583 Y-14.25
N6785 X42.931
N6790 X42.782 Y-14.257
N6795 X42.638 Y-14.301
N6800 X42.506 Y-14.373
N6805 X42.347 Y-14.548
N6810 X42.248 Y-14.764
N6815 X42.219 Y-15.
N6820 X42.263 Y-15.234
N6825 X42.376 Y-15.443
N6830 X42.547 Y-15.608
N6835 X42.759 Y-15.714
N6840 X42.994 Y-15.75
N6845 X43.583
N6850 X43.801 Y-15.747
N6855 X43.888 Y-15.739
N6860 X44.035 Y-15.709
N6865 X44.231 Y-15.589
N6870 X44.382 Y-15.417
N6875 X44.474 Y-15.207
N6880 X44.5 Y-14.98
N6885 X44.456 Y-14.755
N6890 X44.347 Y-14.553
N6895 X44.183 Y-14.393
N6900 X43.979 Y-14.29
N6905 X43.753 Y-14.252
N6910 X43.661 Y-14.261
N6915 X43.571 Y-14.284
N6920 G2 X43.213 Y-14.294 I-0.194 J0.568
N6925 G3 X42.931 Y-14.25 I-0.323 J-1.142
N6930 G1 X42.377
N6935 X42.227 Y-14.257
N6940 X42.085 Y-14.304
N6945 X41.954 Y-14.377
N6950 X41.798 Y-14.555
N6955 X41.704 Y-14.772
N6960 X41.678 Y-15.007
N6965 X41.725 Y-15.239
N6970 X41.839 Y-15.446
N6975 X42.009 Y-15.61
N6980 X42.222 Y-15.714
N6985 X42.455 Y-15.75
N6990 X42.994
N6995 X43.082 Y-15.74
N7000 X43.167 Y-15.718
N7005 G2 X43.467 Y-15.704 I0.175 J-0.512
N7010 G3 X43.801 Y-15.747 I0.368 J1.539
N7015 G1 X44.355 Y-15.72
N7020 X44.431 Y-15.713
N7025 X44.578 Y-15.683
N7030 X44.714 Y-15.62
N7035 X44.874 Y-15.458
N7040 X44.978 Y-15.256
N7045 X45.016 Y-15.031
N7050 X44.984 Y-14.806
N7055 X44.886 Y-14.6
N7060 X44.73 Y-14.434
N7065 X44.531 Y-14.323
N7070 X44.308 Y-14.278
N7075 X44.261 Y-14.28
N7080 G3 X44.355 Y-15.72 I0.084 J-0.718
N7085 G1 X44.453 Y-15.715
N7090 X44.561 Y-15.705
N7095 X44.67 Y-15.687
N7100 X44.724 Y-15.671
N7105 X44.779 Y-15.649
N7110 X44.887 Y-15.592
N7115 X44.952 Y-15.543
N7120 X45.042 Y-15.455
N7125 X45.105 Y-15.366
N7130 X45.127 Y-15.326
N7135 X45.173 Y-15.217
N7140 X45.199 Y-15.109
N7145 X45.207 Y-15.
N7150 X45.199 Y-14.891
N7155 X45.173 Y-14.783
N7160 X45.127 Y-14.674
N7165 X45.105 Y-14.634
N7170 X45.042 Y-14.545
N7175 X44.952 Y-14.457
N7180 X44.887 Y-14.408
N7185 X44.779 Y-14.351
N7190 X44.724 Y-14.329
N7195 X44.67 Y-14.313
N7200 X44.561 Y-14.295
N7205 X44.453 Y-14.285
N7210 X43.801 Y-14.253
N7215 X43.753 Y-14.252
N7220 G3 X43.458 Y-14.337 I0.013 J-0.6
N7225 G1 X43.233 Y-14.471
N7230 X43.2 Y-14.484
N7235 X43.164
N7240 X43.131 Y-14.471
N7245 G3 X42.377 Y-14.25 I-0.809 J-1.36
N7250 G1 X41.845
N7255 X41.695 Y-14.257
N7260 X41.552 Y-14.302
N7265 X41.42 Y-14.374
N7270 X41.263 Y-14.551
N7275 X41.166 Y-14.768
N7280 X41.14 Y-15.004
N7285 X41.185 Y-15.236
N7290 X41.299 Y-15.444
N7295 X41.47 Y-15.609
N7300 X41.683 Y-15.714
N7305 X41.917 Y-15.75
N7310 X42.455
N7315 G3 X42.806 Y-15.448 I-0.013 J0.37
N7320 X41.845 Y-14.25 I-0.997 J0.185
N7325 G1 X41.291
N7330 X41.141 Y-14.257
N7335 X40.999 Y-14.305
N7340 X40.868 Y-14.38
N7345 X40.715 Y-14.559
N7350 X40.621 Y-14.775
N7355 X40.597 Y-15.01
N7360 X40.645 Y-15.241
N7365 X40.759 Y-15.448
N7370 X40.93 Y-15.61
N7375 X41.142 Y-15.714
N7380 X41.375 Y-15.75
N7385 X41.917
N7390 G3 X42.269 Y-15.439 I-0.013 J0.37
N7395 X41.291 Y-14.25 I-1.014 J0.162
N7400 G1 X40.758
N7405 X40.608 Y-14.257
N7410 X40.466 Y-14.303
N7415 X40.334 Y-14.376
N7420 X40.178 Y-14.554
N7425 X40.083 Y-14.771
N7430 X40.058 Y-15.006
N7435 X40.104 Y-15.238
N7440 X40.218 Y-15.446
N7445 X40.389 Y-15.609
N7450 X40.601 Y-15.714
N7455 X40.835 Y-15.75
N7460 X41.375
N7465 G3 X41.727 Y-15.444 I-0.013 J0.37
N7470 X40.758 Y-14.25 I-1.004 J0.176
N7475 G1 X40.204
N7480 X40.054 Y-14.257
N7485 X39.912 Y-14.306
N7490 X39.783 Y-14.381
N7495 X39.63 Y-14.561
N7500 X39.538 Y-14.778
N7505 X39.514 Y-15.012
N7510 X39.562 Y-15.243
N7515 X39.677 Y-15.449
N7520 X39.848 Y-15.611
N7525 X40.06 Y-15.714
N7530 X40.293 Y-15.75
N7535 X40.835
N7540 G3 X41.188 Y-15.436 I-0.013 J0.369
N7545 X40.204 Y-14.25 I-1.02 J0.155
N7550 G1 X39.672
N7555 X39.522 Y-14.257
N7560 X39.379 Y-14.304
N7565 X39.248 Y-14.377
N7570 X39.093 Y-14.556
N7575 X38.999 Y-14.773
N7580 X38.974 Y-15.008
N7585 X39.021 Y-15.239
N7590 X39.135 Y-15.446
N7595 X39.306 Y-15.61
N7600 X39.518 Y-15.714
N7605 X39.752 Y-15.75
N7610 X40.293
N7615 G3 X40.644 Y-15.442 I-0.013 J0.37
N7620 X39.672 Y-14.25 I-1.008 J0.17
N7625 G1 X39.117
N7630 X38.968 Y-14.257
N7635 X38.826 Y-14.307
N7640 X38.697 Y-14.383
N7645 X38.544 Y-14.562
N7650 X38.453 Y-14.779
N7655 X38.43 Y-15.013
N7660 X38.478 Y-15.244
N7665 X38.593 Y-15.449
N7670 X38.764 Y-15.611
N7675 X38.976 Y-15.714
N7680 X39.208 Y-15.75
N7685 X39.752
N7690 G3 X40.105 Y-15.434 I-0.013 J0.369
N7695 X39.117 Y-14.25 I-1.023 J0.15
N7700 G1 X38.585
N7705 X38.435 Y-14.257
N7710 X38.293 Y-14.304
N7715 X38.162 Y-14.378
N7720 X38.008 Y-14.557
N7725 X37.914 Y-14.774
N7730 X37.889 Y-15.009
N7735 X37.936 Y-15.24
N7740 X38.051 Y-15.447
N7745 X38.222 Y-15.61
N7750 X38.434 Y-15.714
N7755 X38.667 Y-15.75
N7760 X39.208
N7765 G3 X39.56 Y-15.44 I-0.013 J0.37
N7770 X38.585 Y-14.25 I-1.011 J0.166
N7775 G1 X38.031
N7780 X37.881 Y-14.257
N7785 X37.74 Y-14.307
N7790 X37.61 Y-14.383
N7795 X37.458 Y-14.563
N7800 X37.367 Y-14.78
N7805 X37.345 Y-15.014
N7810 X37.393 Y-15.244
N7815 X37.508 Y-15.45
N7820 X37.679 Y-15.611
N7825 X37.891 Y-15.715
N7830 X38.123 Y-15.75
N7835 X38.667
N7840 G3 X39.02 Y-15.433 I-0.013 J0.369
N7845 X38.031 Y-14.25 I-1.026 J0.148
N7850 G1 X37.498
N7855 X37.349 Y-14.257
N7860 X37.206 Y-14.305
N7865 X37.076 Y-14.379
N7870 X36.921 Y-14.557
N7875 X36.828 Y-14.774
N7880 X36.804 Y-15.009
N7885 X36.851 Y-15.241
N7890 X36.965 Y-15.447
N7895 X37.136 Y-15.61
N7900 X37.348 Y-15.714
N7905 X37.582 Y-15.75
N7910 X38.123
N7915 G3 X38.476 Y-15.44 I-0.013 J0.37
N7920 X37.498 Y-14.25 I-1.013 J0.164
N7925 G1 X36.944
N7930 X36.794 Y-14.257
N7935 X36.653 Y-14.307
N7940 X36.524 Y-14.384
N7945 X36.372 Y-14.564
N7950 X36.281 Y-14.78
N7955 X36.259 Y-15.015
N7960 X36.308 Y-15.245
N7965 X36.423 Y-15.45
N7970 X36.594 Y-15.611
N7975 X36.805 Y-15.715
N7980 X37.038 Y-15.75
N7985 X37.582
N7990 G3 X37.935 Y-15.433 I-0.013 J0.369
N7995 X36.944 Y-14.25 I-1.027 J0.146
N8000 G1 X36.412
N8005 X36.262 Y-14.257
N8010 X36.12 Y-14.305
N8015 X35.989 Y-14.379
N8020 X35.835 Y-14.558
N8025 X35.742 Y-14.775
N8030 X35.718 Y-15.01
N8035 X35.765 Y-15.241
N8040 X35.88 Y-15.447
N8045 X36.051 Y-15.61
N8050 X36.263 Y-15.714
N8055 X36.496 Y-15.75
N8060 X37.038
N8065 G3 X37.39 Y-15.439 I-0.013 J0.37
N8070 X36.412 Y-14.25 I-1.014 J0.163
N8075 G1 X35.858
N8080 X35.708 Y-14.257
N8085 X35.566 Y-14.308
N8090 X35.437 Y-14.384
N8095 X35.286 Y-14.564
N8100 X35.195 Y-14.781
N8105 X35.173 Y-15.015
N8110 X35.222 Y-15.245
N8115 X35.337 Y-15.45
N8120 X35.508 Y-15.611
N8125 X35.719 Y-15.715
N8130 X35.952 Y-15.75
N8135 X36.496
N8140 G3 X36.849 Y-15.432 I-0.013 J0.369
N8145 X35.858 Y-14.25 I-1.028 J0.145
N8150 G1 X35.325
N8155 X35.175 Y-14.257
N8160 X35.033 Y-14.305
N8165 X34.903 Y-14.379
N8170 X34.749 Y-14.558
N8175 X34.656 Y-14.775
N8180 X34.632 Y-15.01
N8185 X34.679 Y-15.241
N8190 X34.794 Y-15.448
N8195 X34.965 Y-15.61
N8200 X35.177 Y-15.714
N8205 X35.41 Y-15.75
N8210 X35.952
N8215 G3 X36.304 Y-15.439 I-0.013 J0.37
N8220 X35.325 Y-14.25 I-1.015 J0.162
N8225 G1 X34.771
N8230 X34.621 Y-14.257
N8235 X34.48 Y-14.308
N8240 X34.351 Y-14.384
N8245 X34.199 Y-14.564
N8250 X34.109 Y-14.781
N8255 X34.087 Y-15.015
N8260 X34.136 Y-15.245
N8265 X34.251 Y-15.45
N8270 X34.422 Y-15.611
N8275 X34.633 Y-15.715
N8280 X34.865 Y-15.75
N8285 X35.41
N8290 G3 X35.763 Y-15.432 I-0.013 J0.369
N8295 X34.771 Y-14.25 I-1.028 J0.144
N8300 G1 X34.239
N8305 X34.089 Y-14.257
N8310 X33.946 Y-14.305
N8315 X33.816 Y-14.379
N8320 X33.662 Y-14.558
N8325 X33.569 Y-14.775
N8330 X33.545 Y-15.01
N8335 X33.593 Y-15.241
N8340 X33.707 Y-15.448
N8345 X33.878 Y-15.61
N8350 X34.09 Y-15.714
N8355 X34.324 Y-15.75
N8360 X34.865
N8365 G3 X35.218 Y-15.439 I-0.013 J0.37
N8370 X34.239 Y-14.25 I-1.015 J0.161
N8375 G1 X33.684
N8380 X33.535 Y-14.257
N8385 X33.393 Y-14.308
N8390 X33.264 Y-14.384
N8395 X33.113 Y-14.564
N8400 X33.022 Y-14.781
N8405 X33. Y-15.015
N8410 X33.049 Y-15.245
N8415 X33.164 Y-15.45
N8420 X33.335 Y-15.611
N8425 X33.547 Y-15.715
N8430 X33.779 Y-15.75
N8435 X34.324
N8440 G3 X34.677 Y-15.432 I-0.013 J0.369
N8445 X33.684 Y-14.25 I-1.029 J0.144
N8450 G1 X33.152
N8455 X33.002 Y-14.257
N8460 X32.86 Y-14.305
N8465 X32.73 Y-14.379
N8470 X32.576 Y-14.558
N8475 X32.483 Y-14.775
N8480 X32.459 Y-15.01
N8485 X32.506 Y-15.241
N8490 X32.621 Y-15.448
N8495 X32.792 Y-15.61
N8500 X33.004 Y-15.714
N8505 X33.237 Y-15.75
N8510 X33.779
N8515 G3 X34.131 Y-15.438 I-0.013 J0.37
N8520 X33.152 Y-14.25 I-1.015 J0.161
N8525 G1 X32.598
N8530 X32.448 Y-14.257
N8535 X32.307 Y-14.308
N8540 X32.178 Y-14.384
N8545 X32.026 Y-14.564
N8550 X31.936 Y-14.781
N8555 X31.914 Y-15.015
N8560 X31.963 Y-15.245
N8565 X32.078 Y-15.45
N8570 X32.249 Y-15.611
N8575 X32.46 Y-15.715
N8580 X32.693 Y-15.75
N8585 X33.237
N8590 G3 X33.59 Y-15.432 I-0.013 J0.369
N8595 X32.598 Y-14.25 I-1.029 J0.144
N8600 G1 X32.065
N8605 X31.916 Y-14.257
N8610 X31.773 Y-14.305
N8615 X31.643 Y-14.379
N8620 X31.489 Y-14.558
N8625 X31.396 Y-14.775
N8630 X31.372 Y-15.01
N8635 X31.42 Y-15.241
N8640 X31.534 Y-15.448
N8645 X31.705 Y-15.61
N8650 X31.917 Y-15.714
N8655 X32.151 Y-15.75
N8660 X32.693
N8665 G3 X33.045 Y-15.438 I-0.013 J0.37
N8670 X32.065 Y-14.25 I-1.015 J0.161
N8675 G1 X31.511
N8680 X31.361 Y-14.257
N8685 X31.22 Y-14.308
N8690 X31.091 Y-14.384
N8695 X30.94 Y-14.564
N8700 X30.849 Y-14.781
N8705 X30.827 Y-15.015
N8710 X30.876 Y-15.245
N8715 X30.991 Y-15.45
N8720 X31.162 Y-15.612
N8725 X31.374 Y-15.715
N8730 X31.606 Y-15.75
N8735 X32.151
N8740 G3 X32.504 Y-15.432 I-0.013 J0.369
N8745 X31.511 Y-14.25 I-1.029 J0.143
N8750 G1 X30.979
N8755 X30.829 Y-14.257
N8760 X30.687 Y-14.305
N8765 X30.556 Y-14.379
N8770 X30.403 Y-14.558
N8775 X30.31 Y-14.775
N8780 X30.286 Y-15.01
N8785 X30.333 Y-15.241
N8790 X30.448 Y-15.448
N8795 X30.619 Y-15.61
N8800 X30.831 Y-15.714
N8805 X31.064 Y-15.75
N8810 X31.606
N8815 G3 X31.958 Y-15.438 I-0.013 J0.37
N8820 X30.979 Y-14.25 I-1.015 J0.161
N8825 G1 X30.425
N8830 X30.275 Y-14.257
N8835 X30.133 Y-14.308
N8840 X30.004 Y-14.384
N8845 X29.853 Y-14.564
N8850 X29.763 Y-14.781
N8855 X29.741 Y-15.015
N8860 X29.79 Y-15.245
N8865 X29.905 Y-15.45
N8870 X30.076 Y-15.612
N8875 X30.287 Y-15.715
N8880 X30.519 Y-15.75
N8885 X31.064
N8890 G3 X31.417 Y-15.432 I-0.013 J0.369
N8895 X30.425 Y-14.25 I-1.029 J0.143
N8900 G1 X29.892
N8905 X29.742 Y-14.257
N8910 X29.6 Y-14.305
N8915 X29.47 Y-14.379
N8920 X29.316 Y-14.558
N8925 X29.223 Y-14.775
N8930 X29.199 Y-15.01
N8935 X29.247 Y-15.241
N8940 X29.361 Y-15.448
N8945 X29.532 Y-15.61
N8950 X29.744 Y-15.714
N8955 X29.977 Y-15.75
N8960 X30.519
N8965 G3 X30.872 Y-15.438 I-0.013 J0.37
N8970 X29.892 Y-14.25 I-1.016 J0.161
N8975 G1 X29.338
N8980 X29.188 Y-14.257
N8985 X29.047 Y-14.308
N8990 X28.918 Y-14.384
N8995 X28.767 Y-14.564
N9000 X28.676 Y-14.781
N9005 X28.654 Y-15.015
N9010 X28.703 Y-15.245
N9015 X28.818 Y-15.45
N9020 X28.989 Y-15.612
N9025 X29.201 Y-15.715
N9030 X29.433 Y-15.75
N9035 X29.977
N9040 G3 X30.331 Y-15.432 I-0.013 J0.369
N9045 X29.338 Y-14.25 I-1.029 J0.143
N9050 G1 X28.806
N9055 X28.656 Y-14.257
N9060 X28.513 Y-14.305
N9065 X28.383 Y-14.379
N9070 X28.229 Y-14.558
N9075 X28.136 Y-14.775
N9080 X28.113 Y-15.01
N9085 X28.16 Y-15.241
N9090 X28.275 Y-15.448
N9095 X28.446 Y-15.61
N9100 X28.658 Y-15.714
N9105 X28.891 Y-15.75
N9110 X29.433
N9115 G3 X29.785 Y-15.438 I-0.013 J0.37
N9120 X28.806 Y-14.25 I-1.016 J0.161
N9125 G1 X28.251
N9130 X28.102 Y-14.258
N9135 X27.96 Y-14.308
N9140 X27.831 Y-14.384
N9145 X27.68 Y-14.564
N9150 X27.59 Y-14.781
N9155 X27.568 Y-15.015
N9160 X27.616 Y-15.245
N9165 X27.732 Y-15.45
N9170 X27.902 Y-15.611
N9175 X28.114 Y-15.714
N9180 X28.346 Y-15.75
N9185 X28.891
N9190 G3 X29.244 Y-15.432 I-0.013 J0.369
N9195 X28.251 Y-14.25 I-1.029 J0.144
N9200 G1 X27.936
N9205 X27.719 Y-14.255
N9210 X27.606 Y-14.277
N9215 X27.461 Y-14.314
N9220 X27.327 Y-14.382
N9225 X27.176 Y-14.545
N9230 X27.077 Y-14.744
N9235 X27.039 Y-14.963
N9240 X27.066 Y-15.184
N9245 X27.155 Y-15.388
N9250 X27.298 Y-15.558
N9255 X27.485 Y-15.679
N9260 X27.698 Y-15.742
N9265 X27.767 Y-15.743
N9270 G3 X27.719 Y-14.255 I-0.059 J0.743
N9275 G1 X27.502 Y-14.286
N9280 X27.284 Y-14.326
N9285 X27.176 Y-14.372
N9290 X27.121 Y-14.403
N9295 X27.067 Y-14.441
N9300 X27.048 Y-14.457
N9305 X26.99 Y-14.511
N9310 X26.942 Y-14.565
N9315 X26.904 Y-14.62
N9320 X26.873 Y-14.674
N9325 X26.85 Y-14.722
N9330 X26.82 Y-14.807
N9335 X26.801 Y-14.891
N9340 X26.793 Y-15.
N9345 X26.801 Y-15.109
N9350 X26.82 Y-15.193
N9355 X26.85 Y-15.278
N9360 X26.873 Y-15.326
N9365 X26.904 Y-15.38
N9370 X26.942 Y-15.435
N9375 X26.99 Y-15.489
N9380 X27.048 Y-15.543
N9385 X27.067 Y-15.559
N9390 X27.121 Y-15.597
N9395 X27.176 Y-15.628
N9400 X27.284 Y-15.674
N9405 X27.502 Y-15.714
N9410 X27.719 Y-15.745
N9415 X27.936 Y-15.75
N9420 X28.346
N9425 G3 X28.91 Y-15.285 I-0.021 J0.6
N9430 G1 X28.931 Y-15.194 Z-11.993
N9435 X28.952 Y-15.105 Z-11.971
N9440 X28.971 Y-15.02 Z-11.935
N9445 X28.989 Y-14.942 Z-11.885
N9450 X29.005 Y-14.872 Z-11.824
N9455 X29.019 Y-14.813 Z-11.753
N9460 X29.03 Y-14.765 Z-11.672
N9465 X29.038 Y-14.73 Z-11.585
N9470 X29.043 Y-14.708 Z-11.494
N9475 X29.045 Y-14.701 Z-11.4
N9480 G0 Z15.
(2D CONTOUR1)
N9485 G0 X43.95 Y-15.6
N9490 Z15.
N9495 Z5.
N9500 G1 Z1. F400.
N9505 Z-12.9
N9510 G18 G2 X44.55 Z-13.5 I0.6 K0. F600.
N9515 G1 X45.15
N9520 G17 G3 X45.75 Y-15. I0. J0.6
N9525 X44.5 Y-13.75 I-1.25 J0.
N9530 G1 X27.5
N9535 G3 Y-16.25 I0. J-1.25
N9540 G1 X44.5
N9545 G3 X45.75 Y-15. I0. J1.25
N9550 X45.15 Y-14.4 I-0.6 J0.
N9555 G1 X44.55
N9560 G18 G3 X43.95 Z-12.9 I0. K0.6
N9565 G0 Z15.
N9570 G17
(ADAPTIVE2)
N9575 G0 X48.658 Y-37.823
N9580 Z15.
N9585 Z5.
N9590 Z-3.
N9595 G1 Z-4.5 F1000.
N9600 X48.66 Y-37.816 Z-4.647
N9605 X48.665 Y-37.795 Z-4.793
N9610 X48.674 Y-37.76 Z-4.935
N9615 X48.686 Y-37.712 Z-5.074
N9620 X48.702 Y-37.651 Z-5.207
N9625 X48.721 Y-37.578 Z-5.333
N9630 X48.743 Y-37.493 Z-5.452
N9635 X48.767 Y-37.397 Z-5.561
N9640 X48.794 Y-37.292 Z-5.66
N9645 X48.823 Y-37.177 Z-5.747
N9650 X48.855 Y-37.055 Z-5.823
N9655 X48.888 Y-36.926 Z-5.886
N9660 X48.922 Y-36.792 Z-5.935
N9665 X48.958 Y-36.653 Z-5.971
N9670 X48.994 Y-36.512 Z-5.993
N9675 X49.03 Y-36.37 Z-6.
N9680 G3 X49.5 Y-33.103 I-14.839 J3.801
N9685 G1 Y-32.959
N9690 X49.376 Y-32.875
N9695 X49.241 Y-32.809
N9700 X49.102 Y-32.753
N9705 X48.96 Y-32.705
N9710 X48.798 Y-32.657
N9715 X48.598 Y-32.605
N9720 X48.345 Y-32.55
N9725 X48.02 Y-32.491
N9730 X47.587 Y-32.429
N9735 X46.969 Y-32.363
N9740 X46.048 Y-32.3
N9745 X45.126 Y-32.268
N9750 X44.204 Y-32.251
N9755 X43.281 Y-32.242
N9760 X42.359 Y-32.237
N9765 X41.436 Y-32.234
N9770 X39.591 Y-32.232
N9775 X28.52 Y-32.23
N9780 X1.764 Y-32.226
N9785 X0.846 Y-32.134
N9790 X0.012 Y-31.739
N9795 X-0.68 Y-31.129
N9800 X-1.212 Y-30.375
N9805 X-1.594 Y-29.536
N9810 X-1.852 Y-28.65
N9815 X-2.014 Y-27.742
N9820 X-2.112 Y-26.824
N9825 X-2.168 Y-25.903
N9830 X-2.2 Y-24.981
N9835 X-2.217 Y-24.059
N9840 X-2.227 Y-23.136
N9845 X-2.232 Y-22.214
N9850 X-2.235 Y-21.291
N9855 X-2.237 Y-19.446
N9860 X-2.24 Y-10.22
N9865 X-2.241 Y-1.916
N9870 X-2.22 Y-1.455
N9875 X-2.008 Y-0.557
N9880 X-1.527 Y0.229
N9885 X-0.857 Y0.864
N9890 X-0.067 Y1.34
N9895 X0.793 Y1.674
N9900 X1.689 Y1.894
N9905 X2.602 Y2.03
N9910 X3.521 Y2.11
N9915 X4.442 Y2.156
N9920 X5.365 Y2.182
N9925 X6.287 Y2.196
N9930 X7.21 Y2.203
N9935 X8.132 Y2.208
N9940 X9.055 Y2.21
N9945 X11.823 Y2.213
N9950 X16.436 Y2.214
N9955 X63.489 Y2.225
N9960 X64.392 Y2.039
N9965 X65.19 Y1.576
N9970 X65.837 Y0.918
N9975 X66.326 Y0.136
N9980 X66.67 Y-0.72
N9985 X66.898 Y-1.614
N9990 X67.039 Y-2.526
N9995 X67.123 Y-3.445
N10000 X67.171 Y-4.366
N10005 X67.197 Y-5.288
N10010 X67.212 Y-6.211
N10015 X67.22 Y-7.133
N10020 X67.224 Y-8.056
N10025 X67.226 Y-8.979
N10030 X67.228 Y-11.746
N10035 X67.229 Y-28.353
N10040 X67.093 Y-29.266
N10045 X66.666 Y-30.084
N10050 X66.034 Y-30.755
N10055 X65.266 Y-31.267
N10060 X64.419 Y-31.632
N10065 X63.529 Y-31.875
N10070 X62.619 Y-32.028
N10075 X61.701 Y-32.119
N10080 X60.78 Y-32.171
N10085 X59.858 Y-32.2
N10090 X58.935 Y-32.216
N10095 X58.012 Y-32.224
N10100 X57.09 Y-32.229
N10105 X56.167 Y-32.231
N10110 X54.322 Y-32.233
N10115 X51.554
N10120 X50.635 Y-32.152
N10125 X49.723 Y-32.011
N10130 X48.813 Y-31.865
N10135 X47.898 Y-31.741
N10140 X46.98 Y-31.648
N10145 X46.06 Y-31.585
N10150 X45.138 Y-31.545
N10155 X44.216 Y-31.52
N10160 X43.293 Y-31.504
N10165 X42.371 Y-31.495
N10170 X41.448 Y-31.489
N10175 X40.526 Y-31.486
N10180 X38.681 Y-31.483
N10185 X34.067 Y-31.481
N10190 X3.622 Y-31.476
N10195 X2.699 Y-31.473
N10200 X1.788 Y-31.328
N10205 X0.951 Y-30.94
N10210 X0.241 Y-30.351
N10215 X-0.319 Y-29.617
N10220 X-0.732 Y-28.792
N10225 X-1.019 Y-27.916
N10230 X-1.207 Y-27.012
N10235 X-1.324 Y-26.097
N10240 X-1.394 Y-25.177
N10245 X-1.435 Y-24.256
N10250 X-1.458 Y-23.333
N10255 X-1.471 Y-22.411
N10260 X-1.479 Y-21.488
N10265 X-1.483 Y-20.566
N10270 X-1.485 Y-19.643
N10275 X-1.488 Y-16.875
N10280 X-1.491 Y-3.036
N10285 X-1.413 Y-2.117
N10290 X-1.099 Y-1.249
N10295 X-0.571 Y-0.493
N10300 X0.121 Y0.118
N10305 X0.92 Y0.579
N10310 X1.783 Y0.905
N10315 X2.679 Y1.124
N10320 X3.591 Y1.263
N10325 X4.51 Y1.347
N10330 X5.431 Y1.397
N10335 X6.353 Y1.426
N10340 X7.276 Y1.442
N10345 X8.198 Y1.451
N10350 X9.121 Y1.456
N10355 X10.044 Y1.459
N10360 X11.889 Y1.462
N10365 X20.192 Y1.465
N10370 X22.96 Y1.466
N10375 X61.709 Y1.475
N10380 X62.632 Y1.452
N10385 X63.523 Y1.212
N10390 X64.317 Y0.743
N10395 X64.973 Y0.094
N10400 X65.477 Y-0.679
N10405 X65.841 Y-1.527
N10410 X66.088 Y-2.416
N10415 X66.248 Y-3.324
N10420 X66.345 Y-4.242
N10425 X66.403 Y-5.163
N10430 X66.436 Y-6.085
N10435 X66.455 Y-7.007
N10440 X66.466 Y-7.93
N10445 X66.472 Y-8.852
N10450 X66.475 Y-9.775
N10455 X66.478 Y-11.62
N10460 X66.479 Y-18.078
N10465 Y-27.304
N10470 X66.328 Y-28.214
N10475 X65.939 Y-29.051
N10480 X65.349 Y-29.76
N10485 X64.615 Y-30.32
N10490 X63.79 Y-30.733
N10495 X62.913 Y-31.018
N10500 X62.009 Y-31.205
N10505 X61.094 Y-31.321
N10510 X60.174 Y-31.391
N10515 X59.253 Y-31.431
N10520 X58.33 Y-31.455
N10525 X57.408 Y-31.468
N10530 X56.485 Y-31.475
N10535 X55.563 Y-31.479
N10540 X54.64 Y-31.481
N10545 X52.795 Y-31.483
N10550 X51.873 Y-31.455
N10555 X50.953 Y-31.378
N10560 X50.037 Y-31.267
N10565 X49.123 Y-31.147
N10570 X48.207 Y-31.037
N10575 X47.288 Y-30.947
N10580 X46.368 Y-30.879
N10585 X45.447 Y-30.83
N10590 X44.525 Y-30.796
N10595 X43.603 Y-30.773
N10600 X42.68 Y-30.758
N10605 X41.955 Y-30.75
N10610 X3.728
N10615 X3.518 Y-30.742
N10620 X3.1 Y-30.719
N10625 X2.891 Y-30.691
N10630 X2.841 Y-30.681
N10635 X2.472 Y-30.581
N10640 X2.263 Y-30.501
N10645 X2.189 Y-30.472
N10650 X2.054 Y-30.405
N10655 X1.844 Y-30.293
N10660 X1.635 Y-30.155
N10665 X1.496 Y-30.054
N10670 X1.426 Y-29.995
N10675 X1.251 Y-29.844
N10680 X0.798 Y-29.394
N10685 X0.203 Y-28.799
N10690 X0.17 Y-28.764
N10695 X-0.039 Y-28.527
N10700 X-0.248 Y-28.228
N10705 X-0.285 Y-28.172
N10710 X-0.398 Y-27.963
N10715 X-0.458 Y-27.84
N10720 X-0.493 Y-27.754
N10725 X-0.575 Y-27.545
N10730 X-0.638 Y-27.336
N10735 X-0.684 Y-27.126
N10740 X-0.713 Y-26.917
N10745 X-0.743 Y-26.499
N10750 X-0.75 Y-26.29
N10755 Y-3.71
N10760 X-0.743 Y-3.501
N10765 X-0.713 Y-3.083
N10770 X-0.684 Y-2.874
N10775 X-0.638 Y-2.664
N10780 X-0.575 Y-2.455
N10785 X-0.493 Y-2.246
N10790 X-0.458 Y-2.16
N10795 X-0.398 Y-2.037
N10800 X-0.285 Y-1.828
N10805 X-0.248 Y-1.772
N10810 X-0.039 Y-1.473
N10815 X0.17 Y-1.236
N10820 X0.203 Y-1.201
N10825 X0.83 Y-0.574
N10830 X1.251 Y-0.156
N10835 X1.426 Y-0.005
N10840 X1.496 Y0.054
N10845 X1.635 Y0.155
N10850 X1.844 Y0.293
N10855 X2.054 Y0.405
N10860 X2.189 Y0.472
N10865 X2.263 Y0.501
N10870 X2.472 Y0.581
N10875 X2.841 Y0.681
N10880 X2.891 Y0.691
N10885 X3.1 Y0.719
N10890 X3.518 Y0.742
N10895 X3.728 Y0.75
N10900 X49.345
N10905 X49.554 Y0.748
N10910 X49.589 Y0.746
N10915 X50.512 Y0.743
N10920 X51.434 Y0.734
N10925 X52.357 Y0.728
N10930 X53.279 Y0.726
N10935 X55.125 Y0.724
N10940 X60.66
N10945 X61.582 Y0.699
N10950 X62.482 Y0.493
N10955 X63.303 Y0.072
N10960 X63.997 Y-0.535
N10965 X64.547 Y-1.276
N10970 X64.955 Y-2.104
N10975 X65.24 Y-2.981
N10980 X65.429 Y-3.884
N10985 X65.55 Y-4.799
N10990 X65.624 Y-5.719
N10995 X65.668 Y-6.64
N11000 X65.694 Y-7.562
N11005 X65.709 Y-8.485
N11010 X65.718 Y-9.407
N11015 X65.721 Y-10.007
N11020 X65.723 Y-10.069
N11025 X65.727 Y-10.13
N11030 X65.734 Y-10.191
N11035 X65.745 Y-10.4
N11040 X65.75 Y-10.609
N11045 Y-19.391
N11050 X65.745 Y-19.6
N11055 X65.743 Y-20.522
N11060 X65.736 Y-21.445
N11065 X65.733 Y-22.367
N11070 X65.73 Y-24.213
N11075 X65.729 Y-26.058
N11080 X65.644 Y-26.977
N11085 X65.344 Y-27.849
N11090 X64.838 Y-28.62
N11095 X64.168 Y-29.255
N11100 X63.384 Y-29.741
N11105 X62.531 Y-30.093
N11110 X61.641 Y-30.334
N11115 X60.732 Y-30.492
N11120 X59.814 Y-30.59
N11125 X58.894 Y-30.65
N11130 X57.972 Y-30.686
N11135 X57.049 Y-30.707
N11140 X56.127 Y-30.718
N11145 X55.204 Y-30.725
N11150 X54.282 Y-30.729
N11155 X53.359 Y-30.726
N11160 X52.437 Y-30.699
N11165 X51.516 Y-30.639
N11170 X50.998 Y-30.59
N11175 X50.771 Y-30.581
N11180 X50.545 Y-30.598
N11185 X50.323 Y-30.641
N11190 X50.162 Y-30.681
N11195 X49.973 Y-30.711
N11200 X49.763 Y-30.737
N11205 X49.554 Y-30.748
N11210 X49.345 Y-30.75
N11215 X41.955
N11220 G3 X41.213 Y-30.977 I0.052 J-1.499
N11225 G1 X41.088 Y-31.055 Z-5.993
N11230 X40.965 Y-31.132 Z-5.971
N11235 X40.843 Y-31.208 Z-5.935
N11240 X40.726 Y-31.281 Z-5.886
N11245 X40.613 Y-31.352 Z-5.823
N11250 X40.506 Y-31.419 Z-5.747
N11255 X40.406 Y-31.481 Z-5.66
N11260 X40.313 Y-31.539 Z-5.561
N11265 X40.229 Y-31.591 Z-5.452
N11270 X40.155 Y-31.638 Z-5.333
N11275 X40.091 Y-31.678 Z-5.207
N11280 X40.038 Y-31.711 Z-5.074
N11285 X39.995 Y-31.738 Z-4.935
N11290 X39.965 Y-31.757 Z-4.793
N11295 X39.947 Y-31.768 Z-4.647
N11300 X39.941 Y-31.772 Z-4.5
N11305 G0 Z5.
N11310 X66.838 Y-17.611
N11315 Z-3.
N11320 G1 Z-4.5 F1000.
N11325 X66.834 Y-17.617 Z-4.647
N11330 X66.822 Y-17.635 Z-4.793
N11335 X66.802 Y-17.665 Z-4.935
N11340 X66.775 Y-17.706 Z-5.074
N11345 X66.74 Y-17.758 Z-5.207
N11350 X66.698 Y-17.821 Z-5.333
N11355 X66.649 Y-17.894 Z-5.452
N11360 X66.594 Y-17.977 Z-5.561
N11365 X66.534 Y-18.067 Z-5.66
N11370 X66.468 Y-18.166 Z-5.747
N11375 X66.398 Y-18.271 Z-5.823
N11380 X66.324 Y-18.381 Z-5.886
N11385 X66.247 Y-18.497 Z-5.935
N11390 X66.168 Y-18.615 Z-5.971
N11395 X66.087 Y-18.736 Z-5.993
N11400 X66.005 Y-18.859 Z-6.
N11405 G3 X65.745 Y-19.6 I1.316 J-0.879
N11410 G1 X65.734 Y-19.809
N11415 X65.705 Y-20.018
N11420 X65.664 Y-20.227
N11425 X65.609 Y-20.436
N11430 X65.54 Y-20.645
N11435 X65.526 Y-20.673
N11440 X65.467 Y-20.811
N11445 X65.419 Y-20.968
N11450 X65.367 Y-21.161
N11455 X65.312 Y-21.403
N11460 X65.253 Y-21.712
N11465 X65.192 Y-22.119
N11470 X65.126 Y-22.688
N11475 X65.058 Y-23.57
N11480 X65.021 Y-24.492
N11485 X64.986 Y-25.414
N11490 X64.84 Y-26.325
N11495 X64.492 Y-27.179
N11500 X63.951 Y-27.926
N11505 X63.259 Y-28.536
N11510 X62.464 Y-29.005
N11515 X61.607 Y-29.346
N11520 X60.715 Y-29.582
N11525 X59.806 Y-29.737
N11530 X58.888 Y-29.836
N11535 X57.968 Y-29.897
N11540 X57.046 Y-29.933
N11545 X56.123 Y-29.954
N11550 X55.201 Y-29.967
N11555 X54.278 Y-29.971
N11560 X53.356 Y-29.96
N11565 X52.425 Y-29.923
N11570 X52.065 Y-29.94
N11575 X51.713 Y-30.021
N11580 X51.382 Y-30.164
N11585 X51.228 Y-30.248
N11590 X50.789 Y-30.472
N11595 X50.6 Y-30.554
N11600 X50.391 Y-30.623
N11605 X50.323 Y-30.641
N11610 G3 X49.657 Y-31.041 I0.414 J-1.442
N11615 G1 X49.555 Y-31.147 Z-5.993
N11620 X49.454 Y-31.252 Z-5.971
N11625 X49.355 Y-31.354 Z-5.935
N11630 X49.259 Y-31.454 Z-5.886
N11635 X49.166 Y-31.55 Z-5.823
N11640 X49.079 Y-31.641 Z-5.747
N11645 X48.997 Y-31.726 Z-5.66
N11650 X48.921 Y-31.804 Z-5.561
N11655 X48.852 Y-31.876 Z-5.452
N11660 X48.792 Y-31.939 Z-5.333
N11665 X48.739 Y-31.993 Z-5.207
N11670 X48.695 Y-32.038 Z-5.074
N11675 X48.661 Y-32.074 Z-4.935
N11680 X48.636 Y-32.1 Z-4.793
N11685 X48.621 Y-32.115 Z-4.647
N11690 X48.616 Y-32.121 Z-4.5
N11695 G0 Z5.
N11700 X67.31 Y-19.271
N11705 Z-3.
N11710 G1 Z-4.5 F1000.
N11715 X67.304 Y-19.275 Z-4.647
N11720 X67.286 Y-19.287 Z-4.793
N11725 X67.256 Y-19.307 Z-4.935
N11730 X67.215 Y-19.334 Z-5.074
N11735 X67.162 Y-19.368 Z-5.207
N11740 X67.099 Y-19.41 Z-5.333
N11745 X67.026 Y-19.458 Z-5.452
N11750 X66.943 Y-19.512 Z-5.561
N11755 X66.852 Y-19.572 Z-5.66
N11760 X66.753 Y-19.637 Z-5.747
N11765 X66.647 Y-19.706 Z-5.823
N11770 X66.536 Y-19.779 Z-5.886
N11775 X66.42 Y-19.855 Z-5.935
N11780 X66.3 Y-19.933 Z-5.971
N11785 X66.179 Y-20.013 Z-5.993
N11790 X66.056 Y-20.093 Z-6.
N11795 G3 X65.526 Y-20.673 I0.867 J-1.324
N11800 G1 X65.437 Y-20.854
N11805 X65.228 Y-21.272
N11810 X65.109 Y-21.481
N11815 X65.034 Y-21.628
N11820 X64.967 Y-21.762
N11825 X64.908 Y-21.9
N11830 X64.848 Y-22.058
N11835 X64.785 Y-22.241
N11840 X64.725 Y-22.44
N11845 X64.66 Y-22.69
N11850 X64.589 Y-23.011
N11855 X64.511 Y-23.433
N11860 X64.377 Y-24.346
N11865 X64.221 Y-25.255
N11870 X63.908 Y-26.123
N11875 X63.412 Y-26.901
N11880 X62.761 Y-27.555
N11885 X61.997 Y-28.072
N11890 X61.159 Y-28.457
N11895 X60.278 Y-28.731
N11900 X59.374 Y-28.917
N11905 X58.46 Y-29.039
N11910 X57.54 Y-29.116
N11915 X56.619 Y-29.164
N11920 X55.697 Y-29.192
N11925 X54.774 Y-29.204
N11930 X53.852 Y-29.199
N11935 X53.598 Y-29.198
N11940 X53.25 Y-29.228
N11945 X52.913 Y-29.319
N11950 X52.596 Y-29.466
N11955 X51.438 Y-30.134
N11960 X51.382 Y-30.164
N11965 G3 X50.839 Y-30.719 I0.763 J-1.292
N11970 G1 X50.767 Y-30.847 Z-5.993
N11975 X50.695 Y-30.974 Z-5.971
N11980 X50.625 Y-31.098 Z-5.935
N11985 X50.557 Y-31.219 Z-5.886
N11990 X50.491 Y-31.335 Z-5.823
N11995 X50.429 Y-31.445 Z-5.747
N12000 X50.371 Y-31.548 Z-5.66
N12005 X50.318 Y-31.643 Z-5.561
N12010 X50.269 Y-31.729 Z-5.452
N12015 X50.226 Y-31.805 Z-5.333
N12020 X50.189 Y-31.871 Z-5.207
N12025 X50.158 Y-31.926 Z-5.074
N12030 X50.134 Y-31.969 Z-4.935
N12035 X50.116 Y-32. Z-4.793
N12040 X50.105 Y-32.019 Z-4.647
N12045 X50.102 Y-32.025 Z-4.5
N12050 G0 Z5.
N12055 X66.986 Y-20.206
N12060 Z-3.
N12065 G1 Z-4.5 F1000.
N12070 X66.98 Y-20.21 Z-4.647
N12075 X66.961 Y-20.221 Z-4.793
N12080 X66.93 Y-20.238 Z-4.935
N12085 X66.886 Y-20.262 Z-5.074
N12090 X66.831 Y-20.293 Z-5.207
N12095 X66.765 Y-20.33 Z-5.333
N12100 X66.689 Y-20.373 Z-5.452
N12105 X66.603 Y-20.421 Z-5.561
N12110 X66.507 Y-20.474 Z-5.66
N12115 X66.404 Y-20.532 Z-5.747
N12120 X66.294 Y-20.594 Z-5.823
N12125 X66.178 Y-20.659 Z-5.886
N12130 X66.057 Y-20.727 Z-5.935
N12135 X65.933 Y-20.797 Z-5.971
N12140 X65.806 Y-20.868 Z-5.993
N12145 X65.677 Y-20.94 Z-6.
N12150 G3 X65.109 Y-21.481 I0.773 J-1.381
N12155 G1 X64.988 Y-21.69
N12160 X64.866 Y-21.9
N12165 X64.83 Y-21.959
N12170 X64.726 Y-22.109
N12175 X64.621 Y-22.256
N12180 X64.591 Y-22.29
N12185 X64.499 Y-22.408
N12190 X64.422 Y-22.537
N12195 X64.352 Y-22.67
N12200 X64.282 Y-22.816
N12205 X64.198 Y-23.013
N12210 X64.094 Y-23.281
N12215 X63.793 Y-24.153
N12220 X63.468 Y-25.016
N12225 X63.007 Y-25.815
N12230 X62.398 Y-26.509
N12235 X61.671 Y-27.076
N12240 X60.859 Y-27.515
N12245 X59.995 Y-27.838
N12250 X59.101 Y-28.066
N12255 X58.191 Y-28.22
N12260 X57.274 Y-28.32
N12265 X56.354 Y-28.383
N12270 X55.432 Y-28.418
N12275 X54.895 Y-28.428
N12280 X54.56 Y-28.462
N12285 X54.236 Y-28.552
N12290 X53.932 Y-28.695
N12295 X52.596 Y-29.466
N12300 G3 X52.066 Y-30.034 I0.794 J-1.272
N12305 G1 X51.997 Y-30.163 Z-5.993
N12310 X51.929 Y-30.292 Z-5.971
N12315 X51.862 Y-30.418 Z-5.935
N12320 X51.796 Y-30.54 Z-5.886
N12325 X51.734 Y-30.658 Z-5.823
N12330 X51.675 Y-30.769 Z-5.747
N12335 X51.619 Y-30.874 Z-5.66
N12340 X51.568 Y-30.97 Z-5.561
N12345 X51.521 Y-31.057 Z-5.452
N12350 X51.48 Y-31.135 Z-5.333
N12355 X51.445 Y-31.202 Z-5.207
N12360 X51.415 Y-31.257 Z-5.074
N12365 X51.392 Y-31.301 Z-4.935
N12370 X51.375 Y-31.332 Z-4.793
N12375 X51.365 Y-31.352 Z-4.647
N12380 X51.362 Y-31.358 Z-4.5
N12385 G0 Z5.
N12390 X66.677 Y-21.397
N12395 Z-3.
N12400 G1 Z-4.5 F1000.
N12405 X66.671 Y-21.4 Z-4.647
N12410 X66.65 Y-21.406 Z-4.793
N12415 X66.616 Y-21.418 Z-4.935
N12420 X66.569 Y-21.433 Z-5.074
N12425 X66.509 Y-21.453 Z-5.207
N12430 X66.437 Y-21.476 Z-5.333
N12435 X66.354 Y-21.504 Z-5.452
N12440 X66.26 Y-21.535 Z-5.561
N12445 X66.157 Y-21.569 Z-5.66
N12450 X66.044 Y-21.606 Z-5.747
N12455 X65.924 Y-21.646 Z-5.823
N12460 X65.798 Y-21.687 Z-5.886
N12465 X65.666 Y-21.731 Z-5.935
N12470 X65.531 Y-21.775 Z-5.971
N12475 X65.392 Y-21.821 Z-5.993
N12480 X65.253 Y-21.867 Z-6.
N12485 G3 X64.591 Y-22.29 I0.495 J-1.503
N12490 G1 X64.385 Y-22.527
N12495 X64.202 Y-22.692
N12500 X64.133 Y-22.76
N12505 X64.03 Y-22.869
N12510 X63.934 Y-22.985
N12515 X63.832 Y-23.12
N12520 X63.705 Y-23.301
N12525 X63.204 Y-24.076
N12530 X62.692 Y-24.843
N12535 X62.083 Y-25.536
N12540 X61.371 Y-26.123
N12545 X60.577 Y-26.593
N12550 X59.727 Y-26.951
N12555 X58.842 Y-27.213
N12560 X57.938 Y-27.395
N12565 X57.023 Y-27.517
N12570 X56.238 Y-27.584
N12575 X55.949 Y-27.63
N12580 X55.67 Y-27.717
N12585 X55.407 Y-27.844
N12590 X53.932 Y-28.695
N12595 G3 X53.402 Y-29.263 I0.794 J-1.272
N12600 G1 X53.333 Y-29.393 Z-5.993
N12605 X53.265 Y-29.521 Z-5.971
N12610 X53.197 Y-29.647 Z-5.935
N12615 X53.132 Y-29.77 Z-5.886
N12620 X53.07 Y-29.887 Z-5.823
N12625 X53.011 Y-29.999 Z-5.747
N12630 X52.955 Y-30.103 Z-5.66
N12635 X52.904 Y-30.199 Z-5.561
N12640 X52.857 Y-30.287 Z-5.452
N12645 X52.816 Y-30.364 Z-5.333
N12650 X52.781 Y-30.431 Z-5.207
N12655 X52.751 Y-30.486 Z-5.074
N12660 X52.728 Y-30.53 Z-4.935
N12665 X52.711 Y-30.562 Z-4.793
N12670 X52.701 Y-30.581 Z-4.647
N12675 X52.697 Y-30.587 Z-4.5
N12680 G0 Z5.
N12685 X66.383 Y-22.065
N12690 Z-3.
N12695 G1 Z-4.5 F1000.
N12700 X66.376 Y-22.067 Z-4.647
N12705 X66.355 Y-22.071 Z-4.793
N12710 X66.32 Y-22.078 Z-4.935
N12715 X66.271 Y-22.087 Z-5.074
N12720 X66.209 Y-22.099 Z-5.207
N12725 X66.135 Y-22.114 Z-5.333
N12730 X66.049 Y-22.131 Z-5.452
N12735 X65.952 Y-22.15 Z-5.561
N12740 X65.845 Y-22.171 Z-5.66
N12745 X65.729 Y-22.193 Z-5.747
N12750 X65.605 Y-22.218 Z-5.823
N12755 X65.474 Y-22.243 Z-5.886
N12760 X65.338 Y-22.27 Z-5.935
N12765 X65.198 Y-22.298 Z-5.971
N12770 X65.055 Y-22.326 Z-5.993
N12775 X64.911 Y-22.354 Z-6.
N12780 G3 X64.202 Y-22.692 I0.305 J-1.553
N12785 G1 X64.153 Y-22.736
N12790 X63.993 Y-22.862
N12795 X63.875 Y-22.945
N12800 X63.784 Y-23.008
N12805 X63.72 Y-23.046
N12810 X63.619 Y-23.113
N12815 X63.497 Y-23.199
N12820 X63.379 Y-23.292
N12825 X63.187 Y-23.454
N12830 X62.505 Y-24.076
N12835 X61.829 Y-24.703
N12840 X61.096 Y-25.264
N12845 X60.3 Y-25.73
N12850 X59.454 Y-26.099
N12855 X58.575 Y-26.377
N12860 X57.857 Y-26.537
N12865 X57.662 Y-26.591
N12870 X57.473 Y-26.664
N12875 X57.292 Y-26.756
N12880 G3 X58.837 Y-29.328 I0.794 J-1.272
N12885 G1 X65.188 Y-25.662
N12890 G3 X63.72 Y-23.046 I-0.75 J1.299
N12895 G1 X63.537 Y-23.154
N12900 X55.407 Y-27.844
N12905 G3 X54.877 Y-28.412 I0.794 J-1.272
N12910 G1 X54.808 Y-28.542 Z-5.993
N12915 X54.74 Y-28.67 Z-5.971
N12920 X54.673 Y-28.796 Z-5.935
N12925 X54.608 Y-28.919 Z-5.886
N12930 X54.545 Y-29.036 Z-5.823
N12935 X54.486 Y-29.148 Z-5.747
N12940 X54.43 Y-29.252 Z-5.66
N12945 X54.379 Y-29.348 Z-5.561
N12950 X54.332 Y-29.436 Z-5.452
N12955 X54.291 Y-29.513 Z-5.333
N12960 X54.256 Y-29.58 Z-5.207
N12965 X54.226 Y-29.635 Z-5.074
N12970 X54.203 Y-29.679 Z-4.935
N12975 X54.186 Y-29.711 Z-4.793
N12980 X54.176 Y-29.73 Z-4.647
N12985 X54.173 Y-29.736 Z-4.5
N12990 G0 Z5.
N12995 X47.601 Y1.84
N13000 Z-3.
N13005 G1 Z-4.5 F1000.
N13010 X47.607 Y1.836 Z-4.647
N13015 X47.625 Y1.824 Z-4.793
N13020 X47.655 Y1.804 Z-4.935
N13025 X47.696 Y1.777 Z-5.074
N13030 X47.748 Y1.742 Z-5.207
N13035 X47.811 Y1.7 Z-5.333
N13040 X47.884 Y1.651 Z-5.452
N13045 X47.966 Y1.596 Z-5.561
N13050 X48.057 Y1.536 Z-5.66
N13055 X48.155 Y1.47 Z-5.747
N13060 X48.26 Y1.4 Z-5.823
N13065 X48.371 Y1.326 Z-5.886
N13070 X48.486 Y1.249 Z-5.935
N13075 X48.605 Y1.169 Z-5.971
N13080 X48.726 Y1.088 Z-5.993
N13085 X48.848 Y1.007 Z-6.
N13090 G3 X49.589 Y0.746 I0.88 J1.316
N13095 G1 X49.763 Y0.737
N13100 X49.973 Y0.711
N13105 X50.162 Y0.681
N13110 X50.391 Y0.623
N13115 X50.6 Y0.554
N13120 X50.632 Y0.54
N13125 X50.746 Y0.497
N13130 X50.888 Y0.449
N13135 X51.056 Y0.4
N13140 X51.262 Y0.347
N13145 X51.522 Y0.291
N13150 X51.855 Y0.231
N13155 X52.301 Y0.168
N13160 X52.937 Y0.102
N13165 X53.857 Y0.04
N13170 X54.779 Y0.009
N13175 X55.702 Y-0.008
N13180 X56.624 Y-0.016
N13185 X57.547 Y-0.021
N13190 X58.469 Y-0.023
N13195 X59.392 Y-0.024
N13200 X60.315 Y-0.033
N13205 X61.229 Y-0.151
N13210 X62.093 Y-0.477
N13215 X62.853 Y-0.999
N13220 X63.479 Y-1.677
N13225 X63.962 Y-2.463
N13230 X64.314 Y-3.316
N13235 X64.558 Y-4.206
N13240 X64.719 Y-5.114
N13245 X64.822 Y-6.031
N13250 X64.886 Y-6.951
N13255 X64.919 Y-7.736
N13260 X64.957 Y-8.051
N13265 X65.045 Y-8.356
N13270 X65.179 Y-8.643
N13275 X65.228 Y-8.728
N13280 X65.471 Y-9.215
N13285 X65.54 Y-9.355
N13290 X65.609 Y-9.564
N13295 X65.667 Y-9.786
N13300 X65.705 Y-9.982
N13305 X65.734 Y-10.191
N13310 G3 X66.059 Y-10.896 I1.478 J0.255
N13315 G1 X66.153 Y-11.009 Z-5.993
N13320 X66.247 Y-11.121 Z-5.971
N13325 X66.338 Y-11.231 Z-5.935
N13330 X66.427 Y-11.337 Z-5.886
N13335 X66.512 Y-11.44 Z-5.823
N13340 X66.592 Y-11.537 Z-5.747
N13345 X66.668 Y-11.628 Z-5.66
N13350 X66.738 Y-11.711 Z-5.561
N13355 X66.801 Y-11.787 Z-5.452
N13360 X66.857 Y-11.855 Z-5.333
N13365 X66.906 Y-11.913 Z-5.207
N13370 X66.946 Y-11.961 Z-5.074
N13375 X66.978 Y-11.999 Z-4.935
N13380 X67. Y-12.027 Z-4.793
N13385 X67.014 Y-12.044 Z-4.647
N13390 X67.019 Y-12.049 Z-4.5
N13395 G0 Z5.
N13400 X49.155 Y2.264
N13405 Z-3.
N13410 G1 Z-4.5 F1000.
N13415 X49.16 Y2.258 Z-4.647
N13420 X49.172 Y2.24 Z-4.793
N13425 X49.193 Y2.211 Z-4.935
N13430 X49.222 Y2.171 Z-5.074
N13435 X49.259 Y2.12 Z-5.207
N13440 X49.303 Y2.058 Z-5.333
N13445 X49.354 Y1.987 Z-5.452
N13450 X49.412 Y1.907 Z-5.561
N13455 X49.475 Y1.818 Z-5.66
N13460 X49.544 Y1.722 Z-5.747
N13465 X49.618 Y1.619 Z-5.823
N13470 X49.695 Y1.511 Z-5.886
N13475 X49.776 Y1.399 Z-5.935
N13480 X49.859 Y1.283 Z-5.971
N13485 X49.944 Y1.164 Z-5.993
N13490 X50.03 Y1.045 Z-6.
N13495 G3 X50.632 Y0.54 I1.286 J0.923
N13500 G1 X50.789 Y0.472
N13505 X51.228 Y0.248
N13510 X51.438 Y0.134
N13515 X51.514 Y0.09
N13520 X51.648 Y0.022
N13525 X51.783 Y-0.043
N13530 X51.921 Y-0.102
N13535 X52.075 Y-0.16
N13540 X52.265 Y-0.224
N13545 X52.484 Y-0.289
N13550 X52.733 Y-0.353
N13555 X53.052 Y-0.422
N13560 X53.436 Y-0.491
N13565 X53.948 Y-0.564
N13570 X54.645 Y-0.636
N13575 X55.566 Y-0.699
N13580 X56.488 Y-0.733
N13585 X57.41 Y-0.752
N13590 X59.255 Y-0.772
N13595 X60.173 Y-0.861
N13600 X61.054 Y-1.135
N13605 X61.848 Y-1.606
N13610 X62.516 Y-2.242
N13615 X63.044 Y-2.998
N13620 X63.438 Y-3.833
N13625 X63.717 Y-4.712
N13630 X63.907 Y-5.615
N13635 X64.033 Y-6.553
N13640 X64.092 Y-6.842
N13645 X64.192 Y-7.12
N13650 X64.332 Y-7.379
N13655 X64.509 Y-7.615
N13660 X64.621 Y-7.744
N13665 X64.726 Y-7.891
N13670 X64.83 Y-8.041
N13675 X64.866 Y-8.1
N13680 X65.039 Y-8.398
N13685 X65.179 Y-8.643
N13690 G3 X65.744 Y-9.175 I1.277 J0.788
N13695 G1 X65.874 Y-9.245 Z-5.993
N13700 X66.002 Y-9.314 Z-5.971
N13705 X66.127 Y-9.382 Z-5.935
N13710 X66.249 Y-9.448 Z-5.886
N13715 X66.367 Y-9.511 Z-5.823
N13720 X66.478 Y-9.571 Z-5.747
N13725 X66.582 Y-9.627 Z-5.66
N13730 X66.678 Y-9.679 Z-5.561
N13735 X66.765 Y-9.726 Z-5.452
N13740 X66.842 Y-9.767 Z-5.333
N13745 X66.909 Y-9.803 Z-5.207
N13750 X66.964 Y-9.833 Z-5.074
N13755 X67.008 Y-9.857 Z-4.935
N13760 X67.039 Y-9.874 Z-4.793
N13765 X67.058 Y-9.884 Z-4.647
N13770 X67.064 Y-9.887 Z-4.5
N13775 G0 Z5.
N13780 X50.239 Y1.966
N13785 Z-3.
N13790 G1 Z-4.5 F1000.
N13795 X50.242 Y1.96 Z-4.647
N13800 X50.253 Y1.941 Z-4.793
N13805 X50.27 Y1.91 Z-4.935
N13810 X50.294 Y1.867 Z-5.074
N13815 X50.325 Y1.812 Z-5.207
N13820 X50.362 Y1.746 Z-5.333
N13825 X50.405 Y1.67 Z-5.452
N13830 X50.454 Y1.583 Z-5.561
N13835 X50.507 Y1.488 Z-5.66
N13840 X50.565 Y1.385 Z-5.747
N13845 X50.626 Y1.275 Z-5.823
N13850 X50.692 Y1.159 Z-5.886
N13855 X50.759 Y1.038 Z-5.935
N13860 X50.829 Y0.913 Z-5.971
N13865 X50.9 Y0.786 Z-5.993
N13870 X50.972 Y0.658 Z-6.
N13875 G3 X51.514 Y0.09 I1.38 J0.774
N13880 G1 X52.665 Y-0.574
N13885 X52.818 Y-0.652
N13890 X52.953 Y-0.718
N13895 X53.094 Y-0.78
N13900 X53.267 Y-0.847
N13905 X53.446 Y-0.91
N13910 X53.669 Y-0.979
N13915 X53.952 Y-1.055
N13920 X54.256 Y-1.125
N13925 X54.651 Y-1.201
N13930 X55.138 Y-1.276
N13935 X55.804 Y-1.354
N13940 X56.724 Y-1.427
N13945 X57.646 Y-1.469
N13950 X58.567 Y-1.508
N13955 X59.482 Y-1.63
N13960 X60.354 Y-1.932
N13965 X61.133 Y-2.426
N13970 X61.787 Y-3.077
N13975 X62.303 Y-3.841
N13980 X62.69 Y-4.679
N13985 X62.968 Y-5.559
N13990 X63.092 Y-5.992
N13995 X63.103 Y-6.025
N14000 X63.228 Y-6.325
N14005 X63.401 Y-6.6
N14010 X63.616 Y-6.843
N14015 X63.867 Y-7.049
N14020 X63.993 Y-7.138
N14025 X64.153 Y-7.264
N14030 X64.385 Y-7.473
N14035 X64.509 Y-7.615
N14040 G3 X65.167 Y-8.026 I1.097 J1.023
N14045 G1 X65.308 Y-8.069 Z-5.993
N14050 X65.447 Y-8.112 Z-5.971
N14055 X65.584 Y-8.153 Z-5.935
N14060 X65.716 Y-8.194 Z-5.886
N14065 X65.844 Y-8.233 Z-5.823
N14070 X65.964 Y-8.27 Z-5.747
N14075 X66.078 Y-8.304 Z-5.66
N14080 X66.182 Y-8.336 Z-5.561
N14085 X66.276 Y-8.365 Z-5.452
N14090 X66.36 Y-8.39 Z-5.333
N14095 X66.433 Y-8.413 Z-5.207
N14100 X66.493 Y-8.431 Z-5.074
N14105 X66.54 Y-8.445 Z-4.935
N14110 X66.574 Y-8.456 Z-4.793
N14115 X66.595 Y-8.462 Z-4.647
N14120 X66.602 Y-8.464 Z-4.5
N14125 G0 Z5.
N14130 X51.389 Y1.303
N14135 Z-3.
N14140 G1 Z-4.5 F1000.
N14145 X51.392 Y1.297 Z-4.647
N14150 X51.403 Y1.278 Z-4.793
N14155 X51.42 Y1.247 Z-4.935
N14160 X51.445 Y1.203 Z-5.074
N14165 X51.475 Y1.148 Z-5.207
N14170 X51.512 Y1.082 Z-5.333
N14175 X51.555 Y1.006 Z-5.452
N14180 X51.604 Y0.92 Z-5.561
N14185 X51.657 Y0.825 Z-5.66
N14190 X51.715 Y0.721 Z-5.747
N14195 X51.777 Y0.611 Z-5.823
N14200 X51.842 Y0.495 Z-5.886
N14205 X51.91 Y0.374 Z-5.935
N14210 X51.979 Y0.25 Z-5.971
N14215 X52.051 Y0.123 Z-5.993
N14220 X52.123 Y-0.005 Z-6.
N14225 G3 X52.665 Y-0.574 I1.38 J0.774
N14230 G1 X53.949 Y-1.314
N14235 X54.083 Y-1.383
N14240 X54.218 Y-1.448
N14245 X54.373 Y-1.514
N14250 X54.542 Y-1.58
N14255 X54.737 Y-1.647
N14260 X54.984 Y-1.722
N14265 X55.27 Y-1.798
N14270 X55.598 Y-1.872
N14275 X56.035 Y-1.954
N14280 X56.947 Y-2.09
N14285 X57.864 Y-2.191
N14290 X58.772 Y-2.355
N14295 X59.633 Y-2.688
N14300 X60.4 Y-3.2
N14305 X61.043 Y-3.862
N14310 X61.557 Y-4.628
N14315 X61.975 Y-5.45
N14320 X62.074 Y-5.64
N14325 X62.279 Y-5.957
N14330 X62.54 Y-6.23
N14335 X62.849 Y-6.449
N14340 X63.574 Y-6.868
N14345 X63.784 Y-6.992
N14350 X63.867 Y-7.049
N14355 G3 X64.607 Y-7.284 I0.809 J1.263
N14360 G1 X64.754 Y-7.291 Z-5.993
N14365 X64.899 Y-7.298 Z-5.971
N14370 X65.042 Y-7.304 Z-5.935
N14375 X65.18 Y-7.311 Z-5.886
N14380 X65.313 Y-7.317 Z-5.823
N14385 X65.439 Y-7.323 Z-5.747
N14390 X65.557 Y-7.328 Z-5.66
N14395 X65.666 Y-7.333 Z-5.561
N14400 X65.765 Y-7.338 Z-5.452
N14405 X65.853 Y-7.342 Z-5.333
N14410 X65.928 Y-7.345 Z-5.207
N14415 X65.991 Y-7.348 Z-5.074
N14420 X66.041 Y-7.351 Z-4.935
N14425 X66.076 Y-7.352 Z-4.793
N14430 X66.098 Y-7.353 Z-4.647
N14435 X66.105 Z-4.5
N14440 G0 Z5.
N14445 X52.673 Y0.562
N14450 Z-3.
N14455 G1 Z-4.5 F1000.
N14460 X52.676 Y0.556 Z-4.647
N14465 X52.687 Y0.537 Z-4.793
N14470 X52.704 Y0.506 Z-4.935
N14475 X52.729 Y0.463 Z-5.074
N14480 X52.759 Y0.408 Z-5.207
N14485 X52.796 Y0.342 Z-5.333
N14490 X52.839 Y0.265 Z-5.452
N14495 X52.888 Y0.179 Z-5.561
N14500 X52.941 Y0.084 Z-5.66
N14505 X52.999 Y-0.019 Z-5.747
N14510 X53.061 Y-0.129 Z-5.823
N14515 X53.126 Y-0.245 Z-5.886
N14520 X53.193 Y-0.366 Z-5.935
N14525 X53.263 Y-0.491 Z-5.971
N14530 X53.335 Y-0.618 Z-5.993
N14535 X53.406 Y-0.746 Z-6.
N14540 G3 X53.949 Y-1.314 I1.38 J0.774
N14545 G1 X55.201 Y-2.037
N14550 X55.36 Y-2.119
N14555 X55.503 Y-2.187
N14560 X55.664 Y-2.258
N14565 X55.842 Y-2.328
N14570 X56.065 Y-2.407
N14575 X56.479 Y-2.536
N14580 X57.369 Y-2.779
N14585 X58.251 Y-3.051
N14590 X59.076 Y-3.463
N14595 X59.807 Y-4.027
N14600 X60.428 Y-4.709
N14605 X60.636 Y-4.985
N14610 X60.811 Y-5.19
N14615 X61.013 Y-5.369
N14620 X61.237 Y-5.52
N14625 G3 X62.691 Y-2.896 I0.704 J1.325
N14630 G1 X56.746 Y0.534
N14635 G3 X55.201 Y-2.037 I-0.75 J-1.299
N14640 G1 X62.849 Y-6.449
N14645 X62.932 Y-6.481 Z-5.995
N14650 X63.013 Y-6.514 Z-5.98
N14655 X63.093 Y-6.545 Z-5.954
N14660 X63.17 Y-6.575 Z-5.92
N14665 X63.254 Y-6.587 Z-5.871
N14670 X63.331 Y-6.598 Z-5.813
N14675 X63.4 Y-6.608 Z-5.745
N14680 X63.461 Y-6.616 Z-5.669
N14685 X63.511 Y-6.624 Z-5.587
N14690 X63.552 Z-5.498
N14695 X63.581 Z-5.406
N14700 X63.599 Z-5.311
N14705 X63.605 Y-6.623 Z-5.215
N14710 G0 Z5.
N14715 X52.428 Y0.629
N14720 Z-2.4
N14725 G1 Z-3.9 F1000.
N14730 X52.433 Y0.624 Z-4.047
N14735 X52.448 Y0.608 Z-4.193
N14740 X52.473 Y0.583 Z-4.335
N14745 X52.508 Y0.548 Z-4.474
N14750 X52.553 Y0.503 Z-4.607
N14755 X52.606 Y0.449 Z-4.733
N14760 X52.667 Y0.387 Z-4.852
N14765 X52.737 Y0.316 Z-4.961
N14770 X52.814 Y0.239 Z-5.06
N14775 X52.897 Y0.155 Z-5.147
N14780 X52.985 Y0.065 Z-5.223
N14785 X53.079 Y-0.03 Z-5.286
N14790 X53.176 Y-0.128 Z-5.335
N14795 X53.277 Y-0.23 Z-5.371
N14800 X53.379 Y-0.334 Z-5.393
N14805 X53.482 Y-0.438 Z-5.4
N14810 G3 X56.041 Y-2.522 I10.896 J10.766
N14815 G1 X56.25 Y-2.648
N14820 X56.277 Y-2.664
N14825 X56.46 Y-2.796
N14830 X56.56 Y-2.874
N14835 X56.669 Y-2.969
N14840 X56.79 Y-3.083
N14845 X56.878 Y-3.176
N14850 X56.986 Y-3.292
N14855 X57.042 Y-3.361
N14860 X57.087 Y-3.418
N14865 X57.122 Y-3.459
N14870 X57.164 Y-3.501
N14875 X57.23 Y-3.552
N14880 X57.297 Y-3.592
N14885 X62.946 Y-6.852
N14890 X63.156 Y-6.973
N14895 X63.784 Y-7.352
N14900 X63.94 Y-7.473
N14905 X63.993 Y-7.523
N14910 X64.354 Y-7.891
N14915 X64.411 Y-7.964
N14920 X64.508 Y-8.1
N14925 X64.883 Y-8.728
N14930 X65.002 Y-8.937
N14935 X65.211 Y-9.342
N14940 X65.388 Y-9.917
N14945 X65.391 Y-9.93
N14950 X65.437 Y-10.4
N14955 X65.45 Y-10.609
N14960 Y-19.391
N14965 X65.437 Y-19.6
N14970 X65.391 Y-20.07
N14975 X65.384 Y-20.096
N14980 X65.211 Y-20.658
N14985 X65.002 Y-21.063
N14990 X64.883 Y-21.272
N14995 X64.508 Y-21.9
N15000 X64.411 Y-22.036
N15005 X64.354 Y-22.109
N15010 X63.993 Y-22.477
N15015 X63.94 Y-22.527
N15020 X63.784 Y-22.648
N15025 X63.156 Y-23.027
N15030 X62.528 Y-23.39
N15035 X57.297 Y-26.408
N15040 X57.23 Y-26.448
N15045 X57.164 Y-26.499
N15050 X57.122 Y-26.541
N15055 X57.087 Y-26.582
N15060 X56.986 Y-26.708
N15065 X56.878 Y-26.824
N15070 X56.828 Y-26.898 Z-5.395
N15075 X56.779 Y-26.971 Z-5.38
N15080 X56.73 Y-27.042 Z-5.354
N15085 X56.684 Y-27.11 Z-5.32
N15090 X56.654 Y-27.189 Z-5.271
N15095 X56.626 Y-27.261 Z-5.213
N15100 X56.601 Y-27.327 Z-5.145
N15105 X56.579 Y-27.384 Z-5.069
N15110 X56.56 Y-27.432 Z-4.987
N15115 X56.552 Y-27.471 Z-4.899
N15120 X56.545 Y-27.5 Z-4.806
N15125 X56.541 Y-27.517 Z-4.711
N15130 X56.54 Y-27.523 Z-4.615
N15135 G0 Z5.
N15140 X54.777 Y0.964
N15145 Z-1.8
N15150 G1 Z-3.3 F1000.
N15155 X54.78 Y0.957 Z-3.447
N15160 X54.788 Y0.938 Z-3.593
N15165 X54.802 Y0.905 Z-3.735
N15170 X54.822 Y0.859 Z-3.874
N15175 X54.846 Y0.801 Z-4.007
N15180 X54.876 Y0.732 Z-4.133
N15185 X54.911 Y0.651 Z-4.252
N15190 X54.95 Y0.56 Z-4.361
N15195 X54.993 Y0.46 Z-4.46
N15200 X55.039 Y0.351 Z-4.547
N15205 X55.089 Y0.235 Z-4.623
N15210 X55.141 Y0.113 Z-4.686
N15215 X55.195 Y-0.015 Z-4.735
N15220 X55.252 Y-0.146 Z-4.771
N15225 X55.309 Y-0.28 Z-4.793
N15230 X55.367 Y-0.415 Z-4.8
N15235 G3 X56.984 Y-3.292 I14.084 J6.024
N15240 G1 X57.144 Y-3.501
N15245 X57.28 Y-3.71
N15250 X57.346 Y-3.805
N15255 X57.437 Y-3.924
N15260 X57.534 Y-4.038
N15265 X57.644 Y-4.156
N15270 X57.784 Y-4.295
N15275 X57.964 Y-4.462
N15280 X58.199 Y-4.665
N15285 X58.519 Y-4.92
N15290 X58.976 Y-5.258
N15295 X59.702 Y-5.755
N15300 X60.481 Y-6.248
N15305 X61.271 Y-6.726
N15310 X62.063 Y-7.198
N15315 X62.794 Y-7.761
N15320 X63.412 Y-8.446
N15325 X63.872 Y-9.246
N15330 X64.192 Y-10.111
N15335 X64.401 Y-11.01
N15340 X64.53 Y-11.924
N15345 X64.605 Y-12.843
N15350 X64.648 Y-13.765
N15355 X64.672 Y-14.687
N15360 X64.685 Y-15.609
N15365 X64.692 Y-16.532
N15370 X64.696 Y-17.455
N15375 X64.693 Y-18.377
N15380 X64.548 Y-19.288
N15385 X64.228 Y-20.154
N15390 X63.741 Y-20.938
N15395 X63.136 Y-21.633
N15400 X62.451 Y-22.252
N15405 X61.718 Y-22.812
N15410 X60.956 Y-23.332
N15415 X60.177 Y-23.826
N15420 X59.388 Y-24.306
N15425 X58.595 Y-24.777
N15430 X58.352 Y-24.919
N15435 X58.09 Y-25.101
N15440 X57.858 Y-25.32
N15445 X57.662 Y-25.571
N15450 X57.506 Y-25.849
N15455 X57.441 Y-25.987
N15460 G3 X57.331 Y-26.756 I1.379 J-0.591
N15465 G1 X57.348 Y-26.902 Z-4.793
N15470 X57.365 Y-27.046 Z-4.771
N15475 X57.382 Y-27.188 Z-4.735
N15480 X57.399 Y-27.326 Z-4.686
N15485 X57.414 Y-27.458 Z-4.623
N15490 X57.429 Y-27.583 Z-4.547
N15495 X57.443 Y-27.7 Z-4.46
N15500 X57.456 Y-27.809 Z-4.361
N15505 X57.468 Y-27.907 Z-4.252
N15510 X57.478 Y-27.994 Z-4.133
N15515 X57.487 Y-28.069 Z-4.007
N15520 X57.495 Y-28.132 Z-3.874
N15525 X57.501 Y-28.181 Z-3.735
N15530 X57.505 Y-28.216 Z-3.593
N15535 X57.508 Y-28.238 Z-3.447
N15540 Y-28.245 Z-3.3
N15545 G0 Z5.
N15550 X57.047 Y-1.453
N15555 Z-1.8
N15560 G1 Z-3.3 F1000.
N15565 Y-1.46 Z-3.447
N15570 Y-1.481 Z-3.593
N15575 X57.048 Y-1.517 Z-3.735
N15580 X57.049 Y-1.567 Z-3.874
N15585 X57.05 Y-1.63 Z-4.007
N15590 X57.051 Y-1.705 Z-4.133
N15595 X57.052 Y-1.793 Z-4.252
N15600 X57.054 Y-1.892 Z-4.361
N15605 X57.056 Y-2.001 Z-4.46
N15610 X57.058 Y-2.119 Z-4.547
N15615 X57.06 Y-2.245 Z-4.623
N15620 X57.062 Y-2.378 Z-4.686
N15625 X57.065 Y-2.517 Z-4.735
N15630 X57.067 Y-2.66 Z-4.771
N15635 X57.07 Y-2.805 Z-4.793
N15640 X57.072 Y-2.952 Z-4.8
N15645 G3 X57.28 Y-3.71 I1.582 J0.027
N15650 G1 X57.297 Y-3.737
N15655 X57.397 Y-3.919
N15660 X57.506 Y-4.151
N15665 X57.517 Y-4.182
N15670 X57.561 Y-4.288
N15675 X57.625 Y-4.424
N15680 X57.698 Y-4.555
N15685 X57.78 Y-4.681
N15690 X57.867 Y-4.803
N15695 X57.959 Y-4.921
N15700 X58.076 Y-5.062
N15705 X58.227 Y-5.23
N15710 X58.393 Y-5.4
N15715 X58.598 Y-5.597
N15720 X58.866 Y-5.836
N15725 X59.191 Y-6.105
N15730 X59.646 Y-6.454
N15735 X60.399 Y-6.988
N15740 X61.159 Y-7.511
N15745 X61.87 Y-8.099
N15750 X62.471 Y-8.799
N15755 X62.944 Y-9.591
N15760 X63.294 Y-10.444
N15765 X63.539 Y-11.334
N15770 X63.7 Y-12.242
N15775 X63.802 Y-13.159
N15780 X63.865 Y-14.08
N15785 X63.901 Y-15.002
N15790 X63.923 Y-15.924
N15795 X63.934 Y-16.847
N15800 X63.905 Y-17.769
N15805 X63.742 Y-18.677
N15810 X63.418 Y-19.54
N15815 X62.949 Y-20.335
N15820 X62.369 Y-21.053
N15825 X61.709 Y-21.697
N15830 X60.995 Y-22.281
N15835 X60.246 Y-22.821
N15840 X59.477 Y-23.33
N15845 X58.903 Y-23.692
N15850 X58.61 Y-23.892
N15855 X58.425 Y-24.028
N15860 X58.155 Y-24.272
N15865 X57.936 Y-24.564
N15870 X57.778 Y-24.892
N15875 X57.687 Y-25.245
N15880 X57.636 Y-25.454
N15885 X57.572 Y-25.663
N15890 X57.506 Y-25.849
N15895 G0 Z5.
N15900 X57.762 Y-1.926
N15905 Z-1.8
N15910 G1 Z-3.3 F1000.
N15915 X57.761 Y-1.933 Z-3.447
N15920 X57.757 Y-1.954 Z-3.593
N15925 X57.75 Y-1.989 Z-3.735
N15930 X57.74 Y-2.038 Z-3.874
N15935 X57.728 Y-2.1 Z-4.007
N15940 X57.713 Y-2.174 Z-4.133
N15945 X57.696 Y-2.26 Z-4.252
N15950 X57.677 Y-2.357 Z-4.361
N15955 X57.656 Y-2.464 Z-4.46
N15960 X57.633 Y-2.58 Z-4.547
N15965 X57.609 Y-2.704 Z-4.623
N15970 X57.583 Y-2.834 Z-4.686
N15975 X57.557 Y-2.97 Z-4.735
N15980 X57.529 Y-3.111 Z-4.771
N15985 X57.501 Y-3.253 Z-4.793
N15990 X57.473 Y-3.398 Z-4.8
N15995 G3 X57.517 Y-4.182 I1.553 J-0.305
N16000 G1 X57.572 Y-4.337
N16005 X57.636 Y-4.546
N16010 X57.687 Y-4.755
N16015 X57.722 Y-4.901
N16020 X57.773 Y-5.042
N16025 X57.835 Y-5.179
N16030 X57.905 Y-5.312
N16035 X57.981 Y-5.441
N16040 X58.062 Y-5.567
N16045 X58.152 Y-5.694
N16050 X58.268 Y-5.846
N16055 X58.397 Y-6.005
N16060 X58.554 Y-6.182
N16065 X58.759 Y-6.398
N16070 X59.012 Y-6.645
N16075 X59.474 Y-7.065
N16080 X60.18 Y-7.66
N16085 X60.866 Y-8.276
N16090 X61.474 Y-8.97
N16095 X61.974 Y-9.746
N16100 X62.361 Y-10.583
N16105 X62.647 Y-11.461
N16110 X62.847 Y-12.361
N16115 X62.981 Y-13.274
N16120 X63.067 Y-14.193
N16125 X63.121 Y-15.114
N16130 X63.151 Y-16.036
N16135 X63.131 Y-16.958
N16140 X62.999 Y-17.871
N16145 X62.716 Y-18.75
N16150 X62.294 Y-19.57
N16155 X61.757 Y-20.32
N16160 X61.132 Y-20.999
N16165 X60.446 Y-21.615
N16170 X59.717 Y-22.182
N16175 X59.342 Y-22.45
N16180 X58.912 Y-22.764
N16185 X58.704 Y-22.928
N16190 X58.516 Y-23.087
N16195 X58.352 Y-23.238
N16200 X58.336 Y-23.253
N16205 X58.093 Y-23.544
N16210 X57.908 Y-23.875
N16215 X57.789 Y-24.235
N16220 X57.741 Y-24.61
N16225 X57.733 Y-24.827
N16230 X57.72 Y-25.036
N16235 X57.687 Y-25.245
N16240 G3 X57.796 Y-26.014 I1.489 J-0.181
N16245 G1 X57.853 Y-26.149 Z-4.793
N16250 X57.91 Y-26.283 Z-4.771
N16255 X57.966 Y-26.414 Z-4.735
N16260 X58.021 Y-26.542 Z-4.686
N16265 X58.073 Y-26.664 Z-4.623
N16270 X58.122 Y-26.78 Z-4.547
N16275 X58.168 Y-26.889 Z-4.46
N16280 X58.211 Y-26.99 Z-4.361
N16285 X58.25 Y-27.08 Z-4.252
N16290 X58.284 Y-27.161 Z-4.133
N16295 X58.314 Y-27.231 Z-4.007
N16300 X58.338 Y-27.289 Z-3.874
N16305 X58.358 Y-27.334 Z-3.735
N16310 X58.372 Y-27.367 Z-3.593
N16315 X58.38 Y-27.387 Z-3.447
N16320 X58.383 Y-27.394 Z-3.3
N16325 G0 Z5.
N16330 X58.345 Y-2.584
N16335 Z-1.8
N16340 G1 Z-3.3 F1000.
N16345 X58.343 Y-2.59 Z-3.447
N16350 X58.335 Y-2.61 Z-3.593
N16355 X58.321 Y-2.644 Z-3.735
N16360 X58.303 Y-2.69 Z-3.874
N16365 X58.279 Y-2.748 Z-4.007
N16370 X58.251 Y-2.818 Z-4.133
N16375 X58.219 Y-2.9 Z-4.252
N16380 X58.182 Y-2.992 Z-4.361
N16385 X58.142 Y-3.093 Z-4.46
N16390 X58.098 Y-3.203 Z-4.547
N16395 X58.051 Y-3.32 Z-4.623
N16400 X58.001 Y-3.443 Z-4.686
N16405 X57.95 Y-3.572 Z-4.735
N16410 X57.897 Y-3.705 Z-4.771
N16415 X57.843 Y-3.84 Z-4.793
N16420 X57.788 Y-3.976 Z-4.8
N16425 G3 X57.687 Y-4.755 I1.469 J-0.587
N16430 G1 X57.72 Y-4.964
N16435 X57.733 Y-5.173
N16440 X57.735 Y-5.208
N16445 X57.747 Y-5.358
N16450 X57.779 Y-5.504
N16455 X57.823 Y-5.648
N16460 X57.877 Y-5.788
N16465 X57.938 Y-5.924
N16470 X58.007 Y-6.058
N16475 X58.08 Y-6.189
N16480 X58.173 Y-6.339
N16485 X58.281 Y-6.499
N16490 X58.408 Y-6.676
N16495 X58.575 Y-6.89
N16500 X58.847 Y-7.213
N16505 X59.467 Y-7.897
N16510 X60.095 Y-8.573
N16515 X60.666 Y-9.297
N16520 X61.148 Y-10.084
N16525 X61.533 Y-10.923
N16530 X61.825 Y-11.798
N16535 X62.037 Y-12.696
N16540 X62.185 Y-13.606
N16545 X62.283 Y-14.524
N16550 X62.338 Y-15.445
N16555 X62.328 Y-16.367
N16560 X62.199 Y-17.281
N16565 X61.929 Y-18.163
N16570 X61.525 Y-18.992
N16575 X61.007 Y-19.756
N16580 X60.4 Y-20.451
N16585 X59.73 Y-21.085
N16590 X59.025 Y-21.681
N16595 X58.72 Y-21.951
N16600 X58.52 Y-22.142
N16605 X58.38 Y-22.286
N16610 X58.219 Y-22.465
N16615 X58.018 Y-22.751
N16620 X57.871 Y-23.067
N16625 X57.78 Y-23.404
N16630 X57.75 Y-23.751
N16635 Y-24.199
N16640 X57.748 Y-24.408
N16645 X57.741 Y-24.61
N16650 G3 X57.942 Y-25.36 I1.5 J0.001
N16655 G1 X58.016 Y-25.487 Z-4.793
N16660 X58.089 Y-25.614 Z-4.771
N16665 X58.161 Y-25.737 Z-4.735
N16670 X58.23 Y-25.857 Z-4.686
N16675 X58.297 Y-25.972 Z-4.623
N16680 X58.36 Y-26.082 Z-4.547
N16685 X58.419 Y-26.184 Z-4.46
N16690 X58.474 Y-26.278 Z-4.361
N16695 X58.523 Y-26.364 Z-4.252
N16700 X58.567 Y-26.44 Z-4.133
N16705 X58.605 Y-26.505 Z-4.007
N16710 X58.636 Y-26.56 Z-3.874
N16715 X58.661 Y-26.603 Z-3.735
N16720 X58.679 Y-26.634 Z-3.593
N16725 X58.69 Y-26.652 Z-3.447
N16730 X58.694 Y-26.659 Z-3.3
N16735 G0 Z5.
N16740 X58.653 Y-3.133
N16745 Z-1.8
N16750 G1 Z-3.3 F1000.
N16755 X58.649 Y-3.139 Z-3.447
N16760 X58.639 Y-3.158 Z-3.593
N16765 X58.622 Y-3.19 Z-3.735
N16770 X58.598 Y-3.233 Z-3.874
N16775 X58.567 Y-3.288 Z-4.007
N16780 X58.531 Y-3.354 Z-4.133
N16785 X58.489 Y-3.431 Z-4.252
N16790 X58.441 Y-3.518 Z-4.361
N16795 X58.388 Y-3.614 Z-4.46
N16800 X58.332 Y-3.717 Z-4.547
N16805 X58.271 Y-3.828 Z-4.623
N16810 X58.207 Y-3.944 Z-4.686
N16815 X58.14 Y-4.066 Z-4.735
N16820 X58.071 Y-4.191 Z-4.771
N16825 X58.001 Y-4.319 Z-4.793
N16830 X57.93 Y-4.448 Z-4.8
N16835 G3 X57.735 Y-5.208 I1.387 J-0.762
N16840 G1 X57.748 Y-5.592
N16845 X57.75 Y-5.758
N16850 X57.755 Y-5.846
N16855 X57.768 Y-5.995
N16860 X57.796 Y-6.143
N16865 X57.835 Y-6.288
N16870 X57.883 Y-6.43
N16875 X57.937 Y-6.569
N16880 X57.998 Y-6.707
N16885 X58.076 Y-6.865
N16890 X58.179 Y-7.057
N16895 X58.307 Y-7.276
N16900 X58.479 Y-7.547
N16905 X59.002 Y-8.307
N16910 X59.547 Y-9.052
N16915 X60.048 Y-9.826
N16920 X60.478 Y-10.643
N16925 X60.826 Y-11.497
N16930 X61.094 Y-12.38
N16935 X61.291 Y-13.281
N16940 X61.428 Y-14.194
N16945 X61.503 Y-15.113
N16950 X61.483 Y-16.036
N16955 X61.332 Y-16.946
N16960 X61.044 Y-17.822
N16965 X60.627 Y-18.645
N16970 X60.102 Y-19.404
N16975 X59.497 Y-20.1
N16980 X58.848 Y-20.756
N16985 X58.56 Y-21.055
N16990 X58.352 Y-21.287
N16995 X58.217 Y-21.449
N17000 X58.167 Y-21.515
N17005 X57.988 Y-21.79
N17010 X57.857 Y-22.091
N17015 X57.777 Y-22.41
N17020 X57.75 Y-22.737
N17025 Y-23.751
N17030 G3 X57.977 Y-24.494 I1.499 J0.052
N17035 G1 X58.055 Y-24.619 Z-4.793
N17040 X58.132 Y-24.742 Z-4.771
N17045 X58.208 Y-24.863 Z-4.735
N17050 X58.281 Y-24.981 Z-4.686
N17055 X58.352 Y-25.094 Z-4.623
N17060 X58.419 Y-25.201 Z-4.547
N17065 X58.481 Y-25.301 Z-4.46
N17070 X58.539 Y-25.394 Z-4.361
N17075 X58.591 Y-25.477 Z-4.252
N17080 X58.638 Y-25.552 Z-4.133
N17085 X58.678 Y-25.616 Z-4.007
N17090 X58.711 Y-25.669 Z-3.874
N17095 X58.738 Y-25.711 Z-3.735
N17100 X58.757 Y-25.742 Z-3.593
N17105 X58.768 Y-25.76 Z-3.447
N17110 X58.772 Y-25.766 Z-3.3
N17115 G0 Z5.
N17120 X58.714 Y-3.704
N17125 Z-1.8
N17130 G1 Z-3.3 F1000.
N17135 X58.71 Y-3.71 Z-3.447
N17140 X58.699 Y-3.729 Z-3.593
N17145 X58.681 Y-3.76 Z-3.735
N17150 X58.657 Y-3.803 Z-3.874
N17155 X58.625 Y-3.857 Z-4.007
N17160 X58.587 Y-3.923 Z-4.133
N17165 X58.543 Y-3.999 Z-4.252
N17170 X58.494 Y-4.084 Z-4.361
N17175 X58.439 Y-4.179 Z-4.46
N17180 X58.38 Y-4.281 Z-4.547
N17185 X58.316 Y-4.39 Z-4.623
N17190 X58.25 Y-4.505 Z-4.686
N17195 X58.18 Y-4.625 Z-4.735
N17200 X58.109 Y-4.749 Z-4.771
N17205 X58.036 Y-4.875 Z-4.793
N17210 X57.962 Y-5.002 Z-4.8
N17215 G3 X57.75 Y-5.758 I1.37 J-0.793
N17220 G1 Y-6.428
N17225 X57.756 Y-6.541
N17230 X57.766 Y-6.69
N17235 X57.789 Y-6.839
N17240 X57.821 Y-6.985
N17245 X57.861 Y-7.13
N17250 X57.911 Y-7.287
N17255 X57.975 Y-7.464
N17260 X58.054 Y-7.661
N17265 X58.162 Y-7.902
N17270 X58.382 Y-8.349
N17275 X58.819 Y-9.162
N17280 X59.261 Y-9.972
N17285 X59.665 Y-10.801
N17290 X60.004 Y-11.659
N17295 X60.274 Y-12.542
N17300 X60.476 Y-13.442
N17305 X60.606 Y-14.355
N17310 X60.639 Y-15.277
N17315 X60.547 Y-16.195
N17320 X60.311 Y-17.087
N17325 X59.941 Y-17.932
N17330 X59.461 Y-18.72
N17335 X58.903 Y-19.455
N17340 X58.422 Y-20.032
N17345 X58.221 Y-20.293
N17350 X58.124 Y-20.428
N17355 X57.963 Y-20.693
N17360 X57.846 Y-20.981
N17365 X57.774 Y-21.283
N17370 X57.75 Y-21.592
N17375 Y-22.737
N17380 G3 X57.977 Y-23.479 I1.499 J0.052
N17385 G1 X58.055 Y-23.604 Z-4.793
N17390 X58.132 Y-23.727 Z-4.771
N17395 X58.208 Y-23.849 Z-4.735
N17400 X58.281 Y-23.966 Z-4.686
N17405 X58.352 Y-24.079 Z-4.623
N17410 X58.419 Y-24.186 Z-4.547
N17415 X58.481 Y-24.286 Z-4.46
N17420 X58.539 Y-24.379 Z-4.361
N17425 X58.591 Y-24.463 Z-4.252
N17430 X58.638 Y-24.537 Z-4.133
N17435 X58.678 Y-24.601 Z-4.007
N17440 X58.711 Y-24.654 Z-3.874
N17445 X58.738 Y-24.697 Z-3.735
N17450 X58.757 Y-24.727 Z-3.593
N17455 X58.768 Y-24.745 Z-3.447
N17460 X58.772 Y-24.751 Z-3.3
N17465 G0 Z5.
N17470 X58.738 Y-4.385
N17475 Z-1.8
N17480 G1 Z-3.3 F1000.
N17485 X58.734 Y-4.391 Z-3.447
N17490 X58.723 Y-4.41 Z-3.593
N17495 X58.705 Y-4.44 Z-3.735
N17500 X58.68 Y-4.483 Z-3.874
N17505 X58.647 Y-4.537 Z-4.007
N17510 X58.609 Y-4.602 Z-4.133
N17515 X58.564 Y-4.678 Z-4.252
N17520 X58.513 Y-4.763 Z-4.361
N17525 X58.458 Y-4.856 Z-4.46
N17530 X58.397 Y-4.958 Z-4.547
N17535 X58.333 Y-5.066 Z-4.623
N17540 X58.265 Y-5.181 Z-4.686
N17545 X58.194 Y-5.3 Z-4.735
N17550 X58.121 Y-5.423 Z-4.771
N17555 X58.046 Y-5.548 Z-4.793
N17560 X57.971 Y-5.674 Z-4.8
N17565 G3 X57.75 Y-6.428 I1.36 J-0.809
N17570 G1 Y-7.327
N17575 X57.757 Y-7.465
N17580 X57.768 Y-7.614
N17585 X57.787 Y-7.763
N17590 X57.814 Y-7.911
N17595 X57.852 Y-8.086
N17600 X57.906 Y-8.293
N17605 X57.981 Y-8.547
N17610 X58.114 Y-8.938
N17615 X58.441 Y-9.801
N17620 X58.79 Y-10.655
N17625 X59.115 Y-11.518
N17630 X59.392 Y-12.398
N17635 X59.608 Y-13.295
N17640 X59.736 Y-14.209
N17645 X59.748 Y-15.131
N17650 X59.621 Y-16.045
N17655 X59.354 Y-16.929
N17660 X58.965 Y-17.765
N17665 X58.486 Y-18.553
N17670 X58.133 Y-19.081
N17675 X58.049 Y-19.216
N17680 X57.885 Y-19.546
N17685 X57.784 Y-19.901
N17690 X57.75 Y-20.268
N17695 Y-21.592
N17700 G3 X57.977 Y-22.335 I1.499 J0.052
N17705 G1 X58.055 Y-22.459 Z-4.793
N17710 X58.132 Y-22.583 Z-4.771
N17715 X58.208 Y-22.704 Z-4.735
N17720 X58.281 Y-22.822 Z-4.686
N17725 X58.352 Y-22.934 Z-4.623
N17730 X58.419 Y-23.042 Z-4.547
N17735 X58.481 Y-23.142 Z-4.46
N17740 X58.539 Y-23.234 Z-4.361
N17745 X58.591 Y-23.318 Z-4.252
N17750 X58.638 Y-23.392 Z-4.133
N17755 X58.678 Y-23.457 Z-4.007
N17760 X58.711 Y-23.51 Z-3.874
N17765 X58.738 Y-23.552 Z-3.735
N17770 X58.757 Y-23.582 Z-3.593
N17775 X58.768 Y-23.601 Z-3.447
N17780 X58.772 Y-23.607 Z-3.3
N17785 G0 Z5.
N17790 X58.738 Y-5.285
N17795 Z-1.8
N17800 G1 Z-3.3 F1000.
N17805 X58.734 Y-5.291 Z-3.447
N17810 X58.723 Y-5.309 Z-3.593
N17815 X58.705 Y-5.34 Z-3.735
N17820 X58.68 Y-5.383 Z-3.874
N17825 X58.647 Y-5.437 Z-4.007
N17830 X58.609 Y-5.502 Z-4.133
N17835 X58.564 Y-5.577 Z-4.252
N17840 X58.513 Y-5.662 Z-4.361
N17845 X58.458 Y-5.756 Z-4.46
N17850 X58.397 Y-5.858 Z-4.547
N17855 X58.333 Y-5.966 Z-4.623
N17860 X58.265 Y-6.08 Z-4.686
N17865 X58.194 Y-6.2 Z-4.735
N17870 X58.121 Y-6.322 Z-4.771
N17875 X58.046 Y-6.447 Z-4.793
N17880 X57.971 Y-6.574 Z-4.8
N17885 G3 X57.75 Y-7.327 I1.36 J-0.809
N17890 G1 Y-8.634
N17895 X57.758 Y-8.794
N17900 X57.77 Y-8.943
N17905 X57.79 Y-9.125
N17910 X57.824 Y-9.348
N17915 X57.887 Y-9.679
N17920 X58.009 Y-10.216
N17925 X58.247 Y-11.108
N17930 X58.493 Y-11.997
N17935 X58.706 Y-12.895
N17940 X58.845 Y-13.807
N17945 X58.865 Y-14.729
N17950 X58.747 Y-15.644
N17955 X58.495 Y-16.532
N17960 X58.135 Y-17.381
N17965 X57.964 Y-17.721
N17970 X57.846 Y-18.009
N17975 X57.774 Y-18.311
N17980 X57.75 Y-18.621
N17985 Y-20.268
N17990 G3 X57.977 Y-21.011 I1.499 J0.052
N17995 G1 X58.055 Y-21.135 Z-4.793
N18000 X58.132 Y-21.259 Z-4.771
N18005 X58.208 Y-21.38 Z-4.735
N18010 X58.281 Y-21.497 Z-4.686
N18015 X58.352 Y-21.61 Z-4.623
N18020 X58.419 Y-21.717 Z-4.547
N18025 X58.481 Y-21.818 Z-4.46
N18030 X58.539 Y-21.91 Z-4.361
N18035 X58.591 Y-21.994 Z-4.252
N18040 X58.638 Y-22.068 Z-4.133
N18045 X58.678 Y-22.133 Z-4.007
N18050 X58.711 Y-22.186 Z-3.874
N18055 X58.738 Y-22.228 Z-3.735
N18060 X58.757 Y-22.258 Z-3.593
N18065 X58.768 Y-22.277 Z-3.447
N18070 X58.772 Y-22.283 Z-3.3
N18075 G0 Z5.
N18080 X58.738 Y-6.591
N18085 Z-1.8
N18090 G1 Z-3.3 F1000.
N18095 X58.734 Y-6.597 Z-3.447
N18100 X58.723 Y-6.615 Z-3.593
N18105 X58.705 Y-6.646 Z-3.735
N18110 X58.68 Y-6.689 Z-3.874
N18115 X58.647 Y-6.743 Z-4.007
N18120 X58.609 Y-6.808 Z-4.133
N18125 X58.564 Y-6.883 Z-4.252
N18130 X58.513 Y-6.968 Z-4.361
N18135 X58.458 Y-7.062 Z-4.46
N18140 X58.397 Y-7.164 Z-4.547
N18145 X58.333 Y-7.272 Z-4.623
N18150 X58.265 Y-7.387 Z-4.686
N18155 X58.194 Y-7.506 Z-4.735
N18160 X58.121 Y-7.628 Z-4.771
N18165 X58.046 Y-7.754 Z-4.793
N18170 X57.971 Y-7.88 Z-4.8
N18175 G3 X57.75 Y-8.634 I1.36 J-0.809
N18180 G1 Y-10.609
N18185 X57.765 Y-10.918
N18190 X57.794 Y-11.327
N18195 X57.893 Y-12.245
N18200 X57.996 Y-13.161
N18205 X58.028 Y-14.084
N18210 X57.947 Y-15.003
N18215 X57.798 Y-15.667
N18220 X57.772 Y-15.811
N18225 X57.755 Y-15.957
N18230 X57.75 Y-16.104
N18235 G3 X60.749 Y-16.051 I1.499 J0.052
N18240 G1 Y-10.662
N18245 G3 X57.75 Y-10.609 I-1.5 J0.
N18250 G1 Y-18.621
N18255 X57.763 Y-18.709 Z-4.795
N18260 X57.776 Y-18.796 Z-4.78
N18265 X57.789 Y-18.881 Z-4.754
N18270 X57.802 Y-18.962 Z-4.72
N18275 X57.833 Y-19.041 Z-4.671
N18280 X57.862 Y-19.113 Z-4.613
N18285 X57.888 Y-19.178 Z-4.545
N18290 X57.911 Y-19.235 Z-4.469
N18295 X57.93 Y-19.283 Z-4.387
N18300 X57.95 Y-19.318 Z-4.299
N18305 X57.965 Y-19.343 Z-4.206
N18310 X57.974 Y-19.358 Z-4.111
N18315 X57.977 Y-19.364 Z-4.015
N18320 G0 Z5.
N18325 X-3.311 Y-32.122
N18330 Z2.4
N18335 G1 Z0.9 F1000.
N18340 X-3.305 Y-32.118 Z0.753
N18345 X-3.286 Y-32.107 Z0.607
N18350 X-3.255 Y-32.089 Z0.465
N18355 X-3.213 Y-32.064 Z0.326
N18360 X-3.159 Y-32.032 Z0.193
N18365 X-3.093 Y-31.993 Z0.067
N18370 X-3.018 Y-31.948 Z-0.052
N18375 X-2.933 Y-31.898 Z-0.161
N18380 X-2.839 Y-31.843 Z-0.26
N18385 X-2.737 Y-31.782 Z-0.347
N18390 X-2.629 Y-31.718 Z-0.423
N18395 X-2.514 Y-31.65 Z-0.486
N18400 X-2.395 Y-31.58 Z-0.535
N18405 X-2.272 Y-31.507 Z-0.571
N18410 X-2.147 Y-31.433 Z-0.593
N18415 X-2.02 Y-31.358 Z-0.6
N18420 G3 X0.622 Y-29.38 I-7.805 J13.18
N18425 G1 X0.703 Y-29.299
N18430 X0.681 Y-29.188
N18435 X0.634 Y-29.085
N18440 X0.564 Y-28.996
N18445 X0.366 Y-28.799
N18450 X0.17 Y-28.576
N18455 X-0.039 Y-28.336
N18460 X-0.095 Y-28.254
N18465 X-0.15 Y-28.172
N18470 X-0.267 Y-27.963
N18475 X-0.368 Y-27.754
N18480 X-0.447 Y-27.545
N18485 X-0.559 Y-27.126
N18490 X-0.605 Y-26.917
N18495 X-0.62 Y-26.708
N18500 X-0.63 Y-26.499
N18505 X-0.634 Y-26.29
N18510 Y-3.71
N18515 X-0.63 Y-3.501
N18520 X-0.62 Y-3.292
N18525 X-0.605 Y-3.083
N18530 X-0.559 Y-2.874
N18535 X-0.447 Y-2.455
N18540 X-0.368 Y-2.246
N18545 X-0.267 Y-2.037
N18550 X-0.15 Y-1.828
N18555 X-0.095 Y-1.746
N18560 X-0.039 Y-1.664
N18565 X0.182 Y-1.41
N18570 X0.366 Y-1.201
N18575 X1.216 Y-0.351
N18580 X1.426 Y-0.167
N18585 X1.693 Y0.054
N18590 X1.844 Y0.16
N18595 X2.056 Y0.263
N18600 X2.459 Y0.453
N18605 X2.472 Y0.457
