%
(CLAMP_V4_S1.NGC)
(T1  D=6. CR=0. TAPER=45DEG - ZMIN=-2. - CHAMFER MILL)
(T16  D=6. CR=0.5 - ZMIN=-13.5 - BULLNOSE END MILL)
N10 G90 G94 G17 G91.1
N15 G21
N20 G53 G0 Z0.
(FACE2)
N25 T16 M6
N30 T1
N35 S15000 M3
N40 G54
N45 M8
N50 G0 X73.145 Y-33.449
N55 G43 Z15. H16
N60 G0 Z5.
N65 G1 Z0.1 F1000.
N70 G18 G3 X72.545 Z-0.5 I-0.6 K0.
N75 G1 X69.979
N80 X-4.979 F1200.
N85 X-5.
N90 G17 G2 Y-28.946 I0. J2.252
N95 G1 X70.
N100 G3 Y-24.442 I0. J2.252
N105 G1 X-5.
N110 G2 Y-19.939 I0. J2.252
N115 G1 X70.
N120 G3 Y-15.436 I0. J2.252
N125 G1 X-5.
N130 G2 Y-10.932 I0. J2.252
N135 G1 X70.
N140 G3 Y-6.429 I0. J2.252
N145 G1 X-5.
N150 G2 Y-1.926 I0. J2.252
N155 G1 X70.
N160 G3 Y2.578 I0. J2.252
N165 G1 X-5.
N170 G18 G3 X-5.6 Z0.1 I0. K0.6 F1000.
N175 G0 Z15.
N180 G17
(2D ADAPTIVE3)
N185 S14000 M3
N190 G0 X43.497 Y-14.3
N195 Z15.
N200 Z5.
N205 Z2.5
N210 G3 X42.677 Y-15.178 Z2.4 I-0.131 J-0.7 F400.
N215 X43.817 Y-15.548 Z2.3 I0.688 J0.178
N220 X43.669 Y-14.361 Z2.2 I-0.451 J0.546
N225 X42.66 Y-14.997 Z2.1 I-0.302 J-0.639
N230 X43.661 Y-15.64 Z2. I0.705 J-0.003
N235 X43.818 Y-14.464 Z1.9 I-0.295 J0.638
N240 X42.689 Y-14.819 Z1.8 I-0.452 J-0.537
N245 X43.487 Y-15.689 Z1.7 I0.676 J-0.181
N250 X43.936 Y-14.6 Z1.6 I-0.122 J0.687
N255 X42.762 Y-14.655 Z1.5 I-0.569 J-0.401
N260 X43.309 Y-15.692 Z1.4 I0.603 J-0.344
N265 X44.014 Y-14.76 Z1.3 I0.056 J0.69
N270 X42.873 Y-14.517 Z1.2 I-0.648 J-0.241
N275 X43.136 Y-15.65 Z1.1 I0.492 J-0.483
N280 X44.049 Y-14.933 Z1. I0.228 J0.649
N285 X43.015 Y-14.412 Z0.9 I-0.682 J-0.068
N290 X42.982 Y-15.566 Z0.8 I0.35 J-0.588
N295 X44.038 Y-15.108 Z0.7 I0.383 J0.565
N300 X43.178 Y-14.347 Z0.6 I-0.672 J0.107
N305 X42.854 Y-15.446 Z0.5 I0.188 J-0.652
N310 X43.984 Y-15.274 Z0.4 I0.51 J0.445
N315 X43.351 Y-14.326 Z0.3 I-0.618 J0.272
N320 X42.763 Y-15.299 Z0.2 I0.015 J-0.673
N325 X43.89 Y-15.419 Z0.1 I0.602 J0.299
N330 X43.521 Y-14.35 Z0. I-0.524 J0.417
N335 X42.712 Y-15.135 Z-0.1 I-0.155 J-0.65
N340 X43.763 Y-15.535 Z-0.2 I0.653 J0.135
N345 X43.679 Y-14.416 Z-0.3 I-0.398 J0.533
N350 X42.704 Y-14.964 Z-0.4 I-0.313 J-0.584
N355 X43.612 Y-15.613 Z-0.5 I0.66 J-0.036
N360 X43.814 Y-14.519 Z-0.6 I-0.247 J0.612
N365 X42.74 Y-14.799 Z-0.7 I-0.448 J-0.482
N370 X43.448 Y-15.651 Z-0.8 I0.625 J-0.201
N375 X43.918 Y-14.652 Z-0.9 I-0.083 J0.649
N380 X42.817 Y-14.649 Z-1. I-0.551 J-0.349
N385 X43.28 Y-15.645 Z-1.1 I0.548 J-0.35
N390 X43.984 Y-14.805 Z-1.2 I0.085 J0.644
N395 X42.928 Y-14.525 Z-1.3 I-0.617 J-0.196
N400 X43.121 Y-15.597 Z-1.4 I0.438 J-0.475
N405 X44.008 Y-14.969 Z-1.5 I0.244 J0.596
N410 X43.065 Y-14.434 Z-1.6 I-0.641 J-0.032
N415 X42.98 Y-15.511 Z-1.7 I0.3 J-0.566
N420 X43.989 Y-15.133 Z-1.8 I0.384 J0.51
N425 X43.221 Y-14.381 Z-1.9 I-0.623 J0.131
N430 X42.867 Y-15.393 Z-2. I0.145 J-0.618
N435 X43.931 Y-15.285 Z-2.1 I0.497 J0.392
N440 X43.383 Y-14.37 Z-2.2 I-0.565 J0.283
N445 X42.788 Y-15.251 Z-2.3 I-0.017 J-0.63
N450 X43.836 Y-15.416 Z-2.4 I0.576 J0.251
N455 X43.541 Y-14.4 Z-2.5 I-0.47 J0.414
N460 X42.749 Y-15.096 Z-2.6 I-0.175 J-0.6
N465 X43.712 Y-15.518 Z-2.7 I0.616 J0.095
N470 X43.686 Y-14.469 Z-2.8 I-0.346 J0.516
N475 X42.75 Y-14.936 Z-2.9 I-0.319 J-0.531
N480 X43.567 Y-15.584 Z-3. I0.614 J-0.064
N485 X43.807 Y-14.572 Z-3.1 I-0.202 J0.582
N490 X42.792 Y-14.784 Z-3.2 I-0.44 J-0.428
N495 X43.412 Y-15.611 Z-3.3 I0.573 J-0.216
N500 X43.897 Y-14.701 Z-3.4 I-0.047 J0.609
N505 X42.87 Y-14.648 Z-3.5 I-0.53 J-0.3
N510 X43.256 Y-15.597 Z-3.6 I0.495 J-0.352
N515 X43.95 Y-14.847 Z-3.7 I0.109 J0.596
N520 X42.98 Y-14.537 Z-3.8 I-0.584 J-0.154
N525 X43.11 Y-15.545 Z-3.9 I0.386 J-0.462
N530 X43.965 Y-15.001 Z-4. I0.255 J0.544
N535 X42.764 I-0.6 J0.
N540 X43.965 I0.6 J0.
N545 S15000
N550 G1 X43.994 Y-14.754 F1800.
N555 X44.022 Y-14.616
N560 X43.996 Y-14.477
N565 X43.919 Y-14.36
N570 X43.802 Y-14.28
N575 X43.665 Y-14.251
N580 X43.583 Y-14.25
N585 X42.931
N590 X42.782 Y-14.257
N595 X42.638 Y-14.301
N600 X42.506 Y-14.373
N605 X42.347 Y-14.548
N610 X42.248 Y-14.764
N615 X42.219 Y-15.
N620 X42.263 Y-15.234
N625 X42.376 Y-15.443
N630 X42.547 Y-15.608
N635 X42.759 Y-15.714
N640 X42.994 Y-15.75
N645 X43.583
N650 X43.801 Y-15.747
N655 X43.888 Y-15.739
N660 X44.035 Y-15.709
N665 X44.231 Y-15.589
N670 X44.382 Y-15.417
N675 X44.474 Y-15.207
N680 X44.5 Y-14.98
N685 X44.456 Y-14.755
N690 X44.347 Y-14.553
N695 X44.183 Y-14.393
N700 X43.979 Y-14.29
N705 X43.753 Y-14.252
N710 X43.661 Y-14.261
N715 X43.571 Y-14.284
N720 G2 X43.213 Y-14.294 I-0.194 J0.568
N725 G3 X42.931 Y-14.25 I-0.323 J-1.142
N730 G1 X42.377
N735 X42.227 Y-14.257
N740 X42.085 Y-14.304
N745 X41.954 Y-14.377
N750 X41.798 Y-14.555
N755 X41.704 Y-14.772
N760 X41.678 Y-15.007
N765 X41.725 Y-15.239
N770 X41.839 Y-15.446
N775 X42.009 Y-15.61
N780 X42.222 Y-15.714
N785 X42.455 Y-15.75
N790 X42.994
N795 X43.082 Y-15.74
N800 X43.167 Y-15.718
N805 G2 X43.467 Y-15.704 I0.175 J-0.512
N810 G3 X43.801 Y-15.747 I0.368 J1.539
N815 G1 X44.355 Y-15.72
N820 X44.431 Y-15.713
N825 X44.578 Y-15.683
N830 X44.714 Y-15.62
N835 X44.874 Y-15.458
N840 X44.978 Y-15.256
N845 X45.016 Y-15.031
N850 X44.984 Y-14.806
N855 X44.886 Y-14.6
N860 X44.73 Y-14.434
N865 X44.531 Y-14.323
N870 X44.308 Y-14.278
N875 X44.261 Y-14.28
N880 G3 X44.355 Y-15.72 I0.084 J-0.718
N885 G1 X44.453 Y-15.715
N890 X44.561 Y-15.705
N895 X44.67 Y-15.687
N900 X44.724 Y-15.671
N905 X44.779 Y-15.649
N910 X44.887 Y-15.592
N915 X44.952 Y-15.543
N920 X45.042 Y-15.455
N925 X45.105 Y-15.366
N930 X45.127 Y-15.326
N935 X45.173 Y-15.217
N940 X45.199 Y-15.109
N945 X45.207 Y-15.
N950 X45.199 Y-14.891
N955 X45.173 Y-14.783
N960 X45.127 Y-14.674
N965 X45.105 Y-14.634
N970 X45.042 Y-14.545
N975 X44.952 Y-14.457
N980 X44.887 Y-14.408
N985 X44.779 Y-14.351
N990 X44.724 Y-14.329
N995 X44.67 Y-14.313
N1000 X44.561 Y-14.295
N1005 X44.453 Y-14.285
N1010 X43.801 Y-14.253
N1015 X43.753 Y-14.252
N1020 G3 X43.458 Y-14.337 I0.013 J-0.6
N1025 G1 X43.233 Y-14.471
N1030 X43.2 Y-14.484
N1035 X43.164
N1040 X43.131 Y-14.471
N1045 G3 X42.377 Y-14.25 I-0.809 J-1.36
N1050 G1 X41.845
N1055 X41.695 Y-14.257
N1060 X41.552 Y-14.302
N1065 X41.42 Y-14.374
N1070 X41.263 Y-14.551
N1075 X41.166 Y-14.768
N1080 X41.14 Y-15.004
N1085 X41.185 Y-15.236
N1090 X41.299 Y-15.444
N1095 X41.47 Y-15.609
N1100 X41.683 Y-15.714
N1105 X41.917 Y-15.75
N1110 X42.455
N1115 G3 X42.806 Y-15.448 I-0.013 J0.37
N1120 X41.845 Y-14.25 I-0.997 J0.185
N1125 G1 X41.291
N1130 X41.141 Y-14.257
N1135 X40.999 Y-14.305
N1140 X40.868 Y-14.38
N1145 X40.715 Y-14.559
N1150 X40.621 Y-14.775
N1155 X40.597 Y-15.01
N1160 X40.645 Y-15.241
N1165 X40.759 Y-15.448
N1170 X40.93 Y-15.61
N1175 X41.142 Y-15.714
N1180 X41.375 Y-15.75
N1185 X41.917
N1190 G3 X42.269 Y-15.439 I-0.013 J0.37
N1195 X41.291 Y-14.25 I-1.014 J0.162
N1200 G1 X40.758
N1205 X40.608 Y-14.257
N1210 X40.466 Y-14.303
N1215 X40.334 Y-14.376
N1220 X40.178 Y-14.554
N1225 X40.083 Y-14.771
N1230 X40.058 Y-15.006
N1235 X40.104 Y-15.238
N1240 X40.218 Y-15.446
N1245 X40.389 Y-15.609
N1250 X40.601 Y-15.714
N1255 X40.835 Y-15.75
N1260 X41.375
N1265 G3 X41.727 Y-15.444 I-0.013 J0.37
N1270 X40.758 Y-14.25 I-1.004 J0.176
N1275 G1 X40.204
N1280 X40.054 Y-14.257
N1285 X39.912 Y-14.306
N1290 X39.783 Y-14.381
N1295 X39.63 Y-14.561
N1300 X39.538 Y-14.778
N1305 X39.514 Y-15.012
N1310 X39.562 Y-15.243
N1315 X39.677 Y-15.449
N1320 X39.848 Y-15.611
N1325 X40.06 Y-15.714
N1330 X40.293 Y-15.75
N1335 X40.835
N1340 G3 X41.188 Y-15.436 I-0.013 J0.369
N1345 X40.204 Y-14.25 I-1.02 J0.155
N1350 G1 X39.672
N1355 X39.522 Y-14.257
N1360 X39.379 Y-14.304
N1365 X39.248 Y-14.377
N1370 X39.093 Y-14.556
N1375 X38.999 Y-14.773
N1380 X38.974 Y-15.008
N1385 X39.021 Y-15.239
N1390 X39.135 Y-15.446
N1395 X39.306 Y-15.61
N1400 X39.518 Y-15.714
N1405 X39.752 Y-15.75
N1410 X40.293
N1415 G3 X40.644 Y-15.442 I-0.013 J0.37
N1420 X39.672 Y-14.25 I-1.008 J0.17
N1425 G1 X39.117
N1430 X38.968 Y-14.257
N1435 X38.826 Y-14.307
N1440 X38.697 Y-14.383
N1445 X38.544 Y-14.562
N1450 X38.453 Y-14.779
N1455 X38.43 Y-15.013
N1460 X38.478 Y-15.244
N1465 X38.593 Y-15.449
N1470 X38.764 Y-15.611
N1475 X38.976 Y-15.714
N1480 X39.208 Y-15.75
N1485 X39.752
N1490 G3 X40.105 Y-15.434 I-0.013 J0.369
N1495 X39.117 Y-14.25 I-1.023 J0.15
N1500 G1 X38.585
N1505 X38.435 Y-14.257
N1510 X38.293 Y-14.304
N1515 X38.162 Y-14.378
N1520 X38.008 Y-14.557
N1525 X37.914 Y-14.774
N1530 X37.889 Y-15.009
N1535 X37.936 Y-15.24
N1540 X38.051 Y-15.447
N1545 X38.222 Y-15.61
N1550 X38.434 Y-15.714
N1555 X38.667 Y-15.75
N1560 X39.208
N1565 G3 X39.56 Y-15.44 I-0.013 J0.37
N1570 X38.585 Y-14.25 I-1.011 J0.166
N1575 G1 X38.031
N1580 X37.881 Y-14.257
N1585 X37.74 Y-14.307
N1590 X37.61 Y-14.383
N1595 X37.458 Y-14.563
N1600 X37.367 Y-14.78
N1605 X37.345 Y-15.014
N1610 X37.393 Y-15.244
N1615 X37.508 Y-15.45
N1620 X37.679 Y-15.611
N1625 X37.891 Y-15.715
N1630 X38.123 Y-15.75
N1635 X38.667
N1640 G3 X39.02 Y-15.433 I-0.013 J0.369
N1645 X38.031 Y-14.25 I-1.026 J0.148
N1650 G1 X37.498
N1655 X37.349 Y-14.257
N1660 X37.206 Y-14.305
N1665 X37.076 Y-14.379
N1670 X36.921 Y-14.557
N1675 X36.828 Y-14.774
N1680 X36.804 Y-15.009
N1685 X36.851 Y-15.241
N1690 X36.965 Y-15.447
N1695 X37.136 Y-15.61
N1700 X37.348 Y-15.714
N1705 X37.582 Y-15.75
N1710 X38.123
N1715 G3 X38.476 Y-15.44 I-0.013 J0.37
N1720 X37.498 Y-14.25 I-1.013 J0.164
N1725 G1 X36.944
N1730 X36.794 Y-14.257
N1735 X36.653 Y-14.307
N1740 X36.524 Y-14.384
N1745 X36.372 Y-14.564
N1750 X36.281 Y-14.78
N1755 X36.259 Y-15.015
N1760 X36.308 Y-15.245
N1765 X36.423 Y-15.45
N1770 X36.594 Y-15.611
N1775 X36.805 Y-15.715
N1780 X37.038 Y-15.75
N1785 X37.582
N1790 G3 X37.935 Y-15.433 I-0.013 J0.369
N1795 X36.944 Y-14.25 I-1.027 J0.146
N1800 G1 X36.412
N1805 X36.262 Y-14.257
N1810 X36.12 Y-14.305
N1815 X35.989 Y-14.379
N1820 X35.835 Y-14.558
N1825 X35.742 Y-14.775
N1830 X35.718 Y-15.01
N1835 X35.765 Y-15.241
N1840 X35.88 Y-15.447
N1845 X36.051 Y-15.61
N1850 X36.263 Y-15.714
N1855 X36.496 Y-15.75
N1860 X37.038
N1865 G3 X37.39 Y-15.439 I-0.013 J0.37
N1870 X36.412 Y-14.25 I-1.014 J0.163
N1875 G1 X35.858
N1880 X35.708 Y-14.257
N1885 X35.566 Y-14.308
N1890 X35.437 Y-14.384
N1895 X35.286 Y-14.564
N1900 X35.195 Y-14.781
N1905 X35.173 Y-15.015
N1910 X35.222 Y-15.245
N1915 X35.337 Y-15.45
N1920 X35.508 Y-15.611
N1925 X35.719 Y-15.715
N1930 X35.952 Y-15.75
N1935 X36.496
N1940 G3 X36.849 Y-15.432 I-0.013 J0.369
N1945 X35.858 Y-14.25 I-1.028 J0.145
N1950 G1 X35.325
N1955 X35.175 Y-14.257
N1960 X35.033 Y-14.305
N1965 X34.903 Y-14.379
N1970 X34.749 Y-14.558
N1975 X34.656 Y-14.775
N1980 X34.632 Y-15.01
N1985 X34.679 Y-15.241
N1990 X34.794 Y-15.448
N1995 X34.965 Y-15.61
N2000 X35.177 Y-15.714
N2005 X35.41 Y-15.75
N2010 X35.952
N2015 G3 X36.304 Y-15.439 I-0.013 J0.37
N2020 X35.325 Y-14.25 I-1.015 J0.162
N2025 G1 X34.771
N2030 X34.621 Y-14.257
N2035 X34.48 Y-14.308
N2040 X34.351 Y-14.384
N2045 X34.199 Y-14.564
N2050 X34.109 Y-14.781
N2055 X34.087 Y-15.015
N2060 X34.136 Y-15.245
N2065 X34.251 Y-15.45
N2070 X34.422 Y-15.611
N2075 X34.633 Y-15.715
N2080 X34.865 Y-15.75
N2085 X35.41
N2090 G3 X35.763 Y-15.432 I-0.013 J0.369
N2095 X34.771 Y-14.25 I-1.028 J0.144
N2100 G1 X34.239
N2105 X34.089 Y-14.257
N2110 X33.946 Y-14.305
N2115 X33.816 Y-14.379
N2120 X33.662 Y-14.558
N2125 X33.569 Y-14.775
N2130 X33.545 Y-15.01
N2135 X33.593 Y-15.241
N2140 X33.707 Y-15.448
N2145 X33.878 Y-15.61
N2150 X34.09 Y-15.714
N2155 X34.324 Y-15.75
N2160 X34.865
N2165 G3 X35.218 Y-15.439 I-0.013 J0.37
N2170 X34.239 Y-14.25 I-1.015 J0.161
N2175 G1 X33.684
N2180 X33.535 Y-14.257
N2185 X33.393 Y-14.308
N2190 X33.264 Y-14.384
N2195 X33.113 Y-14.564
N2200 X33.022 Y-14.781
N2205 X33. Y-15.015
N2210 X33.049 Y-15.245
N2215 X33.164 Y-15.45
N2220 X33.335 Y-15.611
N2225 X33.547 Y-15.715
N2230 X33.779 Y-15.75
N2235 X34.324
N2240 G3 X34.677 Y-15.432 I-0.013 J0.369
N2245 X33.684 Y-14.25 I-1.029 J0.144
N2250 G1 X33.152
N2255 X33.002 Y-14.257
N2260 X32.86 Y-14.305
N2265 X32.73 Y-14.379
N2270 X32.576 Y-14.558
N2275 X32.483 Y-14.775
N2280 X32.459 Y-15.01
N2285 X32.506 Y-15.241
N2290 X32.621 Y-15.448
N2295 X32.792 Y-15.61
N2300 X33.004 Y-15.714
N2305 X33.237 Y-15.75
N2310 X33.779
N2315 G3 X34.131 Y-15.438 I-0.013 J0.37
N2320 X33.152 Y-14.25 I-1.015 J0.161
N2325 G1 X32.598
N2330 X32.448 Y-14.257
N2335 X32.307 Y-14.308
N2340 X32.178 Y-14.384
N2345 X32.026 Y-14.564
N2350 X31.936 Y-14.781
N2355 X31.914 Y-15.015
N2360 X31.963 Y-15.245
N2365 X32.078 Y-15.45
N2370 X32.249 Y-15.611
N2375 X32.46 Y-15.715
N2380 X32.693 Y-15.75
N2385 X33.237
N2390 G3 X33.59 Y-15.432 I-0.013 J0.369
N2395 X32.598 Y-14.25 I-1.029 J0.144
N2400 G1 X32.065
N2405 X31.916 Y-14.257
N2410 X31.773 Y-14.305
N2415 X31.643 Y-14.379
N2420 X31.489 Y-14.558
N2425 X31.396 Y-14.775
N2430 X31.372 Y-15.01
N2435 X31.42 Y-15.241
N2440 X31.534 Y-15.448
N2445 X31.705 Y-15.61
N2450 X31.917 Y-15.714
N2455 X32.151 Y-15.75
N2460 X32.693
N2465 G3 X33.045 Y-15.438 I-0.013 J0.37
N2470 X32.065 Y-14.25 I-1.015 J0.161
N2475 G1 X31.511
N2480 X31.361 Y-14.257
N2485 X31.22 Y-14.308
N2490 X31.091 Y-14.384
N2495 X30.94 Y-14.564
N2500 X30.849 Y-14.781
N2505 X30.827 Y-15.015
N2510 X30.876 Y-15.245
N2515 X30.991 Y-15.45
N2520 X31.162 Y-15.612
N2525 X31.374 Y-15.715
N2530 X31.606 Y-15.75
N2535 X32.151
N2540 G3 X32.504 Y-15.432 I-0.013 J0.369
N2545 X31.511 Y-14.25 I-1.029 J0.143
N2550 G1 X30.979
N2555 X30.829 Y-14.257
N2560 X30.687 Y-14.305
N2565 X30.556 Y-14.379
N2570 X30.403 Y-14.558
N2575 X30.31 Y-14.775
N2580 X30.286 Y-15.01
N2585 X30.333 Y-15.241
N2590 X30.448 Y-15.448
N2595 X30.619 Y-15.61
N2600 X30.831 Y-15.714
N2605 X31.064 Y-15.75
N2610 X31.606
N2615 G3 X31.958 Y-15.438 I-0.013 J0.37
N2620 X30.979 Y-14.25 I-1.015 J0.161
N2625 G1 X30.425
N2630 X30.275 Y-14.257
N2635 X30.133 Y-14.308
N2640 X30.004 Y-14.384
N2645 X29.853 Y-14.564
N2650 X29.763 Y-14.781
N2655 X29.741 Y-15.015
N2660 X29.79 Y-15.245
N2665 X29.905 Y-15.45
N2670 X30.076 Y-15.612
N2675 X30.287 Y-15.715
N2680 X30.519 Y-15.75
N2685 X31.064
N2690 G3 X31.417 Y-15.432 I-0.013 J0.369
N2695 X30.425 Y-14.25 I-1.029 J0.143
N2700 G1 X29.892
N2705 X29.742 Y-14.257
N2710 X29.6 Y-14.305
N2715 X29.47 Y-14.379
N2720 X29.316 Y-14.558
N2725 X29.223 Y-14.775
N2730 X29.199 Y-15.01
N2735 X29.247 Y-15.241
N2740 X29.361 Y-15.448
N2745 X29.532 Y-15.61
N2750 X29.744 Y-15.714
N2755 X29.977 Y-15.75
N2760 X30.519
N2765 G3 X30.872 Y-15.438 I-0.013 J0.37
N2770 X29.892 Y-14.25 I-1.016 J0.161
N2775 G1 X29.338
N2780 X29.188 Y-14.257
N2785 X29.047 Y-14.308
N2790 X28.918 Y-14.384
N2795 X28.767 Y-14.564
N2800 X28.676 Y-14.781
N2805 X28.654 Y-15.015
N2810 X28.703 Y-15.245
N2815 X28.818 Y-15.45
N2820 X28.989 Y-15.612
N2825 X29.201 Y-15.715
N2830 X29.433 Y-15.75
N2835 X29.977
N2840 G3 X30.331 Y-15.432 I-0.013 J0.369
N2845 X29.338 Y-14.25 I-1.029 J0.143
N2850 G1 X28.806
N2855 X28.656 Y-14.257
N2860 X28.513 Y-14.305
N2865 X28.383 Y-14.379
N2870 X28.229 Y-14.558
N2875 X28.136 Y-14.775
N2880 X28.113 Y-15.01
N2885 X28.16 Y-15.241
N2890 X28.275 Y-15.448
N2895 X28.446 Y-15.61
N2900 X28.658 Y-15.714
N2905 X28.891 Y-15.75
N2910 X29.433
N2915 G3 X29.785 Y-15.438 I-0.013 J0.37
N2920 X28.806 Y-14.25 I-1.016 J0.161
N2925 G1 X28.251
N2930 X28.102 Y-14.258
N2935 X27.96 Y-14.308
N2940 X27.831 Y-14.384
N2945 X27.68 Y-14.564
N2950 X27.59 Y-14.781
N2955 X27.568 Y-15.015
N2960 X27.616 Y-15.245
N2965 X27.732 Y-15.45
N2970 X27.902 Y-15.611
N2975 X28.114 Y-15.714
N2980 X28.346 Y-15.75
N2985 X28.891
N2990 G3 X29.244 Y-15.432 I-0.013 J0.369
N2995 X28.251 Y-14.25 I-1.029 J0.144
N3000 G1 X27.936
N3005 X27.719 Y-14.255
N3010 X27.606 Y-14.277
N3015 X27.461 Y-14.314
N3020 X27.327 Y-14.382
N3025 X27.176 Y-14.545
N3030 X27.077 Y-14.744
N3035 X27.039 Y-14.963
N3040 X27.066 Y-15.184
N3045 X27.155 Y-15.388
N3050 X27.298 Y-15.558
N3055 X27.485 Y-15.679
N3060 X27.698 Y-15.742
N3065 X27.767 Y-15.743
N3070 G3 X27.719 Y-14.255 I-0.059 J0.743
N3075 G1 X27.502 Y-14.286
N3080 X27.284 Y-14.326
N3085 X27.176 Y-14.372
N3090 X27.121 Y-14.403
N3095 X27.067 Y-14.441
N3100 X27.048 Y-14.457
N3105 X26.99 Y-14.511
N3110 X26.942 Y-14.565
N3115 X26.904 Y-14.62
N3120 X26.873 Y-14.674
N3125 X26.85 Y-14.722
N3130 X26.82 Y-14.807
N3135 X26.801 Y-14.891
N3140 X26.793 Y-15.
N3145 X26.801 Y-15.109
N3150 X26.82 Y-15.193
N3155 X26.85 Y-15.278
N3160 X26.873 Y-15.326
N3165 X26.904 Y-15.38
N3170 X26.942 Y-15.435
N3175 X26.99 Y-15.489
N3180 X27.048 Y-15.543
N3185 X27.067 Y-15.559
N3190 X27.121 Y-15.597
N3195 X27.176 Y-15.628
N3200 X27.284 Y-15.674
N3205 X27.502 Y-15.714
N3210 X27.719 Y-15.745
N3215 X27.936 Y-15.75
N3220 X28.346
N3225 X28.438 Y-15.74
N3230 X28.527 Y-15.715
N3235 X28.591 Y-15.678 Z-3.995
N3240 X28.654 Y-15.642 Z-3.982
N3245 X28.715 Y-15.606 Z-3.959
N3250 X28.765 Y-15.545 Z-3.921
N3255 X28.811 Y-15.488 Z-3.871
N3260 X28.852 Y-15.438 Z-3.812
N3265 X28.872 Y-15.385 Z-3.741
N3270 X28.888 Y-15.342 Z-3.663
N3275 X28.9 Y-15.311 Z-3.579
N3280 X28.907 Y-15.292 Z-3.491
N3285 X28.91 Y-15.285 Z-3.4
N3290 G0 Z5.
N3295 X43.497 Y-14.3
N3300 Z-1.5
N3305 S14000
N3310 G3 X42.677 Y-15.178 Z-1.6 I-0.131 J-0.7 F400.
N3315 X43.817 Y-15.548 Z-1.7 I0.688 J0.178
N3320 X43.669 Y-14.361 Z-1.8 I-0.451 J0.546
N3325 X42.66 Y-14.997 Z-1.9 I-0.302 J-0.639
N3330 X43.661 Y-15.64 Z-2. I0.705 J-0.003
N3335 X43.818 Y-14.464 Z-2.1 I-0.295 J0.638
N3340 X42.689 Y-14.819 Z-2.2 I-0.452 J-0.537
N3345 X43.487 Y-15.689 Z-2.3 I0.676 J-0.181
N3350 X43.936 Y-14.6 Z-2.4 I-0.122 J0.687
N3355 X42.762 Y-14.655 Z-2.5 I-0.569 J-0.401
N3360 X43.309 Y-15.692 Z-2.6 I0.603 J-0.344
N3365 X44.014 Y-14.76 Z-2.7 I0.056 J0.69
N3370 X42.873 Y-14.517 Z-2.8 I-0.648 J-0.241
N3375 X43.136 Y-15.65 Z-2.9 I0.492 J-0.483
N3380 X44.049 Y-14.933 Z-3. I0.228 J0.649
N3385 X43.015 Y-14.412 Z-3.1 I-0.682 J-0.068
N3390 X42.982 Y-15.566 Z-3.2 I0.35 J-0.588
N3395 X44.038 Y-15.108 Z-3.3 I0.383 J0.565
N3400 X43.178 Y-14.347 Z-3.4 I-0.672 J0.107
N3405 X42.854 Y-15.446 Z-3.5 I0.188 J-0.652
N3410 X43.984 Y-15.274 Z-3.6 I0.51 J0.445
N3415 X43.351 Y-14.326 Z-3.7 I-0.618 J0.272
N3420 X42.763 Y-15.299 Z-3.8 I0.015 J-0.673
N3425 X43.89 Y-15.419 Z-3.9 I0.602 J0.299
N3430 X43.521 Y-14.35 Z-4. I-0.524 J0.417
N3435 X42.712 Y-15.135 Z-4.1 I-0.155 J-0.65
N3440 X43.763 Y-15.535 Z-4.2 I0.653 J0.135
N3445 X43.679 Y-14.416 Z-4.3 I-0.398 J0.533
N3450 X42.704 Y-14.964 Z-4.4 I-0.313 J-0.584
N3455 X43.612 Y-15.613 Z-4.5 I0.66 J-0.036
N3460 X43.814 Y-14.519 Z-4.6 I-0.247 J0.612
N3465 X42.74 Y-14.799 Z-4.7 I-0.448 J-0.482
N3470 X43.448 Y-15.651 Z-4.8 I0.625 J-0.201
N3475 X43.918 Y-14.652 Z-4.9 I-0.083 J0.649
N3480 X42.817 Y-14.649 Z-5. I-0.551 J-0.349
N3485 X43.28 Y-15.645 Z-5.1 I0.548 J-0.35
N3490 X43.984 Y-14.805 Z-5.2 I0.085 J0.644
N3495 X42.928 Y-14.525 Z-5.3 I-0.617 J-0.196
N3500 X43.121 Y-15.597 Z-5.4 I0.438 J-0.475
N3505 X44.008 Y-14.969 Z-5.5 I0.244 J0.596
N3510 X43.065 Y-14.434 Z-5.6 I-0.641 J-0.032
N3515 X42.98 Y-15.511 Z-5.7 I0.3 J-0.566
N3520 X43.989 Y-15.133 Z-5.8 I0.384 J0.51
N3525 X43.221 Y-14.381 Z-5.9 I-0.623 J0.131
N3530 X42.867 Y-15.393 Z-6. I0.145 J-0.618
N3535 X43.931 Y-15.285 Z-6.1 I0.497 J0.392
N3540 X43.383 Y-14.37 Z-6.2 I-0.565 J0.283
N3545 X42.788 Y-15.251 Z-6.3 I-0.017 J-0.63
N3550 X43.836 Y-15.416 Z-6.4 I0.576 J0.251
N3555 X43.541 Y-14.4 Z-6.5 I-0.47 J0.414
N3560 X42.749 Y-15.096 Z-6.6 I-0.175 J-0.6
N3565 X43.712 Y-15.518 Z-6.7 I0.616 J0.095
N3570 X43.686 Y-14.469 Z-6.8 I-0.346 J0.516
N3575 X42.75 Y-14.936 Z-6.9 I-0.319 J-0.531
N3580 X43.567 Y-15.584 Z-7. I0.614 J-0.064
N3585 X43.807 Y-14.572 Z-7.1 I-0.202 J0.582
N3590 X42.792 Y-14.784 Z-7.2 I-0.44 J-0.428
N3595 X43.412 Y-15.611 Z-7.3 I0.573 J-0.216
N3600 X43.897 Y-14.701 Z-7.4 I-0.047 J0.609
N3605 X42.87 Y-14.648 Z-7.5 I-0.53 J-0.3
N3610 X43.256 Y-15.597 Z-7.6 I0.495 J-0.352
N3615 X43.95 Y-14.847 Z-7.7 I0.109 J0.596
N3620 X42.98 Y-14.537 Z-7.8 I-0.584 J-0.154
N3625 X43.11 Y-15.545 Z-7.9 I0.386 J-0.462
N3630 X43.965 Y-15.001 Z-8. I0.255 J0.544
N3635 X42.764 I-0.6 J0.
N3640 X43.965 I0.6 J0.
N3645 S15000
N3650 G1 X43.994 Y-14.754 F1800.
N3655 X44.022 Y-14.616
N3660 X43.996 Y-14.477
N3665 X43.919 Y-14.36
N3670 X43.802 Y-14.28
N3675 X43.665 Y-14.251
N3680 X43.583 Y-14.25
N3685 X42.931
N3690 X42.782 Y-14.257
N3695 X42.638 Y-14.301
N3700 X42.506 Y-14.373
N3705 X42.347 Y-14.548
N3710 X42.248 Y-14.764
N3715 X42.219 Y-15.
N3720 X42.263 Y-15.234
N3725 X42.376 Y-15.443
N3730 X42.547 Y-15.608
N3735 X42.759 Y-15.714
N3740 X42.994 Y-15.75
N3745 X43.583
N3750 X43.801 Y-15.747
N3755 X43.888 Y-15.739
N3760 X44.035 Y-15.709
N3765 X44.231 Y-15.589
N3770 X44.382 Y-15.417
N3775 X44.474 Y-15.207
N3780 X44.5 Y-14.98
N3785 X44.456 Y-14.755
N3790 X44.347 Y-14.553
N3795 X44.183 Y-14.393
N3800 X43.979 Y-14.29
N3805 X43.753 Y-14.252
N3810 X43.661 Y-14.261
N3815 X43.571 Y-14.284
N3820 G2 X43.213 Y-14.294 I-0.194 J0.568
N3825 G3 X42.931 Y-14.25 I-0.323 J-1.142
N3830 G1 X42.377
N3835 X42.227 Y-14.257
N3840 X42.085 Y-14.304
N3845 X41.954 Y-14.377
N3850 X41.798 Y-14.555
N3855 X41.704 Y-14.772
N3860 X41.678 Y-15.007
N3865 X41.725 Y-15.239
N3870 X41.839 Y-15.446
N3875 X42.009 Y-15.61
N3880 X42.222 Y-15.714
N3885 X42.455 Y-15.75
N3890 X42.994
N3895 X43.082 Y-15.74
N3900 X43.167 Y-15.718
N3905 G2 X43.467 Y-15.704 I0.175 J-0.512
N3910 G3 X43.801 Y-15.747 I0.368 J1.539
N3915 G1 X44.355 Y-15.72
N3920 X44.431 Y-15.713
N3925 X44.578 Y-15.683
N3930 X44.714 Y-15.62
N3935 X44.874 Y-15.458
N3940 X44.978 Y-15.256
N3945 X45.016 Y-15.031
N3950 X44.984 Y-14.806
N3955 X44.886 Y-14.6
N3960 X44.73 Y-14.434
N3965 X44.531 Y-14.323
N3970 X44.308 Y-14.278
N3975 X44.261 Y-14.28
N3980 G3 X44.355 Y-15.72 I0.084 J-0.718
N3985 G1 X44.453 Y-15.715
N3990 X44.561 Y-15.705
N3995 X44.67 Y-15.687
N4000 X44.724 Y-15.671
N4005 X44.779 Y-15.649
N4010 X44.887 Y-15.592
N4015 X44.952 Y-15.543
N4020 X45.042 Y-15.455
N4025 X45.105 Y-15.366
N4030 X45.127 Y-15.326
N4035 X45.173 Y-15.217
N4040 X45.199 Y-15.109
N4045 X45.207 Y-15.
N4050 X45.199 Y-14.891
N4055 X45.173 Y-14.783
N4060 X45.127 Y-14.674
N4065 X45.105 Y-14.634
N4070 X45.042 Y-14.545
N4075 X44.952 Y-14.457
N4080 X44.887 Y-14.408
N4085 X44.779 Y-14.351
N4090 X44.724 Y-14.329
N4095 X44.67 Y-14.313
N4100 X44.561 Y-14.295
N4105 X44.453 Y-14.285
N4110 X43.801 Y-14.253
N4115 X43.753 Y-14.252
N4120 G3 X43.458 Y-14.337 I0.013 J-0.6
N4125 G1 X43.233 Y-14.471
N4130 X43.2 Y-14.484
N4135 X43.164
N4140 X43.131 Y-14.471
N4145 G3 X42.377 Y-14.25 I-0.809 J-1.36
N4150 G1 X41.845
N4155 X41.695 Y-14.257
N4160 X41.552 Y-14.302
N4165 X41.42 Y-14.374
N4170 X41.263 Y-14.551
N4175 X41.166 Y-14.768
N4180 X41.14 Y-15.004
N4185 X41.185 Y-15.236
N4190 X41.299 Y-15.444
N4195 X41.47 Y-15.609
N4200 X41.683 Y-15.714
N4205 X41.917 Y-15.75
N4210 X42.455
N4215 G3 X42.806 Y-15.448 I-0.013 J0.37
N4220 X41.845 Y-14.25 I-0.997 J0.185
N4225 G1 X41.291
N4230 X41.141 Y-14.257
N4235 X40.999 Y-14.305
N4240 X40.868 Y-14.38
N4245 X40.715 Y-14.559
N4250 X40.621 Y-14.775
N4255 X40.597 Y-15.01
N4260 X40.645 Y-15.241
N4265 X40.759 Y-15.448
N4270 X40.93 Y-15.61
N4275 X41.142 Y-15.714
N4280 X41.375 Y-15.75
N4285 X41.917
N4290 G3 X42.269 Y-15.439 I-0.013 J0.37
N4295 X41.291 Y-14.25 I-1.014 J0.162
N4300 G1 X40.758
N4305 X40.608 Y-14.257
N4310 X40.466 Y-14.303
N4315 X40.334 Y-14.376
N4320 X40.178 Y-14.554
N4325 X40.083 Y-14.771
N4330 X40.058 Y-15.006
N4335 X40.104 Y-15.238
N4340 X40.218 Y-15.446
N4345 X40.389 Y-15.609
N4350 X40.601 Y-15.714
N4355 X40.835 Y-15.75
N4360 X41.375
N4365 G3 X41.727 Y-15.444 I-0.013 J0.37
N4370 X40.758 Y-14.25 I-1.004 J0.176
N4375 G1 X40.204
N4380 X40.054 Y-14.257
N4385 X39.912 Y-14.306
N4390 X39.783 Y-14.381
N4395 X39.63 Y-14.561
N4400 X39.538 Y-14.778
N4405 X39.514 Y-15.012
N4410 X39.562 Y-15.243
N4415 X39.677 Y-15.449
N4420 X39.848 Y-15.611
N4425 X40.06 Y-15.714
N4430 X40.293 Y-15.75
N4435 X40.835
N4440 G3 X41.188 Y-15.436 I-0.013 J0.369
N4445 X40.204 Y-14.25 I-1.02 J0.155
N4450 G1 X39.672
N4455 X39.522 Y-14.257
N4460 X39.379 Y-14.304
N4465 X39.248 Y-14.377
N4470 X39.093 Y-14.556
N4475 X38.999 Y-14.773
N4480 X38.974 Y-15.008
N4485 X39.021 Y-15.239
N4490 X39.135 Y-15.446
N4495 X39.306 Y-15.61
N4500 X39.518 Y-15.714
N4505 X39.752 Y-15.75
N4510 X40.293
N4515 G3 X40.644 Y-15.442 I-0.013 J0.37
N4520 X39.672 Y-14.25 I-1.008 J0.17
N4525 G1 X39.117
N4530 X38.968 Y-14.257
N4535 X38.826 Y-14.307
N4540 X38.697 Y-14.383
N4545 X38.544 Y-14.562
N4550 X38.453 Y-14.779
N4555 X38.43 Y-15.013
N4560 X38.478 Y-15.244
N4565 X38.593 Y-15.449
N4570 X38.764 Y-15.611
N4575 X38.976 Y-15.714
N4580 X39.208 Y-15.75
N4585 X39.752
N4590 G3 X40.105 Y-15.434 I-0.013 J0.369
N4595 X39.117 Y-14.25 I-1.023 J0.15
N4600 G1 X38.585
N4605 X38.435 Y-14.257
N4610 X38.293 Y-14.304
N4615 X38.162 Y-14.378
N4620 X38.008 Y-14.557
N4625 X37.914 Y-14.774
N4630 X37.889 Y-15.009
N4635 X37.936 Y-15.24
N4640 X38.051 Y-15.447
N4645 X38.222 Y-15.61
N4650 X38.434 Y-15.714
N4655 X38.667 Y-15.75
N4660 X39.208
N4665 G3 X39.56 Y-15.44 I-0.013 J0.37
N4670 X38.585 Y-14.25 I-1.011 J0.166
N4675 G1 X38.031
N4680 X37.881 Y-14.257
N4685 X37.74 Y-14.307
N4690 X37.61 Y-14.383
N4695 X37.458 Y-14.563
N4700 X37.367 Y-14.78
N4705 X37.345 Y-15.014
N4710 X37.393 Y-15.244
N4715 X37.508 Y-15.45
N4720 X37.679 Y-15.611
N4725 X37.891 Y-15.715
N4730 X38.123 Y-15.75
N4735 X38.667
N4740 G3 X39.02 Y-15.433 I-0.013 J0.369
N4745 X38.031 Y-14.25 I-1.026 J0.148
N4750 G1 X37.498
N4755 X37.349 Y-14.257
N4760 X37.206 Y-14.305
N4765 X37.076 Y-14.379
N4770 X36.921 Y-14.557
N4775 X36.828 Y-14.774
N4780 X36.804 Y-15.009
N4785 X36.851 Y-15.241
N4790 X36.965 Y-15.447
N4795 X37.136 Y-15.61
N4800 X37.348 Y-15.714
N4805 X37.582 Y-15.75
N4810 X38.123
N4815 G3 X38.476 Y-15.44 I-0.013 J0.37
N4820 X37.498 Y-14.25 I-1.013 J0.164
N4825 G1 X36.944
N4830 X36.794 Y-14.257
N4835 X36.653 Y-14.307
N4840 X36.524 Y-14.384
N4845 X36.372 Y-14.564
N4850 X36.281 Y-14.78
N4855 X36.259 Y-15.015
N4860 X36.308 Y-15.245
N4865 X36.423 Y-15.45
N4870 X36.594 Y-15.611
N4875 X36.805 Y-15.715
N4880 X37.038 Y-15.75
N4885 X37.582
N4890 G3 X37.935 Y-15.433 I-0.013 J0.369
N4895 X36.944 Y-14.25 I-1.027 J0.146
N4900 G1 X36.412
N4905 X36.262 Y-14.257
N4910 X36.12 Y-14.305
N4915 X35.989 Y-14.379
N4920 X35.835 Y-14.558
N4925 X35.742 Y-14.775
N4930 X35.718 Y-15.01
N4935 X35.765 Y-15.241
N4940 X35.88 Y-15.447
N4945 X36.051 Y-15.61
N4950 X36.263 Y-15.714
N4955 X36.496 Y-15.75
N4960 X37.038
N4965 G3 X37.39 Y-15.439 I-0.013 J0.37
N4970 X36.412 Y-14.25 I-1.014 J0.163
N4975 G1 X35.858
N4980 X35.708 Y-14.257
N4985 X35.566 Y-14.308
N4990 X35.437 Y-14.384
N4995 X35.286 Y-14.564
N5000 X35.195 Y-14.781
N5005 X35.173 Y-15.015
N5010 X35.222 Y-15.245
N5015 X35.337 Y-15.45
N5020 X35.508 Y-15.611
N5025 X35.719 Y-15.715
N5030 X35.952 Y-15.75
N5035 X36.496
N5040 G3 X36.849 Y-15.432 I-0.013 J0.369
N5045 X35.858 Y-14.25 I-1.028 J0.145
N5050 G1 X35.325
N5055 X35.175 Y-14.257
N5060 X35.033 Y-14.305
N5065 X34.903 Y-14.379
N5070 X34.749 Y-14.558
N5075 X34.656 Y-14.775
N5080 X34.632 Y-15.01
N5085 X34.679 Y-15.241
N5090 X34.794 Y-15.448
N5095 X34.965 Y-15.61
N5100 X35.177 Y-15.714
N5105 X35.41 Y-15.75
N5110 X35.952
N5115 G3 X36.304 Y-15.439 I-0.013 J0.37
N5120 X35.325 Y-14.25 I-1.015 J0.162
N5125 G1 X34.771
N5130 X34.621 Y-14.257
N5135 X34.48 Y-14.308
N5140 X34.351 Y-14.384
N5145 X34.199 Y-14.564
N5150 X34.109 Y-14.781
N5155 X34.087 Y-15.015
N5160 X34.136 Y-15.245
N5165 X34.251 Y-15.45
N5170 X34.422 Y-15.611
N5175 X34.633 Y-15.715
N5180 X34.865 Y-15.75
N5185 X35.41
N5190 G3 X35.763 Y-15.432 I-0.013 J0.369
N5195 X34.771 Y-14.25 I-1.028 J0.144
N5200 G1 X34.239
N5205 X34.089 Y-14.257
N5210 X33.946 Y-14.305
N5215 X33.816 Y-14.379
N5220 X33.662 Y-14.558
N5225 X33.569 Y-14.775
N5230 X33.545 Y-15.01
N5235 X33.593 Y-15.241
N5240 X33.707 Y-15.448
N5245 X33.878 Y-15.61
N5250 X34.09 Y-15.714
N5255 X34.324 Y-15.75
N5260 X34.865
N5265 G3 X35.218 Y-15.439 I-0.013 J0.37
N5270 X34.239 Y-14.25 I-1.015 J0.161
N5275 G1 X33.684
N5280 X33.535 Y-14.257
N5285 X33.393 Y-14.308
N5290 X33.264 Y-14.384
N5295 X33.113 Y-14.564
N5300 X33.022 Y-14.781
N5305 X33. Y-15.015
N5310 X33.049 Y-15.245
N5315 X33.164 Y-15.45
N5320 X33.335 Y-15.611
N5325 X33.547 Y-15.715
N5330 X33.779 Y-15.75
N5335 X34.324
N5340 G3 X34.677 Y-15.432 I-0.013 J0.369
N5345 X33.684 Y-14.25 I-1.029 J0.144
N5350 G1 X33.152
N5355 X33.002 Y-14.257
N5360 X32.86 Y-14.305
N5365 X32.73 Y-14.379
N5370 X32.576 Y-14.558
N5375 X32.483 Y-14.775
N5380 X32.459 Y-15.01
N5385 X32.506 Y-15.241
N5390 X32.621 Y-15.448
N5395 X32.792 Y-15.61
N5400 X33.004 Y-15.714
N5405 X33.237 Y-15.75
N5410 X33.779
N5415 G3 X34.131 Y-15.438 I-0.013 J0.37
N5420 X33.152 Y-14.25 I-1.015 J0.161
N5425 G1 X32.598
N5430 X32.448 Y-14.257
N5435 X32.307 Y-14.308
N5440 X32.178 Y-14.384
N5445 X32.026 Y-14.564
N5450 X31.936 Y-14.781
N5455 X31.914 Y-15.015
N5460 X31.963 Y-15.245
N5465 X32.078 Y-15.45
N5470 X32.249 Y-15.611
N5475 X32.46 Y-15.715
N5480 X32.693 Y-15.75
N5485 X33.237
N5490 G3 X33.59 Y-15.432 I-0.013 J0.369
N5495 X32.598 Y-14.25 I-1.029 J0.144
N5500 G1 X32.065
N5505 X31.916 Y-14.257
N5510 X31.773 Y-14.305
N5515 X31.643 Y-14.379
N5520 X31.489 Y-14.558
N5525 X31.396 Y-14.775
N5530 X31.372 Y-15.01
N5535 X31.42 Y-15.241
N5540 X31.534 Y-15.448
N5545 X31.705 Y-15.61
N5550 X31.917 Y-15.714
N5555 X32.151 Y-15.75
N5560 X32.693
N5565 G3 X33.045 Y-15.438 I-0.013 J0.37
N5570 X32.065 Y-14.25 I-1.015 J0.161
N5575 G1 X31.511
N5580 X31.361 Y-14.257
N5585 X31.22 Y-14.308
N5590 X31.091 Y-14.384
N5595 X30.94 Y-14.564
N5600 X30.849 Y-14.781
N5605 X30.827 Y-15.015
N5610 X30.876 Y-15.245
N5615 X30.991 Y-15.45
N5620 X31.162 Y-15.612
N5625 X31.374 Y-15.715
N5630 X31.606 Y-15.75
N5635 X32.151
N5640 G3 X32.504 Y-15.432 I-0.013 J0.369
N5645 X31.511 Y-14.25 I-1.029 J0.143
N5650 G1 X30.979
N5655 X30.829 Y-14.257
N5660 X30.687 Y-14.305
N5665 X30.556 Y-14.379
N5670 X30.403 Y-14.558
N5675 X30.31 Y-14.775
N5680 X30.286 Y-15.01
N5685 X30.333 Y-15.241
N5690 X30.448 Y-15.448
N5695 X30.619 Y-15.61
N5700 X30.831 Y-15.714
N5705 X31.064 Y-15.75
N5710 X31.606
N5715 G3 X31.958 Y-15.438 I-0.013 J0.37
N5720 X30.979 Y-14.25 I-1.015 J0.161
N5725 G1 X30.425
N5730 X30.275 Y-14.257
N5735 X30.133 Y-14.308
N5740 X30.004 Y-14.384
N5745 X29.853 Y-14.564
N5750 X29.763 Y-14.781
N5755 X29.741 Y-15.015
N5760 X29.79 Y-15.245
N5765 X29.905 Y-15.45
N5770 X30.076 Y-15.612
N5775 X30.287 Y-15.715
N5780 X30.519 Y-15.75
N5785 X31.064
N5790 G3 X31.417 Y-15.432 I-0.013 J0.369
N5795 X30.425 Y-14.25 I-1.029 J0.143
N5800 G1 X29.892
N5805 X29.742 Y-14.257
N5810 X29.6 Y-14.305
N5815 X29.47 Y-14.379
N5820 X29.316 Y-14.558
N5825 X29.223 Y-14.775
N5830 X29.199 Y-15.01
N5835 X29.247 Y-15.241
N5840 X29.361 Y-15.448
N5845 X29.532 Y-15.61
N5850 X29.744 Y-15.714
N5855 X29.977 Y-15.75
N5860 X30.519
N5865 G3 X30.872 Y-15.438 I-0.013 J0.37
N5870 X29.892 Y-14.25 I-1.016 J0.161
N5875 G1 X29.338
N5880 X29.188 Y-14.257
N5885 X29.047 Y-14.308
N5890 X28.918 Y-14.384
N5895 X28.767 Y-14.564
N5900 X28.676 Y-14.781
N5905 X28.654 Y-15.015
N5910 X28.703 Y-15.245
N5915 X28.818 Y-15.45
N5920 X28.989 Y-15.612
N5925 X29.201 Y-15.715
N5930 X29.433 Y-15.75
N5935 X29.977
N5940 G3 X30.331 Y-15.432 I-0.013 J0.369
N5945 X29.338 Y-14.25 I-1.029 J0.143
N5950 G1 X28.806
N5955 X28.656 Y-14.257
N5960 X28.513 Y-14.305
N5965 X28.383 Y-14.379
N5970 X28.229 Y-14.558
N5975 X28.136 Y-14.775
N5980 X28.113 Y-15.01
N5985 X28.16 Y-15.241
N5990 X28.275 Y-15.448
N5995 X28.446 Y-15.61
N6000 X28.658 Y-15.714
N6005 X28.891 Y-15.75
N6010 X29.433
N6015 G3 X29.785 Y-15.438 I-0.013 J0.37
N6020 X28.806 Y-14.25 I-1.016 J0.161
N6025 G1 X28.251
N6030 X28.102 Y-14.258
N6035 X27.96 Y-14.308
N6040 X27.831 Y-14.384
N6045 X27.68 Y-14.564
N6050 X27.59 Y-14.781
N6055 X27.568 Y-15.015
N6060 X27.616 Y-15.245
N6065 X27.732 Y-15.45
N6070 X27.902 Y-15.611
N6075 X28.114 Y-15.714
N6080 X28.346 Y-15.75
N6085 X28.891
N6090 G3 X29.244 Y-15.432 I-0.013 J0.369
N6095 X28.251 Y-14.25 I-1.029 J0.144
N6100 G1 X27.936
N6105 X27.719 Y-14.255
N6110 X27.606 Y-14.277
N6115 X27.461 Y-14.314
N6120 X27.327 Y-14.382
N6125 X27.176 Y-14.545
N6130 X27.077 Y-14.744
N6135 X27.039 Y-14.963
N6140 X27.066 Y-15.184
N6145 X27.155 Y-15.388
N6150 X27.298 Y-15.558
N6155 X27.485 Y-15.679
N6160 X27.698 Y-15.742
N6165 X27.767 Y-15.743
N6170 G3 X27.719 Y-14.255 I-0.059 J0.743
N6175 G1 X27.502 Y-14.286
N6180 X27.284 Y-14.326
N6185 X27.176 Y-14.372
N6190 X27.121 Y-14.403
N6195 X27.067 Y-14.441
N6200 X27.048 Y-14.457
N6205 X26.99 Y-14.511
N6210 X26.942 Y-14.565
N6215 X26.904 Y-14.62
N6220 X26.873 Y-14.674
N6225 X26.85 Y-14.722
N6230 X26.82 Y-14.807
N6235 X26.801 Y-14.891
N6240 X26.793 Y-15.
N6245 X26.801 Y-15.109
N6250 X26.82 Y-15.193
N6255 X26.85 Y-15.278
N6260 X26.873 Y-15.326
N6265 X26.904 Y-15.38
N6270 X26.942 Y-15.435
N6275 X26.99 Y-15.489
N6280 X27.048 Y-15.543
N6285 X27.067 Y-15.559
N6290 X27.121 Y-15.597
N6295 X27.176 Y-15.628
N6300 X27.284 Y-15.674
N6305 X27.502 Y-15.714
N6310 X27.719 Y-15.745
N6315 X27.936 Y-15.75
N6320 X28.346
N6325 X28.438 Y-15.74
N6330 X28.527 Y-15.715
N6335 X28.591 Y-15.678 Z-7.995
N6340 X28.654 Y-15.642 Z-7.982
N6345 X28.715 Y-15.606 Z-7.959
N6350 X28.765 Y-15.545 Z-7.921
N6355 X28.811 Y-15.488 Z-7.871
N6360 X28.852 Y-15.438 Z-7.812
N6365 X28.872 Y-15.385 Z-7.741
N6370 X28.888 Y-15.342 Z-7.663
N6375 X28.9 Y-15.311 Z-7.579
N6380 X28.907 Y-15.292 Z-7.491
N6385 X28.91 Y-15.285 Z-7.4
N6390 G0 Z5.
N6395 X43.497 Y-14.3
N6400 Z-5.5
N6405 S14000
N6410 G3 X42.677 Y-15.178 Z-5.6 I-0.131 J-0.7 F400.
N6415 X43.817 Y-15.548 Z-5.7 I0.688 J0.178
N6420 X43.669 Y-14.361 Z-5.8 I-0.451 J0.546
N6425 X42.66 Y-14.997 Z-5.9 I-0.302 J-0.639
N6430 X43.661 Y-15.64 Z-6. I0.705 J-0.003
N6435 X43.818 Y-14.464 Z-6.1 I-0.295 J0.638
N6440 X42.689 Y-14.819 Z-6.2 I-0.452 J-0.537
N6445 X43.487 Y-15.689 Z-6.3 I0.676 J-0.181
N6450 X43.936 Y-14.6 Z-6.4 I-0.122 J0.687
N6455 X42.762 Y-14.655 Z-6.5 I-0.569 J-0.401
N6460 X43.309 Y-15.692 Z-6.6 I0.603 J-0.344
N6465 X44.014 Y-14.76 Z-6.7 I0.056 J0.69
N6470 X42.873 Y-14.517 Z-6.8 I-0.648 J-0.241
N6475 X43.136 Y-15.65 Z-6.9 I0.492 J-0.483
N6480 X44.049 Y-14.933 Z-7. I0.228 J0.649
N6485 X43.015 Y-14.412 Z-7.1 I-0.682 J-0.068
N6490 X42.982 Y-15.566 Z-7.2 I0.35 J-0.588
N6495 X44.038 Y-15.108 Z-7.3 I0.383 J0.565
N6500 X43.178 Y-14.347 Z-7.4 I-0.672 J0.107
N6505 X42.854 Y-15.446 Z-7.5 I0.188 J-0.652
N6510 X43.984 Y-15.274 Z-7.6 I0.51 J0.445
N6515 X43.351 Y-14.326 Z-7.7 I-0.618 J0.272
N6520 X42.763 Y-15.299 Z-7.8 I0.015 J-0.673
N6525 X43.89 Y-15.419 Z-7.9 I0.602 J0.299
N6530 X43.521 Y-14.35 Z-8. I-0.524 J0.417
N6535 X42.712 Y-15.135 Z-8.1 I-0.155 J-0.65
N6540 X43.763 Y-15.535 Z-8.2 I0.653 J0.135
N6545 X43.679 Y-14.416 Z-8.3 I-0.398 J0.533
N6550 X42.704 Y-14.964 Z-8.4 I-0.313 J-0.584
N6555 X43.612 Y-15.613 Z-8.5 I0.66 J-0.036
N6560 X43.814 Y-14.519 Z-8.6 I-0.247 J0.612
N6565 X42.74 Y-14.799 Z-8.7 I-0.448 J-0.482
N6570 X43.448 Y-15.651 Z-8.8 I0.625 J-0.201
N6575 X43.918 Y-14.652 Z-8.9 I-0.083 J0.649
N6580 X42.817 Y-14.649 Z-9. I-0.551 J-0.349
N6585 X43.28 Y-15.645 Z-9.1 I0.548 J-0.35
N6590 X43.984 Y-14.805 Z-9.2 I0.085 J0.644
N6595 X42.928 Y-14.525 Z-9.3 I-0.617 J-0.196
N6600 X43.121 Y-15.597 Z-9.4 I0.438 J-0.475
N6605 X44.008 Y-14.969 Z-9.5 I0.244 J0.596
N6610 X43.065 Y-14.434 Z-9.6 I-0.641 J-0.032
N6615 X42.98 Y-15.511 Z-9.7 I0.3 J-0.566
N6620 X43.989 Y-15.133 Z-9.8 I0.384 J0.51
N6625 X43.221 Y-14.381 Z-9.9 I-0.623 J0.131
N6630 X42.867 Y-15.393 Z-10. I0.145 J-0.618
N6635 X43.931 Y-15.285 Z-10.1 I0.497 J0.392
N6640 X43.383 Y-14.37 Z-10.2 I-0.565 J0.283
N6645 X42.788 Y-15.251 Z-10.3 I-0.017 J-0.63
N6650 X43.836 Y-15.416 Z-10.4 I0.576 J0.251
N6655 X43.541 Y-14.4 Z-10.5 I-0.47 J0.414
N6660 X42.749 Y-15.096 Z-10.6 I-0.175 J-0.6
N6665 X43.712 Y-15.518 Z-10.7 I0.616 J0.095
N6670 X43.686 Y-14.469 Z-10.8 I-0.346 J0.516
N6675 X42.75 Y-14.936 Z-10.9 I-0.319 J-0.531
N6680 X43.567 Y-15.584 Z-11. I0.614 J-0.064
N6685 X43.807 Y-14.572 Z-11.1 I-0.202 J0.582
N6690 X42.792 Y-14.784 Z-11.2 I-0.44 J-0.428
N6695 X43.412 Y-15.611 Z-11.3 I0.573 J-0.216
N6700 X43.897 Y-14.701 Z-11.4 I-0.047 J0.609
N6705 X42.87 Y-14.648 Z-11.5 I-0.53 J-0.3
N6710 X43.256 Y-15.597 Z-11.6 I0.495 J-0.352
N6715 X43.95 Y-14.847 Z-11.7 I0.109 J0.596
N6720 X42.98 Y-14.537 Z-11.8 I-0.584 J-0.154
N6725 X43.11 Y-15.545 Z-11.9 I0.386 J-0.462
N6730 X43.965 Y-15.001 Z-12. I0.255 J0.544
N6735 X42.764 I-0.6 J0.
N6740 X43.965 I0.6 J0.
N6745 S15000
N6750 G1 X43.994 Y-14.754 F1800.
N6755 X44.022 Y-14.616
N6760 X43.996 Y-14.477
N6765 X43.919 Y-14.36
N6770 X43.802 Y-14.28
N6775 X43.665 Y-14.251
N6780 X43.583 Y-14.25
N6785 X42.931
N6790 X42.782 Y-14.257
N6795 X42.638 Y-14.301
N6800 X42.506 Y-14.373
N6805 X42.347 Y-14.548
N6810 X42.248 Y-14.764
N6815 X42.219 Y-15.
N6820 X42.263 Y-15.234
N6825 X42.376 Y-15.443
N6830 X42.547 Y-15.608
N6835 X42.759 Y-15.714
N6840 X42.994 Y-15.75
N6845 X43.583
N6850 X43.801 Y-15.747
N6855 X43.888 Y-15.739
N6860 X44.035 Y-15.709
N6865 X44.231 Y-15.589
N6870 X44.382 Y-15.417
N6875 X44.474 Y-15.207
N6880 X44.5 Y-14.98
N6885 X44.456 Y-14.755
N6890 X44.347 Y-14.553
N6895 X44.183 Y-14.393
N6900 X43.979 Y-14.29
N6905 X43.753 Y-14.252
N6910 X43.661 Y-14.261
N6915 X43.571 Y-14.284
N6920 G2 X43.213 Y-14.294 I-0.194 J0.568
N6925 G3 X42.931 Y-14.25 I-0.323 J-1.142
N6930 G1 X42.377
N6935 X42.227 Y-14.257
N6940 X42.085 Y-14.304
N6945 X41.954 Y-14.377
N6950 X41.798 Y-14.555
N6955 X41.704 Y-14.772
N6960 X41.678 Y-15.007
N6965 X41.725 Y-15.239
N6970 X41.839 Y-15.446
N6975 X42.009 Y-15.61
N6980 X42.222 Y-15.714
N6985 X42.455 Y-15.75
N6990 X42.994
N6995 X43.082 Y-15.74
N7000 X43.167 Y-15.718
N7005 G2 X43.467 Y-15.704 I0.175 J-0.512
N7010 G3 X43.801 Y-15.747 I0.368 J1.539
N7015 G1 X44.355 Y-15.72
N7020 X44.431 Y-15.713
N7025 X44.578 Y-15.683
N7030 X44.714 Y-15.62
N7035 X44.874 Y-15.458
N7040 X44.978 Y-15.256
N7045 X45.016 Y-15.031
N7050 X44.984 Y-14.806
N7055 X44.886 Y-14.6
N7060 X44.73 Y-14.434
N7065 X44.531 Y-14.323
N7070 X44.308 Y-14.278
N7075 X44.261 Y-14.28
N7080 G3 X44.355 Y-15.72 I0.084 J-0.718
N7085 G1 X44.453 Y-15.715
N7090 X44.561 Y-15.705
N7095 X44.67 Y-15.687
N7100 X44.724 Y-15.671
N7105 X44.779 Y-15.649
N7110 X44.887 Y-15.592
N7115 X44.952 Y-15.543
N7120 X45.042 Y-15.455
N7125 X45.105 Y-15.366
N7130 X45.127 Y-15.326
N7135 X45.173 Y-15.217
N7140 X45.199 Y-15.109
N7145 X45.207 Y-15.
N7150 X45.199 Y-14.891
N7155 X45.173 Y-14.783
N7160 X45.127 Y-14.674
N7165 X45.105 Y-14.634
N7170 X45.042 Y-14.545
N7175 X44.952 Y-14.457
N7180 X44.887 Y-14.408
N7185 X44.779 Y-14.351
N7190 X44.724 Y-14.329
N7195 X44.67 Y-14.313
N7200 X44.561 Y-14.295
N7205 X44.453 Y-14.285
N7210 X43.801 Y-14.253
N7215 X43.753 Y-14.252
N7220 G3 X43.458 Y-14.337 I0.013 J-0.6
N7225 G1 X43.233 Y-14.471
N7230 X43.2 Y-14.484
N7235 X43.164
N7240 X43.131 Y-14.471
N7245 G3 X42.377 Y-14.25 I-0.809 J-1.36
N7250 G1 X41.845
N7255 X41.695 Y-14.257
N7260 X41.552 Y-14.302
N7265 X41.42 Y-14.374
N7270 X41.263 Y-14.551
N7275 X41.166 Y-14.768
N7280 X41.14 Y-15.004
N7285 X41.185 Y-15.236
N7290 X41.299 Y-15.444
N7295 X41.47 Y-15.609
N7300 X41.683 Y-15.714
N7305 X41.917 Y-15.75
N7310 X42.455
N7315 G3 X42.806 Y-15.448 I-0.013 J0.37
N7320 X41.845 Y-14.25 I-0.997 J0.185
N7325 G1 X41.291
N7330 X41.141 Y-14.257
N7335 X40.999 Y-14.305
N7340 X40.868 Y-14.38
N7345 X40.715 Y-14.559
N7350 X40.621 Y-14.775
N7355 X40.597 Y-15.01
N7360 X40.645 Y-15.241
N7365 X40.759 Y-15.448
N7370 X40.93 Y-15.61
N7375 X41.142 Y-15.714
N7380 X41.375 Y-15.75
N7385 X41.917
N7390 G3 X42.269 Y-15.439 I-0.013 J0.37
N7395 X41.291 Y-14.25 I-1.014 J0.162
N7400 G1 X40.758
N7405 X40.608 Y-14.257
N7410 X40.466 Y-14.303
N7415 X40.334 Y-14.376
N7420 X40.178 Y-14.554
N7425 X40.083 Y-14.771
N7430 X40.058 Y-15.006
N7435 X40.104 Y-15.238
N7440 X40.218 Y-15.446
N7445 X40.389 Y-15.609
N7450 X40.601 Y-15.714
N7455 X40.835 Y-15.75
N7460 X41.375
N7465 G3 X41.727 Y-15.444 I-0.013 J0.37
N7470 X40.758 Y-14.25 I-1.004 J0.176
N7475 G1 X40.204
N7480 X40.054 Y-14.257
N7485 X39.912 Y-14.306
N7490 X39.783 Y-14.381
N7495 X39.63 Y-14.561
N7500 X39.538 Y-14.778
N7505 X39.514 Y-15.012
N7510 X39.562 Y-15.243
N7515 X39.677 Y-15.449
N7520 X39.848 Y-15.611
N7525 X40.06 Y-15.714
N7530 X40.293 Y-15.75
N7535 X40.835
N7540 G3 X41.188 Y-15.436 I-0.013 J0.369
N7545 X40.204 Y-14.25 I-1.02 J0.155
N7550 G1 X39.672
N7555 X39.522 Y-14.257
N7560 X39.379 Y-14.304
N7565 X39.248 Y-14.377
N7570 X39.093 Y-14.556
N7575 X38.999 Y-14.773
N7580 X38.974 Y-15.008
N7585 X39.021 Y-15.239
N7590 X39.135 Y-15.446
N7595 X39.306 Y-15.61
N7600 X39.518 Y-15.714
N7605 X39.752 Y-15.75
N7610 X40.293
N7615 G3 X40.644 Y-15.442 I-0.013 J0.37
N7620 X39.672 Y-14.25 I-1.008 J0.17
N7625 G1 X39.117
N7630 X38.968 Y-14.257
N7635 X38.826 Y-14.307
N7640 X38.697 Y-14.383
N7645 X38.544 Y-14.562
N7650 X38.453 Y-14.779
N7655 X38.43 Y-15.013
N7660 X38.478 Y-15.244
N7665 X38.593 Y-15.449
N7670 X38.764 Y-15.611
N7675 X38.976 Y-15.714
N7680 X39.208 Y-15.75
N7685 X39.752
N7690 G3 X40.105 Y-15.434 I-0.013 J0.369
N7695 X39.117 Y-14.25 I-1.023 J0.15
N7700 G1 X38.585
N7705 X38.435 Y-14.257
N7710 X38.293 Y-14.304
N7715 X38.162 Y-14.378
N7720 X38.008 Y-14.557
N7725 X37.914 Y-14.774
N7730 X37.889 Y-15.009
N7735 X37.936 Y-15.24
N7740 X38.051 Y-15.447
N7745 X38.222 Y-15.61
N7750 X38.434 Y-15.714
N7755 X38.667 Y-15.75
N7760 X39.208
N7765 G3 X39.56 Y-15.44 I-0.013 J0.37
N7770 X38.585 Y-14.25 I-1.011 J0.166
N7775 G1 X38.031
N7780 X37.881 Y-14.257
N7785 X37.74 Y-14.307
N7790 X37.61 Y-14.383
N7795 X37.458 Y-14.563
N7800 X37.367 Y-14.78
N7805 X37.345 Y-15.014
N7810 X37.393 Y-15.244
N7815 X37.508 Y-15.45
N7820 X37.679 Y-15.611
N7825 X37.891 Y-15.715
N7830 X38.123 Y-15.75
N7835 X38.667
N7840 G3 X39.02 Y-15.433 I-0.013 J0.369
N7845 X38.031 Y-14.25 I-1.026 J0.148
N7850 G1 X37.498
N7855 X37.349 Y-14.257
N7860 X37.206 Y-14.305
N7865 X37.076 Y-14.379
N7870 X36.921 Y-14.557
N7875 X36.828 Y-14.774
N7880 X36.804 Y-15.009
N7885 X36.851 Y-15.241
N7890 X36.965 Y-15.447
N7895 X37.136 Y-15.61
N7900 X37.348 Y-15.714
N7905 X37.582 Y-15.75
N7910 X38.123
N7915 G3 X38.476 Y-15.44 I-0.013 J0.37
N7920 X37.498 Y-14.25 I-1.013 J0.164
N7925 G1 X36.944
N7930 X36.794 Y-14.257
N7935 X36.653 Y-14.307
N7940 X36.524 Y-14.384
N7945 X36.372 Y-14.564
N7950 X36.281 Y-14.78
N7955 X36.259 Y-15.015
N7960 X36.308 Y-15.245
N7965 X36.423 Y-15.45
N7970 X36.594 Y-15.611
N7975 X36.805 Y-15.715
N7980 X37.038 Y-15.75
N7985 X37.582
N7990 G3 X37.935 Y-15.433 I-0.013 J0.369
N7995 X36.944 Y-14.25 I-1.027 J0.146
N8000 G1 X36.412
N8005 X36.262 Y-14.257
N8010 X36.12 Y-14.305
N8015 X35.989 Y-14.379
N8020 X35.835 Y-14.558
N8025 X35.742 Y-14.775
N8030 X35.718 Y-15.01
N8035 X35.765 Y-15.241
N8040 X35.88 Y-15.447
N8045 X36.051 Y-15.61
N8050 X36.263 Y-15.714
N8055 X36.496 Y-15.75
N8060 X37.038
N8065 G3 X37.39 Y-15.439 I-0.013 J0.37
N8070 X36.412 Y-14.25 I-1.014 J0.163
N8075 G1 X35.858
N8080 X35.708 Y-14.257
N8085 X35.566 Y-14.308
N8090 X35.437 Y-14.384
N8095 X35.286 Y-14.564
N8100 X35.195 Y-14.781
N8105 X35.173 Y-15.015
N8110 X35.222 Y-15.245
N8115 X35.337 Y-15.45
N8120 X35.508 Y-15.611
N8125 X35.719 Y-15.715
N8130 X35.952 Y-15.75
N8135 X36.496
N8140 G3 X36.849 Y-15.432 I-0.013 J0.369
N8145 X35.858 Y-14.25 I-1.028 J0.145
N8150 G1 X35.325
N8155 X35.175 Y-14.257
N8160 X35.033 Y-14.305
N8165 X34.903 Y-14.379
N8170 X34.749 Y-14.558
N8175 X34.656 Y-14.775
N8180 X34.632 Y-15.01
N8185 X34.679 Y-15.241
N8190 X34.794 Y-15.448
N8195 X34.965 Y-15.61
N8200 X35.177 Y-15.714
N8205 X35.41 Y-15.75
N8210 X35.952
N8215 G3 X36.304 Y-15.439 I-0.013 J0.37
N8220 X35.325 Y-14.25 I-1.015 J0.162
N8225 G1 X34.771
N8230 X34.621 Y-14.257
N8235 X34.48 Y-14.308
N8240 X34.351 Y-14.384
N8245 X34.199 Y-14.564
N8250 X34.109 Y-14.781
N8255 X34.087 Y-15.015
N8260 X34.136 Y-15.245
N8265 X34.251 Y-15.45
N8270 X34.422 Y-15.611
N8275 X34.633 Y-15.715
N8280 X34.865 Y-15.75
N8285 X35.41
N8290 G3 X35.763 Y-15.432 I-0.013 J0.369
N8295 X34.771 Y-14.25 I-1.028 J0.144
N8300 G1 X34.239
N8305 X34.089 Y-14.257
N8310 X33.946 Y-14.305
N8315 X33.816 Y-14.379
N8320 X33.662 Y-14.558
N8325 X33.569 Y-14.775
N8330 X33.545 Y-15.01
N8335 X33.593 Y-15.241
N8340 X33.707 Y-15.448
N8345 X33.878 Y-15.61
N8350 X34.09 Y-15.714
N8355 X34.324 Y-15.75
N8360 X34.865
N8365 G3 X35.218 Y-15.439 I-0.013 J0.37
N8370 X34.239 Y-14.25 I-1.015 J0.161
N8375 G1 X33.684
N8380 X33.535 Y-14.257
N8385 X33.393 Y-14.308
N8390 X33.264 Y-14.384
N8395 X33.113 Y-14.564
N8400 X33.022 Y-14.781
N8405 X33. Y-15.015
N8410 X33.049 Y-15.245
N8415 X33.164 Y-15.45
N8420 X33.335 Y-15.611
N8425 X33.547 Y-15.715
N8430 X33.779 Y-15.75
N8435 X34.324
N8440 G3 X34.677 Y-15.432 I-0.013 J0.369
N8445 X33.684 Y-14.25 I-1.029 J0.144
N8450 G1 X33.152
N8455 X33.002 Y-14.257
N8460 X32.86 Y-14.305
N8465 X32.73 Y-14.379
N8470 X32.576 Y-14.558
N8475 X32.483 Y-14.775
N8480 X32.459 Y-15.01
N8485 X32.506 Y-15.241
N8490 X32.621 Y-15.448
N8495 X32.792 Y-15.61
N8500 X33.004 Y-15.714
N8505 X33.237 Y-15.75
N8510 X33.779
N8515 G3 X34.131 Y-15.438 I-0.013 J0.37
N8520 X33.152 Y-14.25 I-1.015 J0.161
N8525 G1 X32.598
N8530 X32.448 Y-14.257
N8535 X32.307 Y-14.308
N8540 X32.178 Y-14.384
N8545 X32.026 Y-14.564
N8550 X31.936 Y-14.781
N8555 X31.914 Y-15.015
N8560 X31.963 Y-15.245
N8565 X32.078 Y-15.45
N8570 X32.249 Y-15.611
N8575 X32.46 Y-15.715
N8580 X32.693 Y-15.75
N8585 X33.237
N8590 G3 X33.59 Y-15.432 I-0.013 J0.369
N8595 X32.598 Y-14.25 I-1.029 J0.144
N8600 G1 X32.065
N8605 X31.916 Y-14.257
N8610 X31.773 Y-14.305
N8615 X31.643 Y-14.379
N8620 X31.489 Y-14.558
N8625 X31.396 Y-14.775
N8630 X31.372 Y-15.01
N8635 X31.42 Y-15.241
N8640 X31.534 Y-15.448
N8645 X31.705 Y-15.61
N8650 X31.917 Y-15.714
N8655 X32.151 Y-15.75
N8660 X32.693
N8665 G3 X33.045 Y-15.438 I-0.013 J0.37
N8670 X32.065 Y-14.25 I-1.015 J0.161
N8675 G1 X31.511
N8680 X31.361 Y-14.257
N8685 X31.22 Y-14.308
N8690 X31.091 Y-14.384
N8695 X30.94 Y-14.564
N8700 X30.849 Y-14.781
N8705 X30.827 Y-15.015
N8710 X30.876 Y-15.245
N8715 X30.991 Y-15.45
N8720 X31.162 Y-15.612
N8725 X31.374 Y-15.715
N8730 X31.606 Y-15.75
N8735 X32.151
N8740 G3 X32.504 Y-15.432 I-0.013 J0.369
N8745 X31.511 Y-14.25 I-1.029 J0.143
N8750 G1 X30.979
N8755 X30.829 Y-14.257
N8760 X30.687 Y-14.305
N8765 X30.556 Y-14.379
N8770 X30.403 Y-14.558
N8775 X30.31 Y-14.775
N8780 X30.286 Y-15.01
N8785 X30.333 Y-15.241
N8790 X30.448 Y-15.448
N8795 X30.619 Y-15.61
N8800 X30.831 Y-15.714
N8805 X31.064 Y-15.75
N8810 X31.606
N8815 G3 X31.958 Y-15.438 I-0.013 J0.37
N8820 X30.979 Y-14.25 I-1.015 J0.161
N8825 G1 X30.425
N8830 X30.275 Y-14.257
N8835 X30.133 Y-14.308
N8840 X30.004 Y-14.384
N8845 X29.853 Y-14.564
N8850 X29.763 Y-14.781
N8855 X29.741 Y-15.015
N8860 X29.79 Y-15.245
N8865 X29.905 Y-15.45
N8870 X30.076 Y-15.612
N8875 X30.287 Y-15.715
N8880 X30.519 Y-15.75
N8885 X31.064
N8890 G3 X31.417 Y-15.432 I-0.013 J0.369
N8895 X30.425 Y-14.25 I-1.029 J0.143
N8900 G1 X29.892
N8905 X29.742 Y-14.257
N8910 X29.6 Y-14.305
N8915 X29.47 Y-14.379
N8920 X29.316 Y-14.558
N8925 X29.223 Y-14.775
N8930 X29.199 Y-15.01
N8935 X29.247 Y-15.241
N8940 X29.361 Y-15.448
N8945 X29.532 Y-15.61
N8950 X29.744 Y-15.714
N8955 X29.977 Y-15.75
N8960 X30.519
N8965 G3 X30.872 Y-15.438 I-0.013 J0.37
N8970 X29.892 Y-14.25 I-1.016 J0.161
N8975 G1 X29.338
N8980 X29.188 Y-14.257
N8985 X29.047 Y-14.308
N8990 X28.918 Y-14.384
N8995 X28.767 Y-14.564
N9000 X28.676 Y-14.781
N9005 X28.654 Y-15.015
N9010 X28.703 Y-15.245
N9015 X28.818 Y-15.45
N9020 X28.989 Y-15.612
N9025 X29.201 Y-15.715
N9030 X29.433 Y-15.75
N9035 X29.977
N9040 G3 X30.331 Y-15.432 I-0.013 J0.369
N9045 X29.338 Y-14.25 I-1.029 J0.143
N9050 G1 X28.806
N9055 X28.656 Y-14.257
N9060 X28.513 Y-14.305
N9065 X28.383 Y-14.379
N9070 X28.229 Y-14.558
N9075 X28.136 Y-14.775
N9080 X28.113 Y-15.01
N9085 X28.16 Y-15.241
N9090 X28.275 Y-15.448
N9095 X28.446 Y-15.61
N9100 X28.658 Y-15.714
N9105 X28.891 Y-15.75
N9110 X29.433
N9115 G3 X29.785 Y-15.438 I-0.013 J0.37
N9120 X28.806 Y-14.25 I-1.016 J0.161
N9125 G1 X28.251
N9130 X28.102 Y-14.258
N9135 X27.96 Y-14.308
N9140 X27.831 Y-14.384
N9145 X27.68 Y-14.564
N9150 X27.59 Y-14.781
N9155 X27.568 Y-15.015
N9160 X27.616 Y-15.245
N9165 X27.732 Y-15.45
N9170 X27.902 Y-15.611
N9175 X28.114 Y-15.714
N9180 X28.346 Y-15.75
N9185 X28.891
N9190 G3 X29.244 Y-15.432 I-0.013 J0.369
N9195 X28.251 Y-14.25 I-1.029 J0.144
N9200 G1 X27.936
N9205 X27.719 Y-14.255
N9210 X27.606 Y-14.277
N9215 X27.461 Y-14.314
N9220 X27.327 Y-14.382
N9225 X27.176 Y-14.545
N9230 X27.077 Y-14.744
N9235 X27.039 Y-14.963
N9240 X27.066 Y-15.184
N9245 X27.155 Y-15.388
N9250 X27.298 Y-15.558
N9255 X27.485 Y-15.679
N9260 X27.698 Y-15.742
N9265 X27.767 Y-15.743
N9270 G3 X27.719 Y-14.255 I-0.059 J0.743
N9275 G1 X27.502 Y-14.286
N9280 X27.284 Y-14.326
N9285 X27.176 Y-14.372
N9290 X27.121 Y-14.403
N9295 X27.067 Y-14.441
N9300 X27.048 Y-14.457
N9305 X26.99 Y-14.511
N9310 X26.942 Y-14.565
N9315 X26.904 Y-14.62
N9320 X26.873 Y-14.674
N9325 X26.85 Y-14.722
N9330 X26.82 Y-14.807
N9335 X26.801 Y-14.891
N9340 X26.793 Y-15.
N9345 X26.801 Y-15.109
N9350 X26.82 Y-15.193
N9355 X26.85 Y-15.278
N9360 X26.873 Y-15.326
N9365 X26.904 Y-15.38
N9370 X26.942 Y-15.435
N9375 X26.99 Y-15.489
N9380 X27.048 Y-15.543
N9385 X27.067 Y-15.559
N9390 X27.121 Y-15.597
N9395 X27.176 Y-15.628
N9400 X27.284 Y-15.674
N9405 X27.502 Y-15.714
N9410 X27.719 Y-15.745
N9415 X27.936 Y-15.75
N9420 X28.346
N9425 G3 X28.91 Y-15.285 I-0.021 J0.6
N9430 G1 X28.931 Y-15.194 Z-11.993
N9435 X28.952 Y-15.105 Z-11.971
N9440 X28.971 Y-15.02 Z-11.935
N9445 X28.989 Y-14.942 Z-11.885
N9450 X29.005 Y-14.872 Z-11.824
N9455 X29.019 Y-14.813 Z-11.753
N9460 X29.03 Y-14.765 Z-11.672
N9465 X29.038 Y-14.73 Z-11.585
N9470 X29.043 Y-14.708 Z-11.494
N9475 X29.045 Y-14.701 Z-11.4
N9480 G0 Z15.
(2D CONTOUR1)
N9485 G0 X43.95 Y-15.6
N9490 Z15.
N9495 Z5.
N9500 G1 Z1. F400.
N9505 Z-12.9
N9510 G18 G2 X44.55 Z-13.5 I0.6 K0. F800.
N9515 G1 X45.15
N9520 G17 G3 X45.75 Y-15. I0. J0.6
N9525 X44.5 Y-13.75 I-1.25 J0.
N9530 G1 X27.5
N9535 G3 Y-16.25 I0. J-1.25
N9540 G1 X44.5
N9545 G3 X45.75 Y-15. I0. J1.25
N9550 X45.15 Y-14.4 I-0.6 J0.
N9555 G1 X44.55
N9560 G18 G3 X43.95 Z-12.9 I0. K0.6
N9565 G0 Z15.
N9570 G17
(ADAPTIVE2)
N9575 G0 X48.658 Y-37.811
N9580 Z15.
N9585 Z5.
N9590 Z-7.
N9595 G1 Z-8.5 F1000.
N9600 X48.66 Y-37.804 Z-8.647
N9605 X48.665 Y-37.784 Z-8.793
N9610 X48.674 Y-37.749 Z-8.935
N9615 X48.686 Y-37.701 Z-9.074
N9620 X48.702 Y-37.64 Z-9.207
N9625 X48.721 Y-37.567 Z-9.333
N9630 X48.743 Y-37.482 Z-9.452
N9635 X48.767 Y-37.386 Z-9.561
N9640 X48.794 Y-37.28 Z-9.66
N9645 X48.823 Y-37.166 Z-9.747
N9650 X48.855 Y-37.043 Z-9.823
N9655 X48.888 Y-36.914 Z-9.886
N9660 X48.922 Y-36.78 Z-9.935
N9665 X48.958 Y-36.642 Z-9.971
N9670 X48.994 Y-36.501 Z-9.993
N9675 X49.03 Y-36.358 Z-10.
N9680 G3 X49.5 Y-33.092 I-14.839 J3.801
N9685 G1 Y-32.972
N9690 X49.38 Y-32.883
N9695 X49.245 Y-32.816
N9700 X49.107 Y-32.759
N9705 X48.965 Y-32.71
N9710 X48.807 Y-32.662
N9715 X48.611 Y-32.611
N9720 X48.365 Y-32.556
N9725 X48.049 Y-32.497
N9730 X47.63 Y-32.436
N9735 X47.037 Y-32.371
N9740 X46.1 Y-32.302
N9745 X45.143 Y-32.268
N9750 X44.185 Y-32.25
N9755 X43.228 Y-32.241
N9760 X42.27 Y-32.237
N9765 X41.312 Y-32.234
N9770 X38.439 Y-32.232
N9775 X1.568 Y-32.226
N9780 X0.625 Y-32.056
N9785 X-0.207 Y-31.582
N9790 X-0.877 Y-30.898
N9795 X-1.375 Y-30.079
N9800 X-1.718 Y-29.186
N9805 X-1.939 Y-28.254
N9810 X-2.072 Y-27.305
N9815 X-2.149 Y-26.351
N9820 X-2.19 Y-25.394
N9825 X-2.213 Y-24.436
N9830 X-2.225 Y-23.479
N9835 X-2.231 Y-22.521
N9840 X-2.234 Y-21.563
N9845 X-2.237 Y-19.648
N9850 X-2.24 Y-11.029
N9855 X-2.241 Y-1.452
N9860 X-2.021 Y-0.52
N9865 X-1.51 Y0.291
N9870 X-0.802 Y0.935
N9875 X0.03 Y1.409
N9880 X0.932 Y1.732
N9885 X1.867 Y1.938
N9890 X2.817 Y2.061
N9895 X3.772 Y2.131
N9900 X4.729 Y2.169
N9905 X5.687 Y2.189
N9910 X6.644 Y2.2
N9915 X7.602 Y2.206
N9920 X8.56 Y2.209
N9925 X10.475 Y2.212
N9930 X16.221 Y2.214
N9935 X63.148 Y2.225
N9940 X63.626 Y2.193
N9945 X64.553 Y1.952
N9950 X65.354 Y1.427
N9955 X65.987 Y0.708
N9960 X66.451 Y-0.13
N9965 X66.766 Y-1.034
N9970 X66.966 Y-1.971
N9975 X67.084 Y-2.921
N9980 X67.151 Y-3.876
N9985 X67.188 Y-4.833
N9990 X67.208 Y-5.791
N9995 X67.218 Y-6.748
N10000 X67.223 Y-7.706
N10005 X67.226 Y-8.664
N10010 X67.228 Y-10.579
N10015 X67.229 Y-22.072
N10020 Y-28.775
N10025 X66.939 Y-29.688
N10030 X66.379 Y-30.466
N10035 X65.639 Y-31.073
N10040 X64.788 Y-31.513
N10045 X63.877 Y-31.808
N10050 X62.938 Y-31.993
N10055 X61.986 Y-32.103
N10060 X61.031 Y-32.164
N10065 X60.073 Y-32.197
N10070 X59.116 Y-32.215
N10075 X58.158 Y-32.224
N10080 X57.201 Y-32.229
N10085 X56.243 Y-32.231
N10090 X54.327 Y-32.233
N10095 X51.454
N10100 X50.501 Y-32.139
N10105 X48.61 Y-31.837
N10110 X47.66 Y-31.716
N10115 X46.706 Y-31.628
N10120 X45.75 Y-31.57
N10125 X44.793 Y-31.534
N10130 X43.836 Y-31.512
N10135 X42.878 Y-31.499
N10140 X41.921 Y-31.492
N10145 X40.963 Y-31.487
N10150 X40.005 Y-31.485
N10155 X38.09 Y-31.482
N10160 X29.47 Y-31.48
N10165 X2.655 Y-31.476
N10170 X1.712 Y-31.31
N10175 X0.85 Y-30.892
N10180 X0.131 Y-30.259
N10185 X-0.425 Y-29.48
N10190 X-0.822 Y-28.608
N10195 X-1.088 Y-27.688
N10200 X-1.256 Y-26.745
N10205 X-1.357 Y-25.793
N10210 X-1.415 Y-24.837
N10215 X-1.448 Y-23.88
N10220 X-1.467 Y-22.922
N10225 X-1.477 Y-21.965
N10230 X-1.482 Y-21.007
N10235 X-1.485 Y-20.049
N10240 X-1.488 Y-18.134
N10245 X-1.49 Y-8.557
N10250 X-1.491 Y-2.811
N10255 X-1.363 Y-1.862
N10260 X-0.975 Y-0.986
N10265 X-0.367 Y-0.246
N10270 X0.398 Y0.331
N10275 X1.26 Y0.748
N10280 X2.175 Y1.031
N10285 X3.115 Y1.211
N10290 X4.067 Y1.32
N10295 X5.022 Y1.384
N10300 X5.979 Y1.419
N10305 X6.937 Y1.439
N10310 X7.894 Y1.45
N10315 X8.852 Y1.456
N10320 X9.81 Y1.459
N10325 X11.725 Y1.462
N10330 X20.344 Y1.465
N10335 X22.26
N10340 X61.525 Y1.475
N10345 X62.483 Y1.461
N10350 X63.417 Y1.251
N10355 X64.259 Y0.794
N10360 X64.955 Y0.135
N10365 X65.484 Y-0.663
N10370 X65.859 Y-1.544
N10375 X66.109 Y-2.468
N10380 X66.265 Y-3.413
N10385 X66.359 Y-4.366
N10390 X66.413 Y-5.322
N10395 X66.443 Y-6.28
N10400 X66.46 Y-7.237
N10405 X66.469 Y-8.195
N10410 X66.473 Y-9.153
N10415 X66.476 Y-10.11
N10420 X66.478 Y-12.026
N10425 X66.479 Y-24.476
N10430 Y-27.349
N10435 X66.317 Y-28.293
N10440 X65.896 Y-29.153
N10445 X65.262 Y-29.871
N10450 X64.48 Y-30.424
N10455 X63.609 Y-30.82
N10460 X62.689 Y-31.086
N10465 X61.746 Y-31.254
N10470 X60.793 Y-31.355
N10475 X59.837 Y-31.413
N10480 X58.88 Y-31.446
N10485 X57.923 Y-31.463
N10490 X56.965 Y-31.473
N10495 X56.007 Y-31.478
N10500 X55.05 Y-31.481
N10505 X53.134 Y-31.483
N10510 X52.177 Y-31.472
N10515 X51.221 Y-31.409
N10520 X50.269 Y-31.301
N10525 X49.32 Y-31.176
N10530 X48.369 Y-31.059
N10535 X47.902 Y-31.011
N10540 X47.833 Y-31.005
N10545 X47.765 Y-31.001
N10550 X47.697 Y-31.
N10555 X4.003
N10560 X3.552 Y-30.995
N10565 X3.35 Y-30.992
N10570 X3.132 Y-30.977
N10575 X2.915 Y-30.949
N10580 X2.697 Y-30.904
N10585 X2.48 Y-30.843
N10590 X2.279 Y-30.777
N10595 X2.045 Y-30.681
N10600 X1.809 Y-30.559
N10605 X1.61 Y-30.44
N10610 X1.463 Y-30.342
N10615 X1.392 Y-30.291
N10620 X1.175 Y-30.108
N10625 X0.957 Y-29.906
N10630 X0.522 Y-29.471
N10635 X0.086 Y-29.036
N10640 X-0.131 Y-28.798
N10645 X-0.295 Y-28.601
N10650 X-0.348 Y-28.527
N10655 X-0.448 Y-28.383
N10660 X-0.576 Y-28.166
N10665 X-0.682 Y-27.948
N10670 X-0.775 Y-27.73
N10675 X-0.847 Y-27.513
N10680 X-0.904 Y-27.295
N10685 X-0.949 Y-27.078
N10690 X-0.979 Y-26.86
N10695 X-0.988 Y-26.642
N10700 X-0.999 Y-26.207
N10705 X-1. Y-25.99
N10710 Y-4.01
N10715 X-0.999 Y-3.793
N10720 X-0.988 Y-3.358
N10725 X-0.979 Y-3.14
N10730 X-0.949 Y-2.922
N10735 X-0.904 Y-2.705
N10740 X-0.847 Y-2.487
N10745 X-0.775 Y-2.27
N10750 X-0.682 Y-2.052
N10755 X-0.576 Y-1.834
N10760 X-0.448 Y-1.617
N10765 X-0.348 Y-1.473
N10770 X-0.295 Y-1.399
N10775 X-0.131 Y-1.202
N10780 X0.087 Y-0.963
N10785 X0.74 Y-0.311
N10790 X0.958 Y-0.093
N10795 X1.175 Y0.108
N10800 X1.392 Y0.291
N10805 X1.463 Y0.342
N10810 X1.61 Y0.44
N10815 X1.809 Y0.559
N10820 X2.045 Y0.681
N10825 X2.279 Y0.777
N10830 X2.48 Y0.843
N10835 X2.697 Y0.904
N10840 X2.915 Y0.949
N10845 X3.132 Y0.977
N10850 X3.35 Y0.992
N10855 X3.785 Y0.998
N10860 X4.003 Y1.
N10865 X49.468
N10870 X49.685 Y0.991
N10875 X49.903 Y0.973
N10880 X50.12 Y0.943
N10885 X50.343 Y0.913
N10890 X50.981 Y0.848
N10895 X51.937 Y0.785
N10900 X52.894 Y0.754
N10905 X53.851 Y0.739
N10910 X54.809 Y0.731
N10915 X55.767 Y0.728
N10920 X56.724 Y0.726
N10925 X59.598 Y0.724
N10930 X60.555
N10935 X61.513 Y0.705
N10940 X62.451 Y0.512
N10945 X63.309 Y0.086
N10950 X64.03 Y-0.544
N10955 X64.594 Y-1.318
N10960 X65.003 Y-2.184
N10965 X65.283 Y-3.1
N10970 X65.463 Y-4.041
N10975 X65.575 Y-4.992
N10980 X65.642 Y-5.947
N10985 X65.68 Y-6.904
N10990 X65.702 Y-7.862
N10995 X65.714 Y-8.783
N11000 X65.729 Y-9.004
N11005 X65.768 Y-9.221
N11010 X65.831 Y-9.433
N11015 X65.837 Y-9.451
N11020 X65.897 Y-9.668
N11025 X65.942 Y-9.886
N11030 X65.975 Y-10.104
N11035 X65.994 Y-10.321
N11040 X65.997 Y-10.539
N11045 X66. Y-10.974
N11050 Y-19.026
N11055 X65.997 Y-19.461
N11060 X65.994 Y-19.679
N11065 X65.975 Y-19.896
N11070 X65.942 Y-20.114
N11075 X65.928 Y-20.204
N11080 X65.863 Y-20.811
N11085 X65.795 Y-21.767
N11090 X65.763 Y-22.724
N11095 X65.746 Y-23.681
N11100 X65.738 Y-24.639
N11105 X65.733 Y-25.597
N11110 X65.712 Y-26.554
N11115 X65.514 Y-27.491
N11120 X65.079 Y-28.344
N11125 X64.442 Y-29.059
N11130 X63.663 Y-29.617
N11135 X62.796 Y-30.022
N11140 X61.879 Y-30.299
N11145 X60.938 Y-30.477
N11150 X59.986 Y-30.586
N11155 X59.031 Y-30.65
N11160 X58.074 Y-30.687
N11165 X57.116 Y-30.708
N11170 X56.159 Y-30.72
N11175 X55.201 Y-30.726
N11180 X54.243 Y-30.729
N11185 X53.286 Y-30.727
N11190 X52.328 Y-30.699
N11195 X51.52 Y-30.643
N11200 X51.25 Y-30.646
N11205 X50.984 Y-30.691
N11210 X50.727 Y-30.777
N11215 X50.556 Y-30.832
N11220 X50.338 Y-30.895
N11225 X50.12 Y-30.943
N11230 X49.903 Y-30.973
N11235 X49.685 Y-30.991
N11240 X49.468 Y-31.
N11245 X47.697
N11250 G3 X46.954 Y-31.227 I0.052 J-1.499
N11255 G1 X46.83 Y-31.305 Z-9.993
N11260 X46.706 Y-31.382 Z-9.971
N11265 X46.585 Y-31.458 Z-9.935
N11270 X46.467 Y-31.531 Z-9.886
N11275 X46.355 Y-31.602 Z-9.823
N11280 X46.248 Y-31.669 Z-9.747
N11285 X46.147 Y-31.731 Z-9.66
N11290 X46.055 Y-31.789 Z-9.561
N11295 X45.971 Y-31.841 Z-9.452
N11300 X45.897 Y-31.888 Z-9.333
N11305 X45.832 Y-31.928 Z-9.207
N11310 X45.779 Y-31.961 Z-9.074
N11315 X45.737 Y-31.988 Z-8.935
N11320 X45.707 Y-32.007 Z-8.793
N11325 X45.688 Y-32.018 Z-8.647
N11330 X45.682 Y-32.022 Z-8.5
N11335 G0 Z5.
N11340 X67.322 Y-18.313
N11345 Z-7.
N11350 G1 Z-8.5 F1000.
N11355 X67.317 Y-18.318 Z-8.647
N11360 X67.303 Y-18.334 Z-8.793
N11365 X67.279 Y-18.361 Z-8.935
N11370 X67.245 Y-18.397 Z-9.074
N11375 X67.203 Y-18.444 Z-9.207
N11380 X67.152 Y-18.5 Z-9.333
N11385 X67.093 Y-18.564 Z-9.452
N11390 X67.026 Y-18.637 Z-9.561
N11395 X66.952 Y-18.718 Z-9.66
N11400 X66.873 Y-18.805 Z-9.747
N11405 X66.788 Y-18.899 Z-9.823
N11410 X66.698 Y-18.997 Z-9.886
N11415 X66.604 Y-19.099 Z-9.935
N11420 X66.508 Y-19.205 Z-9.971
N11425 X66.41 Y-19.312 Z-9.993
N11430 X66.311 Y-19.421 Z-10.
N11435 G3 X65.942 Y-20.114 I1.169 J-1.067
N11440 G1 X65.897 Y-20.332
N11445 X65.837 Y-20.549
N11450 X65.783 Y-20.7
N11455 X65.758 Y-20.767
N11460 X65.666 Y-20.984
N11465 X65.649 Y-21.018
N11470 X65.602 Y-21.125
N11475 X65.547 Y-21.265
N11480 X65.495 Y-21.415
N11485 X65.443 Y-21.585
N11490 X65.387 Y-21.797
N11495 X65.326 Y-22.064
N11500 X65.264 Y-22.393
N11505 X65.198 Y-22.83
N11510 X65.13 Y-23.429
N11515 X65.057 Y-24.384
N11520 X65.01 Y-25.341
N11525 X64.876 Y-26.289
N11530 X64.525 Y-27.18
N11535 X63.965 Y-27.957
N11540 X63.243 Y-28.586
N11545 X62.412 Y-29.062
N11550 X61.516 Y-29.4
N11555 X60.585 Y-29.626
N11560 X59.639 Y-29.771
N11565 X58.685 Y-29.86
N11570 X57.729 Y-29.913
N11575 X56.772 Y-29.944
N11580 X55.814 Y-29.962
N11585 X54.856 Y-29.971
N11590 X53.899 Y-29.97
N11595 X52.843 Y-29.947
N11600 X52.481 Y-29.972
N11605 X52.13 Y-30.062
N11610 X51.8 Y-30.214
N11615 X51.426 Y-30.43
N11620 X51.19 Y-30.559
N11625 X50.991 Y-30.665
N11630 X50.727 Y-30.777
N11635 G3 X50.133 Y-31.277 I0.636 J-1.358
N11640 G1 X50.049 Y-31.398 Z-9.993
N11645 X49.966 Y-31.517 Z-9.971
N11650 X49.884 Y-31.634 Z-9.935
N11655 X49.805 Y-31.748 Z-9.886
N11660 X49.729 Y-31.857 Z-9.823
N11665 X49.656 Y-31.961 Z-9.747
N11670 X49.589 Y-32.058 Z-9.66
N11675 X49.526 Y-32.147 Z-9.561
N11680 X49.47 Y-32.228 Z-9.452
N11685 X49.42 Y-32.3 Z-9.333
N11690 X49.376 Y-32.362 Z-9.207
N11695 X49.34 Y-32.414 Z-9.074
N11700 X49.312 Y-32.454 Z-8.935
N11705 X49.291 Y-32.484 Z-8.793
N11710 X49.279 Y-32.501 Z-8.647
N11715 X49.275 Y-32.507 Z-8.5
N11720 G0 Z5.
N11725 X67.444 Y-19.63
N11730 Z-7.
N11735 G1 Z-8.5 F1000.
N11740 X67.438 Y-19.634 Z-8.647
N11745 X67.42 Y-19.645 Z-8.793
N11750 X67.39 Y-19.665 Z-8.935
N11755 X67.348 Y-19.692 Z-9.074
N11760 X67.295 Y-19.726 Z-9.207
N11765 X67.232 Y-19.767 Z-9.333
N11770 X67.158 Y-19.814 Z-9.452
N11775 X67.075 Y-19.868 Z-9.561
N11780 X66.983 Y-19.927 Z-9.66
N11785 X66.884 Y-19.991 Z-9.747
N11790 X66.778 Y-20.059 Z-9.823
N11795 X66.666 Y-20.131 Z-9.886
N11800 X66.549 Y-20.206 Z-9.935
N11805 X66.429 Y-20.284 Z-9.971
N11810 X66.307 Y-20.362 Z-9.993
N11815 X66.183 Y-20.442 Z-10.
N11820 G3 X65.649 Y-21.018 I0.857 J-1.33
N11825 G1 X65.566 Y-21.186
N11830 X65.348 Y-21.566
N11835 X65.176 Y-21.855
N11840 X65.093 Y-22.012
N11845 X65.024 Y-22.146
N11850 X64.963 Y-22.283
N11855 X64.905 Y-22.424
N11860 X64.842 Y-22.599
N11865 X64.772 Y-22.818
N11870 X64.703 Y-23.061
N11875 X64.631 Y-23.36
N11880 X64.44 Y-24.299
N11885 X64.271 Y-25.241
N11890 X63.949 Y-26.143
N11895 X63.43 Y-26.949
N11900 X62.746 Y-27.619
N11905 X61.943 Y-28.141
N11910 X61.065 Y-28.522
N11915 X60.144 Y-28.786
N11920 X59.203 Y-28.961
N11925 X58.251 Y-29.071
N11930 X57.296 Y-29.139
N11935 X56.339 Y-29.179
N11940 X55.382 Y-29.201
N11945 X54.066 Y-29.209
N11950 X53.723 Y-29.241
N11955 X53.39 Y-29.331
N11960 X53.078 Y-29.477
N11965 X51.8 Y-30.214
N11970 G3 X51.27 Y-30.781 I0.794 J-1.272
N11975 G1 X51.201 Y-30.911 Z-9.993
N11980 X51.133 Y-31.04 Z-9.971
N11985 X51.066 Y-31.166 Z-9.935
N11990 X51.001 Y-31.288 Z-9.886
N11995 X50.938 Y-31.406 Z-9.823
N12000 X50.879 Y-31.517 Z-9.747
N12005 X50.823 Y-31.622 Z-9.66
N12010 X50.772 Y-31.718 Z-9.561
N12015 X50.726 Y-31.805 Z-9.452
N12020 X50.684 Y-31.883 Z-9.333
N12025 X50.649 Y-31.949 Z-9.207
N12030 X50.619 Y-32.005 Z-9.074
N12035 X50.596 Y-32.049 Z-8.935
N12040 X50.579 Y-32.08 Z-8.793
N12045 X50.569 Y-32.099 Z-8.647
N12050 X50.566 Y-32.106 Z-8.5
N12055 G0 Z5.
N12060 X67.07 Y-20.605
N12065 Z-7.
N12070 G1 Z-8.5 F1000.
N12075 X67.064 Y-20.609 Z-8.647
N12080 X67.045 Y-20.619 Z-8.793
N12085 X67.013 Y-20.636 Z-8.935
N12090 X66.97 Y-20.66 Z-9.074
N12095 X66.914 Y-20.69 Z-9.207
N12100 X66.848 Y-20.726 Z-9.333
N12105 X66.771 Y-20.768 Z-9.452
N12110 X66.684 Y-20.815 Z-9.561
N12115 X66.588 Y-20.867 Z-9.66
N12120 X66.484 Y-20.923 Z-9.747
N12125 X66.373 Y-20.983 Z-9.823
N12130 X66.256 Y-21.047 Z-9.886
N12135 X66.134 Y-21.113 Z-9.935
N12140 X66.009 Y-21.181 Z-9.971
N12145 X65.881 Y-21.251 Z-9.993
N12150 X65.752 Y-21.321 Z-10.
N12155 G3 X65.176 Y-21.855 I0.755 J-1.391
N12160 G1 X65.046 Y-22.072
N12165 X64.913 Y-22.286
N12170 X64.695 Y-22.559
N12175 X64.649 Y-22.618
N12180 X64.561 Y-22.74
N12185 X64.48 Y-22.867
N12190 X64.406 Y-22.997
N12195 X64.333 Y-23.139
N12200 X64.251 Y-23.313
N12205 X63.873 Y-24.193
N12210 X63.516 Y-25.082
N12215 X63.023 Y-25.903
N12220 X62.374 Y-26.607
N12225 X61.602 Y-27.175
N12230 X60.747 Y-27.606
N12235 X59.841 Y-27.915
N12240 X58.907 Y-28.127
N12245 X57.959 Y-28.265
N12250 X57.005 Y-28.353
N12255 X56.049 Y-28.405
N12260 X55.571 Y-28.419
N12265 X55.356 Y-28.427
N12270 X55.036 Y-28.466
N12275 X54.726 Y-28.555
N12280 X54.435 Y-28.694
N12285 X53.078 Y-29.477
N12290 G3 X52.548 Y-30.044 I0.794 J-1.272
N12295 G1 X52.479 Y-30.174 Z-9.993
N12300 X52.41 Y-30.303 Z-9.971
N12305 X52.343 Y-30.429 Z-9.935
N12310 X52.278 Y-30.551 Z-9.886
N12315 X52.216 Y-30.669 Z-9.823
N12320 X52.156 Y-30.78 Z-9.747
N12325 X52.101 Y-30.884 Z-9.66
N12330 X52.05 Y-30.981 Z-9.561
N12335 X52.003 Y-31.068 Z-9.452
N12340 X51.962 Y-31.145 Z-9.333
N12345 X51.926 Y-31.212 Z-9.207
N12350 X51.897 Y-31.268 Z-9.074
N12355 X51.874 Y-31.312 Z-8.935
N12360 X51.857 Y-31.343 Z-8.793
N12365 X51.847 Y-31.362 Z-8.647
N12370 X51.843 Y-31.369 Z-8.5
N12375 G0 Z5.
N12380 X66.831 Y-21.792
N12385 Z-7.
N12390 G1 Z-8.5 F1000.
N12395 X66.824 Y-21.794 Z-8.647
N12400 X66.803 Y-21.8 Z-8.793
N12405 X66.769 Y-21.809 Z-8.935
N12410 X66.721 Y-21.822 Z-9.074
N12415 X66.66 Y-21.838 Z-9.207
N12420 X66.587 Y-21.857 Z-9.333
N12425 X66.502 Y-21.88 Z-9.452
N12430 X66.406 Y-21.905 Z-9.561
N12435 X66.301 Y-21.933 Z-9.66
N12440 X66.187 Y-21.963 Z-9.747
N12445 X66.065 Y-21.995 Z-9.823
N12450 X65.936 Y-22.029 Z-9.886
N12455 X65.802 Y-22.065 Z-9.935
N12460 X65.664 Y-22.101 Z-9.971
N12465 X65.523 Y-22.139 Z-9.993
N12470 X65.381 Y-22.176 Z-10.
N12475 G3 X64.695 Y-22.559 I0.405 J-1.53
N12480 G1 X64.478 Y-22.781
N12485 X64.388 Y-22.868
N12490 X64.299 Y-22.943
N12495 X64.241 Y-22.992
N12500 X64.131 Y-23.093
N12505 X64.027 Y-23.202
N12510 X63.929 Y-23.315
N12515 X63.825 Y-23.446
N12520 X63.256 Y-24.216
N12525 X62.694 Y-24.992
N12530 X62.035 Y-25.687
N12535 X61.272 Y-26.265
N12540 X60.429 Y-26.72
N12545 X59.533 Y-27.058
N12550 X58.606 Y-27.297
N12555 X57.662 Y-27.459
N12560 X56.737 Y-27.56
N12565 X56.466 Y-27.609
N12570 X56.204 Y-27.695
N12575 X55.956 Y-27.816
N12580 X54.435 Y-28.694
N12585 G3 X53.905 Y-29.261 I0.794 J-1.272
N12590 G1 X53.836 Y-29.391 Z-9.993
N12595 X53.768 Y-29.52 Z-9.971
N12600 X53.701 Y-29.646 Z-9.935
N12605 X53.636 Y-29.768 Z-9.886
N12610 X53.573 Y-29.885 Z-9.823
N12615 X53.514 Y-29.997 Z-9.747
N12620 X53.458 Y-30.101 Z-9.66
N12625 X53.407 Y-30.198 Z-9.561
N12630 X53.361 Y-30.285 Z-9.452
N12635 X53.32 Y-30.362 Z-9.333
N12640 X53.284 Y-30.429 Z-9.207
N12645 X53.254 Y-30.485 Z-9.074
N12650 X53.231 Y-30.528 Z-8.935
N12655 X53.214 Y-30.56 Z-8.793
N12660 X53.204 Y-30.579 Z-8.647
N12665 X53.201 Y-30.585 Z-8.5
N12670 G0 Z5.
N12675 X66.547 Y-22.631
N12680 Z-7.
N12685 G1 Z-8.5 F1000.
N12690 X66.539 Z-8.647
N12695 X66.518 Y-22.632 Z-8.793
N12700 X66.482 Y-22.634 Z-8.935
N12705 X66.433 Y-22.637 Z-9.074
N12710 X66.37 Y-22.64 Z-9.207
N12715 X66.294 Y-22.644 Z-9.333
N12720 X66.207 Y-22.649 Z-9.452
N12725 X66.108 Y-22.654 Z-9.561
N12730 X65.999 Y-22.659 Z-9.66
N12735 X65.881 Y-22.666 Z-9.747
N12740 X65.755 Y-22.672 Z-9.823
N12745 X65.622 Y-22.679 Z-9.886
N12750 X65.484 Y-22.686 Z-9.935
N12755 X65.341 Y-22.694 Z-9.971
N12760 X65.196 Y-22.701 Z-9.993
N12765 X65.049 Y-22.709 Z-10.
N12770 G3 X64.299 Y-22.943 I0.082 J-1.58
N12775 G1 X63.647 Y-23.378
N12780 X63.608 Y-23.402
N12785 X63.523 Y-23.456
N12790 X63.4 Y-23.543
N12795 X63.179 Y-23.713
N12800 X62.441 Y-24.324
N12805 X61.707 Y-24.94
N12810 X60.915 Y-25.477
N12815 X60.063 Y-25.915
N12820 X59.166 Y-26.251
N12825 X58.503 Y-26.427
N12830 X58.335 Y-26.479
N12835 X58.172 Y-26.546
N12840 X58.016 Y-26.627
N12845 G3 X59.56 Y-29.199 I0.794 J-1.272
N12850 G1 X65.061 Y-26.026
N12855 G3 X63.608 Y-23.402 I-0.75 J1.299
N12860 G1 X55.956 Y-27.816
N12865 G3 X55.426 Y-28.384 I0.794 J-1.272
N12870 G1 X55.357 Y-28.513 Z-9.993
N12875 X55.289 Y-28.642 Z-9.971
N12880 X55.222 Y-28.768 Z-9.935
N12885 X55.157 Y-28.89 Z-9.886
N12890 X55.094 Y-29.008 Z-9.823
N12895 X55.035 Y-29.119 Z-9.747
N12900 X54.979 Y-29.224 Z-9.66
N12905 X54.928 Y-29.32 Z-9.561
N12910 X54.882 Y-29.407 Z-9.452
N12915 X54.841 Y-29.485 Z-9.333
N12920 X54.805 Y-29.552 Z-9.207
N12925 X54.775 Y-29.607 Z-9.074
N12930 X54.752 Y-29.651 Z-8.935
N12935 X54.735 Y-29.682 Z-8.793
N12940 X54.725 Y-29.702 Z-8.647
N12945 X54.722 Y-29.708 Z-8.5
N12950 G0 Z5.
N12955 X48.343 Y2.354
N12960 Z-7.
N12965 G1 Z-8.5 F1000.
N12970 X48.348 Y2.349 Z-8.647
N12975 X48.364 Y2.334 Z-8.793
N12980 X48.39 Y2.31 Z-8.935
N12985 X48.426 Y2.276 Z-9.074
N12990 X48.472 Y2.232 Z-9.207
N12995 X48.527 Y2.18 Z-9.333
N13000 X48.59 Y2.12 Z-9.452
N13005 X48.662 Y2.052 Z-9.561
N13010 X48.742 Y1.977 Z-9.66
N13015 X48.828 Y1.896 Z-9.747
N13020 X48.919 Y1.81 Z-9.823
N13025 X49.016 Y1.718 Z-9.886
N13030 X49.117 Y1.623 Z-9.935
N13035 X49.221 Y1.525 Z-9.971
N13040 X49.327 Y1.425 Z-9.993
N13045 X49.434 Y1.324 Z-10.
N13050 G3 X50.12 Y0.943 I1.087 J1.151
N13055 G1 X50.338 Y0.895
N13060 X50.556 Y0.832
N13065 X50.727 Y0.777
N13070 X50.991 Y0.665
N13075 X51.024 Y0.647
N13080 X51.097 Y0.613
N13085 X51.235 Y0.556
N13090 X51.377 Y0.506
N13095 X51.549 Y0.452
N13100 X51.747 Y0.397
N13105 X51.996 Y0.338
N13110 X52.313 Y0.275
N13115 X52.714 Y0.21
N13120 X53.265 Y0.143
N13125 X54.08 Y0.072
N13130 X55.037 Y0.025
N13135 X55.994 Y0.001
N13140 X56.952 Y-0.012
N13145 X57.909 Y-0.019
N13150 X59.825 Y-0.025
N13155 X60.781 Y-0.067
N13160 X61.713 Y-0.291
N13165 X62.559 Y-0.74
N13170 X63.269 Y-1.382
N13175 X63.825 Y-2.161
N13180 X64.233 Y-3.028
N13185 X64.516 Y-3.943
N13190 X64.7 Y-4.883
N13195 X64.815 Y-5.834
N13200 X64.884 Y-6.789
N13205 X64.902 Y-7.217
N13210 X64.943 Y-7.544
N13215 X65.038 Y-7.86
N13220 X65.182 Y-8.156
N13225 X65.348 Y-8.434
N13230 X65.566 Y-8.814
N13235 X65.666 Y-9.016
N13240 X65.758 Y-9.233
N13245 X65.798 Y-9.34
N13250 X65.831 Y-9.433
N13255 G3 X66.295 Y-10.055 I1.393 J0.555
N13260 G1 X66.411 Y-10.146 Z-9.993
N13265 X66.525 Y-10.237 Z-9.971
N13270 X66.637 Y-10.325 Z-9.935
N13275 X66.746 Y-10.411 Z-9.886
N13280 X66.85 Y-10.493 Z-9.823
N13285 X66.949 Y-10.572 Z-9.747
N13290 X67.042 Y-10.645 Z-9.66
N13295 X67.128 Y-10.712 Z-9.561
N13300 X67.205 Y-10.774 Z-9.452
N13305 X67.274 Y-10.828 Z-9.333
N13310 X67.334 Y-10.875 Z-9.207
N13315 X67.383 Y-10.914 Z-9.074
N13320 X67.422 Y-10.944 Z-8.935
N13325 X67.45 Y-10.967 Z-8.793
N13330 X67.467 Y-10.98 Z-8.647
N13335 X67.473 Y-10.984 Z-8.5
N13340 G0 Z5.
N13345 X49.679 Y2.475
N13350 Z-7.
N13355 G1 Z-8.5 F1000.
N13360 X49.683 Y2.469 Z-8.647
N13365 X49.694 Y2.45 Z-8.793
N13370 X49.713 Y2.42 Z-8.935
N13375 X49.738 Y2.378 Z-9.074
N13380 X49.771 Y2.324 Z-9.207
N13385 X49.811 Y2.259 Z-9.333
N13390 X49.856 Y2.184 Z-9.452
N13395 X49.908 Y2.1 Z-9.561
N13400 X49.965 Y2.007 Z-9.66
N13405 X50.026 Y1.906 Z-9.747
N13410 X50.092 Y1.798 Z-9.823
N13415 X50.162 Y1.685 Z-9.886
N13420 X50.234 Y1.567 Z-9.935
N13425 X50.308 Y1.445 Z-9.971
N13430 X50.384 Y1.32 Z-9.993
N13435 X50.461 Y1.195 Z-10.
N13440 G3 X51.024 Y0.647 I1.351 J0.825
N13445 G1 X51.208 Y0.55
N13450 X51.426 Y0.43
N13455 X51.955 Y0.124
N13460 X52.093 Y0.054
N13465 X52.228 Y-0.012
N13470 X52.366 Y-0.071
N13475 X52.532 Y-0.134
N13480 X52.724 Y-0.2
N13485 X52.934 Y-0.263
N13490 X53.198 Y-0.332
N13495 X53.523 Y-0.404
N13500 X53.905 Y-0.475
N13505 X54.413 Y-0.549
N13510 X55.102 Y-0.624
N13515 X56.057 Y-0.694
N13520 X57.014 Y-0.731
N13525 X57.971 Y-0.751
N13530 X58.929 Y-0.764
N13535 X59.885 Y-0.812
N13540 X60.819 Y-1.024
N13545 X61.675 Y-1.454
N13550 X62.404 Y-2.075
N13555 X62.983 Y-2.838
N13560 X63.412 Y-3.694
N13565 X63.712 Y-4.604
N13570 X63.911 Y-5.54
N13575 X63.977 Y-6.015
N13580 X64.003 Y-6.188
N13585 X64.073 Y-6.494
N13590 X64.19 Y-6.785
N13595 X64.352 Y-7.055
N13600 X64.553 Y-7.296
N13605 X64.695 Y-7.441
N13610 X64.913 Y-7.714
N13615 X65.046 Y-7.928
N13620 X65.182 Y-8.156
N13625 G3 X65.757 Y-8.677 I1.261 J0.812
N13630 G1 X65.888 Y-8.745 Z-9.993
N13635 X66.017 Y-8.811 Z-9.971
N13640 X66.144 Y-8.877 Z-9.935
N13645 X66.268 Y-8.94 Z-9.886
N13650 X66.386 Y-9.001 Z-9.823
N13655 X66.498 Y-9.059 Z-9.747
N13660 X66.603 Y-9.113 Z-9.66
N13665 X66.7 Y-9.163 Z-9.561
N13670 X66.788 Y-9.208 Z-9.452
N13675 X66.866 Y-9.248 Z-9.333
N13680 X66.934 Y-9.282 Z-9.207
N13685 X66.99 Y-9.311 Z-9.074
N13690 X67.034 Y-9.334 Z-8.935
N13695 X67.065 Y-9.35 Z-8.793
N13700 X67.085 Y-9.36 Z-8.647
N13705 X67.091 Y-9.363 Z-8.5
N13710 G0 Z5.
N13715 X50.679 Y2.001
N13720 Z-7.
N13725 G1 Z-8.5 F1000.
N13730 X50.683 Y1.995 Z-8.647
N13735 X50.693 Y1.976 Z-8.793
N13740 X50.711 Y1.945 Z-8.935
N13745 X50.735 Y1.901 Z-9.074
N13750 X50.766 Y1.846 Z-9.207
N13755 X50.803 Y1.78 Z-9.333
N13760 X50.846 Y1.704 Z-9.452
N13765 X50.894 Y1.618 Z-9.561
N13770 X50.948 Y1.523 Z-9.66
N13775 X51.005 Y1.419 Z-9.747
N13780 X51.067 Y1.309 Z-9.823
N13785 X51.132 Y1.193 Z-9.886
N13790 X51.2 Y1.072 Z-9.935
N13795 X51.27 Y0.948 Z-9.971
N13800 X51.341 Y0.821 Z-9.993
N13805 X51.413 Y0.693 Z-10.
N13810 G3 X51.955 Y0.124 I1.38 J0.774
N13815 G1 X53.166 Y-0.574
N13820 X53.307 Y-0.646
N13825 X53.442 Y-0.711
N13830 X53.59 Y-0.775
N13835 X53.764 Y-0.843
N13840 X53.95 Y-0.907
N13845 X54.184 Y-0.979
N13850 X54.479 Y-1.057
N13855 X54.789 Y-1.127
N13860 X55.2 Y-1.205
N13865 X55.702 Y-1.281
N13870 X56.399 Y-1.36
N13875 X57.354 Y-1.433
N13880 X58.311 Y-1.482
N13885 X59.265 Y-1.569
N13890 X60.186 Y-1.83
N13895 X61.021 Y-2.3
N13900 X61.724 Y-2.95
N13905 X62.278 Y-3.731
N13910 X62.689 Y-4.596
N13915 X62.99 Y-5.505
N13920 X63.092 Y-5.807
N13925 X63.224 Y-6.086
N13930 X63.398 Y-6.342
N13935 X63.608 Y-6.568
N13940 X63.851 Y-6.758
N13945 X64.299 Y-7.057
N13950 X64.388 Y-7.132
N13955 X64.478 Y-7.219
N13960 X64.553 Y-7.296
N13965 G3 X65.235 Y-7.667 I1.034 J1.087
N13970 G1 X65.378 Y-7.701 Z-9.993
N13975 X65.52 Y-7.735 Z-9.971
N13980 X65.659 Y-7.769 Z-9.935
N13985 X65.793 Y-7.801 Z-9.886
N13990 X65.923 Y-7.833 Z-9.823
N13995 X66.045 Y-7.862 Z-9.747
N14000 X66.16 Y-7.89 Z-9.66
N14005 X66.266 Y-7.916 Z-9.561
N14010 X66.362 Y-7.939 Z-9.452
N14015 X66.448 Y-7.959 Z-9.333
N14020 X66.521 Y-7.977 Z-9.207
N14025 X66.582 Y-7.992 Z-9.074
N14030 X66.631 Y-8.003 Z-8.935
N14035 X66.665 Y-8.012 Z-8.793
N14040 X66.686 Y-8.017 Z-8.647
N14045 X66.693 Y-8.019 Z-8.5
N14050 G0 Z5.
N14055 X51.89 Y1.302
N14060 Z-7.
N14065 G1 Z-8.5 F1000.
N14070 X51.894 Y1.296 Z-8.647
N14075 X51.904 Y1.277 Z-8.793
N14080 X51.922 Y1.246 Z-8.935
N14085 X51.946 Y1.203 Z-9.074
N14090 X51.977 Y1.148 Z-9.207
N14095 X52.014 Y1.082 Z-9.333
N14100 X52.057 Y1.005 Z-9.452
N14105 X52.105 Y0.919 Z-9.561
N14110 X52.158 Y0.824 Z-9.66
N14115 X52.216 Y0.721 Z-9.747
N14120 X52.278 Y0.611 Z-9.823
N14125 X52.343 Y0.495 Z-9.886
N14130 X52.411 Y0.374 Z-9.935
N14135 X52.481 Y0.249 Z-9.971
N14140 X52.552 Y0.122 Z-9.993
N14145 X52.624 Y-0.006 Z-10.
N14150 G3 X53.166 Y-0.574 I1.38 J0.774
N14155 G1 X54.373 Y-1.271
N14160 X54.547 Y-1.36
N14165 X54.682 Y-1.426
N14170 X54.825 Y-1.49
N14175 X55. Y-1.56
N14180 X55.182 Y-1.625
N14185 X55.407 Y-1.696
N14190 X55.695 Y-1.775
N14195 X56.019 Y-1.852
N14200 X56.44 Y-1.936
N14205 X57.386 Y-2.088
N14210 X58.334 Y-2.22
N14215 X59.257 Y-2.475
N14220 X60.103 Y-2.924
N14225 X60.828 Y-3.55
N14230 X61.412 Y-4.309
N14235 X61.883 Y-5.143
N14240 X61.989 Y-5.334
N14245 X62.191 Y-5.632
N14250 X62.444 Y-5.89
N14255 X62.739 Y-6.097
N14260 X63.608 Y-6.598
N14265 X63.647 Y-6.622
N14270 X63.851 Y-6.758
N14275 G3 X64.595 Y-6.982 I0.788 J1.276
N14280 G1 X64.742 Y-6.986 Z-9.993
N14285 X64.887 Y-6.99 Z-9.971
N14290 X65.03 Y-6.994 Z-9.935
N14295 X65.169 Y-6.999 Z-9.886
N14300 X65.302 Y-7.003 Z-9.823
N14305 X65.428 Y-7.006 Z-9.747
N14310 X65.546 Y-7.01 Z-9.66
N14315 X65.655 Y-7.013 Z-9.561
N14320 X65.754 Y-7.016 Z-9.452
N14325 X65.841 Y-7.019 Z-9.333
N14330 X65.917 Y-7.021 Z-9.207
N14335 X65.98 Y-7.023 Z-9.074
N14340 X66.03 Y-7.024 Z-8.935
N14345 X66.065 Y-7.025 Z-8.793
N14350 X66.087 Y-7.026 Z-8.647
N14355 X66.094 Z-8.5
N14360 G0 Z5.
N14365 X53.098 Y0.606
N14370 Z-7.
N14375 G1 Z-8.5 F1000.
N14380 X53.101 Y0.599 Z-8.647
N14385 X53.112 Y0.581 Z-8.793
N14390 X53.129 Y0.549 Z-8.935
N14395 X53.153 Y0.506 Z-9.074
N14400 X53.184 Y0.451 Z-9.207
N14405 X53.221 Y0.385 Z-9.333
N14410 X53.264 Y0.309 Z-9.452
N14415 X53.312 Y0.223 Z-9.561
N14420 X53.366 Y0.127 Z-9.66
N14425 X53.424 Y0.024 Z-9.747
N14430 X53.485 Y-0.086 Z-9.823
N14435 X53.55 Y-0.202 Z-9.886
N14440 X53.618 Y-0.323 Z-9.935
N14445 X53.688 Y-0.447 Z-9.971
N14450 X53.759 Y-0.574 Z-9.993
N14455 X53.831 Y-0.703 Z-10.
N14460 G3 X54.373 Y-1.271 I1.38 J0.774
N14465 G1 X55.727 Y-2.052
N14470 X55.879 Y-2.13
N14475 X56.032 Y-2.203
N14480 X56.203 Y-2.277
N14485 X56.418 Y-2.361
N14490 X57.322 Y-2.677
N14495 X58.233 Y-2.973
N14500 X59.089 Y-3.401
N14505 X59.846 Y-3.988
N14510 X60.495 Y-4.692
N14515 X60.647 Y-4.841
N14520 X60.814 Y-4.974
N14525 X60.993 Y-5.09
N14530 G3 X62.446 Y-2.466 I0.704 J1.325
N14535 G1 X57.271 Y0.52
N14540 G3 X55.727 Y-2.052 I-0.75 J-1.299
N14545 G1 X62.739 Y-6.097
N14550 X62.822 Y-6.13 Z-9.995
N14555 X62.904 Y-6.162 Z-9.98
N14560 X62.984 Y-6.193 Z-9.954
N14565 X63.06 Y-6.223 Z-9.92
N14570 X63.144 Y-6.235 Z-9.871
N14575 X63.221 Y-6.246 Z-9.813
N14580 X63.291 Y-6.256 Z-9.745
N14585 X63.351 Y-6.265 Z-9.669
N14590 X63.402 Y-6.272 Z-9.587
N14595 X63.443 Y-6.273 Z-9.498
N14600 X63.472 Y-6.272 Z-9.406
N14605 X63.49 Z-9.311
N14610 X63.496 Z-9.215
N14615 G0 Z5.
N14620 X52.358 Y0.918
N14625 Z-1.99
N14630 G1 Z-3.49 F1000.
N14635 X52.363 Y0.913 Z-3.637
N14640 X52.378 Y0.898 Z-3.783
N14645 X52.403 Y0.873 Z-3.925
N14650 X52.439 Y0.838 Z-4.064
N14655 X52.483 Y0.793 Z-4.197
N14660 X52.537 Y0.74 Z-4.323
N14665 X52.599 Y0.678 Z-4.442
N14670 X52.669 Y0.608 Z-4.551
N14675 X52.746 Y0.531 Z-4.65
N14680 X52.83 Y0.447 Z-4.737
N14685 X52.919 Y0.358 Z-4.813
N14690 X53.013 Y0.264 Z-4.876
N14695 X53.112 Y0.166 Z-4.925
N14700 X53.213 Y0.066 Z-4.961
N14705 X53.316 Y-0.037 Z-4.983
N14710 X53.42 Y-0.141 Z-4.99
N14715 G3 X55.994 Y-2.206 I10.816 J10.846
N14720 G1 X56.212 Y-2.334
N14725 X56.429 Y-2.467
N14730 X56.647 Y-2.621
N14735 X56.864 Y-2.807
N14740 X56.986 Y-2.922
N14745 X57.082 Y-3.028
N14750 X57.181 Y-3.14
N14755 X57.2 Y-3.165
N14760 X57.279 Y-3.255
N14765 X57.389 Y-3.373
N14770 X57.528 Y-3.512
N14775 X57.707 Y-3.678
N14780 X57.941 Y-3.88
N14785 X58.259 Y-4.133
N14790 X58.712 Y-4.47
N14795 X59.431 Y-4.962
N14800 X60.24 Y-5.475
N14805 X61.06 Y-5.97
N14810 X61.884 Y-6.458
N14815 X62.704 Y-6.953
N14820 X63.434 Y-7.572
N14825 X64.052 Y-8.304
N14830 X64.503 Y-9.149
N14835 X64.807 Y-10.057
N14840 X64.999 Y-10.995
N14845 X65.112 Y-11.946
N14850 X65.176 Y-12.902
N14855 X65.211 Y-13.859
N14860 X65.23 Y-14.816
N14865 X65.239 Y-15.774
N14870 X65.245 Y-16.732
N14875 X65.247 Y-17.689
N14880 X65.236 Y-18.647
N14885 X65.066 Y-19.59
N14890 X64.739 Y-20.49
N14895 X64.235 Y-21.304
N14900 X63.602 Y-22.023
N14905 X62.886 Y-22.659
N14910 X62.12 Y-23.234
N14915 X61.325 Y-23.767
N14920 X60.513 Y-24.276
N14925 X59.693 Y-24.77
N14930 X58.869 Y-25.258
N14935 X58.261 Y-25.613
N14940 X57.979 Y-25.812
N14945 X57.735 Y-26.057
N14950 X57.537 Y-26.339
N14955 X57.488 Y-26.425
N14960 X57.349 Y-26.642
N14965 X57.299 Y-26.71
N14970 X57.181 Y-26.86
N14975 X57.082 Y-26.972
N14980 X56.986 Y-27.078
N14985 X56.864 Y-27.193
N14990 X56.647 Y-27.379
N14995 X56.429 Y-27.533
N15000 X56.212 Y-27.666
N15005 X56.102 Y-27.73
N15010 G3 X55.578 Y-28.303 I0.807 J-1.264
N15015 G1 X55.51 Y-28.434 Z-4.983
N15020 X55.443 Y-28.563 Z-4.961
N15025 X55.377 Y-28.69 Z-4.925
N15030 X55.313 Y-28.813 Z-4.876
N15035 X55.252 Y-28.931 Z-4.813
N15040 X55.194 Y-29.043 Z-4.737
N15045 X55.139 Y-29.148 Z-4.65
N15050 X55.089 Y-29.245 Z-4.551
N15055 X55.043 Y-29.332 Z-4.442
N15060 X55.003 Y-29.41 Z-4.323
N15065 X54.968 Y-29.477 Z-4.197
N15070 X54.939 Y-29.533 Z-4.064
N15075 X54.916 Y-29.577 Z-3.925
N15080 X54.9 Y-29.609 Z-3.783
N15085 X54.89 Y-29.628 Z-3.637
N15090 X54.886 Y-29.635 Z-3.49
N15095 G0 Z5.
N15100 X56.707 Y-0.95
N15105 Z-1.99
N15110 G1 Z-3.49 F1000.
N15115 X56.708 Y-0.957 Z-3.637
N15120 X56.711 Y-0.978 Z-3.783
N15125 X56.716 Y-1.014 Z-3.925
N15130 X56.722 Y-1.063 Z-4.064
N15135 X56.731 Y-1.125 Z-4.197
N15140 X56.741 Y-1.2 Z-4.323
N15145 X56.752 Y-1.287 Z-4.442
N15150 X56.766 Y-1.385 Z-4.551
N15155 X56.78 Y-1.493 Z-4.65
N15160 X56.796 Y-1.611 Z-4.737
N15165 X56.813 Y-1.736 Z-4.813
N15170 X56.83 Y-1.868 Z-4.876
N15175 X56.849 Y-2.005 Z-4.925
N15180 X56.867 Y-2.147 Z-4.961
N15185 X56.887 Y-2.291 Z-4.983
N15190 X56.906 Y-2.437 Z-4.99
N15195 G3 X57.2 Y-3.165 I1.569 J0.21
N15200 G1 X57.299 Y-3.29
N15205 X57.349 Y-3.358
N15210 X57.488 Y-3.575
N15215 X57.614 Y-3.793
N15220 X57.631 Y-3.829
N15225 X57.702 Y-3.961
N15230 X57.783 Y-4.088
N15235 X57.87 Y-4.209
N15240 X57.968 Y-4.333
N15245 X58.091 Y-4.478
N15250 X58.223 Y-4.622
N15255 X58.39 Y-4.792
N15260 X58.609 Y-4.999
N15265 X58.867 Y-5.225
N15270 X59.215 Y-5.508
N15275 X59.682 Y-5.86
N15280 X60.467 Y-6.408
N15285 X61.271 Y-6.928
N15290 X62.049 Y-7.488
N15295 X62.737 Y-8.153
N15300 X63.297 Y-8.93
N15305 X63.718 Y-9.79
N15310 X64.014 Y-10.701
N15315 X64.209 Y-11.639
N15320 X64.331 Y-12.589
N15325 X64.405 Y-13.544
N15330 X64.447 Y-14.5
N15335 X64.471 Y-15.458
N15340 X64.484 Y-16.415
N15345 X64.488 Y-17.373
N15350 X64.417 Y-18.328
N15355 X64.2 Y-19.261
N15360 X63.816 Y-20.138
N15365 X63.287 Y-20.937
N15370 X62.65 Y-21.652
N15375 X61.937 Y-22.292
N15380 X61.177 Y-22.874
N15385 X60.387 Y-23.416
N15390 X59.58 Y-23.931
N15395 X59.172 Y-24.181
N15400 X58.764 Y-24.436
N15405 X58.648 Y-24.515
N15410 X58.39 Y-24.724
N15415 X58.17 Y-24.972
N15420 X57.994 Y-25.253
N15425 X57.867 Y-25.559
N15430 X57.799 Y-25.772
N15435 X57.734 Y-25.95
N15440 X57.716 Y-25.99
N15445 X57.614 Y-26.207
N15450 X57.537 Y-26.339
N15455 G3 X57.363 Y-27.096 I1.324 J-0.704
N15460 G1 X57.368 Y-27.243 Z-4.983
N15465 X57.373 Y-27.388 Z-4.961
N15470 X57.378 Y-27.531 Z-4.925
N15475 X57.383 Y-27.67 Z-4.876
N15480 X57.387 Y-27.803 Z-4.813
N15485 X57.392 Y-27.929 Z-4.737
N15490 X57.396 Y-28.047 Z-4.65
N15495 X57.4 Y-28.156 Z-4.551
N15500 X57.403 Y-28.255 Z-4.442
N15505 X57.406 Y-28.342 Z-4.323
N15510 X57.409 Y-28.418 Z-4.197
N15515 X57.411 Y-28.481 Z-4.064
N15520 X57.413 Y-28.53 Z-3.925
N15525 X57.414 Y-28.566 Z-3.783
N15530 X57.415 Y-28.588 Z-3.637
N15535 Y-28.595 Z-3.49
N15540 G0 Z5.
N15545 X57.654 Y-1.56
N15550 Z-1.99
N15555 G1 Z-3.49 F1000.
N15560 X57.653 Y-1.567 Z-3.637
N15565 X57.651 Y-1.589 Z-3.783
N15570 X57.647 Y-1.624 Z-3.925
N15575 X57.643 Y-1.674 Z-4.064
N15580 X57.637 Y-1.736 Z-4.197
N15585 X57.629 Y-1.812 Z-4.323
N15590 X57.621 Y-1.899 Z-4.442
N15595 X57.611 Y-1.997 Z-4.551
N15600 X57.601 Y-2.106 Z-4.65
N15605 X57.59 Y-2.224 Z-4.737
N15610 X57.578 Y-2.349 Z-4.813
N15615 X57.565 Y-2.482 Z-4.876
N15620 X57.552 Y-2.62 Z-4.925
N15625 X57.538 Y-2.762 Z-4.961
N15630 X57.524 Y-2.907 Z-4.983
N15635 X57.51 Y-3.053 Z-4.99
N15640 G3 X57.631 Y-3.829 I1.575 J-0.152
N15645 G1 X57.716 Y-4.01
N15650 X57.734 Y-4.05
N15655 X57.799 Y-4.228
N15660 X57.854 Y-4.402
N15665 X57.891 Y-4.5
N15670 X57.948 Y-4.639
N15675 X58.015 Y-4.773
N15680 X58.089 Y-4.903
N15685 X58.17 Y-5.03
N15690 X58.256 Y-5.153
N15695 X58.365 Y-5.297
N15700 X58.484 Y-5.442
N15705 X58.631 Y-5.609
N15710 X58.823 Y-5.812
N15715 X59.044 Y-6.029
N15720 X59.313 Y-6.274
N15725 X59.85 Y-6.729
N15730 X60.603 Y-7.321
N15735 X61.337 Y-7.935
N15740 X61.983 Y-8.642
N15745 X62.513 Y-9.44
N15750 X62.921 Y-10.307
N15755 X63.215 Y-11.218
N15760 X63.417 Y-12.154
N15765 X63.549 Y-13.103
N15770 X63.632 Y-14.057
N15775 X63.682 Y-15.013
N15780 X63.71 Y-15.971
N15785 X63.707 Y-16.928
N15790 X63.612 Y-17.881
N15795 X63.368 Y-18.807
N15800 X62.971 Y-19.679
N15805 X62.441 Y-20.477
N15810 X61.81 Y-21.197
N15815 X61.106 Y-21.847
N15820 X60.354 Y-22.44
N15825 X59.571 Y-22.991
N15830 X59.139 Y-23.289
N15835 X58.913 Y-23.457
N15840 X58.708 Y-23.622
N15845 X58.657 Y-23.666
N15850 X58.4 Y-23.934
N15855 X58.197 Y-24.245
N15860 X58.055 Y-24.588
N15865 X57.979 Y-24.951
N15870 X57.96 Y-25.119
N15875 X57.923 Y-25.337
N15880 X57.867 Y-25.559
N15885 G3 X57.856 Y-26.336 I1.444 J-0.408
N15890 G1 X57.892 Y-26.478 Z-4.983
N15895 X57.928 Y-26.619 Z-4.961
N15900 X57.963 Y-26.758 Z-4.925
N15905 X57.997 Y-26.892 Z-4.876
N15910 X58.03 Y-27.021 Z-4.813
N15915 X58.061 Y-27.144 Z-4.737
N15920 X58.09 Y-27.258 Z-4.65
N15925 X58.117 Y-27.364 Z-4.551
N15930 X58.141 Y-27.46 Z-4.442
N15935 X58.163 Y-27.545 Z-4.323
N15940 X58.181 Y-27.618 Z-4.197
N15945 X58.197 Y-27.679 Z-4.064
N15950 X58.209 Y-27.727 Z-3.925
N15955 X58.218 Y-27.762 Z-3.783
N15960 X58.223 Y-27.783 Z-3.637
N15965 X58.225 Y-27.79 Z-3.49
N15970 G0 Z5.
N15975 X58.171 Y-2.155
N15980 Z-1.99
N15985 G1 Z-3.49 F1000.
N15990 X58.17 Y-2.162 Z-3.637
N15995 X58.165 Y-2.183 Z-3.783
N16000 X58.157 Y-2.218 Z-3.925
N16005 X58.146 Y-2.266 Z-4.064
N16010 X58.132 Y-2.327 Z-4.197
N16015 X58.115 Y-2.401 Z-4.323
N16020 X58.095 Y-2.486 Z-4.442
N16025 X58.073 Y-2.583 Z-4.551
N16030 X58.048 Y-2.689 Z-4.65
N16035 X58.022 Y-2.804 Z-4.737
N16040 X57.994 Y-2.927 Z-4.813
N16045 X57.964 Y-3.057 Z-4.876
N16050 X57.933 Y-3.192 Z-4.925
N16055 X57.901 Y-3.331 Z-4.961
N16060 X57.868 Y-3.473 Z-4.983
N16065 X57.835 Y-3.616 Z-4.99
N16070 G3 X57.854 Y-4.402 I1.542 J-0.355
N16075 G1 X57.868 Y-4.446
N16080 X57.923 Y-4.663
N16085 X57.96 Y-4.881
N16090 X57.964 Y-4.917
N16095 X57.988 Y-5.065
N16100 X58.031 Y-5.209
N16105 X58.084 Y-5.349
N16110 X58.146 Y-5.486
N16115 X58.215 Y-5.619
N16120 X58.291 Y-5.749
N16125 X58.374 Y-5.88
N16130 X58.482 Y-6.038
N16135 X58.606 Y-6.205
N16140 X58.753 Y-6.389
N16145 X58.948 Y-6.615
N16150 X59.279 Y-6.972
N16155 X59.956 Y-7.649
N16160 X60.631 Y-8.329
N16165 X61.235 Y-9.072
N16170 X61.738 Y-9.887
N16175 X62.132 Y-10.76
N16180 X62.424 Y-11.672
N16185 X62.63 Y-12.607
N16190 X62.769 Y-13.555
N16195 X62.859 Y-14.508
N16200 X62.911 Y-15.465
N16205 X62.912 Y-16.422
N16210 X62.811 Y-17.375
N16215 X62.562 Y-18.299
N16220 X62.167 Y-19.172
N16225 X61.646 Y-19.975
N16230 X61.025 Y-20.705
N16235 X60.332 Y-21.365
N16240 X59.592 Y-21.973
N16245 X59.187 Y-22.295
N16250 X58.934 Y-22.512
N16255 X58.771 Y-22.662
N16260 X58.598 Y-22.834
N16265 X58.54 Y-22.896
N16270 X58.31 Y-23.193
N16275 X58.14 Y-23.527
N16280 X58.035 Y-23.887
N16285 X58. Y-24.26
N16290 X57.999 Y-24.684
N16295 X57.985 Y-24.901
N16300 X57.979 Y-24.951
N16305 G3 X58.12 Y-25.715 I1.495 J-0.118
N16310 G1 X58.184 Y-25.847 Z-4.983
N16315 X58.246 Y-25.979 Z-4.961
N16320 X58.308 Y-26.108 Z-4.925
N16325 X58.367 Y-26.233 Z-4.876
N16330 X58.425 Y-26.353 Z-4.813
N16335 X58.479 Y-26.467 Z-4.737
N16340 X58.53 Y-26.574 Z-4.65
N16345 X58.577 Y-26.672 Z-4.551
N16350 X58.619 Y-26.761 Z-4.442
N16355 X58.657 Y-26.84 Z-4.323
N16360 X58.69 Y-26.909 Z-4.197
N16365 X58.717 Y-26.966 Z-4.064
N16370 X58.738 Y-27.01 Z-3.925
N16375 X58.753 Y-27.043 Z-3.783
N16380 X58.763 Y-27.062 Z-3.637
N16385 X58.766 Y-27.069 Z-3.49
N16390 G0 Z5.
N16395 X58.714 Y-2.775
N16400 Z-1.99
N16405 G1 Z-3.49 F1000.
N16410 X58.711 Y-2.782 Z-3.637
N16415 X58.702 Y-2.802 Z-3.783
N16420 X58.687 Y-2.834 Z-3.925
N16425 X58.667 Y-2.879 Z-4.064
N16430 X58.641 Y-2.937 Z-4.197
N16435 X58.61 Y-3.006 Z-4.323
N16440 X58.574 Y-3.086 Z-4.442
N16445 X58.533 Y-3.176 Z-4.551
N16450 X58.489 Y-3.275 Z-4.65
N16455 X58.44 Y-3.383 Z-4.737
N16460 X58.388 Y-3.498 Z-4.813
N16465 X58.334 Y-3.62 Z-4.876
N16470 X58.277 Y-3.746 Z-4.925
N16475 X58.218 Y-3.876 Z-4.961
N16480 X58.159 Y-4.009 Z-4.983
N16485 X58.098 Y-4.143 Z-4.99
N16490 G3 X57.964 Y-4.917 I1.443 J-0.649
N16495 G1 X57.985 Y-5.099
N16500 X57.999 Y-5.316
N16505 Y-5.382
N16510 X58.007 Y-5.532
N16515 X58.029 Y-5.68
N16520 X58.064 Y-5.826
N16525 X58.11 Y-5.969
N16530 X58.164 Y-6.109
N16535 X58.225 Y-6.246
N16540 X58.292 Y-6.38
N16545 X58.373 Y-6.53
N16550 X58.48 Y-6.71
N16555 X58.622 Y-6.931
N16560 X58.816 Y-7.21
N16565 X59.392 Y-7.976
N16570 X59.991 Y-8.723
N16575 X60.541 Y-9.507
N16580 X61.005 Y-10.344
N16585 X61.376 Y-11.227
N16590 X61.657 Y-12.143
N16595 X61.86 Y-13.079
N16600 X61.999 Y-14.026
N16605 X62.083 Y-14.98
N16610 X62.096 Y-15.938
N16615 X61.995 Y-16.89
N16620 X61.747 Y-17.815
N16625 X61.357 Y-18.69
N16630 X60.842 Y-19.498
N16635 X60.231 Y-20.235
N16640 X59.553 Y-20.912
N16645 X59.055 Y-21.377
N16650 X58.771 Y-21.663
N16655 X58.616 Y-21.831
N16660 X58.47 Y-22.001
N16665 X58.435 Y-22.044
N16670 X58.249 Y-22.324
N16675 X58.112 Y-22.63
N16680 X58.028 Y-22.956
N16685 X58. Y-23.29
N16690 Y-24.26
N16695 G3 X58.225 Y-25.003 I1.499 J0.05
N16700 G1 X58.303 Y-25.127 Z-4.983
N16705 X58.38 Y-25.251 Z-4.961
N16710 X58.455 Y-25.372 Z-4.925
N16715 X58.529 Y-25.49 Z-4.876
N16720 X58.599 Y-25.603 Z-4.813
N16725 X58.666 Y-25.71 Z-4.737
N16730 X58.728 Y-25.81 Z-4.65
N16735 X58.786 Y-25.903 Z-4.551
N16740 X58.838 Y-25.987 Z-4.442
N16745 X58.884 Y-26.061 Z-4.323
N16750 X58.924 Y-26.126 Z-4.197
N16755 X58.958 Y-26.179 Z-4.064
N16760 X58.984 Y-26.221 Z-3.925
N16765 X59.003 Y-26.252 Z-3.783
N16770 X59.014 Y-26.27 Z-3.637
N16775 X59.018 Y-26.276 Z-3.49
N16780 G0 Z5.
N16785 X58.983 Y-3.337
N16790 Z-1.99
N16795 G1 Z-3.49 F1000.
N16800 X58.98 Y-3.344 Z-3.637
N16805 X58.969 Y-3.362 Z-3.783
N16810 X58.95 Y-3.393 Z-3.925
N16815 X58.925 Y-3.436 Z-4.064
N16820 X58.893 Y-3.49 Z-4.197
N16825 X58.854 Y-3.555 Z-4.323
N16830 X58.81 Y-3.63 Z-4.442
N16835 X58.759 Y-3.715 Z-4.551
N16840 X58.704 Y-3.809 Z-4.65
N16845 X58.644 Y-3.911 Z-4.737
N16850 X58.579 Y-4.02 Z-4.813
N16855 X58.511 Y-4.134 Z-4.876
N16860 X58.441 Y-4.253 Z-4.925
N16865 X58.368 Y-4.376 Z-4.961
N16870 X58.294 Y-4.501 Z-4.983
N16875 X58.219 Y-4.628 Z-4.99
N16880 G3 X57.999 Y-5.382 I1.362 J-0.806
N16885 G1 X58. Y-6.035
N16890 X58.004 Y-6.12
N16895 X58.017 Y-6.269
N16900 X58.042 Y-6.417
N16905 X58.077 Y-6.563
N16910 X58.12 Y-6.707
N16915 X58.17 Y-6.85
N16920 X58.238 Y-7.023
N16925 X58.318 Y-7.209
N16930 X58.42 Y-7.422
N16935 X58.56 Y-7.688
N16940 X59.035 Y-8.519
N16945 X59.539 Y-9.333
N16950 X60.006 Y-10.169
N16955 X60.405 Y-11.04
N16960 X60.725 Y-11.943
N16965 X60.968 Y-12.869
N16970 X61.141 Y-13.811
N16975 X61.244 Y-14.763
N16980 X61.246 Y-15.721
N16985 X61.112 Y-16.669
N16990 X60.833 Y-17.585
N16995 X60.415 Y-18.447
N17000 X59.884 Y-19.244
N17005 X59.274 Y-19.982
N17010 X58.791 Y-20.518
N17015 X58.552 Y-20.805
N17020 X58.409 Y-20.989
N17025 X58.375 Y-21.038
N17030 X58.214 Y-21.304
N17035 X58.096 Y-21.591
N17040 X58.024 Y-21.894
N17045 X58. Y-22.203
N17050 Y-23.29
N17055 G3 X58.227 Y-24.033 I1.499 J0.052
N17060 G1 X58.305 Y-24.157 Z-4.983
N17065 X58.382 Y-24.281 Z-4.961
N17070 X58.458 Y-24.402 Z-4.925
N17075 X58.531 Y-24.519 Z-4.876
N17080 X58.602 Y-24.632 Z-4.813
N17085 X58.669 Y-24.739 Z-4.737
N17090 X58.731 Y-24.84 Z-4.65
N17095 X58.789 Y-24.932 Z-4.551
N17100 X58.841 Y-25.016 Z-4.442
N17105 X58.888 Y-25.09 Z-4.323
N17110 X58.928 Y-25.155 Z-4.197
N17115 X58.961 Y-25.208 Z-4.064
N17120 X58.988 Y-25.25 Z-3.925
N17125 X59.007 Y-25.28 Z-3.783
N17130 X59.018 Y-25.299 Z-3.637
N17135 X59.022 Y-25.305 Z-3.49
N17140 G0 Z5.
N17145 X58.987 Y-3.992
N17150 Z-1.99
N17155 G1 Z-3.49 F1000.
N17160 X58.984 Y-3.998 Z-3.637
N17165 X58.973 Y-4.016 Z-3.783
N17170 X58.954 Y-4.047 Z-3.925
N17175 X58.929 Y-4.09 Z-4.064
N17180 X58.897 Y-4.144 Z-4.197
N17185 X58.858 Y-4.209 Z-4.323
N17190 X58.813 Y-4.284 Z-4.442
N17195 X58.763 Y-4.369 Z-4.551
N17200 X58.707 Y-4.463 Z-4.65
N17205 X58.647 Y-4.565 Z-4.737
N17210 X58.582 Y-4.673 Z-4.813
N17215 X58.514 Y-4.788 Z-4.876
N17220 X58.444 Y-4.907 Z-4.925
N17225 X58.371 Y-5.03 Z-4.961
N17230 X58.296 Y-5.155 Z-4.983
N17235 X58.221 Y-5.281 Z-4.99
N17240 G3 X58. Y-6.035 I1.361 J-0.808
N17245 G1 Y-6.839
N17250 X58.006 Y-6.951
N17255 X58.017 Y-7.101
N17260 X58.039 Y-7.249
N17265 X58.068 Y-7.397
N17270 X58.107 Y-7.561
N17275 X58.154 Y-7.729
N17280 X58.219 Y-7.933
N17285 X58.31 Y-8.189
N17290 X58.495 Y-8.648
N17295 X58.883 Y-9.523
N17300 X59.283 Y-10.394
N17305 X59.646 Y-11.28
N17310 X59.947 Y-12.189
N17315 X60.18 Y-13.118
N17320 X60.337 Y-14.063
N17325 X60.391 Y-15.019
N17330 X60.313 Y-15.973
N17335 X60.083 Y-16.903
N17340 X59.711 Y-17.786
N17345 X59.226 Y-18.612
N17350 X58.669 Y-19.391
N17355 X58.416 Y-19.743
N17360 X58.334 Y-19.867
N17365 X58.19 Y-20.122
N17370 X58.085 Y-20.395
N17375 X58.021 Y-20.681
N17380 X58. Y-20.973
N17385 Y-22.203
N17390 G3 X58.227 Y-22.946 I1.499 J0.052
N17395 G1 X58.305 Y-23.071 Z-4.983
N17400 X58.382 Y-23.194 Z-4.961
N17405 X58.458 Y-23.315 Z-4.925
N17410 X58.531 Y-23.433 Z-4.876
N17415 X58.602 Y-23.546 Z-4.813
N17420 X58.669 Y-23.653 Z-4.737
N17425 X58.731 Y-23.753 Z-4.65
N17430 X58.789 Y-23.845 Z-4.551
N17435 X58.841 Y-23.929 Z-4.442
N17440 X58.888 Y-24.004 Z-4.323
N17445 X58.928 Y-24.068 Z-4.197
N17450 X58.961 Y-24.121 Z-4.064
N17455 X58.988 Y-24.163 Z-3.925
N17460 X59.007 Y-24.194 Z-3.783
N17465 X59.018 Y-24.212 Z-3.637
N17470 X59.022 Y-24.218 Z-3.49
N17475 G0 Z5.
N17480 X58.988 Y-4.797
N17485 Z-1.99
N17490 G1 Z-3.49 F1000.
N17495 X58.984 Y-4.803 Z-3.637
N17500 X58.973 Y-4.821 Z-3.783
N17505 X58.955 Y-4.852 Z-3.925
N17510 X58.93 Y-4.895 Z-4.064
N17515 X58.897 Y-4.949 Z-4.197
N17520 X58.859 Y-5.014 Z-4.323
N17525 X58.814 Y-5.089 Z-4.442
N17530 X58.763 Y-5.174 Z-4.551
N17535 X58.708 Y-5.268 Z-4.65
N17540 X58.647 Y-5.37 Z-4.737
N17545 X58.583 Y-5.478 Z-4.813
N17550 X58.515 Y-5.592 Z-4.876
N17555 X58.444 Y-5.712 Z-4.925
N17560 X58.371 Y-5.834 Z-4.961
N17565 X58.296 Y-5.959 Z-4.983
N17570 X58.221 Y-6.086 Z-4.99
N17575 G3 X58. Y-6.839 I1.36 J-0.809
N17580 G1 Y-7.928
N17585 X58.008 Y-8.08
N17590 X58.019 Y-8.229
N17595 X58.038 Y-8.388
N17600 X58.066 Y-8.57
N17605 X58.109 Y-8.79
N17610 X58.173 Y-9.065
N17615 X58.306 Y-9.555
N17620 X58.591 Y-10.469
N17625 X58.89 Y-11.379
N17630 X59.163 Y-12.297
N17635 X59.376 Y-13.231
N17640 X59.497 Y-14.181
N17645 X59.494 Y-15.138
N17650 X59.344 Y-16.084
N17655 X59.049 Y-16.995
N17660 X58.635 Y-17.859
N17665 X58.394 Y-18.273
N17670 X58.262 Y-18.506
N17675 X58.118 Y-18.819
N17680 X58.03 Y-19.152
N17685 X58. Y-19.495
N17690 Y-20.973
N17695 G3 X58.227 Y-21.716 I1.499 J0.052
N17700 G1 X58.305 Y-21.84 Z-4.983
N17705 X58.382 Y-21.964 Z-4.961
N17710 X58.458 Y-22.085 Z-4.925
N17715 X58.531 Y-22.202 Z-4.876
N17720 X58.602 Y-22.315 Z-4.813
N17725 X58.669 Y-22.422 Z-4.737
N17730 X58.731 Y-22.523 Z-4.65
N17735 X58.789 Y-22.615 Z-4.551
N17740 X58.841 Y-22.699 Z-4.442
N17745 X58.888 Y-22.773 Z-4.323
N17750 X58.928 Y-22.837 Z-4.197
N17755 X58.961 Y-22.891 Z-4.064
N17760 X58.988 Y-22.933 Z-3.925
N17765 X59.007 Y-22.963 Z-3.783
N17770 X59.018 Y-22.981 Z-3.637
N17775 X59.022 Y-22.988 Z-3.49
N17780 G0 Z5.
N17785 X58.988 Y-5.885
N17790 Z-1.99
N17795 G1 Z-3.49 F1000.
N17800 X58.984 Y-5.891 Z-3.637
N17805 X58.973 Y-5.909 Z-3.783
N17810 X58.955 Y-5.94 Z-3.925
N17815 X58.93 Y-5.983 Z-4.064
N17820 X58.897 Y-6.037 Z-4.197
N17825 X58.859 Y-6.102 Z-4.323
N17830 X58.814 Y-6.177 Z-4.442
N17835 X58.763 Y-6.262 Z-4.551
N17840 X58.708 Y-6.356 Z-4.65
N17845 X58.647 Y-6.458 Z-4.737
N17850 X58.583 Y-6.566 Z-4.813
N17855 X58.515 Y-6.681 Z-4.876
N17860 X58.444 Y-6.8 Z-4.925
N17865 X58.371 Y-6.922 Z-4.961
N17870 X58.296 Y-7.048 Z-4.983
N17875 X58.221 Y-7.174 Z-4.99
N17880 G3 X58. Y-7.928 I1.36 J-0.809
N17885 G1 Y-9.451
N17890 X58.014 Y-9.734
N17895 X58.026 Y-9.933
N17900 X58.053 Y-10.208
N17905 X58.105 Y-10.597
N17910 X58.267 Y-11.541
N17915 X58.456 Y-12.48
N17920 X58.601 Y-13.427
N17925 X58.646 Y-14.383
N17930 X58.56 Y-15.337
N17935 X58.334 Y-16.268
N17940 X58.13 Y-16.803
N17945 X58.058 Y-17.034
N17950 X58.015 Y-17.272
N17955 X58. Y-17.514
N17960 G3 X60.999 Y-17.461 I1.499 J0.052
N17965 G1 Y-9.503
N17970 G3 X58. Y-9.451 I-1.5 J0.
N17975 G1 Y-19.495
N17980 X58.013 Y-19.583 Z-4.985
N17985 X58.026 Y-19.67 Z-4.97
N17990 X58.039 Y-19.755 Z-4.944
N17995 X58.052 Y-19.836 Z-4.91
N18000 X58.083 Y-19.915 Z-4.861
N18005 X58.112 Y-19.987 Z-4.803
N18010 X58.138 Y-20.052 Z-4.735
N18015 X58.161 Y-20.109 Z-4.659
N18020 X58.18 Y-20.157 Z-4.577
N18025 X58.2 Y-20.192 Z-4.489
N18030 X58.215 Y-20.217 Z-4.396
N18035 X58.224 Y-20.233 Z-4.301
N18040 X58.227 Y-20.238 Z-4.205
N18045 G0 Z5.
N18050 X48.658 Y-37.811
N18055 Z-9.4
N18060 G1 Z-10.9 F1000.
N18065 X48.66 Y-37.804 Z-11.047
N18070 X48.665 Y-37.784 Z-11.193
N18075 X48.674 Y-37.749 Z-11.335
N18080 X48.686 Y-37.701 Z-11.474
N18085 X48.702 Y-37.64 Z-11.607
N18090 X48.721 Y-37.567 Z-11.733
N18095 X48.743 Y-37.482 Z-11.852
N18100 X48.767 Y-37.386 Z-11.961
N18105 X48.794 Y-37.28 Z-12.06
N18110 X48.823 Y-37.166 Z-12.147
N18115 X48.855 Y-37.043 Z-12.223
N18120 X48.888 Y-36.914 Z-12.286
N18125 X48.922 Y-36.78 Z-12.335
N18130 X48.958 Y-36.642 Z-12.371
N18135 X48.994 Y-36.501 Z-12.393
N18140 X49.03 Y-36.358 Z-12.4
N18145 G3 X49.5 Y-33.092 I-14.839 J3.801
N18150 G1 Y-32.972
N18155 X49.38 Y-32.883
N18160 X49.245 Y-32.816
N18165 X49.107 Y-32.759
N18170 X48.965 Y-32.71
N18175 X48.807 Y-32.662
N18180 X48.611 Y-32.611
N18185 X48.365 Y-32.556
N18190 X48.049 Y-32.497
N18195 X47.63 Y-32.436
N18200 X47.037 Y-32.371
N18205 X46.1 Y-32.302
N18210 X45.143 Y-32.268
N18215 X44.185 Y-32.25
N18220 X43.228 Y-32.241
N18225 X42.27 Y-32.237
N18230 X41.312 Y-32.234
N18235 X38.439 Y-32.232
N18240 X1.568 Y-32.226
N18245 X0.625 Y-32.056
N18250 X-0.207 Y-31.582
N18255 X-0.877 Y-30.898
N18260 X-1.375 Y-30.079
N18265 X-1.718 Y-29.186
N18270 X-1.939 Y-28.254
N18275 X-2.072 Y-27.305
N18280 X-2.149 Y-26.351
N18285 X-2.19 Y-25.394
N18290 X-2.213 Y-24.436
N18295 X-2.225 Y-23.479
N18300 X-2.231 Y-22.521
N18305 X-2.234 Y-21.563
N18310 X-2.237 Y-19.648
N18315 X-2.24 Y-11.029
N18320 X-2.241 Y-1.452
N18325 X-2.021 Y-0.52
N18330 X-1.51 Y0.291
N18335 X-0.802 Y0.935
N18340 X0.03 Y1.409
N18345 X0.932 Y1.732
N18350 X1.867 Y1.938
N18355 X2.817 Y2.061
N18360 X3.772 Y2.131
N18365 X4.729 Y2.169
N18370 X5.687 Y2.189
N18375 X6.644 Y2.2
N18380 X7.602 Y2.206
N18385 X8.56 Y2.209
N18390 X10.475 Y2.212
N18395 X16.221 Y2.214
N18400 X63.148 Y2.225
N18405 X63.626 Y2.193
N18410 X64.553 Y1.952
N18415 X65.354 Y1.427
N18420 X65.987 Y0.708
N18425 X66.451 Y-0.13
N18430 X66.766 Y-1.034
N18435 X66.966 Y-1.971
N18440 X67.084 Y-2.921
N18445 X67.151 Y-3.876
N18450 X67.188 Y-4.833
N18455 X67.208 Y-5.791
N18460 X67.218 Y-6.748
N18465 X67.223 Y-7.706
N18470 X67.226 Y-8.664
N18475 X67.228 Y-10.579
N18480 X67.229 Y-22.072
N18485 Y-28.775
N18490 X66.939 Y-29.688
N18495 X66.379 Y-30.466
N18500 X65.639 Y-31.073
N18505 X64.788 Y-31.513
N18510 X63.877 Y-31.808
N18515 X62.938 Y-31.993
N18520 X61.986 Y-32.103
N18525 X61.031 Y-32.164
N18530 X60.073 Y-32.197
N18535 X59.116 Y-32.215
N18540 X58.158 Y-32.224
N18545 X57.201 Y-32.229
N18550 X56.243 Y-32.231
N18555 X54.327 Y-32.233
N18560 X51.454
N18565 X50.501 Y-32.139
N18570 X48.61 Y-31.837
N18575 X47.66 Y-31.716
N18580 X46.706 Y-31.628
N18585 X45.75 Y-31.57
N18590 X44.793 Y-31.534
N18595 X43.836 Y-31.512
N18600 X42.878 Y-31.499
N18605 X41.921 Y-31.492
N18610 X40.963 Y-31.487
