%
(CLAMP_V8_S1)
(T1  D=6. CR=0. TAPER=45DEG - ZMIN=-2. - CHAMFER MILL)
(T16  D=6. CR=0.5 - ZMIN=-12.9 - BULLNOSE END MILL)
N10 G90 G94 G17 G91.1
N15 G21
N20 G53 G0 Z0.
(FACE2)
N25 T16 M6
N30 T1
N35 S15000 M3
N40 G54
N45 M8
N50 G0 X73.145 Y-33.449
N55 G43 Z15. H16
N60 G0 Z5.
N65 G1 Z0.1 F1000.
N70 G18 G3 X72.545 Z-0.5 I-0.6 K0.
N75 G1 X69.979
N80 X-4.979 F1200.
N85 X-5.
N90 G17 G2 Y-28.946 I0. J2.252
N95 G1 X70.
N100 G3 Y-24.442 I0. J2.252
N105 G1 X-5.
N110 G2 Y-19.939 I0. J2.252
N115 G1 X70.
N120 G3 Y-15.436 I0. J2.252
N125 G1 X-5.
N130 G2 Y-10.932 I0. J2.252
N135 G1 X70.
N140 G3 Y-6.429 I0. J2.252
N145 G1 X-5.
N150 G2 Y-1.926 I0. J2.252
N155 G1 X70.
N160 G3 Y2.578 I0. J2.252
N165 G1 X-5.
N170 G18 G3 X-5.6 Z0.1 I0. K0.6 F1000.
N175 G0 Z15.
N180 G17
(2D ADAPTIVE3)
N185 S14000 M3
N190 G0 X44.376 Y-15.756
N195 Z15.
N200 Z5.
N205 Z2.5
N210 G3 X44.479 Y-14.311 Z2.38 I-0.413 J0.756 F400.
N215 X43.124 Y-14.814 Z2.259 I-0.515 J-0.688
N220 X44.141 Y-15.836 Z2.139 I0.837 J-0.184
N225 X44.649 Y-14.491 Z2.019 I-0.179 J0.836
N230 X43.218 Y-14.585 Z1.898 I-0.685 J-0.508
N235 X43.895 Y-15.846 Z1.778 I0.745 J-0.412
N240 X44.76 Y-14.71 Z1.657 I0.067 J0.846
N245 X43.371 Y-14.394 Z1.537 I-0.796 J-0.289
N250 X43.658 Y-15.786 Z1.417 I0.591 J-0.603
N255 X44.803 Y-14.95 Z1.296 I0.303 J0.786
N260 X43.571 Y-14.256 Z1.176 I-0.839 J-0.049
N265 X43.45 Y-15.661 Z1.056 I0.392 J-0.741
N270 X44.776 Y-15.191 Z0.935 I0.511 J0.662
N275 X43.801 Y-14.181 Z0.815 I-0.812 J0.191
N280 X43.287 Y-15.483 Z0.694 I0.162 J-0.816
N285 X44.682 Y-15.412 Z0.574 I0.674 J0.485
N290 X44.04 Y-14.175 Z0.454 I-0.718 J0.412
N295 X43.183 Y-15.268 Z0.333 I-0.077 J-0.822
N300 X44.529 Y-15.595 Z0.213 I0.778 J0.27
N305 X44.27 Y-14.238 Z0.093 I-0.567 J0.595
N310 X43.145 Y-15.034 Z-0.028 I-0.306 J-0.76
N315 X44.333 Y-15.727 Z-0.148 I0.817 J0.036
N320 X44.471 Y-14.362 Z-0.269 I-0.37 J0.727
N325 X43.175 Y-14.801 Z-0.389 I-0.507 J-0.636
N330 X44.108 Y-15.796 Z-0.509 I0.787 J-0.197
N335 X44.626 Y-14.537 Z-0.63 I-0.146 J0.796
N340 X43.27 Y-14.587 Z-0.75 I-0.662 J-0.461
N345 X43.875 Y-15.798 Z-0.87 I0.692 J-0.41
N350 X44.724 Y-14.748 Z-0.991 I0.087 J0.798
N355 X43.42 Y-14.411 Z-1.111 I-0.76 J-0.251
N360 X43.653 Y-15.734 Z-1.231 I0.542 J-0.586
N365 X44.758 Y-14.976 Z-1.352 I0.308 J0.734
N370 X43.614 Y-14.286 Z-1.472 I-0.794 J-0.023
N375 X43.46 Y-15.61 Z-1.593 I0.349 J-0.711
N380 X44.725 Y-15.202 Z-1.713 I0.501 J0.611
N385 X43.833 Y-14.223 Z-1.833 I-0.762 J0.203
N390 X43.312 Y-15.437 Z-1.954 I0.131 J-0.775
N395 X44.63 Y-15.408 Z-2.074 I0.65 J0.439
N400 X44.059 Y-14.224 Z-2.194 I-0.667 J0.409
N405 X43.22 Y-15.231 Z-2.315 I-0.095 J-0.774
N410 X44.481 Y-15.577 Z-2.435 I0.742 J0.233
N415 X44.274 Y-14.29 Z-2.556 I-0.518 J0.577
N420 X43.19 Y-15.009 Z-2.676 I-0.31 J-0.709
N425 X44.291 Y-15.695 Z-2.796 I0.771 J0.011
N430 X44.459 Y-14.413 Z-2.917 I-0.329 J0.695
N435 X43.226 Y-14.79 Z-3.037 I-0.495 J-0.586
N440 X44.078 Y-15.754 Z-3.157 I0.736 J-0.208
N445 X44.601 Y-14.582 Z-3.278 I-0.116 J0.754
N450 X43.321 Y-14.592 Z-3.398 I-0.637 J-0.416
N455 X43.858 Y-15.749 Z-3.519 I0.641 J-0.406
N460 X44.687 Y-14.784 Z-3.639 I0.104 J0.749
N465 X43.468 Y-14.43 Z-3.759 I-0.723 J-0.215
N470 X43.651 Y-15.682 Z-3.88 I0.494 J-0.567
N475 X44.712 Y-14.999 Z-4. I0.311 J0.683
N480 X43.211 I-0.75 J0.
N485 X44.712 I0.75 J0.
N490 S15000
N495 G1 X44.724 Y-14.84 F800.
N500 X44.751 Y-14.615
N505 X44.72 Y-14.391
N510 X44.632 Y-14.182
N515 X44.493 Y-14.003
N520 X44.313 Y-13.866
N525 X44.104 Y-13.779
N530 X43.879 Y-13.75
N535 X43.56
N540 X43.454 Y-13.755
N545 X43.306 Y-13.781
N550 X43.163 Y-13.826
N555 X43.027 Y-13.889
N560 X42.899 Y-13.968
N565 X42.782 Y-14.061
N570 X42.676 Y-14.168
N575 X42.583 Y-14.285
N580 X42.502 Y-14.412
N585 X42.436 Y-14.546
N590 X42.383 Y-14.687
N595 X42.346 Y-14.832
N600 X42.323 Y-14.98
N605 X42.315 Y-15.13
N610 X42.321 Y-15.28
N615 X42.342 Y-15.428
N620 X42.376 Y-15.574
N625 X42.425 Y-15.718
N630 X42.563 Y-15.936
N635 X42.758 Y-16.105
N640 X42.992 Y-16.213
N645 X43.247 Y-16.25
N650 X44.164
N655 X44.365 Y-16.234
N660 X44.475 Y-16.22
N665 X44.597 Y-16.199
N670 X44.741 Y-16.157
N675 X44.878 Y-16.097
N680 X45.007 Y-16.02
N685 X45.129 Y-15.933
N690 X45.243 Y-15.835
N695 X45.347 Y-15.727
N700 X45.441 Y-15.611
N705 X45.526 Y-15.486
N710 X45.599 Y-15.355
N715 X45.627 Y-15.293
N720 X45.671 Y-15.173
N725 X45.698 Y-15.048
N730 X45.707 Y-14.92
N735 G3 X45.085 Y-14.343 Z-3.8 I-0.6 J-0.022
N740 X44.684 Y-14.517 I0.022 J-0.6
N745 G1 X44. Y-15.197
N750 G3 X43.825 Y-15.676 I0.423 J-0.426
N755 X44.475 Y-16.22 Z-4. I0.598 J0.053
N760 G1 X44.585 Y-16.206
N765 X44.767 Y-16.181
N770 X44.868 Y-16.155
N775 X44.968 Y-16.113
N780 X45.169 Y-16.011
N785 X45.178 Y-16.005
N790 X45.37 Y-15.841
N795 X45.406 Y-15.804
N800 X45.547 Y-15.603
N805 X45.571 Y-15.564
N810 X45.612 Y-15.483
N815 X45.64 Y-15.402
N820 X45.695 Y-15.201
N825 X45.706 Y-15.101
N830 Y-14.899
N835 X45.695 Y-14.799
N840 X45.64 Y-14.598
N845 X45.612 Y-14.517
N850 X45.571 Y-14.436
N855 X45.547 Y-14.397
N860 X45.406 Y-14.196
N865 X45.37 Y-14.159
N870 X45.178 Y-13.995
N875 X45.169 Y-13.989
N880 X44.968 Y-13.887
N885 X44.868 Y-13.845
N890 X44.767 Y-13.819
N895 X44.566 Y-13.791
N900 X44.365 Y-13.766
N905 X44.164 Y-13.75
N910 X43.879
N915 X43.811 Y-13.756
N920 X43.738 Y-13.762
N925 X43.664 Y-13.758
N930 X43.56 Y-13.75
N935 X42.695
N940 X42.577 Y-13.756
N945 X42.429 Y-13.779
N950 X42.286 Y-13.823
N955 X42.149 Y-13.886
N960 X42.021 Y-13.963
N965 X41.901 Y-14.054
N970 X41.791 Y-14.156
N975 X41.692 Y-14.268
N980 X41.602 Y-14.389
N985 X41.523 Y-14.516
N990 X41.455 Y-14.65
N995 X41.398 Y-14.789
N1000 X41.351 Y-14.939
N1005 X41.318 Y-15.089
N1010 X41.296 Y-15.237
N1015 X41.293 Y-15.297
N1020 X41.312 Y-15.54
N1025 X41.395 Y-15.769
N1030 X41.536 Y-15.967
N1035 X41.726 Y-16.12
N1040 X41.95 Y-16.217
N1045 X42.191 Y-16.25
N1050 X43.247
N1055 G3 X43.826 Y-15.63 Z-3.8 I-0.021 J0.6
N1060 G1 X43.819 Y-15.557
N1065 X43.803 Y-15.485
N1070 X43.778 Y-15.416
N1075 X43.329 Y-14.356
N1080 X43.261 Y-14.196 Z-3.837
N1085 X43.227 Y-14.115 Z-3.855
N1090 G3 X42.695 Y-13.75 Z-4. I-0.552 J-0.234
N1095 G1 X41.75
N1100 X41.627 Y-13.756
N1105 X41.479 Y-13.78
N1110 X41.335 Y-13.823
N1115 X41.197 Y-13.881
N1120 X41.066 Y-13.953
N1125 X40.942 Y-14.038
N1130 X40.826 Y-14.134
N1135 X40.72 Y-14.239
N1140 X40.623 Y-14.354
N1145 X40.537 Y-14.477
N1150 X40.462 Y-14.607
N1155 X40.398 Y-14.742
N1160 X40.345 Y-14.883
N1165 X40.305 Y-15.029
N1170 X40.277 Y-15.177
N1175 X40.26 Y-15.328
N1180 X40.286 Y-15.565
N1185 X40.374 Y-15.787
N1190 X40.516 Y-15.979
N1195 X40.704 Y-16.126
N1200 X40.924 Y-16.218
N1205 X41.16 Y-16.25
N1210 X42.191
N1215 G3 X42.77 Y-15.63 Z-3.8 I-0.021 J0.6
N1220 G1 X42.761 Y-15.543
N1225 X42.739 Y-15.458
N1230 X42.367 Y-14.362
N1235 X42.312 Y-14.198 Z-3.837
N1240 X42.298 Y-14.157 Z-3.846
N1245 G3 X41.75 Y-13.75 Z-4. I-0.568 J-0.193
N1250 G1 X40.745
N1255 X40.614 Y-13.757
N1260 X40.466 Y-13.78
N1265 X40.322 Y-13.821
N1270 X40.183 Y-13.878
N1275 X40.051 Y-13.949
N1280 X39.926 Y-14.032
N1285 X39.809 Y-14.126
N1290 X39.702 Y-14.231
N1295 X39.604 Y-14.345
N1300 X39.516 Y-14.466
N1305 X39.44 Y-14.596
N1310 X39.375 Y-14.731
N1315 X39.321 Y-14.871
N1320 X39.279 Y-15.015
N1325 X39.25 Y-15.165
N1330 X39.232 Y-15.32
N1335 X39.256 Y-15.559
N1340 X39.342 Y-15.783
N1345 X39.485 Y-15.976
N1350 X39.673 Y-16.124
N1355 X39.894 Y-16.218
N1360 X40.131 Y-16.25
N1365 X41.16
N1370 G3 X41.739 Y-15.63 Z-3.8 I-0.021 J0.6
N1375 G1 X41.73 Y-15.548
N1380 X41.711 Y-15.468
N1385 X41.358 Y-14.363
N1390 X41.305 Y-14.198 Z-3.837
N1395 X41.296 Y-14.167 Z-3.844
N1400 G3 X40.745 Y-13.75 Z-4. I-0.572 J-0.182
N1405 G1 X39.74
N1410 X39.597 Y-13.757
N1415 X39.448 Y-13.779
N1420 X39.304 Y-13.819
N1425 X39.164 Y-13.875
N1430 X39.032 Y-13.944
N1435 X38.906 Y-14.027
N1440 X38.789 Y-14.12
N1445 X38.681 Y-14.224
N1450 X38.582 Y-14.337
N1455 X38.494 Y-14.458
N1460 X38.417 Y-14.587
N1465 X38.351 Y-14.722
N1470 X38.296 Y-14.861
N1475 X38.254 Y-15.005
N1480 X38.223 Y-15.155
N1485 X38.205 Y-15.304
N1490 X38.204 Y-15.315
N1495 X38.227 Y-15.555
N1500 X38.313 Y-15.78
N1505 X38.455 Y-15.974
N1510 X38.644 Y-16.124
N1515 X38.865 Y-16.218
N1520 X39.104 Y-16.25
N1525 X40.131
N1530 G3 X40.71 Y-15.63 Z-3.8 I-0.021 J0.6
N1535 G1 X40.703 Y-15.553
N1540 X40.685 Y-15.477
N1545 X40.35 Y-14.364
N1550 X40.3 Y-14.198 Z-3.837
N1555 X40.293 Y-14.177 Z-3.842
N1560 G3 X39.74 Y-13.75 Z-4. I-0.574 J-0.173
N1565 G1 X38.673
N1570 X38.55 Y-13.756
N1575 X38.402 Y-13.781
N1580 X38.258 Y-13.823
N1585 X38.119 Y-13.881
N1590 X37.988 Y-13.952
N1595 X37.863 Y-14.036
N1600 X37.747 Y-14.131
N1605 X37.64 Y-14.236
N1610 X37.543 Y-14.35
N1615 X37.456 Y-14.472
N1620 X37.38 Y-14.602
N1625 X37.315 Y-14.737
N1630 X37.262 Y-14.877
N1635 X37.221 Y-15.022
N1640 X37.192 Y-15.171
N1645 X37.175 Y-15.324
N1650 X37.2 Y-15.562
N1655 X37.287 Y-15.785
N1660 X37.429 Y-15.977
N1665 X37.617 Y-16.125
N1670 X37.837 Y-16.218
N1675 X38.075 Y-16.25
N1680 X39.104
N1685 G3 X39.682 Y-15.63 Z-3.8 I-0.021 J0.6
N1690 G1 X39.673 Y-15.545
N1695 X39.652 Y-15.462
N1700 X39.289 Y-14.363
N1705 X39.234 Y-14.198 Z-3.837
N1710 X39.222 Y-14.161 Z-3.845
N1715 G3 X38.673 Y-13.75 Z-4. I-0.57 J-0.189
N1720 G1 X37.618
N1725 X37.508 Y-13.755
N1730 X37.36 Y-13.782
N1735 X37.217 Y-13.825
N1740 X37.079 Y-13.885
N1745 X36.948 Y-13.957
N1750 X36.824 Y-14.042
N1755 X36.709 Y-14.137
N1760 X36.603 Y-14.244
N1765 X36.506 Y-14.358
N1770 X36.42 Y-14.481
N1775 X36.345 Y-14.611
N1780 X36.281 Y-14.747
N1785 X36.229 Y-14.887
N1790 X36.189 Y-15.032
N1795 X36.161 Y-15.182
N1800 X36.153 Y-15.254
N1805 X36.161 Y-15.505
N1810 X36.238 Y-15.744
N1815 X36.378 Y-15.952
N1820 X36.57 Y-16.113
N1825 X36.799 Y-16.215
N1830 X37.048 Y-16.25
N1835 X38.075
N1840 G3 X38.653 Y-15.63 Z-3.8 I-0.021 J0.6
N1845 G1 X38.643 Y-15.539
N1850 X38.62 Y-15.452
N1855 X38.237 Y-14.361
N1860 X38.179 Y-14.197 Z-3.837
N1865 X38.163 Y-14.151 Z-3.847
N1870 G3 X37.618 Y-13.75 Z-4. I-0.566 J-0.199
N1875 G1 X36.612
N1880 X36.49 Y-13.756
N1885 X36.342 Y-13.78
N1890 X36.199 Y-13.823
N1895 X36.06 Y-13.881
N1900 X35.928 Y-13.952
N1905 X35.804 Y-14.036
N1910 X35.689 Y-14.132
N1915 X35.582 Y-14.237
N1920 X35.484 Y-14.351
N1925 X35.398 Y-14.474
N1930 X35.322 Y-14.603
N1935 X35.258 Y-14.739
N1940 X35.205 Y-14.879
N1945 X35.163 Y-15.028
N1950 X35.135 Y-15.175
N1955 X35.118 Y-15.329
N1960 X35.144 Y-15.566
N1965 X35.231 Y-15.788
N1970 X35.374 Y-15.979
N1975 X35.562 Y-16.126
N1980 X35.781 Y-16.218
N1985 X36.018 Y-16.25
N1990 X37.048
N1995 G3 X37.626 Y-15.63 Z-3.8 I-0.021 J0.6
N2000 G1 X37.617 Y-15.544
N2005 X37.596 Y-15.46
N2010 X37.228 Y-14.362
N2015 X37.173 Y-14.198 Z-3.837
N2020 X37.16 Y-14.159 Z-3.845
N2025 G3 X36.612 Y-13.75 Z-4. I-0.569 J-0.19
N2030 G1 X35.607
N2035 X35.474 Y-13.757
N2040 X35.326 Y-13.779
N2045 X35.181 Y-13.821
N2050 X35.043 Y-13.877
N2055 X34.91 Y-13.948
N2060 X34.785 Y-14.031
N2065 X34.668 Y-14.125
N2070 X34.561 Y-14.23
N2075 X34.463 Y-14.343
N2080 X34.375 Y-14.465
N2085 X34.299 Y-14.594
N2090 X34.233 Y-14.729
N2095 X34.179 Y-14.869
N2100 X34.138 Y-15.013
N2105 X34.108 Y-15.163
N2110 X34.09 Y-15.312
N2115 Y-15.319
N2120 X34.114 Y-15.558
N2125 X34.2 Y-15.782
N2130 X34.342 Y-15.976
N2135 X34.531 Y-16.124
N2140 X34.752 Y-16.218
N2145 X34.989 Y-16.25
N2150 X36.018
N2155 G3 X36.597 Y-15.63 Z-3.8 I-0.021 J0.6
N2160 G1 X36.588 Y-15.549
N2165 X36.569 Y-15.47
N2170 X36.22 Y-14.363
N2175 X36.167 Y-14.198 Z-3.837
N2180 X36.158 Y-14.169 Z-3.843
N2185 G3 X35.607 Y-13.75 Z-4. I-0.572 J-0.181
N2190 G1 X34.601
N2195 X34.457 Y-13.757
N2200 X34.308 Y-13.779
N2205 X34.163 Y-13.818
N2210 X34.024 Y-13.874
N2215 X33.891 Y-13.944
N2220 X33.766 Y-14.026
N2225 X33.648 Y-14.119
N2230 X33.54 Y-14.223
N2235 X33.441 Y-14.336
N2240 X33.353 Y-14.457
N2245 X33.276 Y-14.586
N2250 X33.21 Y-14.72
N2255 X33.155 Y-14.86
N2260 X33.112 Y-15.004
N2265 X33.081 Y-15.154
N2270 X33.063 Y-15.303
N2275 X33.062 Y-15.314
N2280 X33.085 Y-15.554
N2285 X33.171 Y-15.779
N2290 X33.313 Y-15.974
N2295 X33.502 Y-16.123
N2300 X33.723 Y-16.218
N2305 X33.962 Y-16.25
N2310 X34.989
N2315 G3 X35.568 Y-15.63 Z-3.8 I-0.021 J0.6
N2320 G1 X35.561 Y-15.554
N2325 X35.543 Y-15.479
N2330 X35.211 Y-14.364
N2335 X35.161 Y-14.198 Z-3.837
N2340 X35.156 Y-14.178 Z-3.841
N2345 G3 X34.601 Y-13.75 Z-4. I-0.575 J-0.171
N2350 G1 X33.505
N2355 X33.395 Y-13.756
N2360 X33.247 Y-13.782
N2365 X33.104 Y-13.825
N2370 X32.966 Y-13.885
N2375 X32.835 Y-13.957
N2380 X32.711 Y-14.042
N2385 X32.596 Y-14.138
N2390 X32.49 Y-14.244
N2395 X32.393 Y-14.358
N2400 X32.307 Y-14.481
N2405 X32.232 Y-14.611
N2410 X32.168 Y-14.747
N2415 X32.116 Y-14.888
N2420 X32.076 Y-15.032
N2425 X32.048 Y-15.181
N2430 X32.04 Y-15.254
N2435 X32.048 Y-15.505
N2440 X32.126 Y-15.743
N2445 X32.266 Y-15.951
N2450 X32.458 Y-16.113
N2455 X32.687 Y-16.215
N2460 X32.935 Y-16.25
N2465 X33.962
N2470 G3 X34.54 Y-15.63 Z-3.8 I-0.021 J0.6
N2475 G1 X34.531 Y-15.54
N2480 X34.507 Y-15.452
N2485 X34.125 Y-14.361
N2490 X34.067 Y-14.197 Z-3.837
N2495 X34.051 Y-14.151 Z-3.847
N2500 G3 X33.505 Y-13.75 Z-4. I-0.566 J-0.199
N2505 G1 X32.5
N2510 X32.378 Y-13.756
N2515 X32.23 Y-13.78
N2520 X32.086 Y-13.823
N2525 X31.948 Y-13.881
N2530 X31.816 Y-13.952
N2535 X31.691 Y-14.036
N2540 X31.576 Y-14.132
N2545 X31.469 Y-14.237
N2550 X31.372 Y-14.351
N2555 X31.285 Y-14.474
N2560 X31.21 Y-14.603
N2565 X31.145 Y-14.739
N2570 X31.092 Y-14.879
N2575 X31.051 Y-15.028
N2580 X31.022 Y-15.175
N2585 X31.005 Y-15.328
N2590 X31.031 Y-15.566
N2595 X31.119 Y-15.788
N2600 X31.261 Y-15.979
N2605 X31.449 Y-16.126
N2610 X31.669 Y-16.218
N2615 X31.905 Y-16.25
N2620 X32.935
N2625 G3 X33.514 Y-15.63 Z-3.8 I-0.021 J0.6
N2630 G1 X33.505 Y-15.544
N2635 X33.483 Y-15.46
N2640 X33.116 Y-14.362
N2645 X33.061 Y-14.198 Z-3.837
N2650 X33.048 Y-14.159 Z-3.845
N2655 G3 X32.5 Y-13.75 Z-4. I-0.569 J-0.19
N2660 G1 X31.495
N2665 X31.361 Y-13.757
N2670 X31.213 Y-13.779
N2675 X31.069 Y-13.82
N2680 X30.93 Y-13.877
N2685 X30.798 Y-13.948
N2690 X30.673 Y-14.031
N2695 X30.556 Y-14.125
N2700 X30.448 Y-14.23
N2705 X30.35 Y-14.343
N2710 X30.263 Y-14.465
N2715 X30.186 Y-14.594
N2720 X30.121 Y-14.729
N2725 X30.067 Y-14.869
N2730 X30.025 Y-15.013
N2735 X29.995 Y-15.163
N2740 X29.977 Y-15.312
N2745 Y-15.319
N2750 X30.001 Y-15.558
N2755 X30.087 Y-15.782
N2760 X30.23 Y-15.975
N2765 X30.418 Y-16.124
N2770 X30.639 Y-16.218
N2775 X30.877 Y-16.25
N2780 X31.905
N2785 G3 X32.484 Y-15.63 Z-3.8 I-0.021 J0.6
N2790 G1 X32.476 Y-15.549
N2795 X32.456 Y-15.47
N2800 X32.107 Y-14.363
N2805 X32.055 Y-14.198 Z-3.837
N2810 X32.046 Y-14.169 Z-3.843
N2815 G3 X31.495 Y-13.75 Z-4. I-0.572 J-0.181
N2820 G1 X30.489
N2825 X30.344 Y-13.757
N2830 X30.195 Y-13.779
N2835 X30.051 Y-13.818
N2840 X29.912 Y-13.874
N2845 X29.779 Y-13.944
N2850 X29.653 Y-14.026
N2855 X29.536 Y-14.119
N2860 X29.428 Y-14.223
N2865 X29.329 Y-14.336
N2870 X29.24 Y-14.457
N2875 X29.163 Y-14.585
N2880 X29.097 Y-14.72
N2885 X29.042 Y-14.86
N2890 X28.999 Y-15.004
N2895 X28.969 Y-15.154
N2900 X28.95 Y-15.303
N2905 Y-15.314
N2910 X28.973 Y-15.554
N2915 X29.058 Y-15.779
N2920 X29.2 Y-15.974
N2925 X29.389 Y-16.123
N2930 X29.61 Y-16.218
N2935 X29.849 Y-16.25
N2940 X30.877
N2945 G3 X31.455 Y-15.63 Z-3.8 I-0.021 J0.6
N2950 G1 X31.448 Y-15.554
N2955 X31.431 Y-15.479
N2960 X31.099 Y-14.364
N2965 X31.049 Y-14.198 Z-3.837
N2970 X31.043 Y-14.178 Z-3.841
N2975 G3 X30.489 Y-13.75 Z-4. I-0.575 J-0.171
N2980 G1 X29.423
N2985 X29.297 Y-13.756
N2990 X29.149 Y-13.78
N2995 X29.005 Y-13.822
N3000 X28.867 Y-13.88
N3005 X28.735 Y-13.951
N3010 X28.61 Y-14.035
N3015 X28.494 Y-14.13
N3020 X28.387 Y-14.235
N3025 X28.289 Y-14.349
N3030 X28.202 Y-14.471
N3035 X28.126 Y-14.6
N3040 X28.061 Y-14.735
N3045 X28.008 Y-14.876
N3050 X27.967 Y-15.02
N3055 X27.938 Y-15.169
N3060 X27.921 Y-15.323
N3065 X27.945 Y-15.561
N3070 X28.032 Y-15.784
N3075 X28.174 Y-15.977
N3080 X28.362 Y-16.125
N3085 X28.583 Y-16.218
N3090 X28.82 Y-16.25
N3095 X29.849
N3100 G3 X30.428 Y-15.63 Z-3.8 I-0.021 J0.6
N3105 G1 X30.419 Y-15.546
N3110 X30.398 Y-15.463
N3115 X30.037 Y-14.363
N3120 X29.983 Y-14.198 Z-3.837
N3125 X29.972 Y-14.163 Z-3.845
N3130 G3 X29.423 Y-13.75 Z-4. I-0.57 J-0.187
N3135 G1 X28.367
N3140 X28.256 Y-13.756
N3145 X28.108 Y-13.781
N3150 X27.964 Y-13.825
N3155 X27.826 Y-13.884
N3160 X27.695 Y-13.956
N3165 X27.571 Y-14.041
N3170 X27.455 Y-14.136
N3175 X27.349 Y-14.242
N3180 X27.253 Y-14.357
N3185 X27.166 Y-14.48
N3190 X27.091 Y-14.61
N3195 X27.027 Y-14.745
N3200 X26.975 Y-14.886
N3205 X26.935 Y-15.03
N3210 X26.906 Y-15.18
N3215 X26.901 Y-15.232
N3220 X26.908 Y-15.474
N3225 X26.979 Y-15.706
N3230 X27.109 Y-15.91
N3235 X27.289 Y-16.072
N3240 X27.506 Y-16.181
N3245 X27.744 Y-16.227
N3250 G3 X28.302 Y-15.878 Z-3.852 I0.014 J0.6
N3255 G1 X28.332 Y-15.814 Z-3.837
N3260 X28.405 Y-15.656 Z-3.8
N3265 X28.891 Y-14.601
N3270 X28.92 Y-14.527
N3275 X28.938 Y-14.449
N3280 X28.946 Y-14.37
N3285 G3 X28.367 Y-13.75 Z-4. I-0.6 J0.02
N3290 G1 X28.277
N3295 X28.076 Y-13.754
N3300 X27.473 Y-13.789
N3305 X27.412 Y-13.794
N3310 X27.271 Y-13.814
N3315 X27.171 Y-13.833
N3320 X27.07 Y-13.87
N3325 X26.869 Y-13.966
N3330 X26.823 Y-13.995
N3335 X26.668 Y-14.124
N3340 X26.592 Y-14.196
N3345 X26.467 Y-14.375
N3350 X26.453 Y-14.397
N3355 X26.397 Y-14.497
N3360 X26.36 Y-14.598
N3365 X26.305 Y-14.799
N3370 X26.294 Y-14.899
N3375 Y-15.101
N3380 X26.305 Y-15.201
N3385 X26.36 Y-15.402
N3390 X26.397 Y-15.503
N3395 X26.453 Y-15.603
N3400 X26.467 Y-15.625
N3405 X26.592 Y-15.804
N3410 X26.668 Y-15.876
N3415 X26.823 Y-16.005
N3420 X26.869 Y-16.034
N3425 X27.07 Y-16.13
N3430 X27.171 Y-16.167
N3435 X27.271 Y-16.186
N3440 X27.412 Y-16.206
N3445 X27.473 Y-16.211
N3450 X28.076 Y-16.246
N3455 X28.277 Y-16.25
N3460 X28.82
N3465 X28.912 Y-16.24
N3470 X29.001 Y-16.215
N3475 X29.065 Y-16.178 Z-3.995
N3480 X29.128 Y-16.142 Z-3.982
N3485 X29.189 Y-16.106 Z-3.959
N3490 X29.239 Y-16.045 Z-3.921
N3495 X29.285 Y-15.988 Z-3.871
N3500 X29.326 Y-15.938 Z-3.812
N3505 X29.346 Y-15.885 Z-3.741
N3510 X29.362 Y-15.842 Z-3.663
N3515 X29.374 Y-15.811 Z-3.579
N3520 X29.381 Y-15.792 Z-3.491
N3525 X29.384 Y-15.785 Z-3.4
N3530 G0 Z5.
N3535 X44.376 Y-15.756
N3540 Z-1.5
N3545 S14000
N3550 G3 X44.479 Y-14.311 Z-1.62 I-0.413 J0.756 F400.
N3555 X43.124 Y-14.814 Z-1.741 I-0.515 J-0.688
N3560 X44.141 Y-15.836 Z-1.861 I0.837 J-0.184
N3565 X44.649 Y-14.491 Z-1.981 I-0.179 J0.836
N3570 X43.218 Y-14.585 Z-2.102 I-0.685 J-0.508
N3575 X43.895 Y-15.846 Z-2.222 I0.745 J-0.412
N3580 X44.76 Y-14.71 Z-2.343 I0.067 J0.846
N3585 X43.371 Y-14.394 Z-2.463 I-0.796 J-0.289
N3590 X43.658 Y-15.786 Z-2.583 I0.591 J-0.603
N3595 X44.803 Y-14.95 Z-2.704 I0.303 J0.786
N3600 X43.571 Y-14.256 Z-2.824 I-0.839 J-0.049
N3605 X43.45 Y-15.661 Z-2.944 I0.392 J-0.741
N3610 X44.776 Y-15.191 Z-3.065 I0.511 J0.662
N3615 X43.801 Y-14.181 Z-3.185 I-0.812 J0.191
N3620 X43.287 Y-15.483 Z-3.306 I0.162 J-0.816
N3625 X44.682 Y-15.412 Z-3.426 I0.674 J0.485
N3630 X44.04 Y-14.175 Z-3.546 I-0.718 J0.412
N3635 X43.183 Y-15.268 Z-3.667 I-0.077 J-0.822
N3640 X44.529 Y-15.595 Z-3.787 I0.778 J0.27
N3645 X44.27 Y-14.238 Z-3.907 I-0.567 J0.595
N3650 X43.145 Y-15.034 Z-4.028 I-0.306 J-0.76
N3655 X44.333 Y-15.727 Z-4.148 I0.817 J0.036
N3660 X44.471 Y-14.362 Z-4.269 I-0.37 J0.727
N3665 X43.175 Y-14.801 Z-4.389 I-0.507 J-0.636
N3670 X44.108 Y-15.796 Z-4.509 I0.787 J-0.197
N3675 X44.626 Y-14.537 Z-4.63 I-0.146 J0.796
N3680 X43.27 Y-14.587 Z-4.75 I-0.662 J-0.461
N3685 X43.875 Y-15.798 Z-4.87 I0.692 J-0.41
N3690 X44.724 Y-14.748 Z-4.991 I0.087 J0.798
N3695 X43.42 Y-14.411 Z-5.111 I-0.76 J-0.251
N3700 X43.653 Y-15.734 Z-5.231 I0.542 J-0.586
N3705 X44.758 Y-14.976 Z-5.352 I0.308 J0.734
N3710 X43.614 Y-14.286 Z-5.472 I-0.794 J-0.023
N3715 X43.46 Y-15.61 Z-5.593 I0.349 J-0.711
N3720 X44.725 Y-15.202 Z-5.713 I0.501 J0.611
N3725 X43.833 Y-14.223 Z-5.833 I-0.762 J0.203
N3730 X43.312 Y-15.437 Z-5.954 I0.131 J-0.775
N3735 X44.63 Y-15.408 Z-6.074 I0.65 J0.439
N3740 X44.059 Y-14.224 Z-6.194 I-0.667 J0.409
N3745 X43.22 Y-15.231 Z-6.315 I-0.095 J-0.774
N3750 X44.481 Y-15.577 Z-6.435 I0.742 J0.233
N3755 X44.274 Y-14.29 Z-6.556 I-0.518 J0.577
N3760 X43.19 Y-15.009 Z-6.676 I-0.31 J-0.709
N3765 X44.291 Y-15.695 Z-6.796 I0.771 J0.011
N3770 X44.459 Y-14.413 Z-6.917 I-0.329 J0.695
N3775 X43.226 Y-14.79 Z-7.037 I-0.495 J-0.586
N3780 X44.078 Y-15.754 Z-7.157 I0.736 J-0.208
N3785 X44.601 Y-14.582 Z-7.278 I-0.116 J0.754
N3790 X43.321 Y-14.592 Z-7.398 I-0.637 J-0.416
N3795 X43.858 Y-15.749 Z-7.519 I0.641 J-0.406
N3800 X44.687 Y-14.784 Z-7.639 I0.104 J0.749
N3805 X43.468 Y-14.43 Z-7.759 I-0.723 J-0.215
N3810 X43.651 Y-15.682 Z-7.88 I0.494 J-0.567
N3815 X44.712 Y-14.999 Z-8. I0.311 J0.683
N3820 X43.211 I-0.75 J0.
N3825 X44.712 I0.75 J0.
N3830 S15000
N3835 G1 X44.724 Y-14.84 F800.
N3840 X44.751 Y-14.615
N3845 X44.72 Y-14.391
N3850 X44.632 Y-14.182
N3855 X44.493 Y-14.003
N3860 X44.313 Y-13.866
N3865 X44.104 Y-13.779
N3870 X43.879 Y-13.75
N3875 X43.56
N3880 X43.454 Y-13.755
N3885 X43.306 Y-13.781
N3890 X43.163 Y-13.826
N3895 X43.027 Y-13.889
N3900 X42.899 Y-13.968
N3905 X42.782 Y-14.061
N3910 X42.676 Y-14.168
N3915 X42.583 Y-14.285
N3920 X42.502 Y-14.412
N3925 X42.436 Y-14.546
N3930 X42.383 Y-14.687
N3935 X42.346 Y-14.832
N3940 X42.323 Y-14.98
N3945 X42.315 Y-15.13
N3950 X42.321 Y-15.28
N3955 X42.342 Y-15.428
N3960 X42.376 Y-15.574
N3965 X42.425 Y-15.718
N3970 X42.563 Y-15.936
N3975 X42.758 Y-16.105
N3980 X42.992 Y-16.213
N3985 X43.247 Y-16.25
N3990 X44.164
N3995 X44.365 Y-16.234
N4000 X44.475 Y-16.22
N4005 X44.597 Y-16.199
N4010 X44.741 Y-16.157
N4015 X44.878 Y-16.097
N4020 X45.007 Y-16.02
N4025 X45.129 Y-15.933
N4030 X45.243 Y-15.835
N4035 X45.347 Y-15.727
N4040 X45.441 Y-15.611
N4045 X45.526 Y-15.486
N4050 X45.599 Y-15.355
N4055 X45.627 Y-15.293
N4060 X45.671 Y-15.173
N4065 X45.698 Y-15.048
N4070 X45.707 Y-14.92
N4075 G3 X45.085 Y-14.343 Z-7.8 I-0.6 J-0.022
N4080 X44.684 Y-14.517 I0.022 J-0.6
N4085 G1 X44. Y-15.197
N4090 G3 X43.825 Y-15.676 I0.423 J-0.426
N4095 X44.475 Y-16.22 Z-8. I0.598 J0.053
N4100 G1 X44.585 Y-16.206
N4105 X44.767 Y-16.181
N4110 X44.868 Y-16.155
N4115 X44.968 Y-16.113
N4120 X45.169 Y-16.011
N4125 X45.178 Y-16.005
N4130 X45.37 Y-15.841
N4135 X45.406 Y-15.804
N4140 X45.547 Y-15.603
N4145 X45.571 Y-15.564
N4150 X45.612 Y-15.483
N4155 X45.64 Y-15.402
N4160 X45.695 Y-15.201
N4165 X45.706 Y-15.101
N4170 Y-14.899
N4175 X45.695 Y-14.799
N4180 X45.64 Y-14.598
N4185 X45.612 Y-14.517
N4190 X45.571 Y-14.436
N4195 X45.547 Y-14.397
N4200 X45.406 Y-14.196
N4205 X45.37 Y-14.159
N4210 X45.178 Y-13.995
N4215 X45.169 Y-13.989
N4220 X44.968 Y-13.887
N4225 X44.868 Y-13.845
N4230 X44.767 Y-13.819
N4235 X44.566 Y-13.791
N4240 X44.365 Y-13.766
N4245 X44.164 Y-13.75
N4250 X43.879
N4255 X43.811 Y-13.756
N4260 X43.738 Y-13.762
N4265 X43.664 Y-13.758
N4270 X43.56 Y-13.75
N4275 X42.695
N4280 X42.577 Y-13.756
N4285 X42.429 Y-13.779
N4290 X42.286 Y-13.823
N4295 X42.149 Y-13.886
N4300 X42.021 Y-13.963
N4305 X41.901 Y-14.054
N4310 X41.791 Y-14.156
N4315 X41.692 Y-14.268
N4320 X41.602 Y-14.389
N4325 X41.523 Y-14.516
N4330 X41.455 Y-14.65
N4335 X41.398 Y-14.789
N4340 X41.351 Y-14.939
N4345 X41.318 Y-15.089
N4350 X41.296 Y-15.237
N4355 X41.293 Y-15.297
N4360 X41.312 Y-15.54
N4365 X41.395 Y-15.769
N4370 X41.536 Y-15.967
N4375 X41.726 Y-16.12
N4380 X41.95 Y-16.217
N4385 X42.191 Y-16.25
N4390 X43.247
N4395 G3 X43.826 Y-15.63 Z-7.8 I-0.021 J0.6
N4400 G1 X43.819 Y-15.557
N4405 X43.803 Y-15.485
N4410 X43.778 Y-15.416
N4415 X43.329 Y-14.356
N4420 X43.261 Y-14.196 Z-7.837
N4425 X43.227 Y-14.115 Z-7.855
N4430 G3 X42.695 Y-13.75 Z-8. I-0.552 J-0.234
N4435 G1 X41.75
N4440 X41.627 Y-13.756
N4445 X41.479 Y-13.78
N4450 X41.335 Y-13.823
N4455 X41.197 Y-13.881
N4460 X41.066 Y-13.953
N4465 X40.942 Y-14.038
N4470 X40.826 Y-14.134
N4475 X40.72 Y-14.239
N4480 X40.623 Y-14.354
N4485 X40.537 Y-14.477
N4490 X40.462 Y-14.607
N4495 X40.398 Y-14.742
N4500 X40.345 Y-14.883
N4505 X40.305 Y-15.029
N4510 X40.277 Y-15.177
N4515 X40.26 Y-15.328
N4520 X40.286 Y-15.565
N4525 X40.374 Y-15.787
N4530 X40.516 Y-15.979
N4535 X40.704 Y-16.126
N4540 X40.924 Y-16.218
N4545 X41.16 Y-16.25
N4550 X42.191
N4555 G3 X42.77 Y-15.63 Z-7.8 I-0.021 J0.6
N4560 G1 X42.761 Y-15.543
N4565 X42.739 Y-15.458
N4570 X42.367 Y-14.362
N4575 X42.312 Y-14.198 Z-7.837
N4580 X42.298 Y-14.157 Z-7.846
N4585 G3 X41.75 Y-13.75 Z-8. I-0.568 J-0.193
N4590 G1 X40.745
N4595 X40.614 Y-13.757
N4600 X40.466 Y-13.78
N4605 X40.322 Y-13.821
N4610 X40.183 Y-13.878
N4615 X40.051 Y-13.949
N4620 X39.926 Y-14.032
N4625 X39.809 Y-14.126
N4630 X39.702 Y-14.231
N4635 X39.604 Y-14.345
N4640 X39.516 Y-14.466
N4645 X39.44 Y-14.596
N4650 X39.375 Y-14.731
N4655 X39.321 Y-14.871
N4660 X39.279 Y-15.015
N4665 X39.25 Y-15.165
N4670 X39.232 Y-15.32
N4675 X39.256 Y-15.559
N4680 X39.342 Y-15.783
N4685 X39.485 Y-15.976
N4690 X39.673 Y-16.124
N4695 X39.894 Y-16.218
N4700 X40.131 Y-16.25
N4705 X41.16
N4710 G3 X41.739 Y-15.63 Z-7.8 I-0.021 J0.6
N4715 G1 X41.73 Y-15.548
N4720 X41.711 Y-15.468
N4725 X41.358 Y-14.363
N4730 X41.305 Y-14.198 Z-7.837
N4735 X41.296 Y-14.167 Z-7.844
N4740 G3 X40.745 Y-13.75 Z-8. I-0.572 J-0.182
N4745 G1 X39.74
N4750 X39.597 Y-13.757
N4755 X39.448 Y-13.779
N4760 X39.304 Y-13.819
N4765 X39.164 Y-13.875
N4770 X39.032 Y-13.944
N4775 X38.906 Y-14.027
N4780 X38.789 Y-14.12
N4785 X38.681 Y-14.224
N4790 X38.582 Y-14.337
N4795 X38.494 Y-14.458
N4800 X38.417 Y-14.587
N4805 X38.351 Y-14.722
N4810 X38.296 Y-14.861
N4815 X38.254 Y-15.005
N4820 X38.223 Y-15.155
N4825 X38.205 Y-15.304
N4830 X38.204 Y-15.315
N4835 X38.227 Y-15.555
N4840 X38.313 Y-15.78
N4845 X38.455 Y-15.974
N4850 X38.644 Y-16.124
N4855 X38.865 Y-16.218
N4860 X39.104 Y-16.25
N4865 X40.131
N4870 G3 X40.71 Y-15.63 Z-7.8 I-0.021 J0.6
N4875 G1 X40.703 Y-15.553
N4880 X40.685 Y-15.477
N4885 X40.35 Y-14.364
N4890 X40.3 Y-14.198 Z-7.837
N4895 X40.293 Y-14.177 Z-7.842
N4900 G3 X39.74 Y-13.75 Z-8. I-0.574 J-0.173
N4905 G1 X38.673
N4910 X38.55 Y-13.756
N4915 X38.402 Y-13.781
N4920 X38.258 Y-13.823
N4925 X38.119 Y-13.881
N4930 X37.988 Y-13.952
N4935 X37.863 Y-14.036
N4940 X37.747 Y-14.131
N4945 X37.64 Y-14.236
N4950 X37.543 Y-14.35
N4955 X37.456 Y-14.472
N4960 X37.38 Y-14.602
N4965 X37.315 Y-14.737
N4970 X37.262 Y-14.877
N4975 X37.221 Y-15.022
N4980 X37.192 Y-15.171
N4985 X37.175 Y-15.324
N4990 X37.2 Y-15.562
N4995 X37.287 Y-15.785
N5000 X37.429 Y-15.977
N5005 X37.617 Y-16.125
N5010 X37.837 Y-16.218
N5015 X38.075 Y-16.25
N5020 X39.104
N5025 G3 X39.682 Y-15.63 Z-7.8 I-0.021 J0.6
N5030 G1 X39.673 Y-15.545
N5035 X39.652 Y-15.462
N5040 X39.289 Y-14.363
N5045 X39.234 Y-14.198 Z-7.837
N5050 X39.222 Y-14.161 Z-7.845
N5055 G3 X38.673 Y-13.75 Z-8. I-0.57 J-0.189
N5060 G1 X37.618
N5065 X37.508 Y-13.755
N5070 X37.36 Y-13.782
N5075 X37.217 Y-13.825
N5080 X37.079 Y-13.885
N5085 X36.948 Y-13.957
N5090 X36.824 Y-14.042
N5095 X36.709 Y-14.137
N5100 X36.603 Y-14.244
N5105 X36.506 Y-14.358
N5110 X36.42 Y-14.481
N5115 X36.345 Y-14.611
N5120 X36.281 Y-14.747
N5125 X36.229 Y-14.887
N5130 X36.189 Y-15.032
N5135 X36.161 Y-15.182
N5140 X36.153 Y-15.254
N5145 X36.161 Y-15.505
N5150 X36.238 Y-15.744
N5155 X36.378 Y-15.952
N5160 X36.57 Y-16.113
N5165 X36.799 Y-16.215
N5170 X37.048 Y-16.25
N5175 X38.075
N5180 G3 X38.653 Y-15.63 Z-7.8 I-0.021 J0.6
N5185 G1 X38.643 Y-15.539
N5190 X38.62 Y-15.452
N5195 X38.237 Y-14.361
N5200 X38.179 Y-14.197 Z-7.837
N5205 X38.163 Y-14.151 Z-7.847
N5210 G3 X37.618 Y-13.75 Z-8. I-0.566 J-0.199
N5215 G1 X36.612
N5220 X36.49 Y-13.756
N5225 X36.342 Y-13.78
N5230 X36.199 Y-13.823
N5235 X36.06 Y-13.881
N5240 X35.928 Y-13.952
N5245 X35.804 Y-14.036
N5250 X35.689 Y-14.132
N5255 X35.582 Y-14.237
N5260 X35.484 Y-14.351
N5265 X35.398 Y-14.474
N5270 X35.322 Y-14.603
N5275 X35.258 Y-14.739
N5280 X35.205 Y-14.879
N5285 X35.163 Y-15.028
N5290 X35.135 Y-15.175
N5295 X35.118 Y-15.329
N5300 X35.144 Y-15.566
N5305 X35.231 Y-15.788
N5310 X35.374 Y-15.979
N5315 X35.562 Y-16.126
N5320 X35.781 Y-16.218
N5325 X36.018 Y-16.25
N5330 X37.048
N5335 G3 X37.626 Y-15.63 Z-7.8 I-0.021 J0.6
N5340 G1 X37.617 Y-15.544
N5345 X37.596 Y-15.46
N5350 X37.228 Y-14.362
N5355 X37.173 Y-14.198 Z-7.837
N5360 X37.16 Y-14.159 Z-7.845
N5365 G3 X36.612 Y-13.75 Z-8. I-0.569 J-0.19
N5370 G1 X35.607
N5375 X35.474 Y-13.757
N5380 X35.326 Y-13.779
N5385 X35.181 Y-13.821
N5390 X35.043 Y-13.877
N5395 X34.91 Y-13.948
N5400 X34.785 Y-14.031
N5405 X34.668 Y-14.125
N5410 X34.561 Y-14.23
N5415 X34.463 Y-14.343
N5420 X34.375 Y-14.465
N5425 X34.299 Y-14.594
N5430 X34.233 Y-14.729
N5435 X34.179 Y-14.869
N5440 X34.138 Y-15.013
N5445 X34.108 Y-15.163
N5450 X34.09 Y-15.312
N5455 Y-15.319
N5460 X34.114 Y-15.558
N5465 X34.2 Y-15.782
N5470 X34.342 Y-15.976
N5475 X34.531 Y-16.124
N5480 X34.752 Y-16.218
N5485 X34.989 Y-16.25
N5490 X36.018
N5495 G3 X36.597 Y-15.63 Z-7.8 I-0.021 J0.6
N5500 G1 X36.588 Y-15.549
N5505 X36.569 Y-15.47
N5510 X36.22 Y-14.363
N5515 X36.167 Y-14.198 Z-7.837
N5520 X36.158 Y-14.169 Z-7.843
N5525 G3 X35.607 Y-13.75 Z-8. I-0.572 J-0.181
N5530 G1 X34.601
N5535 X34.457 Y-13.757
N5540 X34.308 Y-13.779
N5545 X34.163 Y-13.818
N5550 X34.024 Y-13.874
N5555 X33.891 Y-13.944
N5560 X33.766 Y-14.026
N5565 X33.648 Y-14.119
N5570 X33.54 Y-14.223
N5575 X33.441 Y-14.336
N5580 X33.353 Y-14.457
N5585 X33.276 Y-14.586
N5590 X33.21 Y-14.72
N5595 X33.155 Y-14.86
N5600 X33.112 Y-15.004
N5605 X33.081 Y-15.154
N5610 X33.063 Y-15.303
N5615 X33.062 Y-15.314
N5620 X33.085 Y-15.554
N5625 X33.171 Y-15.779
N5630 X33.313 Y-15.974
N5635 X33.502 Y-16.123
N5640 X33.723 Y-16.218
N5645 X33.962 Y-16.25
N5650 X34.989
N5655 G3 X35.568 Y-15.63 Z-7.8 I-0.021 J0.6
N5660 G1 X35.561 Y-15.554
N5665 X35.543 Y-15.479
N5670 X35.211 Y-14.364
N5675 X35.161 Y-14.198 Z-7.837
N5680 X35.156 Y-14.178 Z-7.841
N5685 G3 X34.601 Y-13.75 Z-8. I-0.575 J-0.171
N5690 G1 X33.505
N5695 X33.395 Y-13.756
N5700 X33.247 Y-13.782
N5705 X33.104 Y-13.825
N5710 X32.966 Y-13.885
N5715 X32.835 Y-13.957
N5720 X32.711 Y-14.042
N5725 X32.596 Y-14.138
N5730 X32.49 Y-14.244
N5735 X32.393 Y-14.358
N5740 X32.307 Y-14.481
N5745 X32.232 Y-14.611
N5750 X32.168 Y-14.747
N5755 X32.116 Y-14.888
N5760 X32.076 Y-15.032
N5765 X32.048 Y-15.181
N5770 X32.04 Y-15.254
N5775 X32.048 Y-15.505
N5780 X32.126 Y-15.743
N5785 X32.266 Y-15.951
N5790 X32.458 Y-16.113
N5795 X32.687 Y-16.215
N5800 X32.935 Y-16.25
N5805 X33.962
N5810 G3 X34.54 Y-15.63 Z-7.8 I-0.021 J0.6
N5815 G1 X34.531 Y-15.54
N5820 X34.507 Y-15.452
N5825 X34.125 Y-14.361
N5830 X34.067 Y-14.197 Z-7.837
N5835 X34.051 Y-14.151 Z-7.847
N5840 G3 X33.505 Y-13.75 Z-8. I-0.566 J-0.199
N5845 G1 X32.5
N5850 X32.378 Y-13.756
N5855 X32.23 Y-13.78
N5860 X32.086 Y-13.823
N5865 X31.948 Y-13.881
N5870 X31.816 Y-13.952
N5875 X31.691 Y-14.036
N5880 X31.576 Y-14.132
N5885 X31.469 Y-14.237
N5890 X31.372 Y-14.351
N5895 X31.285 Y-14.474
N5900 X31.21 Y-14.603
N5905 X31.145 Y-14.739
N5910 X31.092 Y-14.879
N5915 X31.051 Y-15.028
N5920 X31.022 Y-15.175
N5925 X31.005 Y-15.328
N5930 X31.031 Y-15.566
N5935 X31.119 Y-15.788
N5940 X31.261 Y-15.979
N5945 X31.449 Y-16.126
N5950 X31.669 Y-16.218
N5955 X31.905 Y-16.25
N5960 X32.935
N5965 G3 X33.514 Y-15.63 Z-7.8 I-0.021 J0.6
N5970 G1 X33.505 Y-15.544
N5975 X33.483 Y-15.46
N5980 X33.116 Y-14.362
N5985 X33.061 Y-14.198 Z-7.837
N5990 X33.048 Y-14.159 Z-7.845
N5995 G3 X32.5 Y-13.75 Z-8. I-0.569 J-0.19
N6000 G1 X31.495
N6005 X31.361 Y-13.757
N6010 X31.213 Y-13.779
N6015 X31.069 Y-13.82
N6020 X30.93 Y-13.877
N6025 X30.798 Y-13.948
N6030 X30.673 Y-14.031
N6035 X30.556 Y-14.125
N6040 X30.448 Y-14.23
N6045 X30.35 Y-14.343
N6050 X30.263 Y-14.465
N6055 X30.186 Y-14.594
N6060 X30.121 Y-14.729
N6065 X30.067 Y-14.869
N6070 X30.025 Y-15.013
N6075 X29.995 Y-15.163
N6080 X29.977 Y-15.312
N6085 Y-15.319
N6090 X30.001 Y-15.558
N6095 X30.087 Y-15.782
N6100 X30.23 Y-15.975
N6105 X30.418 Y-16.124
N6110 X30.639 Y-16.218
N6115 X30.877 Y-16.25
N6120 X31.905
N6125 G3 X32.484 Y-15.63 Z-7.8 I-0.021 J0.6
N6130 G1 X32.476 Y-15.549
N6135 X32.456 Y-15.47
N6140 X32.107 Y-14.363
N6145 X32.055 Y-14.198 Z-7.837
N6150 X32.046 Y-14.169 Z-7.843
N6155 G3 X31.495 Y-13.75 Z-8. I-0.572 J-0.181
N6160 G1 X30.489
N6165 X30.344 Y-13.757
N6170 X30.195 Y-13.779
N6175 X30.051 Y-13.818
N6180 X29.912 Y-13.874
N6185 X29.779 Y-13.944
N6190 X29.653 Y-14.026
N6195 X29.536 Y-14.119
N6200 X29.428 Y-14.223
N6205 X29.329 Y-14.336
N6210 X29.24 Y-14.457
N6215 X29.163 Y-14.585
N6220 X29.097 Y-14.72
N6225 X29.042 Y-14.86
N6230 X28.999 Y-15.004
N6235 X28.969 Y-15.154
N6240 X28.95 Y-15.303
N6245 Y-15.314
N6250 X28.973 Y-15.554
N6255 X29.058 Y-15.779
N6260 X29.2 Y-15.974
N6265 X29.389 Y-16.123
N6270 X29.61 Y-16.218
N6275 X29.849 Y-16.25
N6280 X30.877
N6285 G3 X31.455 Y-15.63 Z-7.8 I-0.021 J0.6
N6290 G1 X31.448 Y-15.554
N6295 X31.431 Y-15.479
N6300 X31.099 Y-14.364
N6305 X31.049 Y-14.198 Z-7.837
N6310 X31.043 Y-14.178 Z-7.841
N6315 G3 X30.489 Y-13.75 Z-8. I-0.575 J-0.171
N6320 G1 X29.423
N6325 X29.297 Y-13.756
N6330 X29.149 Y-13.78
N6335 X29.005 Y-13.822
N6340 X28.867 Y-13.88
N6345 X28.735 Y-13.951
N6350 X28.61 Y-14.035
N6355 X28.494 Y-14.13
N6360 X28.387 Y-14.235
N6365 X28.289 Y-14.349
N6370 X28.202 Y-14.471
N6375 X28.126 Y-14.6
N6380 X28.061 Y-14.735
N6385 X28.008 Y-14.876
N6390 X27.967 Y-15.02
N6395 X27.938 Y-15.169
N6400 X27.921 Y-15.323
N6405 X27.945 Y-15.561
N6410 X28.032 Y-15.784
N6415 X28.174 Y-15.977
N6420 X28.362 Y-16.125
N6425 X28.583 Y-16.218
N6430 X28.82 Y-16.25
N6435 X29.849
N6440 G3 X30.428 Y-15.63 Z-7.8 I-0.021 J0.6
N6445 G1 X30.419 Y-15.546
N6450 X30.398 Y-15.463
N6455 X30.037 Y-14.363
N6460 X29.983 Y-14.198 Z-7.837
N6465 X29.972 Y-14.163 Z-7.845
N6470 G3 X29.423 Y-13.75 Z-8. I-0.57 J-0.187
N6475 G1 X28.367
N6480 X28.256 Y-13.756
N6485 X28.108 Y-13.781
N6490 X27.964 Y-13.825
N6495 X27.826 Y-13.884
N6500 X27.695 Y-13.956
N6505 X27.571 Y-14.041
N6510 X27.455 Y-14.136
N6515 X27.349 Y-14.242
N6520 X27.253 Y-14.357
N6525 X27.166 Y-14.48
N6530 X27.091 Y-14.61
N6535 X27.027 Y-14.745
N6540 X26.975 Y-14.886
N6545 X26.935 Y-15.03
N6550 X26.906 Y-15.18
N6555 X26.901 Y-15.232
N6560 X26.908 Y-15.474
N6565 X26.979 Y-15.706
N6570 X27.109 Y-15.91
N6575 X27.289 Y-16.072
N6580 X27.506 Y-16.181
N6585 X27.744 Y-16.227
N6590 G3 X28.302 Y-15.878 Z-7.852 I0.014 J0.6
N6595 G1 X28.332 Y-15.814 Z-7.837
N6600 X28.405 Y-15.656 Z-7.8
N6605 X28.891 Y-14.601
N6610 X28.92 Y-14.527
N6615 X28.938 Y-14.449
N6620 X28.946 Y-14.37
N6625 G3 X28.367 Y-13.75 Z-8. I-0.6 J0.02
N6630 G1 X28.277
N6635 X28.076 Y-13.754
N6640 X27.473 Y-13.789
N6645 X27.412 Y-13.794
N6650 X27.271 Y-13.814
N6655 X27.171 Y-13.833
N6660 X27.07 Y-13.87
N6665 X26.869 Y-13.966
N6670 X26.823 Y-13.995
N6675 X26.668 Y-14.124
N6680 X26.592 Y-14.196
N6685 X26.467 Y-14.375
N6690 X26.453 Y-14.397
N6695 X26.397 Y-14.497
N6700 X26.36 Y-14.598
N6705 X26.305 Y-14.799
N6710 X26.294 Y-14.899
N6715 Y-15.101
N6720 X26.305 Y-15.201
N6725 X26.36 Y-15.402
N6730 X26.397 Y-15.503
N6735 X26.453 Y-15.603
N6740 X26.467 Y-15.625
N6745 X26.592 Y-15.804
N6750 X26.668 Y-15.876
N6755 X26.823 Y-16.005
N6760 X26.869 Y-16.034
N6765 X27.07 Y-16.13
N6770 X27.171 Y-16.167
N6775 X27.271 Y-16.186
N6780 X27.412 Y-16.206
N6785 X27.473 Y-16.211
N6790 X28.076 Y-16.246
N6795 X28.277 Y-16.25
N6800 X28.82
N6805 X28.912 Y-16.24
N6810 X29.001 Y-16.215
N6815 X29.065 Y-16.178 Z-7.995
N6820 X29.128 Y-16.142 Z-7.982
N6825 X29.189 Y-16.106 Z-7.959
N6830 X29.239 Y-16.045 Z-7.921
N6835 X29.285 Y-15.988 Z-7.871
N6840 X29.326 Y-15.938 Z-7.812
N6845 X29.346 Y-15.885 Z-7.741
N6850 X29.362 Y-15.842 Z-7.663
N6855 X29.374 Y-15.811 Z-7.579
N6860 X29.381 Y-15.792 Z-7.491
N6865 X29.384 Y-15.785 Z-7.4
N6870 G0 Z5.
N6875 X44.376 Y-15.756
N6880 Z-5.5
N6885 S14000
N6890 G3 X44.479 Y-14.311 Z-5.62 I-0.413 J0.756 F400.
N6895 X43.124 Y-14.814 Z-5.741 I-0.515 J-0.688
N6900 X44.141 Y-15.836 Z-5.861 I0.837 J-0.184
N6905 X44.649 Y-14.491 Z-5.981 I-0.179 J0.836
N6910 X43.218 Y-14.585 Z-6.102 I-0.685 J-0.508
N6915 X43.895 Y-15.846 Z-6.222 I0.745 J-0.412
N6920 X44.76 Y-14.71 Z-6.343 I0.067 J0.846
N6925 X43.371 Y-14.394 Z-6.463 I-0.796 J-0.289
N6930 X43.658 Y-15.786 Z-6.583 I0.591 J-0.603
N6935 X44.803 Y-14.95 Z-6.704 I0.303 J0.786
N6940 X43.571 Y-14.256 Z-6.824 I-0.839 J-0.049
N6945 X43.45 Y-15.661 Z-6.944 I0.392 J-0.741
N6950 X44.776 Y-15.191 Z-7.065 I0.511 J0.662
N6955 X43.801 Y-14.181 Z-7.185 I-0.812 J0.191
N6960 X43.287 Y-15.483 Z-7.306 I0.162 J-0.816
N6965 X44.682 Y-15.412 Z-7.426 I0.674 J0.485
N6970 X44.04 Y-14.175 Z-7.546 I-0.718 J0.412
N6975 X43.183 Y-15.268 Z-7.667 I-0.077 J-0.822
N6980 X44.529 Y-15.595 Z-7.787 I0.778 J0.27
N6985 X44.27 Y-14.238 Z-7.907 I-0.567 J0.595
N6990 X43.145 Y-15.034 Z-8.028 I-0.306 J-0.76
N6995 X44.333 Y-15.727 Z-8.148 I0.817 J0.036
N7000 X44.471 Y-14.362 Z-8.269 I-0.37 J0.727
N7005 X43.175 Y-14.801 Z-8.389 I-0.507 J-0.636
N7010 X44.108 Y-15.796 Z-8.509 I0.787 J-0.197
N7015 X44.626 Y-14.537 Z-8.63 I-0.146 J0.796
N7020 X43.27 Y-14.587 Z-8.75 I-0.662 J-0.461
N7025 X43.875 Y-15.798 Z-8.87 I0.692 J-0.41
N7030 X44.724 Y-14.748 Z-8.991 I0.087 J0.798
N7035 X43.42 Y-14.411 Z-9.111 I-0.76 J-0.251
N7040 X43.653 Y-15.734 Z-9.231 I0.542 J-0.586
N7045 X44.758 Y-14.976 Z-9.352 I0.308 J0.734
N7050 X43.614 Y-14.286 Z-9.472 I-0.794 J-0.023
N7055 X43.46 Y-15.61 Z-9.593 I0.349 J-0.711
N7060 X44.725 Y-15.202 Z-9.713 I0.501 J0.611
N7065 X43.833 Y-14.223 Z-9.833 I-0.762 J0.203
N7070 X43.312 Y-15.437 Z-9.954 I0.131 J-0.775
N7075 X44.63 Y-15.408 Z-10.074 I0.65 J0.439
N7080 X44.059 Y-14.224 Z-10.194 I-0.667 J0.409
N7085 X43.22 Y-15.231 Z-10.315 I-0.095 J-0.774
N7090 X44.481 Y-15.577 Z-10.435 I0.742 J0.233
N7095 X44.274 Y-14.29 Z-10.556 I-0.518 J0.577
N7100 X43.19 Y-15.009 Z-10.676 I-0.31 J-0.709
N7105 X44.291 Y-15.695 Z-10.796 I0.771 J0.011
N7110 X44.459 Y-14.413 Z-10.917 I-0.329 J0.695
N7115 X43.226 Y-14.79 Z-11.037 I-0.495 J-0.586
N7120 X44.078 Y-15.754 Z-11.157 I0.736 J-0.208
N7125 X44.601 Y-14.582 Z-11.278 I-0.116 J0.754
N7130 X43.321 Y-14.592 Z-11.398 I-0.637 J-0.416
N7135 X43.858 Y-15.749 Z-11.519 I0.641 J-0.406
N7140 X44.687 Y-14.784 Z-11.639 I0.104 J0.749
N7145 X43.468 Y-14.43 Z-11.759 I-0.723 J-0.215
N7150 X43.651 Y-15.682 Z-11.88 I0.494 J-0.567
N7155 X44.712 Y-14.999 Z-12. I0.311 J0.683
N7160 X43.211 I-0.75 J0.
N7165 X44.712 I0.75 J0.
N7170 S15000
N7175 G1 X44.724 Y-14.84 F800.
N7180 X44.751 Y-14.615
N7185 X44.72 Y-14.391
N7190 X44.632 Y-14.182
N7195 X44.493 Y-14.003
N7200 X44.313 Y-13.866
N7205 X44.104 Y-13.779
N7210 X43.879 Y-13.75
N7215 X43.56
N7220 X43.454 Y-13.755
N7225 X43.306 Y-13.781
N7230 X43.163 Y-13.826
N7235 X43.027 Y-13.889
N7240 X42.899 Y-13.968
N7245 X42.782 Y-14.061
N7250 X42.676 Y-14.168
N7255 X42.583 Y-14.285
N7260 X42.502 Y-14.412
N7265 X42.436 Y-14.546
N7270 X42.383 Y-14.687
N7275 X42.346 Y-14.832
N7280 X42.323 Y-14.98
N7285 X42.315 Y-15.13
N7290 X42.321 Y-15.28
N7295 X42.342 Y-15.428
N7300 X42.376 Y-15.574
N7305 X42.425 Y-15.718
N7310 X42.563 Y-15.936
N7315 X42.758 Y-16.105
N7320 X42.992 Y-16.213
N7325 X43.247 Y-16.25
N7330 X44.164
N7335 X44.365 Y-16.234
N7340 X44.475 Y-16.22
N7345 X44.597 Y-16.199
N7350 X44.741 Y-16.157
N7355 X44.878 Y-16.097
N7360 X45.007 Y-16.02
N7365 X45.129 Y-15.933
N7370 X45.243 Y-15.835
N7375 X45.347 Y-15.727
N7380 X45.441 Y-15.611
N7385 X45.526 Y-15.486
N7390 X45.599 Y-15.355
N7395 X45.627 Y-15.293
N7400 X45.671 Y-15.173
N7405 X45.698 Y-15.048
N7410 X45.707 Y-14.92
N7415 G3 X45.085 Y-14.343 Z-11.8 I-0.6 J-0.022
N7420 X44.684 Y-14.517 I0.022 J-0.6
N7425 G1 X44. Y-15.197
N7430 G3 X43.825 Y-15.676 I0.423 J-0.426
N7435 X44.475 Y-16.22 Z-12. I0.598 J0.053
N7440 G1 X44.585 Y-16.206
N7445 X44.767 Y-16.181
N7450 X44.868 Y-16.155
N7455 X44.968 Y-16.113
N7460 X45.169 Y-16.011
N7465 X45.178 Y-16.005
N7470 X45.37 Y-15.841
N7475 X45.406 Y-15.804
N7480 X45.547 Y-15.603
N7485 X45.571 Y-15.564
N7490 X45.612 Y-15.483
N7495 X45.64 Y-15.402
N7500 X45.695 Y-15.201
N7505 X45.706 Y-15.101
N7510 Y-14.899
N7515 X45.695 Y-14.799
N7520 X45.64 Y-14.598
N7525 X45.612 Y-14.517
N7530 X45.571 Y-14.436
N7535 X45.547 Y-14.397
N7540 X45.406 Y-14.196
N7545 X45.37 Y-14.159
N7550 X45.178 Y-13.995
N7555 X45.169 Y-13.989
N7560 X44.968 Y-13.887
N7565 X44.868 Y-13.845
N7570 X44.767 Y-13.819
N7575 X44.566 Y-13.791
N7580 X44.365 Y-13.766
N7585 X44.164 Y-13.75
N7590 X43.879
N7595 X43.811 Y-13.756
N7600 X43.738 Y-13.762
N7605 X43.664 Y-13.758
N7610 X43.56 Y-13.75
N7615 X42.695
N7620 X42.577 Y-13.756
N7625 X42.429 Y-13.779
N7630 X42.286 Y-13.823
N7635 X42.149 Y-13.886
N7640 X42.021 Y-13.963
N7645 X41.901 Y-14.054
N7650 X41.791 Y-14.156
N7655 X41.692 Y-14.268
N7660 X41.602 Y-14.389
N7665 X41.523 Y-14.516
N7670 X41.455 Y-14.65
N7675 X41.398 Y-14.789
N7680 X41.351 Y-14.939
N7685 X41.318 Y-15.089
N7690 X41.296 Y-15.237
N7695 X41.293 Y-15.297
N7700 X41.312 Y-15.54
N7705 X41.395 Y-15.769
N7710 X41.536 Y-15.967
N7715 X41.726 Y-16.12
N7720 X41.95 Y-16.217
N7725 X42.191 Y-16.25
N7730 X43.247
N7735 G3 X43.826 Y-15.63 Z-11.8 I-0.021 J0.6
N7740 G1 X43.819 Y-15.557
N7745 X43.803 Y-15.485
N7750 X43.778 Y-15.416
N7755 X43.329 Y-14.356
N7760 X43.261 Y-14.196 Z-11.837
N7765 X43.227 Y-14.115 Z-11.855
N7770 G3 X42.695 Y-13.75 Z-12. I-0.552 J-0.234
N7775 G1 X41.75
N7780 X41.627 Y-13.756
N7785 X41.479 Y-13.78
N7790 X41.335 Y-13.823
N7795 X41.197 Y-13.881
N7800 X41.066 Y-13.953
N7805 X40.942 Y-14.038
N7810 X40.826 Y-14.134
N7815 X40.72 Y-14.239
N7820 X40.623 Y-14.354
N7825 X40.537 Y-14.477
N7830 X40.462 Y-14.607
N7835 X40.398 Y-14.742
N7840 X40.345 Y-14.883
N7845 X40.305 Y-15.029
N7850 X40.277 Y-15.177
N7855 X40.26 Y-15.328
N7860 X40.286 Y-15.565
N7865 X40.374 Y-15.787
N7870 X40.516 Y-15.979
N7875 X40.704 Y-16.126
N7880 X40.924 Y-16.218
N7885 X41.16 Y-16.25
N7890 X42.191
N7895 G3 X42.77 Y-15.63 Z-11.8 I-0.021 J0.6
N7900 G1 X42.761 Y-15.543
N7905 X42.739 Y-15.458
N7910 X42.367 Y-14.362
N7915 X42.312 Y-14.198 Z-11.837
N7920 X42.298 Y-14.157 Z-11.846
N7925 G3 X41.75 Y-13.75 Z-12. I-0.568 J-0.193
N7930 G1 X40.745
N7935 X40.614 Y-13.757
N7940 X40.466 Y-13.78
N7945 X40.322 Y-13.821
N7950 X40.183 Y-13.878
N7955 X40.051 Y-13.949
N7960 X39.926 Y-14.032
N7965 X39.809 Y-14.126
N7970 X39.702 Y-14.231
N7975 X39.604 Y-14.345
N7980 X39.516 Y-14.466
N7985 X39.44 Y-14.596
N7990 X39.375 Y-14.731
N7995 X39.321 Y-14.871
N8000 X39.279 Y-15.015
N8005 X39.25 Y-15.165
N8010 X39.232 Y-15.32
N8015 X39.256 Y-15.559
N8020 X39.342 Y-15.783
N8025 X39.485 Y-15.976
N8030 X39.673 Y-16.124
N8035 X39.894 Y-16.218
N8040 X40.131 Y-16.25
N8045 X41.16
N8050 G3 X41.739 Y-15.63 Z-11.8 I-0.021 J0.6
N8055 G1 X41.73 Y-15.548
N8060 X41.711 Y-15.468
N8065 X41.358 Y-14.363
N8070 X41.305 Y-14.198 Z-11.837
N8075 X41.296 Y-14.167 Z-11.844
N8080 G3 X40.745 Y-13.75 Z-12. I-0.572 J-0.182
N8085 G1 X39.74
N8090 X39.597 Y-13.757
N8095 X39.448 Y-13.779
N8100 X39.304 Y-13.819
N8105 X39.164 Y-13.875
N8110 X39.032 Y-13.944
N8115 X38.906 Y-14.027
N8120 X38.789 Y-14.12
N8125 X38.681 Y-14.224
N8130 X38.582 Y-14.337
N8135 X38.494 Y-14.458
N8140 X38.417 Y-14.587
N8145 X38.351 Y-14.722
N8150 X38.296 Y-14.861
N8155 X38.254 Y-15.005
N8160 X38.223 Y-15.155
N8165 X38.205 Y-15.304
N8170 X38.204 Y-15.315
N8175 X38.227 Y-15.555
N8180 X38.313 Y-15.78
N8185 X38.455 Y-15.974
N8190 X38.644 Y-16.124
N8195 X38.865 Y-16.218
N8200 X39.104 Y-16.25
N8205 X40.131
N8210 G3 X40.71 Y-15.63 Z-11.8 I-0.021 J0.6
N8215 G1 X40.703 Y-15.553
N8220 X40.685 Y-15.477
N8225 X40.35 Y-14.364
N8230 X40.3 Y-14.198 Z-11.837
N8235 X40.293 Y-14.177 Z-11.842
N8240 G3 X39.74 Y-13.75 Z-12. I-0.574 J-0.173
N8245 G1 X38.673
N8250 X38.55 Y-13.756
N8255 X38.402 Y-13.781
N8260 X38.258 Y-13.823
N8265 X38.119 Y-13.881
N8270 X37.988 Y-13.952
N8275 X37.863 Y-14.036
N8280 X37.747 Y-14.131
N8285 X37.64 Y-14.236
N8290 X37.543 Y-14.35
N8295 X37.456 Y-14.472
N8300 X37.38 Y-14.602
N8305 X37.315 Y-14.737
N8310 X37.262 Y-14.877
N8315 X37.221 Y-15.022
N8320 X37.192 Y-15.171
N8325 X37.175 Y-15.324
N8330 X37.2 Y-15.562
N8335 X37.287 Y-15.785
N8340 X37.429 Y-15.977
N8345 X37.617 Y-16.125
N8350 X37.837 Y-16.218
N8355 X38.075 Y-16.25
N8360 X39.104
N8365 G3 X39.682 Y-15.63 Z-11.8 I-0.021 J0.6
N8370 G1 X39.673 Y-15.545
N8375 X39.652 Y-15.462
N8380 X39.289 Y-14.363
N8385 X39.234 Y-14.198 Z-11.837
N8390 X39.222 Y-14.161 Z-11.845
N8395 G3 X38.673 Y-13.75 Z-12. I-0.57 J-0.189
N8400 G1 X37.618
N8405 X37.508 Y-13.755
N8410 X37.36 Y-13.782
N8415 X37.217 Y-13.825
N8420 X37.079 Y-13.885
N8425 X36.948 Y-13.957
N8430 X36.824 Y-14.042
N8435 X36.709 Y-14.137
N8440 X36.603 Y-14.244
N8445 X36.506 Y-14.358
N8450 X36.42 Y-14.481
N8455 X36.345 Y-14.611
N8460 X36.281 Y-14.747
N8465 X36.229 Y-14.887
N8470 X36.189 Y-15.032
N8475 X36.161 Y-15.182
N8480 X36.153 Y-15.254
N8485 X36.161 Y-15.505
N8490 X36.238 Y-15.744
N8495 X36.378 Y-15.952
N8500 X36.57 Y-16.113
N8505 X36.799 Y-16.215
N8510 X37.048 Y-16.25
N8515 X38.075
N8520 G3 X38.653 Y-15.63 Z-11.8 I-0.021 J0.6
N8525 G1 X38.643 Y-15.539
N8530 X38.62 Y-15.452
N8535 X38.237 Y-14.361
N8540 X38.179 Y-14.197 Z-11.837
N8545 X38.163 Y-14.151 Z-11.847
N8550 G3 X37.618 Y-13.75 Z-12. I-0.566 J-0.199
N8555 G1 X36.612
N8560 X36.49 Y-13.756
N8565 X36.342 Y-13.78
N8570 X36.199 Y-13.823
N8575 X36.06 Y-13.881
N8580 X35.928 Y-13.952
N8585 X35.804 Y-14.036
N8590 X35.689 Y-14.132
N8595 X35.582 Y-14.237
N8600 X35.484 Y-14.351
N8605 X35.398 Y-14.474
N8610 X35.322 Y-14.603
N8615 X35.258 Y-14.739
N8620 X35.205 Y-14.879
N8625 X35.163 Y-15.028
N8630 X35.135 Y-15.175
N8635 X35.118 Y-15.329
N8640 X35.144 Y-15.566
N8645 X35.231 Y-15.788
N8650 X35.374 Y-15.979
N8655 X35.562 Y-16.126
N8660 X35.781 Y-16.218
N8665 X36.018 Y-16.25
N8670 X37.048
N8675 G3 X37.626 Y-15.63 Z-11.8 I-0.021 J0.6
N8680 G1 X37.617 Y-15.544
N8685 X37.596 Y-15.46
N8690 X37.228 Y-14.362
N8695 X37.173 Y-14.198 Z-11.837
N8700 X37.16 Y-14.159 Z-11.845
N8705 G3 X36.612 Y-13.75 Z-12. I-0.569 J-0.19
N8710 G1 X35.607
N8715 X35.474 Y-13.757
N8720 X35.326 Y-13.779
N8725 X35.181 Y-13.821
N8730 X35.043 Y-13.877
N8735 X34.91 Y-13.948
N8740 X34.785 Y-14.031
N8745 X34.668 Y-14.125
N8750 X34.561 Y-14.23
N8755 X34.463 Y-14.343
N8760 X34.375 Y-14.465
N8765 X34.299 Y-14.594
N8770 X34.233 Y-14.729
N8775 X34.179 Y-14.869
N8780 X34.138 Y-15.013
N8785 X34.108 Y-15.163
N8790 X34.09 Y-15.312
N8795 Y-15.319
N8800 X34.114 Y-15.558
N8805 X34.2 Y-15.782
N8810 X34.342 Y-15.976
N8815 X34.531 Y-16.124
N8820 X34.752 Y-16.218
N8825 X34.989 Y-16.25
N8830 X36.018
N8835 G3 X36.597 Y-15.63 Z-11.8 I-0.021 J0.6
N8840 G1 X36.588 Y-15.549
N8845 X36.569 Y-15.47
N8850 X36.22 Y-14.363
N8855 X36.167 Y-14.198 Z-11.837
N8860 X36.158 Y-14.169 Z-11.843
N8865 G3 X35.607 Y-13.75 Z-12. I-0.572 J-0.181
N8870 G1 X34.601
N8875 X34.457 Y-13.757
N8880 X34.308 Y-13.779
N8885 X34.163 Y-13.818
N8890 X34.024 Y-13.874
N8895 X33.891 Y-13.944
N8900 X33.766 Y-14.026
N8905 X33.648 Y-14.119
N8910 X33.54 Y-14.223
N8915 X33.441 Y-14.336
N8920 X33.353 Y-14.457
N8925 X33.276 Y-14.586
N8930 X33.21 Y-14.72
N8935 X33.155 Y-14.86
N8940 X33.112 Y-15.004
N8945 X33.081 Y-15.154
N8950 X33.063 Y-15.303
N8955 X33.062 Y-15.314
N8960 X33.085 Y-15.554
N8965 X33.171 Y-15.779
N8970 X33.313 Y-15.974
N8975 X33.502 Y-16.123
N8980 X33.723 Y-16.218
N8985 X33.962 Y-16.25
N8990 X34.989
N8995 G3 X35.568 Y-15.63 Z-11.8 I-0.021 J0.6
N9000 G1 X35.561 Y-15.554
N9005 X35.543 Y-15.479
N9010 X35.211 Y-14.364
N9015 X35.161 Y-14.198 Z-11.837
N9020 X35.156 Y-14.178 Z-11.841
N9025 G3 X34.601 Y-13.75 Z-12. I-0.575 J-0.171
N9030 G1 X33.505
N9035 X33.395 Y-13.756
N9040 X33.247 Y-13.782
N9045 X33.104 Y-13.825
N9050 X32.966 Y-13.885
N9055 X32.835 Y-13.957
N9060 X32.711 Y-14.042
N9065 X32.596 Y-14.138
N9070 X32.49 Y-14.244
N9075 X32.393 Y-14.358
N9080 X32.307 Y-14.481
N9085 X32.232 Y-14.611
N9090 X32.168 Y-14.747
N9095 X32.116 Y-14.888
N9100 X32.076 Y-15.032
N9105 X32.048 Y-15.181
N9110 X32.04 Y-15.254
N9115 X32.048 Y-15.505
N9120 X32.126 Y-15.743
N9125 X32.266 Y-15.951
N9130 X32.458 Y-16.113
N9135 X32.687 Y-16.215
N9140 X32.935 Y-16.25
N9145 X33.962
N9150 G3 X34.54 Y-15.63 Z-11.8 I-0.021 J0.6
N9155 G1 X34.531 Y-15.54
N9160 X34.507 Y-15.452
N9165 X34.125 Y-14.361
N9170 X34.067 Y-14.197 Z-11.837
N9175 X34.051 Y-14.151 Z-11.847
N9180 G3 X33.505 Y-13.75 Z-12. I-0.566 J-0.199
N9185 G1 X32.5
N9190 X32.378 Y-13.756
N9195 X32.23 Y-13.78
N9200 X32.086 Y-13.823
N9205 X31.948 Y-13.881
N9210 X31.816 Y-13.952
N9215 X31.691 Y-14.036
N9220 X31.576 Y-14.132
N9225 X31.469 Y-14.237
N9230 X31.372 Y-14.351
N9235 X31.285 Y-14.474
N9240 X31.21 Y-14.603
N9245 X31.145 Y-14.739
N9250 X31.092 Y-14.879
N9255 X31.051 Y-15.028
N9260 X31.022 Y-15.175
N9265 X31.005 Y-15.328
N9270 X31.031 Y-15.566
N9275 X31.119 Y-15.788
N9280 X31.261 Y-15.979
N9285 X31.449 Y-16.126
N9290 X31.669 Y-16.218
N9295 X31.905 Y-16.25
N9300 X32.935
N9305 G3 X33.514 Y-15.63 Z-11.8 I-0.021 J0.6
N9310 G1 X33.505 Y-15.544
N9315 X33.483 Y-15.46
N9320 X33.116 Y-14.362
N9325 X33.061 Y-14.198 Z-11.837
N9330 X33.048 Y-14.159 Z-11.845
N9335 G3 X32.5 Y-13.75 Z-12. I-0.569 J-0.19
N9340 G1 X31.495
N9345 X31.361 Y-13.757
N9350 X31.213 Y-13.779
N9355 X31.069 Y-13.82
N9360 X30.93 Y-13.877
N9365 X30.798 Y-13.948
N9370 X30.673 Y-14.031
N9375 X30.556 Y-14.125
N9380 X30.448 Y-14.23
N9385 X30.35 Y-14.343
N9390 X30.263 Y-14.465
N9395 X30.186 Y-14.594
N9400 X30.121 Y-14.729
N9405 X30.067 Y-14.869
N9410 X30.025 Y-15.013
N9415 X29.995 Y-15.163
N9420 X29.977 Y-15.312
N9425 Y-15.319
N9430 X30.001 Y-15.558
N9435 X30.087 Y-15.782
N9440 X30.23 Y-15.975
N9445 X30.418 Y-16.124
N9450 X30.639 Y-16.218
N9455 X30.877 Y-16.25
N9460 X31.905
N9465 G3 X32.484 Y-15.63 Z-11.8 I-0.021 J0.6
N9470 G1 X32.476 Y-15.549
N9475 X32.456 Y-15.47
N9480 X32.107 Y-14.363
N9485 X32.055 Y-14.198 Z-11.837
N9490 X32.046 Y-14.169 Z-11.843
N9495 G3 X31.495 Y-13.75 Z-12. I-0.572 J-0.181
N9500 G1 X30.489
N9505 X30.344 Y-13.757
N9510 X30.195 Y-13.779
N9515 X30.051 Y-13.818
N9520 X29.912 Y-13.874
N9525 X29.779 Y-13.944
N9530 X29.653 Y-14.026
N9535 X29.536 Y-14.119
N9540 X29.428 Y-14.223
N9545 X29.329 Y-14.336
N9550 X29.24 Y-14.457
N9555 X29.163 Y-14.585
N9560 X29.097 Y-14.72
N9565 X29.042 Y-14.86
N9570 X28.999 Y-15.004
N9575 X28.969 Y-15.154
N9580 X28.95 Y-15.303
N9585 Y-15.314
N9590 X28.973 Y-15.554
N9595 X29.058 Y-15.779
N9600 X29.2 Y-15.974
N9605 X29.389 Y-16.123
N9610 X29.61 Y-16.218
N9615 X29.849 Y-16.25
N9620 X30.877
N9625 G3 X31.455 Y-15.63 Z-11.8 I-0.021 J0.6
N9630 G1 X31.448 Y-15.554
N9635 X31.431 Y-15.479
N9640 X31.099 Y-14.364
N9645 X31.049 Y-14.198 Z-11.837
N9650 X31.043 Y-14.178 Z-11.841
N9655 G3 X30.489 Y-13.75 Z-12. I-0.575 J-0.171
N9660 G1 X29.423
N9665 X29.297 Y-13.756
N9670 X29.149 Y-13.78
N9675 X29.005 Y-13.822
N9680 X28.867 Y-13.88
N9685 X28.735 Y-13.951
N9690 X28.61 Y-14.035
N9695 X28.494 Y-14.13
N9700 X28.387 Y-14.235
N9705 X28.289 Y-14.349
N9710 X28.202 Y-14.471
N9715 X28.126 Y-14.6
N9720 X28.061 Y-14.735
N9725 X28.008 Y-14.876
N9730 X27.967 Y-15.02
N9735 X27.938 Y-15.169
N9740 X27.921 Y-15.323
N9745 X27.945 Y-15.561
N9750 X28.032 Y-15.784
N9755 X28.174 Y-15.977
N9760 X28.362 Y-16.125
N9765 X28.583 Y-16.218
N9770 X28.82 Y-16.25
N9775 X29.849
N9780 G3 X30.428 Y-15.63 Z-11.8 I-0.021 J0.6
N9785 G1 X30.419 Y-15.546
N9790 X30.398 Y-15.463
N9795 X30.037 Y-14.363
N9800 X29.983 Y-14.198 Z-11.837
N9805 X29.972 Y-14.163 Z-11.845
N9810 G3 X29.423 Y-13.75 Z-12. I-0.57 J-0.187
N9815 G1 X28.367
N9820 X28.256 Y-13.756
N9825 X28.108 Y-13.781
N9830 X27.964 Y-13.825
N9835 X27.826 Y-13.884
N9840 X27.695 Y-13.956
N9845 X27.571 Y-14.041
N9850 X27.455 Y-14.136
N9855 X27.349 Y-14.242
N9860 X27.253 Y-14.357
N9865 X27.166 Y-14.48
N9870 X27.091 Y-14.61
N9875 X27.027 Y-14.745
N9880 X26.975 Y-14.886
N9885 X26.935 Y-15.03
N9890 X26.906 Y-15.18
N9895 X26.901 Y-15.232
N9900 X26.908 Y-15.474
N9905 X26.979 Y-15.706
N9910 X27.109 Y-15.91
N9915 X27.289 Y-16.072
N9920 X27.506 Y-16.181
N9925 X27.744 Y-16.227
N9930 G3 X28.302 Y-15.878 Z-11.852 I0.014 J0.6
N9935 G1 X28.332 Y-15.814 Z-11.837
N9940 X28.405 Y-15.656 Z-11.8
N9945 X28.891 Y-14.601
N9950 X28.92 Y-14.527
N9955 X28.938 Y-14.449
N9960 X28.946 Y-14.37
N9965 G3 X28.367 Y-13.75 Z-12. I-0.6 J0.02
N9970 G1 X28.277
N9975 X28.076 Y-13.754
N9980 X27.473 Y-13.789
N9985 X27.412 Y-13.794
N9990 X27.271 Y-13.814
N9995 X27.171 Y-13.833
N10000 X27.07 Y-13.87
N10005 X26.869 Y-13.966
N10010 X26.823 Y-13.995
N10015 X26.668 Y-14.124
N10020 X26.592 Y-14.196
N10025 X26.467 Y-14.375
N10030 X26.453 Y-14.397
N10035 X26.397 Y-14.497
N10040 X26.36 Y-14.598
N10045 X26.305 Y-14.799
N10050 X26.294 Y-14.899
N10055 Y-15.101
N10060 X26.305 Y-15.201
N10065 X26.36 Y-15.402
N10070 X26.397 Y-15.503
N10075 X26.453 Y-15.603
N10080 X26.467 Y-15.625
N10085 X26.592 Y-15.804
N10090 X26.668 Y-15.876
N10095 X26.823 Y-16.005
N10100 X26.869 Y-16.034
N10105 X27.07 Y-16.13
N10110 X27.171 Y-16.167
N10115 X27.271 Y-16.186
N10120 X27.412 Y-16.206
N10125 X27.473 Y-16.211
N10130 X28.076 Y-16.246
N10135 X28.277 Y-16.25
N10140 X28.82
N10145 X28.912 Y-16.24
N10150 X29.001 Y-16.215
N10155 X29.065 Y-16.178 Z-11.995
N10160 X29.128 Y-16.142 Z-11.982
N10165 X29.189 Y-16.106 Z-11.959
N10170 X29.239 Y-16.045 Z-11.921
N10175 X29.285 Y-15.988 Z-11.871
N10180 X29.326 Y-15.938 Z-11.812
N10185 X29.346 Y-15.885 Z-11.741
N10190 X29.362 Y-15.842 Z-11.663
N10195 X29.374 Y-15.811 Z-11.579
N10200 X29.381 Y-15.792 Z-11.491
N10205 X29.384 Y-15.785 Z-11.4
N10210 G0 Z5.
N10215 X43.617 Y-15.728
N10220 Z-9.5
N10225 S14000
N10230 G3 X44.767 Y-15.05 Z-9.61 I0.345 J0.728 F400.
N10235 X43.712 Y-14.237 Z-9.72 I-0.802 J0.049
N10240 X43.351 Y-15.516 Z-9.83 I0.252 J-0.761
N10245 X44.669 Y-15.375 Z-9.94 I0.611 J0.516
N10250 X44.049 Y-14.207 Z-10.05 I-0.705 J0.375
N10255 X43.198 Y-15.214 Z-10.16 I-0.085 J-0.792
N10260 X44.447 Y-15.629 Z-10.27 I0.765 J0.215
N10265 X44.367 Y-14.319 Z-10.38 I-0.483 J0.628
N10270 X43.183 Y-14.879 Z-10.49 I-0.402 J-0.68
N10275 X44.141 Y-15.767 Z-10.6 I0.779 J-0.12
N10280 X44.608 Y-14.55 Z-10.71 I-0.178 J0.766
N10285 X43.308 Y-14.569 Z-10.82 I-0.643 J-0.449
N10290 X43.809 Y-15.766 Z-10.93 I0.655 J-0.429
N10295 X44.731 Y-14.858 Z-11.04 I0.154 J0.766
N10300 X43.548 Y-14.342 Z-11.15 I-0.766 J-0.142
N10305 X43.509 Y-15.628 Z-11.26 I0.415 J-0.657
N10310 X44.715 Y-15.187 Z-11.37 I0.454 J0.628
N10315 X43.859 Y-14.234 Z-11.48 I-0.75 J0.187
N10320 X43.294 Y-15.38 Z-11.59 I0.105 J-0.764
N10325 X44.565 Y-15.478 Z-11.7 I0.668 J0.381
N10330 X44.183 Y-14.265 Z-11.81 I-0.601 J0.477
N10335 X43.202 Y-15.069 Z-11.92 I-0.219 J-0.734
N10340 X44.31 Y-15.679 Z-12.03 I0.76 J0.07
N10345 X44.464 Y-14.426 Z-12.14 I-0.347 J0.678
N10350 X43.247 Y-14.749 Z-12.25 I-0.499 J-0.573
N10355 X43.997 Y-15.756 Z-12.36 I0.716 J-0.25
N10360 X44.651 Y-14.687 Z-12.47 I-0.035 J0.755
N10365 X43.42 Y-14.479 Z-12.58 I-0.686 J-0.312
N10370 X43.683 Y-15.696 Z-12.69 I0.544 J-0.52
N10375 X44.713 Y-15. Z-12.8 I0.279 J0.696
N10380 X43.212 I-0.75 J0.
N10385 X44.713 I0.75 J0.
N10390 S15000
N10395 G1 X44.725 Y-14.84 F800.
N10400 X44.752 Y-14.615
N10405 X44.721 Y-14.391
N10410 X44.633 Y-14.182
N10415 X44.494 Y-14.003
N10420 X44.314 Y-13.866
N10425 X44.104 Y-13.779
N10430 X43.879 Y-13.75
N10435 X43.56
N10440 X43.455 Y-13.755
N10445 X43.307 Y-13.781
N10450 X43.164 Y-13.826
N10455 X43.028 Y-13.889
N10460 X42.9 Y-13.968
N10465 X42.783 Y-14.062
N10470 X42.677 Y-14.168
N10475 X42.583 Y-14.285
N10480 X42.503 Y-14.412
N10485 X42.437 Y-14.546
N10490 X42.384 Y-14.687
N10495 X42.347 Y-14.832
N10500 X42.324 Y-14.98
N10505 X42.315 Y-15.13
N10510 X42.322 Y-15.28
N10515 X42.343 Y-15.429
N10520 X42.377 Y-15.574
N10525 X42.426 Y-15.718
N10530 X42.564 Y-15.935
N10535 X42.758 Y-16.105
N10540 X42.992 Y-16.213
N10545 X43.248 Y-16.25
N10550 X44.164
N10555 X44.365 Y-16.234
N10560 X44.475 Y-16.22
N10565 X44.597 Y-16.199
N10570 X44.742 Y-16.157
N10575 X44.879 Y-16.097
N10580 X45.008 Y-16.02
N10585 X45.13 Y-15.933
N10590 X45.244 Y-15.835
N10595 X45.348 Y-15.727
N10600 X45.442 Y-15.611
N10605 X45.526 Y-15.487
N10610 X45.599 Y-15.356
N10615 X45.627 Y-15.295
N10620 X45.671 Y-15.175
N10625 X45.698 Y-15.05
N10630 X45.707 Y-14.922
N10635 G3 X45.085 Y-14.345 Z-12.6 I-0.6 J-0.022
N10640 X44.685 Y-14.518 I0.022 J-0.6
N10645 G1 X44. Y-15.196
N10650 G3 X43.825 Y-15.676 I0.422 J-0.426
N10655 X44.475 Y-16.22 Z-12.8 I0.598 J0.053
N10660 G1 X44.585 Y-16.206
N10665 X44.767 Y-16.181
N10670 X44.868 Y-16.155
N10675 X44.968 Y-16.113
N10680 X45.169 Y-16.011
N10685 X45.178 Y-16.005
N10690 X45.37 Y-15.841
N10695 X45.406 Y-15.804
N10700 X45.547 Y-15.603
N10705 X45.571 Y-15.564
N10710 X45.612 Y-15.483
N10715 X45.64 Y-15.402
N10720 X45.695 Y-15.201
N10725 X45.706 Y-15.101
N10730 Y-14.899
N10735 X45.695 Y-14.799
N10740 X45.64 Y-14.598
N10745 X45.612 Y-14.517
N10750 X45.571 Y-14.436
N10755 X45.547 Y-14.397
N10760 X45.406 Y-14.196
N10765 X45.37 Y-14.159
N10770 X45.178 Y-13.995
N10775 X45.169 Y-13.989
N10780 X44.968 Y-13.887
N10785 X44.868 Y-13.845
N10790 X44.767 Y-13.819
N10795 X44.566 Y-13.791
N10800 X44.365 Y-13.766
N10805 X44.164 Y-13.75
N10810 X43.879
N10815 X43.811 Y-13.756
N10820 X43.738 Y-13.762
N10825 X43.665 Y-13.758
N10830 X43.56 Y-13.75
N10835 X42.695
N10840 X42.578 Y-13.756
N10845 X42.429 Y-13.779
N10850 X42.286 Y-13.823
N10855 X42.15 Y-13.886
N10860 X42.021 Y-13.963
N10865 X41.902 Y-14.054
N10870 X41.792 Y-14.156
N10875 X41.692 Y-14.268
N10880 X41.603 Y-14.389
N10885 X41.524 Y-14.516
N10890 X41.456 Y-14.65
N10895 X41.399 Y-14.789
N10900 X41.352 Y-14.939
N10905 X41.318 Y-15.089
N10910 X41.297 Y-15.237
N10915 X41.294 Y-15.297
N10920 X41.312 Y-15.54
N10925 X41.396 Y-15.769
N10930 X41.537 Y-15.967
N10935 X41.727 Y-16.12
N10940 X41.951 Y-16.217
N10945 X42.192 Y-16.25
N10950 X43.248
N10955 G3 X43.826 Y-15.63 Z-12.6 I-0.021 J0.6
N10960 G1 X43.819 Y-15.557
N10965 X43.803 Y-15.485
N10970 X43.779 Y-15.416
N10975 X43.329 Y-14.356
N10980 X43.261 Y-14.196 Z-12.637
N10985 X43.226 Y-14.115 Z-12.656
N10990 G3 X42.695 Y-13.75 Z-12.8 I-0.552 J-0.235
N10995 G1 X41.75
N11000 X41.628 Y-13.756
N11005 X41.48 Y-13.78
N11010 X41.336 Y-13.823
N11015 X41.198 Y-13.881
N11020 X41.066 Y-13.953
N11025 X40.942 Y-14.038
N11030 X40.827 Y-14.134
N11035 X40.721 Y-14.24
N11040 X40.624 Y-14.354
N11045 X40.538 Y-14.477
N11050 X40.463 Y-14.607
N11055 X40.398 Y-14.743
N11060 X40.346 Y-14.883
N11065 X40.306 Y-15.029
N11070 X40.277 Y-15.177
N11075 X40.261 Y-15.328
N11080 X40.287 Y-15.566
N11085 X40.374 Y-15.787
N11090 X40.517 Y-15.979
N11095 X40.705 Y-16.126
N11100 X40.924 Y-16.218
N11105 X41.161 Y-16.25
N11110 X42.192
N11115 G3 X42.771 Y-15.63 Z-12.6 I-0.021 J0.6
N11120 G1 X42.761 Y-15.543
N11125 X42.739 Y-15.458
N11130 X42.367 Y-14.362
N11135 X42.312 Y-14.198 Z-12.637
N11140 X42.298 Y-14.157 Z-12.646
N11145 G3 X41.75 Y-13.75 Z-12.8 I-0.568 J-0.193
N11150 G1 X40.745
N11155 X40.614 Y-13.757
N11160 X40.466 Y-13.78
N11165 X40.322 Y-13.821
N11170 X40.183 Y-13.878
N11175 X40.051 Y-13.949
N11180 X39.926 Y-14.032
N11185 X39.81 Y-14.126
N11190 X39.702 Y-14.231
N11195 X39.604 Y-14.345
N11200 X39.517 Y-14.467
N11205 X39.441 Y-14.596
N11210 X39.375 Y-14.731
N11215 X39.322 Y-14.871
N11220 X39.28 Y-15.015
N11225 X39.25 Y-15.165
N11230 X39.233 Y-15.321
N11235 X39.257 Y-15.559
N11240 X39.343 Y-15.783
N11245 X39.485 Y-15.976
N11250 X39.674 Y-16.124
N11255 X39.894 Y-16.218
N11260 X40.132 Y-16.25
N11265 X41.161
N11270 G3 X41.74 Y-15.63 Z-12.6 I-0.021 J0.6
N11275 G1 X41.731 Y-15.548
N11280 X41.711 Y-15.468
N11285 X41.358 Y-14.363
N11290 X41.305 Y-14.198 Z-12.637
N11295 X41.296 Y-14.167 Z-12.644
N11300 G3 X40.745 Y-13.75 Z-12.8 I-0.572 J-0.183
N11305 G1 X39.74
N11310 X39.597 Y-13.757
N11315 X39.449 Y-13.779
N11320 X39.304 Y-13.819
N11325 X39.165 Y-13.875
N11330 X39.032 Y-13.945
N11335 X38.907 Y-14.027
N11340 X38.789 Y-14.12
N11345 X38.681 Y-14.224
N11350 X38.583 Y-14.337
N11355 X38.494 Y-14.459
N11360 X38.417 Y-14.587
N11365 X38.351 Y-14.722
N11370 X38.297 Y-14.862
N11375 X38.254 Y-15.006
N11380 X38.224 Y-15.156
N11385 X38.205 Y-15.305
N11390 Y-15.315
N11395 X38.228 Y-15.555
N11400 X38.314 Y-15.78
N11405 X38.456 Y-15.974
N11410 X38.644 Y-16.124
N11415 X38.866 Y-16.218
N11420 X39.104 Y-16.25
N11425 X40.132
N11430 G3 X40.711 Y-15.63 Z-12.6 I-0.021 J0.6
N11435 G1 X40.703 Y-15.553
N11440 X40.686 Y-15.477
N11445 X40.35 Y-14.364
N11450 X40.3 Y-14.198 Z-12.637
N11455 X40.293 Y-14.176 Z-12.642
N11460 G3 X39.74 Y-13.75 Z-12.8 I-0.574 J-0.173
N11465 G1 X38.673
N11470 X38.55 Y-13.756
N11475 X38.402 Y-13.781
N11480 X38.258 Y-13.823
N11485 X38.12 Y-13.881
N11490 X37.988 Y-13.952
N11495 X37.863 Y-14.036
N11500 X37.747 Y-14.131
N11505 X37.641 Y-14.236
N11510 X37.543 Y-14.35
N11515 X37.456 Y-14.472
N11520 X37.381 Y-14.602
N11525 X37.316 Y-14.737
N11530 X37.263 Y-14.878
N11535 X37.222 Y-15.022
N11540 X37.193 Y-15.171
N11545 X37.176 Y-15.324
N11550 X37.201 Y-15.562
N11555 X37.287 Y-15.785
N11560 X37.43 Y-15.977
N11565 X37.618 Y-16.125
N11570 X37.838 Y-16.218
N11575 X38.075 Y-16.25
N11580 X39.104
N11585 G3 X39.683 Y-15.63 Z-12.6 I-0.021 J0.6
N11590 G1 X39.674 Y-15.545
N11595 X39.653 Y-15.462
N11600 X39.289 Y-14.363
N11605 X39.234 Y-14.198 Z-12.637
N11610 X39.222 Y-14.161 Z-12.645
N11615 G3 X38.673 Y-13.75 Z-12.8 I-0.57 J-0.189
N11620 G1 X37.618
N11625 X37.509 Y-13.755
N11630 X37.361 Y-13.782
N11635 X37.217 Y-13.825
N11640 X37.08 Y-13.885
N11645 X36.948 Y-13.957
N11650 X36.824 Y-14.042
N11655 X36.709 Y-14.138
N11660 X36.603 Y-14.244
N11665 X36.506 Y-14.359
N11670 X36.42 Y-14.481
N11675 X36.346 Y-14.611
N11680 X36.282 Y-14.747
N11685 X36.229 Y-14.888
N11690 X36.189 Y-15.032
N11695 X36.161 Y-15.182
N11700 X36.153 Y-15.254
N11705 X36.162 Y-15.505
N11710 X36.239 Y-15.744
N11715 X36.379 Y-15.952
N11720 X36.571 Y-16.113
N11725 X36.8 Y-16.215
N11730 X37.048 Y-16.25
N11735 X38.075
N11740 G3 X38.654 Y-15.63 Z-12.6 I-0.021 J0.6
N11745 G1 X38.644 Y-15.539
N11750 X38.62 Y-15.451
N11755 X38.237 Y-14.361
N11760 X38.179 Y-14.197 Z-12.637
N11765 X38.163 Y-14.151 Z-12.647
N11770 G3 X37.618 Y-13.75 Z-12.8 I-0.566 J-0.199
N11775 G1 X36.612
N11780 X36.491 Y-13.756
N11785 X36.343 Y-13.78
N11790 X36.199 Y-13.823
N11795 X36.061 Y-13.881
N11800 X35.929 Y-13.952
N11805 X35.804 Y-14.036
N11810 X35.689 Y-14.132
N11815 X35.582 Y-14.237
N11820 X35.485 Y-14.351
N11825 X35.398 Y-14.474
N11830 X35.323 Y-14.604
N11835 X35.258 Y-14.739
N11840 X35.205 Y-14.879
N11845 X35.164 Y-15.028
N11850 X35.135 Y-15.175
N11855 X35.119 Y-15.329
N11860 X35.145 Y-15.566
N11865 X35.232 Y-15.788
N11870 X35.375 Y-15.979
N11875 X35.562 Y-16.126
N11880 X35.782 Y-16.218
N11885 X36.018 Y-16.25
N11890 X37.048
N11895 G3 X37.627 Y-15.63 Z-12.6 I-0.021 J0.6
N11900 G1 X37.618 Y-15.544
N11905 X37.596 Y-15.46
N11910 X37.229 Y-14.362
N11915 X37.173 Y-14.198 Z-12.637
N11920 X37.16 Y-14.159 Z-12.646
N11925 G3 X36.612 Y-13.75 Z-12.8 I-0.569 J-0.191
N11930 G1 X35.607
N11935 X35.474 Y-13.757
N11940 X35.326 Y-13.78
N11945 X35.182 Y-13.821
N11950 X35.043 Y-13.877
N11955 X34.911 Y-13.948
N11960 X34.786 Y-14.031
N11965 X34.669 Y-14.125
N11970 X34.562 Y-14.23
N11975 X34.463 Y-14.344
N11980 X34.376 Y-14.465
N11985 X34.299 Y-14.594
N11990 X34.234 Y-14.729
N11995 X34.18 Y-14.869
N12000 X34.138 Y-15.013
N12005 X34.108 Y-15.164
N12010 X34.091 Y-15.313
N12015 X34.09 Y-15.32
N12020 X34.114 Y-15.558
N12025 X34.201 Y-15.782
N12030 X34.343 Y-15.976
N12035 X34.531 Y-16.124
N12040 X34.752 Y-16.218
N12045 X34.99 Y-16.25
N12050 X36.018
N12055 G3 X36.597 Y-15.63 Z-12.6 I-0.021 J0.6
N12060 G1 X36.589 Y-15.549
N12065 X36.57 Y-15.469
N12070 X36.22 Y-14.363
N12075 X36.167 Y-14.198 Z-12.637
N12080 X36.158 Y-14.169 Z-12.643
N12085 G3 X35.607 Y-13.75 Z-12.8 I-0.572 J-0.181
N12090 G1 X34.601
N12095 X34.457 Y-13.757
N12100 X34.308 Y-13.779
N12105 X34.164 Y-13.818
N12110 X34.024 Y-13.874
N12115 X33.892 Y-13.944
N12120 X33.766 Y-14.026
N12125 X33.649 Y-14.119
N12130 X33.541 Y-14.223
N12135 X33.442 Y-14.336
N12140 X33.353 Y-14.457
N12145 X33.276 Y-14.586
N12150 X33.21 Y-14.72
N12155 X33.155 Y-14.86
N12160 X33.113 Y-15.004
N12165 X33.082 Y-15.154
N12170 X33.063 Y-15.303
N12175 Y-15.315
N12180 X33.086 Y-15.554
N12185 X33.171 Y-15.779
N12190 X33.314 Y-15.974
N12195 X33.502 Y-16.123
N12200 X33.724 Y-16.218
N12205 X33.962 Y-16.25
N12210 X34.99
N12215 G3 X35.569 Y-15.63 Z-12.6 I-0.021 J0.6
N12220 G1 X35.561 Y-15.553
N12225 X35.544 Y-15.479
N12230 X35.211 Y-14.364
N12235 X35.161 Y-14.198 Z-12.637
N12240 X35.155 Y-14.178 Z-12.641
N12245 G3 X34.601 Y-13.75 Z-12.8 I-0.575 J-0.172
N12250 G1 X33.505
N12255 X33.395 Y-13.756
N12260 X33.248 Y-13.782
N12265 X33.104 Y-13.826
N12270 X32.967 Y-13.885
N12275 X32.835 Y-13.957
N12280 X32.711 Y-14.042
N12285 X32.596 Y-14.138
N12290 X32.49 Y-14.244
N12295 X32.393 Y-14.359
N12300 X32.307 Y-14.481
N12305 X32.233 Y-14.612
N12310 X32.169 Y-14.747
N12315 X32.116 Y-14.888
N12320 X32.077 Y-15.033
N12325 X32.048 Y-15.181
N12330 X32.041 Y-15.254
N12335 X32.049 Y-15.505
N12340 X32.126 Y-15.743
N12345 X32.266 Y-15.952
N12350 X32.458 Y-16.113
N12355 X32.687 Y-16.215
N12360 X32.936 Y-16.25
N12365 X33.962
N12370 G3 X34.541 Y-15.63 Z-12.6 I-0.021 J0.6
N12375 G1 X34.531 Y-15.539
N12380 X34.507 Y-15.452
N12385 X34.125 Y-14.361
N12390 X34.067 Y-14.197 Z-12.637
N12395 X34.051 Y-14.151 Z-12.647
N12400 G3 X33.505 Y-13.75 Z-12.8 I-0.566 J-0.199
N12405 G1 X32.5
N12410 X32.378 Y-13.756
N12415 X32.23 Y-13.78
N12420 X32.086 Y-13.823
N12425 X31.948 Y-13.881
N12430 X31.816 Y-13.952
N12435 X31.692 Y-14.036
N12440 X31.576 Y-14.132
N12445 X31.469 Y-14.237
N12450 X31.372 Y-14.351
N12455 X31.286 Y-14.474
N12460 X31.21 Y-14.603
N12465 X31.145 Y-14.739
N12470 X31.092 Y-14.879
N12475 X31.051 Y-15.028
N12480 X31.022 Y-15.175
N12485 X31.006 Y-15.329
N12490 X31.032 Y-15.566
N12495 X31.119 Y-15.788
N12500 X31.262 Y-15.979
N12505 X31.449 Y-16.126
N12510 X31.669 Y-16.218
N12515 X31.906 Y-16.25
N12520 X32.936
N12525 G3 X33.514 Y-15.63 Z-12.6 I-0.021 J0.6
N12530 G1 X33.505 Y-15.544
N12535 X33.484 Y-15.46
N12540 X33.116 Y-14.362
N12545 X33.061 Y-14.198 Z-12.637
N12550 X33.048 Y-14.159 Z-12.646
N12555 G3 X32.5 Y-13.75 Z-12.8 I-0.569 J-0.191
N12560 G1 X31.495
N12565 X31.362 Y-13.757
N12570 X31.213 Y-13.779
N12575 X31.069 Y-13.821
N12580 X30.93 Y-13.877
N12585 X30.798 Y-13.948
N12590 X30.673 Y-14.031
N12595 X30.556 Y-14.125
N12600 X30.449 Y-14.23
N12605 X30.351 Y-14.343
N12610 X30.263 Y-14.465
N12615 X30.187 Y-14.594
N12620 X30.121 Y-14.729
N12625 X30.067 Y-14.869
N12630 X30.025 Y-15.013
N12635 X29.995 Y-15.164
N12640 X29.978 Y-15.313
N12645 Y-15.32
N12650 X30.002 Y-15.558
N12655 X30.088 Y-15.782
N12660 X30.23 Y-15.976
N12665 X30.418 Y-16.124
N12670 X30.639 Y-16.218
N12675 X30.877 Y-16.25
N12680 X31.906
N12685 G3 X32.484 Y-15.63 Z-12.6 I-0.021 J0.6
N12690 G1 X32.476 Y-15.549
N12695 X32.457 Y-15.47
N12700 X32.107 Y-14.363
N12705 X32.055 Y-14.198 Z-12.637
N12710 X32.046 Y-14.169 Z-12.643
N12715 G3 X31.495 Y-13.75 Z-12.8 I-0.572 J-0.181
N12720 G1 X30.489
N12725 X30.344 Y-13.757
N12730 X30.196 Y-13.779
N12735 X30.051 Y-13.818
N12740 X29.912 Y-13.874
N12745 X29.779 Y-13.944
N12750 X29.653 Y-14.026
N12755 X29.536 Y-14.119
N12760 X29.428 Y-14.223
N12765 X29.329 Y-14.336
N12770 X29.241 Y-14.457
N12775 X29.163 Y-14.586
N12780 X29.097 Y-14.72
N12785 X29.042 Y-14.86
N12790 X29. Y-15.004
N12795 X28.969 Y-15.154
N12800 X28.951 Y-15.303
N12805 X28.95 Y-15.315
N12810 X28.973 Y-15.554
N12815 X29.059 Y-15.779
N12820 X29.201 Y-15.974
N12825 X29.389 Y-16.123
N12830 X29.611 Y-16.218
N12835 X29.85 Y-16.25
N12840 X30.877
N12845 G3 X31.456 Y-15.63 Z-12.6 I-0.021 J0.6
N12850 G1 X31.448 Y-15.554
N12855 X31.431 Y-15.479
N12860 X31.099 Y-14.364
N12865 X31.049 Y-14.198 Z-12.637
N12870 X31.043 Y-14.178 Z-12.641
N12875 G3 X30.489 Y-13.75 Z-12.8 I-0.575 J-0.172
N12880 G1 X29.423
N12885 X29.297 Y-13.756
N12890 X29.149 Y-13.78
N12895 X29.005 Y-13.822
N12900 X28.867 Y-13.88
N12905 X28.735 Y-13.952
N12910 X28.61 Y-14.035
N12915 X28.494 Y-14.13
N12920 X28.387 Y-14.235
N12925 X28.29 Y-14.349
N12930 X28.202 Y-14.471
N12935 X28.127 Y-14.6
N12940 X28.062 Y-14.736
N12945 X28.008 Y-14.876
N12950 X27.967 Y-15.02
N12955 X27.938 Y-15.169
N12960 X27.921 Y-15.323
N12965 X27.946 Y-15.561
N12970 X28.032 Y-15.784
N12975 X28.175 Y-15.977
N12980 X28.363 Y-16.125
N12985 X28.583 Y-16.218
N12990 X28.821 Y-16.25
N12995 X29.85
N13000 G3 X30.428 Y-15.63 Z-12.6 I-0.021 J0.6
N13005 G1 X30.419 Y-15.546
N13010 X30.399 Y-15.463
N13015 X30.038 Y-14.363
N13020 X29.983 Y-14.198 Z-12.637
N13025 X29.972 Y-14.163 Z-12.645
N13030 G3 X29.423 Y-13.75 Z-12.8 I-0.57 J-0.187
N13035 G1 X28.367
N13040 X28.256 Y-13.756
N13045 X28.108 Y-13.781
N13050 X27.965 Y-13.825
N13055 X27.827 Y-13.884
N13060 X27.695 Y-13.957
N13065 X27.571 Y-14.041
N13070 X27.456 Y-14.137
N13075 X27.35 Y-14.243
N13080 X27.253 Y-14.357
N13085 X27.167 Y-14.48
N13090 X27.092 Y-14.61
N13095 X27.028 Y-14.746
N13100 X26.975 Y-14.886
N13105 X26.935 Y-15.031
N13110 X26.907 Y-15.18
N13115 X26.901 Y-15.232
N13120 X26.908 Y-15.474
N13125 X26.979 Y-15.706
N13130 X27.109 Y-15.91
N13135 X27.289 Y-16.072
N13140 X27.506 Y-16.181
N13145 X27.744 Y-16.227
N13150 G3 X28.303 Y-15.878 Z-12.652 I0.014 J0.6
N13155 G1 X28.332 Y-15.814 Z-12.637
N13160 X28.405 Y-15.656 Z-12.6
N13165 X28.891 Y-14.601
N13170 X28.92 Y-14.527
N13175 X28.938 Y-14.449
N13180 X28.946 Y-14.37
N13185 G3 X28.367 Y-13.75 Z-12.8 I-0.6 J0.02
N13190 G1 X28.277
N13195 X28.076 Y-13.754
N13200 X27.473 Y-13.789
N13205 X27.412 Y-13.794
N13210 X27.271 Y-13.814
N13215 X27.171 Y-13.833
N13220 X27.07 Y-13.87
N13225 X26.869 Y-13.966
N13230 X26.823 Y-13.995
N13235 X26.668 Y-14.124
N13240 X26.592 Y-14.196
N13245 X26.467 Y-14.375
N13250 X26.453 Y-14.397
N13255 X26.397 Y-14.497
N13260 X26.36 Y-14.598
N13265 X26.305 Y-14.799
N13270 X26.294 Y-14.899
N13275 Y-15.101
N13280 X26.305 Y-15.201
N13285 X26.36 Y-15.402
N13290 X26.397 Y-15.503
N13295 X26.453 Y-15.603
N13300 X26.467 Y-15.625
N13305 X26.592 Y-15.804
N13310 X26.668 Y-15.876
N13315 X26.823 Y-16.005
N13320 X26.869 Y-16.034
N13325 X27.07 Y-16.13
N13330 X27.171 Y-16.167
N13335 X27.271 Y-16.186
N13340 X27.412 Y-16.206
N13345 X27.473 Y-16.211
N13350 X28.076 Y-16.246
N13355 X28.277 Y-16.25
N13360 X28.821
N13365 G3 X29.384 Y-15.785 I-0.021 J0.6
N13370 G1 X29.405 Y-15.694 Z-12.793
N13375 X29.426 Y-15.605 Z-12.771
N13380 X29.446 Y-15.52 Z-12.735
N13385 X29.464 Y-15.442 Z-12.685
N13390 X29.48 Y-15.372 Z-12.624
N13395 X29.493 Y-15.312 Z-12.553
N13400 X29.505 Y-15.264 Z-12.472
N13405 X29.513 Y-15.229 Z-12.385
N13410 X29.518 Y-15.208 Z-12.294
N13415 X29.519 Y-15.201 Z-12.2
N13420 G0 Z15.
(ADAPTIVE2)
N13425 G0 X48.658 Y-37.823
N13430 Z15.
N13435 Z5.
N13440 Z-3.
N13445 G1 Z-4.5 F1200.
N13450 X48.66 Y-37.816 Z-4.647
N13455 X48.665 Y-37.795 Z-4.793
N13460 X48.674 Y-37.76 Z-4.935
N13465 X48.686 Y-37.712 Z-5.074
N13470 X48.702 Y-37.651 Z-5.207
N13475 X48.721 Y-37.578 Z-5.333
N13480 X48.743 Y-37.493 Z-5.452
N13485 X48.767 Y-37.397 Z-5.561
N13490 X48.794 Y-37.292 Z-5.66
N13495 X48.823 Y-37.177 Z-5.747
N13500 X48.855 Y-37.055 Z-5.823
N13505 X48.888 Y-36.926 Z-5.886
N13510 X48.922 Y-36.792 Z-5.935
N13515 X48.958 Y-36.653 Z-5.971
N13520 X48.994 Y-36.512 Z-5.993
N13525 X49.03 Y-36.37 Z-6.
N13530 G3 X49.5 Y-33.103 I-14.839 J3.801
N13535 G1 Y-32.959
N13540 X49.376 Y-32.875
N13545 X49.241 Y-32.809
N13550 X49.102 Y-32.753
N13555 X48.96 Y-32.705
N13560 X48.798 Y-32.657
N13565 X48.598 Y-32.605
N13570 X48.345 Y-32.55
N13575 X48.02 Y-32.491
N13580 X47.587 Y-32.429
N13585 X46.969 Y-32.363
N13590 X46.048 Y-32.3
N13595 X45.126 Y-32.268
N13600 X44.204 Y-32.251
N13605 X43.281 Y-32.242
N13610 X42.359 Y-32.237
N13615 X41.436 Y-32.234
N13620 X39.591 Y-32.232
N13625 X28.52 Y-32.23
N13630 X1.764 Y-32.226
N13635 X0.846 Y-32.134
N13640 X0.012 Y-31.739
N13645 X-0.68 Y-31.129
N13650 X-1.212 Y-30.375
N13655 X-1.594 Y-29.536
N13660 X-1.852 Y-28.65
N13665 X-2.014 Y-27.742
N13670 X-2.112 Y-26.824
N13675 X-2.168 Y-25.903
N13680 X-2.2 Y-24.981
N13685 X-2.217 Y-24.059
N13690 X-2.227 Y-23.136
N13695 X-2.232 Y-22.214
N13700 X-2.235 Y-21.291
N13705 X-2.237 Y-19.446
N13710 X-2.24 Y-10.22
N13715 X-2.241 Y-1.916
N13720 X-2.22 Y-1.455
N13725 X-2.008 Y-0.557
N13730 X-1.527 Y0.229
N13735 X-0.857 Y0.864
N13740 X-0.067 Y1.34
N13745 X0.793 Y1.674
N13750 X1.689 Y1.894
N13755 X2.602 Y2.03
N13760 X3.521 Y2.11
N13765 X4.442 Y2.156
N13770 X5.365 Y2.182
N13775 X6.287 Y2.196
N13780 X7.21 Y2.203
N13785 X8.132 Y2.208
N13790 X9.055 Y2.21
N13795 X11.823 Y2.213
N13800 X16.436 Y2.214
N13805 X63.489 Y2.225
N13810 X64.392 Y2.039
N13815 X65.19 Y1.576
N13820 X65.837 Y0.918
N13825 X66.326 Y0.136
N13830 X66.67 Y-0.72
N13835 X66.898 Y-1.614
N13840 X67.039 Y-2.526
N13845 X67.123 Y-3.445
N13850 X67.171 Y-4.366
N13855 X67.197 Y-5.288
N13860 X67.212 Y-6.211
N13865 X67.22 Y-7.133
N13870 X67.224 Y-8.056
N13875 X67.226 Y-8.979
N13880 X67.228 Y-11.746
N13885 X67.229 Y-28.353
N13890 X67.093 Y-29.266
N13895 X66.666 Y-30.084
N13900 X66.034 Y-30.755
N13905 X65.266 Y-31.267
N13910 X64.419 Y-31.632
N13915 X63.529 Y-31.875
N13920 X62.619 Y-32.028
N13925 X61.701 Y-32.119
N13930 X60.78 Y-32.171
N13935 X59.858 Y-32.2
N13940 X58.935 Y-32.216
N13945 X58.012 Y-32.224
N13950 X57.09 Y-32.229
N13955 X56.167 Y-32.231
N13960 X54.322 Y-32.233
N13965 X51.554
N13970 X50.635 Y-32.152
N13975 X49.723 Y-32.011
N13980 X48.813 Y-31.865
N13985 X47.898 Y-31.741
N13990 X46.98 Y-31.648
N13995 X46.06 Y-31.585
N14000 X45.138 Y-31.545
N14005 X44.216 Y-31.52
N14010 X43.293 Y-31.504
N14015 X42.371 Y-31.495
N14020 X41.448 Y-31.489
N14025 X40.526 Y-31.486
N14030 X38.681 Y-31.483
N14035 X34.067 Y-31.481
N14040 X3.622 Y-31.476
N14045 X2.699 Y-31.473
N14050 X1.788 Y-31.328
N14055 X0.951 Y-30.94
N14060 X0.241 Y-30.351
N14065 X-0.319 Y-29.617
N14070 X-0.732 Y-28.792
N14075 X-1.019 Y-27.916
N14080 X-1.207 Y-27.012
N14085 X-1.324 Y-26.097
N14090 X-1.394 Y-25.177
N14095 X-1.435 Y-24.256
N14100 X-1.458 Y-23.333
N14105 X-1.471 Y-22.411
N14110 X-1.479 Y-21.488
N14115 X-1.483 Y-20.566
N14120 X-1.485 Y-19.643
N14125 X-1.488 Y-16.875
N14130 X-1.491 Y-3.036
N14135 X-1.413 Y-2.117
N14140 X-1.099 Y-1.249
N14145 X-0.571 Y-0.493
N14150 X0.121 Y0.118
N14155 X0.92 Y0.579
N14160 X1.783 Y0.905
N14165 X2.679 Y1.124
N14170 X3.591 Y1.263
N14175 X4.51 Y1.347
N14180 X5.431 Y1.397
N14185 X6.353 Y1.426
N14190 X7.276 Y1.442
N14195 X8.198 Y1.451
N14200 X9.121 Y1.456
N14205 X10.044 Y1.459
N14210 X11.889 Y1.462
N14215 X20.192 Y1.465
N14220 X22.96 Y1.466
N14225 X61.709 Y1.475
N14230 X62.632 Y1.452
N14235 X63.523 Y1.212
N14240 X64.317 Y0.743
N14245 X64.973 Y0.094
N14250 X65.477 Y-0.679
N14255 X65.841 Y-1.527
N14260 X66.088 Y-2.416
N14265 X66.248 Y-3.324
N14270 X66.345 Y-4.242
N14275 X66.403 Y-5.163
N14280 X66.436 Y-6.085
N14285 X66.455 Y-7.007
N14290 X66.466 Y-7.93
N14295 X66.472 Y-8.852
N14300 X66.475 Y-9.775
N14305 X66.478 Y-11.62
N14310 X66.479 Y-18.078
N14315 Y-27.304
N14320 X66.328 Y-28.214
N14325 X65.939 Y-29.051
N14330 X65.349 Y-29.76
N14335 X64.615 Y-30.32
N14340 X63.79 Y-30.733
N14345 X62.913 Y-31.018
N14350 X62.009 Y-31.205
N14355 X61.094 Y-31.321
N14360 X60.174 Y-31.391
N14365 X59.253 Y-31.431
N14370 X58.33 Y-31.455
N14375 X57.408 Y-31.468
N14380 X56.485 Y-31.475
N14385 X55.563 Y-31.479
N14390 X54.64 Y-31.481
N14395 X52.795 Y-31.483
N14400 X51.873 Y-31.455
N14405 X50.953 Y-31.378
N14410 X50.037 Y-31.267
N14415 X49.123 Y-31.147
N14420 X48.207 Y-31.037
N14425 X47.288 Y-30.947
N14430 X46.368 Y-30.879
N14435 X45.447 Y-30.83
N14440 X44.525 Y-30.796
N14445 X43.603 Y-30.773
N14450 X42.68 Y-30.758
N14455 X41.955 Y-30.75
N14460 X3.728
N14465 X3.518 Y-30.742
N14470 X3.1 Y-30.719
N14475 X2.891 Y-30.691
N14480 X2.841 Y-30.681
N14485 X2.472 Y-30.581
N14490 X2.263 Y-30.501
N14495 X2.189 Y-30.472
N14500 X2.054 Y-30.405
N14505 X1.844 Y-30.293
N14510 X1.635 Y-30.155
N14515 X1.496 Y-30.054
N14520 X1.426 Y-29.995
N14525 X1.251 Y-29.844
N14530 X0.798 Y-29.394
N14535 X0.203 Y-28.799
N14540 X0.17 Y-28.764
N14545 X-0.039 Y-28.527
N14550 X-0.248 Y-28.228
N14555 X-0.285 Y-28.172
N14560 X-0.398 Y-27.963
N14565 X-0.458 Y-27.84
N14570 X-0.493 Y-27.754
N14575 X-0.575 Y-27.545
N14580 X-0.638 Y-27.336
N14585 X-0.684 Y-27.126
N14590 X-0.713 Y-26.917
N14595 X-0.743 Y-26.499
N14600 X-0.75 Y-26.29
N14605 Y-3.71
N14610 X-0.743 Y-3.501
N14615 X-0.713 Y-3.083
N14620 X-0.684 Y-2.874
N14625 X-0.638 Y-2.664
N14630 X-0.575 Y-2.455
N14635 X-0.493 Y-2.246
N14640 X-0.458 Y-2.16
N14645 X-0.398 Y-2.037
N14650 X-0.285 Y-1.828
N14655 X-0.248 Y-1.772
N14660 X-0.039 Y-1.473
N14665 X0.17 Y-1.236
N14670 X0.203 Y-1.201
N14675 X0.83 Y-0.574
N14680 X1.251 Y-0.156
N14685 X1.426 Y-0.005
N14690 X1.496 Y0.054
N14695 X1.635 Y0.155
N14700 X1.844 Y0.293
N14705 X2.054 Y0.405
N14710 X2.189 Y0.472
N14715 X2.263 Y0.501
N14720 X2.472 Y0.581
N14725 X2.841 Y0.681
N14730 X2.891 Y0.691
N14735 X3.1 Y0.719
N14740 X3.518 Y0.742
N14745 X3.728 Y0.75
N14750 X49.345
N14755 X49.554 Y0.748
N14760 X49.589 Y0.746
N14765 X50.512 Y0.743
N14770 X51.434 Y0.734
N14775 X52.357 Y0.728
N14780 X53.279 Y0.726
N14785 X55.125 Y0.724
N14790 X60.66
N14795 X61.582 Y0.699
N14800 X62.482 Y0.493
N14805 X63.303 Y0.072
N14810 X63.997 Y-0.535
N14815 X64.547 Y-1.276
N14820 X64.955 Y-2.104
N14825 X65.24 Y-2.981
N14830 X65.429 Y-3.884
N14835 X65.55 Y-4.799
N14840 X65.624 Y-5.719
N14845 X65.668 Y-6.64
N14850 X65.694 Y-7.562
N14855 X65.709 Y-8.485
N14860 X65.718 Y-9.407
N14865 X65.721 Y-10.007
N14870 X65.723 Y-10.069
N14875 X65.727 Y-10.13
N14880 X65.734 Y-10.191
N14885 X65.745 Y-10.4
N14890 X65.75 Y-10.609
N14895 Y-19.391
N14900 X65.745 Y-19.6
N14905 X65.743 Y-20.522
N14910 X65.736 Y-21.445
N14915 X65.733 Y-22.367
N14920 X65.73 Y-24.213
N14925 X65.729 Y-26.058
N14930 X65.644 Y-26.977
N14935 X65.344 Y-27.849
N14940 X64.838 Y-28.62
N14945 X64.168 Y-29.255
N14950 X63.384 Y-29.741
N14955 X62.531 Y-30.093
N14960 X61.641 Y-30.334
N14965 X60.732 Y-30.492
N14970 X59.814 Y-30.59
N14975 X58.894 Y-30.65
N14980 X57.972 Y-30.686
N14985 X57.049 Y-30.707
N14990 X56.127 Y-30.718
N14995 X55.204 Y-30.725
N15000 X54.282 Y-30.729
N15005 X53.359 Y-30.726
N15010 X52.437 Y-30.699
N15015 X51.516 Y-30.639
N15020 X50.998 Y-30.59
N15025 X50.771 Y-30.581
N15030 X50.545 Y-30.598
N15035 X50.323 Y-30.641
N15040 X50.162 Y-30.681
N15045 X49.973 Y-30.711
N15050 X49.763 Y-30.737
N15055 X49.554 Y-30.748
N15060 X49.345 Y-30.75
N15065 X41.955
N15070 G3 X41.213 Y-30.977 I0.052 J-1.499
N15075 G1 X41.088 Y-31.055 Z-5.993
N15080 X40.965 Y-31.132 Z-5.971
N15085 X40.843 Y-31.208 Z-5.935
N15090 X40.726 Y-31.281 Z-5.886
N15095 X40.613 Y-31.352 Z-5.823
N15100 X40.506 Y-31.419 Z-5.747
N15105 X40.406 Y-31.481 Z-5.66
N15110 X40.313 Y-31.539 Z-5.561
N15115 X40.229 Y-31.591 Z-5.452
N15120 X40.155 Y-31.638 Z-5.333
N15125 X40.091 Y-31.678 Z-5.207
N15130 X40.038 Y-31.711 Z-5.074
N15135 X39.995 Y-31.738 Z-4.935
N15140 X39.965 Y-31.757 Z-4.793
N15145 X39.947 Y-31.768 Z-4.647
N15150 X39.941 Y-31.772 Z-4.5
N15155 G0 Z5.
N15160 X66.838 Y-17.611
N15165 Z-3.
N15170 G1 Z-4.5 F1200.
N15175 X66.834 Y-17.617 Z-4.647
N15180 X66.822 Y-17.635 Z-4.793
N15185 X66.802 Y-17.665 Z-4.935
N15190 X66.775 Y-17.706 Z-5.074
N15195 X66.74 Y-17.758 Z-5.207
N15200 X66.698 Y-17.821 Z-5.333
N15205 X66.649 Y-17.894 Z-5.452
N15210 X66.594 Y-17.977 Z-5.561
N15215 X66.534 Y-18.067 Z-5.66
N15220 X66.468 Y-18.166 Z-5.747
N15225 X66.398 Y-18.271 Z-5.823
N15230 X66.324 Y-18.381 Z-5.886
N15235 X66.247 Y-18.497 Z-5.935
N15240 X66.168 Y-18.615 Z-5.971
N15245 X66.087 Y-18.736 Z-5.993
N15250 X66.005 Y-18.859 Z-6.
N15255 G3 X65.745 Y-19.6 I1.316 J-0.879
N15260 G1 X65.734 Y-19.809
N15265 X65.705 Y-20.018
N15270 X65.664 Y-20.227
N15275 X65.609 Y-20.436
N15280 X65.54 Y-20.645
N15285 X65.526 Y-20.673
N15290 X65.467 Y-20.811
N15295 X65.419 Y-20.968
N15300 X65.367 Y-21.161
N15305 X65.312 Y-21.403
N15310 X65.253 Y-21.712
N15315 X65.192 Y-22.119
N15320 X65.126 Y-22.688
N15325 X65.058 Y-23.57
N15330 X65.021 Y-24.492
N15335 X64.986 Y-25.414
N15340 X64.84 Y-26.325
N15345 X64.492 Y-27.179
N15350 X63.951 Y-27.926
N15355 X63.259 Y-28.536
N15360 X62.464 Y-29.005
N15365 X61.607 Y-29.346
N15370 X60.715 Y-29.582
N15375 X59.806 Y-29.737
N15380 X58.888 Y-29.836
N15385 X57.968 Y-29.897
N15390 X57.046 Y-29.933
N15395 X56.123 Y-29.954
N15400 X55.201 Y-29.967
N15405 X54.278 Y-29.971
N15410 X53.356 Y-29.96
N15415 X52.425 Y-29.923
N15420 X52.065 Y-29.94
N15425 X51.713 Y-30.021
N15430 X51.382 Y-30.164
N15435 X51.228 Y-30.248
N15440 X50.789 Y-30.472
N15445 X50.6 Y-30.554
N15450 X50.391 Y-30.623
N15455 X50.323 Y-30.641
N15460 G3 X49.657 Y-31.041 I0.414 J-1.442
N15465 G1 X49.555 Y-31.147 Z-5.993
N15470 X49.454 Y-31.252 Z-5.971
N15475 X49.355 Y-31.354 Z-5.935
N15480 X49.259 Y-31.454 Z-5.886
N15485 X49.166 Y-31.55 Z-5.823
N15490 X49.079 Y-31.641 Z-5.747
N15495 X48.997 Y-31.726 Z-5.66
N15500 X48.921 Y-31.804 Z-5.561
N15505 X48.852 Y-31.876 Z-5.452
N15510 X48.792 Y-31.939 Z-5.333
N15515 X48.739 Y-31.993 Z-5.207
N15520 X48.695 Y-32.038 Z-5.074
N15525 X48.661 Y-32.074 Z-4.935
N15530 X48.636 Y-32.1 Z-4.793
N15535 X48.621 Y-32.115 Z-4.647
N15540 X48.616 Y-32.121 Z-4.5
N15545 G0 Z5.
N15550 X67.31 Y-19.271
N15555 Z-3.
N15560 G1 Z-4.5 F1200.
N15565 X67.304 Y-19.275 Z-4.647
N15570 X67.286 Y-19.287 Z-4.793
N15575 X67.256 Y-19.307 Z-4.935
N15580 X67.215 Y-19.334 Z-5.074
N15585 X67.162 Y-19.368 Z-5.207
N15590 X67.099 Y-19.41 Z-5.333
N15595 X67.026 Y-19.458 Z-5.452
N15600 X66.943 Y-19.512 Z-5.561
N15605 X66.852 Y-19.572 Z-5.66
N15610 X66.753 Y-19.637 Z-5.747
N15615 X66.647 Y-19.706 Z-5.823
N15620 X66.536 Y-19.779 Z-5.886
N15625 X66.42 Y-19.855 Z-5.935
N15630 X66.3 Y-19.933 Z-5.971
N15635 X66.179 Y-20.013 Z-5.993
N15640 X66.056 Y-20.093 Z-6.
N15645 G3 X65.526 Y-20.673 I0.867 J-1.324
N15650 G1 X65.437 Y-20.854
N15655 X65.228 Y-21.272
N15660 X65.109 Y-21.481
N15665 X65.034 Y-21.628
N15670 X64.967 Y-21.762
N15675 X64.908 Y-21.9
N15680 X64.848 Y-22.058
N15685 X64.785 Y-22.241
N15690 X64.725 Y-22.44
N15695 X64.66 Y-22.69
N15700 X64.589 Y-23.011
N15705 X64.511 Y-23.433
N15710 X64.377 Y-24.346
N15715 X64.221 Y-25.255
N15720 X63.908 Y-26.123
N15725 X63.412 Y-26.901
N15730 X62.761 Y-27.555
N15735 X61.997 Y-28.072
N15740 X61.159 Y-28.457
N15745 X60.278 Y-28.731
N15750 X59.374 Y-28.917
N15755 X58.46 Y-29.039
N15760 X57.54 Y-29.116
N15765 X56.619 Y-29.164
N15770 X55.697 Y-29.192
N15775 X54.774 Y-29.204
N15780 X53.852 Y-29.199
N15785 X53.598 Y-29.198
N15790 X53.25 Y-29.228
N15795 X52.913 Y-29.319
N15800 X52.596 Y-29.466
N15805 X51.438 Y-30.134
N15810 X51.382 Y-30.164
N15815 G3 X50.839 Y-30.719 I0.763 J-1.292
N15820 G1 X50.767 Y-30.847 Z-5.993
N15825 X50.695 Y-30.974 Z-5.971
N15830 X50.625 Y-31.098 Z-5.935
N15835 X50.557 Y-31.219 Z-5.886
N15840 X50.491 Y-31.335 Z-5.823
N15845 X50.429 Y-31.445 Z-5.747
N15850 X50.371 Y-31.548 Z-5.66
N15855 X50.318 Y-31.643 Z-5.561
N15860 X50.269 Y-31.729 Z-5.452
N15865 X50.226 Y-31.805 Z-5.333
N15870 X50.189 Y-31.871 Z-5.207
N15875 X50.158 Y-31.926 Z-5.074
N15880 X50.134 Y-31.969 Z-4.935
N15885 X50.116 Y-32. Z-4.793
N15890 X50.105 Y-32.019 Z-4.647
N15895 X50.102 Y-32.025 Z-4.5
N15900 G0 Z5.
N15905 X66.986 Y-20.206
N15910 Z-3.
N15915 G1 Z-4.5 F1200.
N15920 X66.98 Y-20.21 Z-4.647
N15925 X66.961 Y-20.221 Z-4.793
N15930 X66.93 Y-20.238 Z-4.935
N15935 X66.886 Y-20.262 Z-5.074
N15940 X66.831 Y-20.293 Z-5.207
N15945 X66.765 Y-20.33 Z-5.333
N15950 X66.689 Y-20.373 Z-5.452
N15955 X66.603 Y-20.421 Z-5.561
N15960 X66.507 Y-20.474 Z-5.66
N15965 X66.404 Y-20.532 Z-5.747
N15970 X66.294 Y-20.594 Z-5.823
N15975 X66.178 Y-20.659 Z-5.886
N15980 X66.057 Y-20.727 Z-5.935
N15985 X65.933 Y-20.797 Z-5.971
N15990 X65.806 Y-20.868 Z-5.993
N15995 X65.677 Y-20.94 Z-6.
N16000 G3 X65.109 Y-21.481 I0.773 J-1.381
N16005 G1 X64.988 Y-21.69
N16010 X64.866 Y-21.9
N16015 X64.83 Y-21.959
N16020 X64.726 Y-22.109
N16025 X64.621 Y-22.256
N16030 X64.591 Y-22.29
N16035 X64.499 Y-22.408
N16040 X64.422 Y-22.537
N16045 X64.352 Y-22.67
N16050 X64.282 Y-22.816
N16055 X64.198 Y-23.013
N16060 X64.094 Y-23.281
N16065 X63.793 Y-24.153
N16070 X63.468 Y-25.016
N16075 X63.007 Y-25.815
N16080 X62.398 Y-26.509
N16085 X61.671 Y-27.076
N16090 X60.859 Y-27.515
N16095 X59.995 Y-27.838
N16100 X59.101 Y-28.066
N16105 X58.191 Y-28.22
N16110 X57.274 Y-28.32
N16115 X56.354 Y-28.383
N16120 X55.432 Y-28.418
N16125 X54.895 Y-28.428
N16130 X54.56 Y-28.462
N16135 X54.236 Y-28.552
N16140 X53.932 Y-28.695
N16145 X52.596 Y-29.466
N16150 G3 X52.066 Y-30.034 I0.794 J-1.272
N16155 G1 X51.997 Y-30.163 Z-5.993
N16160 X51.929 Y-30.292 Z-5.971
N16165 X51.862 Y-30.418 Z-5.935
N16170 X51.796 Y-30.54 Z-5.886
N16175 X51.734 Y-30.658 Z-5.823
N16180 X51.675 Y-30.769 Z-5.747
N16185 X51.619 Y-30.874 Z-5.66
N16190 X51.568 Y-30.97 Z-5.561
N16195 X51.521 Y-31.057 Z-5.452
N16200 X51.48 Y-31.135 Z-5.333
N16205 X51.445 Y-31.202 Z-5.207
N16210 X51.415 Y-31.257 Z-5.074
N16215 X51.392 Y-31.301 Z-4.935
N16220 X51.375 Y-31.332 Z-4.793
N16225 X51.365 Y-31.352 Z-4.647
N16230 X51.362 Y-31.358 Z-4.5
N16235 G0 Z5.
N16240 X66.677 Y-21.397
N16245 Z-3.
N16250 G1 Z-4.5 F1200.
N16255 X66.671 Y-21.4 Z-4.647
N16260 X66.65 Y-21.406 Z-4.793
N16265 X66.616 Y-21.418 Z-4.935
N16270 X66.569 Y-21.433 Z-5.074
N16275 X66.509 Y-21.453 Z-5.207
N16280 X66.437 Y-21.476 Z-5.333
N16285 X66.354 Y-21.504 Z-5.452
N16290 X66.26 Y-21.535 Z-5.561
N16295 X66.157 Y-21.569 Z-5.66
N16300 X66.044 Y-21.606 Z-5.747
N16305 X65.924 Y-21.646 Z-5.823
N16310 X65.798 Y-21.687 Z-5.886
N16315 X65.666 Y-21.731 Z-5.935
N16320 X65.531 Y-21.775 Z-5.971
N16325 X65.392 Y-21.821 Z-5.993
N16330 X65.253 Y-21.867 Z-6.
N16335 G3 X64.591 Y-22.29 I0.495 J-1.503
N16340 G1 X64.385 Y-22.527
N16345 X64.202 Y-22.692
N16350 X64.133 Y-22.76
N16355 X64.03 Y-22.869
N16360 X63.934 Y-22.985
N16365 X63.832 Y-23.12
N16370 X63.705 Y-23.301
N16375 X63.204 Y-24.076
N16380 X62.692 Y-24.843
N16385 X62.083 Y-25.536
N16390 X61.371 Y-26.123
N16395 X60.577 Y-26.593
N16400 X59.727 Y-26.951
N16405 X58.842 Y-27.213
N16410 X57.938 Y-27.395
N16415 X57.023 Y-27.517
N16420 X56.238 Y-27.584
N16425 X55.949 Y-27.63
N16430 X55.67 Y-27.717
N16435 X55.407 Y-27.844
N16440 X53.932 Y-28.695
N16445 G3 X53.402 Y-29.263 I0.794 J-1.272
N16450 G1 X53.333 Y-29.393 Z-5.993
N16455 X53.265 Y-29.521 Z-5.971
N16460 X53.197 Y-29.647 Z-5.935
N16465 X53.132 Y-29.77 Z-5.886
N16470 X53.07 Y-29.887 Z-5.823
N16475 X53.011 Y-29.999 Z-5.747
N16480 X52.955 Y-30.103 Z-5.66
N16485 X52.904 Y-30.199 Z-5.561
N16490 X52.857 Y-30.287 Z-5.452
N16495 X52.816 Y-30.364 Z-5.333
N16500 X52.781 Y-30.431 Z-5.207
N16505 X52.751 Y-30.486 Z-5.074
N16510 X52.728 Y-30.53 Z-4.935
N16515 X52.711 Y-30.562 Z-4.793
N16520 X52.701 Y-30.581 Z-4.647
N16525 X52.697 Y-30.587 Z-4.5
N16530 G0 Z5.
N16535 X66.383 Y-22.065
N16540 Z-3.
N16545 G1 Z-4.5 F1200.
N16550 X66.376 Y-22.067 Z-4.647
N16555 X66.355 Y-22.071 Z-4.793
N16560 X66.32 Y-22.078 Z-4.935
N16565 X66.271 Y-22.087 Z-5.074
N16570 X66.209 Y-22.099 Z-5.207
N16575 X66.135 Y-22.114 Z-5.333
N16580 X66.049 Y-22.131 Z-5.452
N16585 X65.952 Y-22.15 Z-5.561
N16590 X65.845 Y-22.171 Z-5.66
N16595 X65.729 Y-22.193 Z-5.747
N16600 X65.605 Y-22.218 Z-5.823
N16605 X65.474 Y-22.243 Z-5.886
N16610 X65.338 Y-22.27 Z-5.935
N16615 X65.198 Y-22.298 Z-5.971
N16620 X65.055 Y-22.326 Z-5.993
N16625 X64.911 Y-22.354 Z-6.
N16630 G3 X64.202 Y-22.692 I0.305 J-1.553
N16635 G1 X64.153 Y-22.736
N16640 X63.993 Y-22.862
N16645 X63.875 Y-22.945
N16650 X63.784 Y-23.008
N16655 X63.72 Y-23.046
N16660 X63.619 Y-23.113
N16665 X63.497 Y-23.199
N16670 X63.379 Y-23.292
N16675 X63.187 Y-23.454
N16680 X62.505 Y-24.076
N16685 X61.829 Y-24.703
N16690 X61.096 Y-25.264
N16695 X60.3 Y-25.73
N16700 X59.454 Y-26.099
N16705 X58.575 Y-26.377
N16710 X57.857 Y-26.537
N16715 X57.662 Y-26.591
N16720 X57.473 Y-26.664
N16725 X57.292 Y-26.756
N16730 G3 X58.837 Y-29.328 I0.794 J-1.272
N16735 G1 X65.188 Y-25.662
N16740 G3 X63.72 Y-23.046 I-0.75 J1.299
N16745 G1 X63.537 Y-23.154
N16750 X55.407 Y-27.844
N16755 G3 X54.877 Y-28.412 I0.794 J-1.272
N16760 G1 X54.808 Y-28.542 Z-5.993
N16765 X54.74 Y-28.67 Z-5.971
N16770 X54.673 Y-28.796 Z-5.935
N16775 X54.608 Y-28.919 Z-5.886
N16780 X54.545 Y-29.036 Z-5.823
N16785 X54.486 Y-29.148 Z-5.747
N16790 X54.43 Y-29.252 Z-5.66
N16795 X54.379 Y-29.348 Z-5.561
N16800 X54.332 Y-29.436 Z-5.452
N16805 X54.291 Y-29.513 Z-5.333
N16810 X54.256 Y-29.58 Z-5.207
N16815 X54.226 Y-29.635 Z-5.074
N16820 X54.203 Y-29.679 Z-4.935
N16825 X54.186 Y-29.711 Z-4.793
N16830 X54.176 Y-29.73 Z-4.647
N16835 X54.173 Y-29.736 Z-4.5
N16840 G0 Z5.
N16845 X47.601 Y1.84
N16850 Z-3.
N16855 G1 Z-4.5 F1200.
N16860 X47.607 Y1.836 Z-4.647
N16865 X47.625 Y1.824 Z-4.793
N16870 X47.655 Y1.804 Z-4.935
N16875 X47.696 Y1.777 Z-5.074
N16880 X47.748 Y1.742 Z-5.207
N16885 X47.811 Y1.7 Z-5.333
N16890 X47.884 Y1.651 Z-5.452
N16895 X47.966 Y1.596 Z-5.561
N16900 X48.057 Y1.536 Z-5.66
N16905 X48.155 Y1.47 Z-5.747
N16910 X48.26 Y1.4 Z-5.823
N16915 X48.371 Y1.326 Z-5.886
N16920 X48.486 Y1.249 Z-5.935
N16925 X48.605 Y1.169 Z-5.971
N16930 X48.726 Y1.088 Z-5.993
N16935 X48.848 Y1.007 Z-6.
N16940 G3 X49.589 Y0.746 I0.88 J1.316
N16945 G1 X49.763 Y0.737
N16950 X49.973 Y0.711
N16955 X50.162 Y0.681
N16960 X50.391 Y0.623
N16965 X50.6 Y0.554
N16970 X50.632 Y0.54
N16975 X50.746 Y0.497
N16980 X50.888 Y0.449
N16985 X51.056 Y0.4
N16990 X51.262 Y0.347
N16995 X51.522 Y0.291
N17000 X51.855 Y0.231
N17005 X52.301 Y0.168
N17010 X52.937 Y0.102
N17015 X53.857 Y0.04
N17020 X54.779 Y0.009
N17025 X55.702 Y-0.008
N17030 X56.624 Y-0.016
N17035 X57.547 Y-0.021
N17040 X58.469 Y-0.023
N17045 X59.392 Y-0.024
N17050 X60.315 Y-0.033
N17055 X61.229 Y-0.151
N17060 X62.093 Y-0.477
N17065 X62.853 Y-0.999
N17070 X63.479 Y-1.677
N17075 X63.962 Y-2.463
N17080 X64.314 Y-3.316
N17085 X64.558 Y-4.206
N17090 X64.719 Y-5.114
N17095 X64.822 Y-6.031
N17100 X64.886 Y-6.951
N17105 X64.919 Y-7.736
N17110 X64.957 Y-8.051
N17115 X65.045 Y-8.356
N17120 X65.179 Y-8.643
N17125 X65.228 Y-8.728
N17130 X65.471 Y-9.215
N17135 X65.54 Y-9.355
N17140 X65.609 Y-9.564
N17145 X65.667 Y-9.786
N17150 X65.705 Y-9.982
N17155 X65.734 Y-10.191
N17160 G3 X66.059 Y-10.896 I1.478 J0.255
N17165 G1 X66.153 Y-11.009 Z-5.993
N17170 X66.247 Y-11.121 Z-5.971
N17175 X66.338 Y-11.231 Z-5.935
N17180 X66.427 Y-11.337 Z-5.886
N17185 X66.512 Y-11.44 Z-5.823
N17190 X66.592 Y-11.537 Z-5.747
N17195 X66.668 Y-11.628 Z-5.66
N17200 X66.738 Y-11.711 Z-5.561
N17205 X66.801 Y-11.787 Z-5.452
N17210 X66.857 Y-11.855 Z-5.333
N17215 X66.906 Y-11.913 Z-5.207
N17220 X66.946 Y-11.961 Z-5.074
N17225 X66.978 Y-11.999 Z-4.935
N17230 X67. Y-12.027 Z-4.793
N17235 X67.014 Y-12.044 Z-4.647
N17240 X67.019 Y-12.049 Z-4.5
N17245 G0 Z5.
N17250 X49.155 Y2.264
N17255 Z-3.
N17260 G1 Z-4.5 F1200.
N17265 X49.16 Y2.258 Z-4.647
N17270 X49.172 Y2.24 Z-4.793
N17275 X49.193 Y2.211 Z-4.935
N17280 X49.222 Y2.171 Z-5.074
N17285 X49.259 Y2.12 Z-5.207
N17290 X49.303 Y2.058 Z-5.333
N17295 X49.354 Y1.987 Z-5.452
N17300 X49.412 Y1.907 Z-5.561
N17305 X49.475 Y1.818 Z-5.66
N17310 X49.544 Y1.722 Z-5.747
N17315 X49.618 Y1.619 Z-5.823
N17320 X49.695 Y1.511 Z-5.886
N17325 X49.776 Y1.399 Z-5.935
N17330 X49.859 Y1.283 Z-5.971
N17335 X49.944 Y1.164 Z-5.993
N17340 X50.03 Y1.045 Z-6.
N17345 G3 X50.632 Y0.54 I1.286 J0.923
N17350 G1 X50.789 Y0.472
N17355 X51.228 Y0.248
N17360 X51.438 Y0.134
N17365 X51.514 Y0.09
N17370 X51.648 Y0.022
N17375 X51.783 Y-0.043
N17380 X51.921 Y-0.102
N17385 X52.075 Y-0.16
N17390 X52.265 Y-0.224
N17395 X52.484 Y-0.289
N17400 X52.733 Y-0.353
N17405 X53.052 Y-0.422
N17410 X53.436 Y-0.491
N17415 X53.948 Y-0.564
N17420 X54.645 Y-0.636
N17425 X55.566 Y-0.699
N17430 X56.488 Y-0.733
N17435 X57.41 Y-0.752
N17440 X59.255 Y-0.772
N17445 X60.173 Y-0.861
N17450 X61.054 Y-1.135
N17455 X61.848 Y-1.606
N17460 X62.516 Y-2.242
N17465 X63.044 Y-2.998
N17470 X63.438 Y-3.833
N17475 X63.717 Y-4.712
N17480 X63.907 Y-5.615
N17485 X64.033 Y-6.553
N17490 X64.092 Y-6.842
N17495 X64.192 Y-7.12
N17500 X64.332 Y-7.379
N17505 X64.509 Y-7.615
N17510 X64.621 Y-7.744
N17515 X64.726 Y-7.891
N17520 X64.83 Y-8.041
N17525 X64.866 Y-8.1
N17530 X65.039 Y-8.398
N17535 X65.179 Y-8.643
N17540 G3 X65.744 Y-9.175 I1.277 J0.788
N17545 G1 X65.874 Y-9.245 Z-5.993
N17550 X66.002 Y-9.314 Z-5.971
N17555 X66.127 Y-9.382 Z-5.935
N17560 X66.249 Y-9.448 Z-5.886
N17565 X66.367 Y-9.511 Z-5.823
N17570 X66.478 Y-9.571 Z-5.747
N17575 X66.582 Y-9.627 Z-5.66
N17580 X66.678 Y-9.679 Z-5.561
N17585 X66.765 Y-9.726 Z-5.452
N17590 X66.842 Y-9.767 Z-5.333
N17595 X66.909 Y-9.803 Z-5.207
N17600 X66.964 Y-9.833 Z-5.074
N17605 X67.008 Y-9.857 Z-4.935
N17610 X67.039 Y-9.874 Z-4.793
N17615 X67.058 Y-9.884 Z-4.647
N17620 X67.064 Y-9.887 Z-4.5
N17625 G0 Z5.
N17630 X50.239 Y1.966
N17635 Z-3.
N17640 G1 Z-4.5 F1200.
N17645 X50.242 Y1.96 Z-4.647
N17650 X50.253 Y1.941 Z-4.793
N17655 X50.27 Y1.91 Z-4.935
N17660 X50.294 Y1.867 Z-5.074
N17665 X50.325 Y1.812 Z-5.207
N17670 X50.362 Y1.746 Z-5.333
N17675 X50.405 Y1.67 Z-5.452
N17680 X50.454 Y1.583 Z-5.561
N17685 X50.507 Y1.488 Z-5.66
N17690 X50.565 Y1.385 Z-5.747
N17695 X50.626 Y1.275 Z-5.823
N17700 X50.692 Y1.159 Z-5.886
N17705 X50.759 Y1.038 Z-5.935
N17710 X50.829 Y0.913 Z-5.971
N17715 X50.9 Y0.786 Z-5.993
N17720 X50.972 Y0.658 Z-6.
N17725 G3 X51.514 Y0.09 I1.38 J0.774
N17730 G1 X52.665 Y-0.574
N17735 X52.818 Y-0.652
N17740 X52.953 Y-0.718
N17745 X53.094 Y-0.78
N17750 X53.267 Y-0.847
N17755 X53.446 Y-0.91
N17760 X53.669 Y-0.979
N17765 X53.952 Y-1.055
N17770 X54.256 Y-1.125
N17775 X54.651 Y-1.201
N17780 X55.138 Y-1.276
N17785 X55.804 Y-1.354
N17790 X56.724 Y-1.427
N17795 X57.646 Y-1.469
N17800 X58.567 Y-1.508
N17805 X59.482 Y-1.63
N17810 X60.354 Y-1.932
N17815 X61.133 Y-2.426
N17820 X61.787 Y-3.077
N17825 X62.303 Y-3.841
N17830 X62.69 Y-4.679
N17835 X62.968 Y-5.559
N17840 X63.092 Y-5.992
N17845 X63.103 Y-6.025
N17850 X63.228 Y-6.325
N17855 X63.401 Y-6.6
N17860 X63.616 Y-6.843
N17865 X63.867 Y-7.049
N17870 X63.993 Y-7.138
N17875 X64.153 Y-7.264
N17880 X64.385 Y-7.473
N17885 X64.509 Y-7.615
N17890 G3 X65.167 Y-8.026 I1.097 J1.023
N17895 G1 X65.308 Y-8.069 Z-5.993
N17900 X65.447 Y-8.112 Z-5.971
N17905 X65.584 Y-8.153 Z-5.935
N17910 X65.716 Y-8.194 Z-5.886
N17915 X65.844 Y-8.233 Z-5.823
N17920 X65.964 Y-8.27 Z-5.747
N17925 X66.078 Y-8.304 Z-5.66
N17930 X66.182 Y-8.336 Z-5.561
N17935 X66.276 Y-8.365 Z-5.452
N17940 X66.36 Y-8.39 Z-5.333
N17945 X66.433 Y-8.413 Z-5.207
N17950 X66.493 Y-8.431 Z-5.074
N17955 X66.54 Y-8.445 Z-4.935
N17960 X66.574 Y-8.456 Z-4.793
N17965 X66.595 Y-8.462 Z-4.647
N17970 X66.602 Y-8.464 Z-4.5
N17975 G0 Z5.
N17980 X51.389 Y1.303
N17985 Z-3.
N17990 G1 Z-4.5 F1200.
N17995 X51.392 Y1.297 Z-4.647
N18000 X51.403 Y1.278 Z-4.793
N18005 X51.42 Y1.247 Z-4.935
N18010 X51.445 Y1.203 Z-5.074
N18015 X51.475 Y1.148 Z-5.207
N18020 X51.512 Y1.082 Z-5.333
N18025 X51.555 Y1.006 Z-5.452
N18030 X51.604 Y0.92 Z-5.561
N18035 X51.657 Y0.825 Z-5.66
N18040 X51.715 Y0.721 Z-5.747
N18045 X51.777 Y0.611 Z-5.823
N18050 X51.842 Y0.495 Z-5.886
N18055 X51.91 Y0.374 Z-5.935
N18060 X51.979 Y0.25 Z-5.971
N18065 X52.051 Y0.123 Z-5.993
N18070 X52.123 Y-0.005 Z-6.
N18075 G3 X52.665 Y-0.574 I1.38 J0.774
N18080 G1 X53.949 Y-1.314
N18085 X54.083 Y-1.383
N18090 X54.218 Y-1.448
N18095 X54.373 Y-1.514
N18100 X54.542 Y-1.58
N18105 X54.737 Y-1.647
N18110 X54.984 Y-1.722
N18115 X55.27 Y-1.798
N18120 X55.598 Y-1.872
N18125 X56.035 Y-1.954
N18130 X56.947 Y-2.09
N18135 X57.864 Y-2.191
N18140 X58.772 Y-2.355
N18145 X59.633 Y-2.688
N18150 X60.4 Y-3.2
N18155 X61.043 Y-3.862
N18160 X61.557 Y-4.628
N18165 X61.975 Y-5.45
N18170 X62.074 Y-5.64
N18175 X62.279 Y-5.957
N18180 X62.54 Y-6.23
N18185 X62.849 Y-6.449
N18190 X63.574 Y-6.868
N18195 X63.784 Y-6.992
N18200 X63.867 Y-7.049
N18205 G3 X64.607 Y-7.284 I0.809 J1.263
N18210 G1 X64.754 Y-7.291 Z-5.993
N18215 X64.899 Y-7.298 Z-5.971
N18220 X65.042 Y-7.304 Z-5.935
N18225 X65.18 Y-7.311 Z-5.886
N18230 X65.313 Y-7.317 Z-5.823
N18235 X65.439 Y-7.323 Z-5.747
N18240 X65.557 Y-7.328 Z-5.66
N18245 X65.666 Y-7.333 Z-5.561
N18250 X65.765 Y-7.338 Z-5.452
N18255 X65.853 Y-7.342 Z-5.333
N18260 X65.928 Y-7.345 Z-5.207
N18265 X65.991 Y-7.348 Z-5.074
N18270 X66.041 Y-7.351 Z-4.935
N18275 X66.076 Y-7.352 Z-4.793
N18280 X66.098 Y-7.353 Z-4.647
N18285 X66.105 Z-4.5
N18290 G0 Z5.
N18295 X52.673 Y0.562
N18300 Z-3.
N18305 G1 Z-4.5 F1200.
N18310 X52.676 Y0.556 Z-4.647
N18315 X52.687 Y0.537 Z-4.793
N18320 X52.704 Y0.506 Z-4.935
N18325 X52.729 Y0.463 Z-5.074
N18330 X52.759 Y0.408 Z-5.207
N18335 X52.796 Y0.342 Z-5.333
N18340 X52.839 Y0.265 Z-5.452
N18345 X52.888 Y0.179 Z-5.561
N18350 X52.941 Y0.084 Z-5.66
N18355 X52.999 Y-0.019 Z-5.747
N18360 X53.061 Y-0.129 Z-5.823
N18365 X53.126 Y-0.245 Z-5.886
N18370 X53.193 Y-0.366 Z-5.935
N18375 X53.263 Y-0.491 Z-5.971
N18380 X53.335 Y-0.618 Z-5.993
N18385 X53.406 Y-0.746 Z-6.
N18390 G3 X53.949 Y-1.314 I1.38 J0.774
N18395 G1 X55.201 Y-2.037
N18400 X55.36 Y-2.119
N18405 X55.503 Y-2.187
N18410 X55.664 Y-2.258
N18415 X55.842 Y-2.328
N18420 X56.065 Y-2.407
N18425 X56.479 Y-2.536
N18430 X57.369 Y-2.779
N18435 X58.251 Y-3.051
N18440 X59.076 Y-3.463
N18445 X59.807 Y-4.027
N18450 X60.428 Y-4.709
N18455 X60.636 Y-4.985
N18460 X60.811 Y-5.19
N18465 X61.013 Y-5.369
N18470 X61.237 Y-5.52
N18475 G3 X62.691 Y-2.896 I0.704 J1.325
N18480 G1 X56.746 Y0.534
N18485 G3 X55.201 Y-2.037 I-0.75 J-1.299
N18490 G1 X62.849 Y-6.449
N18495 X62.932 Y-6.481 Z-5.995
N18500 X63.013 Y-6.514 Z-5.98
N18505 X63.093 Y-6.545 Z-5.954
N18510 X63.17 Y-6.575 Z-5.92
N18515 X63.254 Y-6.587 Z-5.871
N18520 X63.331 Y-6.598 Z-5.813
N18525 X63.4 Y-6.608 Z-5.745
N18530 X63.461 Y-6.616 Z-5.669
N18535 X63.511 Y-6.624 Z-5.587
N18540 X63.552 Z-5.498
N18545 X63.581 Z-5.406
N18550 X63.599 Z-5.311
N18555 X63.605 Y-6.623 Z-5.215
N18560 G0 Z5.
N18565 X52.428 Y0.629
N18570 Z-2.4
N18575 G1 Z-3.9 F1200.
N18580 X52.433 Y0.624 Z-4.047
N18585 X52.448 Y0.608 Z-4.193
N18590 X52.473 Y0.583 Z-4.335
N18595 X52.508 Y0.548 Z-4.474
N18600 X52.553 Y0.503 Z-4.607
N18605 X52.606 Y0.449 Z-4.733
N18610 X52.667 Y0.387 Z-4.852
N18615 X52.737 Y0.316 Z-4.961
N18620 X52.814 Y0.239 Z-5.06
N18625 X52.897 Y0.155 Z-5.147
