%
(CLAMP_S1_V10)
(T1  D=6. CR=0. TAPER=45DEG - ZMIN=-1.9 - CHAMFER MILL)
(T16  D=6. CR=0.5 - ZMIN=-12.6 - BULLNOSE END MILL)
N10 G90 G94 G17 G91.1
N15 G21
N20 G53 G0 Z0.
(FACE2)
N25 T16 M6
N30 S15000 M3
N35 G54
N40 M8
N45 G0 X72.713 Y-34.274
N50 G43 Z15. H16
N55 G0 Z5.
N60 G1 Z0.2 F400.
N65 G18 G3 X72.113 Z-0.4 I-0.6 K0. F1000.
N70 G1 X69.834
N75 X-4.834 F1200.
N80 X-5.
N85 G17 G2 Y-30.588 I0. J1.843
N90 G1 X70.
N95 G3 Y-26.902 I0. J1.843
N100 G1 X-5.
N105 G2 Y-23.216 I0. J1.843
N110 G1 X70.
N115 G3 Y-19.53 I0. J1.843
N120 G1 X-5.
N125 G2 Y-15.845 I0. J1.843
N130 G1 X70.
N135 G3 Y-12.159 I0. J1.843
N140 G1 X-5.
N145 G2 Y-8.473 I0. J1.843
N150 G1 X70.
N155 G3 Y-4.787 I0. J1.843
N160 G1 X-5.
N165 G2 Y-1.101 I0. J1.843
N170 G1 X70.
N175 G3 Y2.585 I0. J1.843
N180 G1 X-5.
N185 G18 G3 X-5.6 Z0.2 I0. K0.6 F1000.
N190 G0 Z15.
N195 G17
(2D ADAPTIVE3)
N200 S14000 M3
N205 G0 X43.663 Y-15.817
N210 Z15.
N215 Z5.
N220 Z2.5
N225 G3 X44.829 Y-14.917 Z2.377 I0.299 J0.817 F400.
N230 X43.516 Y-14.257 Z2.254 I-0.864 J-0.083
N235 X43.489 Y-15.722 Z2.132 I0.448 J-0.741
N240 X44.819 Y-15.115 Z2.009 I0.474 J0.722
N245 X43.699 Y-14.18 Z1.886 I-0.854 J0.115
N250 X43.341 Y-15.591 Z1.763 I0.265 J-0.818
N255 X44.764 Y-15.304 Z1.64 I0.621 J0.591
N260 X43.893 Y-14.148 Z1.518 I-0.8 J0.304
N265 X43.228 Y-15.43 Z1.395 I0.072 J-0.85
N270 X44.668 Y-15.475 Z1.272 I0.734 J0.431
N275 X44.087 Y-14.16 Z1.149 I-0.704 J0.474
N280 X43.156 Y-15.25 Z1.026 I-0.123 J-0.838
N285 X44.537 Y-15.618 Z0.904 I0.807 J0.251
N290 X44.272 Y-14.217 Z0.781 I-0.573 J0.617
N295 X43.126 Y-15.059 Z0.658 I-0.308 J-0.782
N300 X44.378 Y-15.726 Z0.535 I0.836 J0.06
N305 X44.439 Y-14.313 Z0.412 I-0.415 J0.726
N310 X43.141 Y-14.868 Z0.289 I-0.474 J-0.686
N315 X44.2 Y-15.796 Z0.167 I0.821 J-0.13
N320 X44.578 Y-14.443 Z0.044 I-0.237 J0.795
N325 X43.199 Y-14.687 Z-0.079 I-0.613 J-0.556
N330 X44.012 Y-15.822 Z-0.202 I0.764 J-0.312
N335 X44.683 Y-14.601 Z-0.325 I-0.049 J0.822
N340 X43.295 Y-14.525 Z-0.447 I-0.718 J-0.399
N345 X43.825 Y-15.805 Z-0.57 I0.668 J-0.474
N350 X44.748 Y-14.776 Z-0.693 I0.138 J0.805
N355 X43.425 Y-14.39 Z-0.816 I-0.783 J-0.223
N360 X43.648 Y-15.747 Z-0.939 I0.539 J-0.608
N365 X44.772 Y-14.961 Z-1.061 I0.315 J0.747
N370 X43.581 Y-14.289 Z-1.184 I-0.807 J-0.039
N375 X43.49 Y-15.65 Z-1.307 I0.383 J-0.709
N380 X44.753 Y-15.145 Z-1.43 I0.473 J0.65
N385 X43.754 Y-14.226 Z-1.553 I-0.789 J0.145
N390 X43.359 Y-15.521 Z-1.675 I0.21 J-0.772
N395 X44.693 Y-15.318 Z-1.798 I0.603 J0.521
N400 X43.936 Y-14.205 Z-1.921 I-0.729 J0.318
N405 X43.262 Y-15.367 Z-2.044 I0.029 J-0.793
N410 X44.597 Y-15.472 Z-2.167 I0.701 J0.367
N415 X44.116 Y-14.226 Z-2.289 I-0.632 J0.472
N420 X43.203 Y-15.196 Z-2.412 I-0.151 J-0.772
N425 X44.468 Y-15.599 Z-2.535 I0.76 J0.197
N430 X44.285 Y-14.287 Z-2.658 I-0.504 J0.598
N435 X43.185 Y-15.017 Z-2.781 I-0.32 J-0.712
N440 X44.316 Y-15.692 Z-2.904 I0.778 J0.019
N445 X44.435 Y-14.384 Z-3.026 I-0.352 J0.692
N450 X43.207 Y-14.841 Z-3.149 I-0.47 J-0.615
N455 X44.147 Y-15.748 Z-3.272 I0.756 J-0.158
N460 X44.557 Y-14.511 Z-3.395 I-0.184 J0.747
N465 X43.269 Y-14.676 Z-3.518 I-0.593 J-0.488
N470 X43.972 Y-15.763 Z-3.64 I0.694 J-0.323
N475 X44.647 Y-14.662 Z-3.763 I-0.009 J0.763
N480 X43.366 Y-14.53 Z-3.886 I-0.682 J-0.337
N485 X43.799 Y-15.739 Z-4.009 I0.597 J-0.468
N490 X44.7 Y-14.828 Z-4.132 I0.163 J0.739
N495 X43.492 Y-14.411 Z-4.254 I-0.735 J-0.172
N500 X43.638 Y-15.676 Z-4.377 I0.471 J-0.587
N505 X44.713 Y-15. Z-4.5 I0.324 J0.677
N510 X43.212 I-0.75 J0.
N515 X44.713 I0.75 J0.
N520 G1 X44.725 Y-14.84 F900.
N525 X44.752 Y-14.615
N530 X44.721 Y-14.391
N535 X44.633 Y-14.182
N540 X44.494 Y-14.003
N545 X44.314 Y-13.866
N550 X44.104 Y-13.779
N555 X43.88 Y-13.75
N560 X43.56
N565 X43.455 Y-13.755
N570 X43.307 Y-13.781
N575 X43.164 Y-13.826
N580 X43.028 Y-13.889
N585 X42.9 Y-13.968
N590 X42.783 Y-14.062
N595 X42.677 Y-14.168
N600 X42.583 Y-14.285
N605 X42.503 Y-14.412
N610 X42.436 Y-14.546
N615 X42.384 Y-14.687
N620 X42.346 Y-14.832
N625 X42.324 Y-14.98
N630 X42.315 Y-15.13
N635 X42.322 Y-15.28
N640 X42.342 Y-15.428
N645 X42.377 Y-15.574
N650 X42.426 Y-15.718
N655 X42.564 Y-15.935
N660 X42.758 Y-16.105
N665 X42.992 Y-16.213
N670 X43.247 Y-16.25
N675 X44.164
N680 X44.365 Y-16.234
N685 X44.475 Y-16.22
N690 X44.597 Y-16.199
N695 X44.742 Y-16.157
N700 X44.879 Y-16.097
N705 X45.008 Y-16.02
N710 X45.13 Y-15.933
N715 X45.244 Y-15.835
N720 X45.348 Y-15.727
N725 X45.442 Y-15.611
N730 X45.527 Y-15.487
N735 X45.599 Y-15.356
N740 X45.627 Y-15.295
N745 X45.671 Y-15.175
N750 X45.698 Y-15.05
N755 X45.707 Y-14.922
N760 G3 X45.085 Y-14.345 Z-4.3 I-0.6 J-0.022
N765 X44.685 Y-14.518 I0.022 J-0.6
N770 G1 X44. Y-15.196
N775 G3 X43.825 Y-15.676 I0.422 J-0.426
N780 X44.475 Y-16.22 Z-4.5 I0.598 J0.053
N785 G1 X44.585 Y-16.206
N790 X44.767 Y-16.181
N795 X44.868 Y-16.155
N800 X44.968 Y-16.113
N805 X45.169 Y-16.011
N810 X45.178 Y-16.005
N815 X45.37 Y-15.841
N820 X45.406 Y-15.804
N825 X45.547 Y-15.603
N830 X45.571 Y-15.564
N835 X45.612 Y-15.483
N840 X45.64 Y-15.402
N845 X45.695 Y-15.201
N850 X45.706 Y-15.101
N855 Y-14.899
N860 X45.695 Y-14.799
N865 X45.64 Y-14.598
N870 X45.612 Y-14.517
N875 X45.571 Y-14.436
N880 X45.547 Y-14.397
N885 X45.406 Y-14.196
N890 X45.37 Y-14.159
N895 X45.178 Y-13.995
N900 X45.169 Y-13.989
N905 X44.968 Y-13.887
N910 X44.868 Y-13.845
N915 X44.767 Y-13.819
N920 X44.566 Y-13.791
N925 X44.365 Y-13.766
N930 X44.164 Y-13.75
N935 X43.88
N940 X43.811 Y-13.756
N945 X43.738 Y-13.762
N950 X43.665 Y-13.758
N955 X43.56 Y-13.75
N960 X42.695
N965 X42.577 Y-13.756
N970 X42.429 Y-13.779
N975 X42.286 Y-13.823
N980 X42.149 Y-13.886
N985 X42.021 Y-13.963
N990 X41.902 Y-14.054
N995 X41.792 Y-14.156
N1000 X41.692 Y-14.268
N1005 X41.603 Y-14.389
N1010 X41.524 Y-14.516
N1015 X41.456 Y-14.65
N1020 X41.399 Y-14.789
N1025 X41.352 Y-14.939
N1030 X41.318 Y-15.089
N1035 X41.297 Y-15.237
N1040 X41.293 Y-15.297
N1045 X41.312 Y-15.54
N1050 X41.395 Y-15.769
N1055 X41.537 Y-15.967
N1060 X41.727 Y-16.12
N1065 X41.95 Y-16.217
N1070 X42.192 Y-16.25
N1075 X43.247
N1080 G3 X43.826 Y-15.63 Z-4.3 I-0.021 J0.6
N1085 G1 X43.819 Y-15.557
N1090 X43.803 Y-15.485
N1095 X43.779 Y-15.416
N1100 X43.329 Y-14.356
N1105 X43.261 Y-14.196 Z-4.337
N1110 X43.226 Y-14.115 Z-4.355
N1115 G3 X42.695 Y-13.75 Z-4.5 I-0.552 J-0.234
N1120 G1 X41.75
N1125 X41.628 Y-13.756
N1130 X41.479 Y-13.78
N1135 X41.336 Y-13.823
N1140 X41.197 Y-13.881
N1145 X41.066 Y-13.953
N1150 X40.942 Y-14.038
N1155 X40.827 Y-14.134
N1160 X40.721 Y-14.24
N1165 X40.624 Y-14.354
N1170 X40.537 Y-14.477
N1175 X40.463 Y-14.607
N1180 X40.398 Y-14.742
N1185 X40.346 Y-14.883
N1190 X40.306 Y-15.029
N1195 X40.277 Y-15.177
N1200 X40.261 Y-15.328
N1205 X40.287 Y-15.565
N1210 X40.374 Y-15.787
N1215 X40.517 Y-15.979
N1220 X40.704 Y-16.126
N1225 X40.924 Y-16.218
N1230 X41.161 Y-16.25
N1235 X42.192
N1240 G3 X42.771 Y-15.63 Z-4.3 I-0.021 J0.6
N1245 G1 X42.761 Y-15.543
N1250 X42.739 Y-15.458
N1255 X42.367 Y-14.362
N1260 X42.312 Y-14.198 Z-4.337
N1265 X42.298 Y-14.157 Z-4.346
N1270 G3 X41.75 Y-13.75 Z-4.5 I-0.568 J-0.193
N1275 G1 X40.745
N1280 X40.614 Y-13.757
N1285 X40.466 Y-13.78
N1290 X40.322 Y-13.821
N1295 X40.183 Y-13.878
N1300 X40.051 Y-13.949
N1305 X39.926 Y-14.032
N1310 X39.809 Y-14.126
N1315 X39.702 Y-14.231
N1320 X39.604 Y-14.345
N1325 X39.517 Y-14.467
N1330 X39.44 Y-14.596
N1335 X39.375 Y-14.731
N1340 X39.321 Y-14.871
N1345 X39.28 Y-15.015
N1350 X39.25 Y-15.165
N1355 X39.232 Y-15.321
N1360 X39.257 Y-15.559
N1365 X39.343 Y-15.783
N1370 X39.485 Y-15.976
N1375 X39.673 Y-16.124
N1380 X39.894 Y-16.218
N1385 X40.132 Y-16.25
N1390 X41.161
N1395 G3 X41.739 Y-15.63 Z-4.3 I-0.021 J0.6
N1400 G1 X41.731 Y-15.548
N1405 X41.711 Y-15.468
N1410 X41.358 Y-14.363
N1415 X41.305 Y-14.198 Z-4.337
N1420 X41.296 Y-14.167 Z-4.344
N1425 G3 X40.745 Y-13.75 Z-4.5 I-0.572 J-0.183
N1430 G1 X39.74
N1435 X39.597 Y-13.757
N1440 X39.449 Y-13.779
N1445 X39.304 Y-13.819
N1450 X39.165 Y-13.875
N1455 X39.032 Y-13.945
N1460 X38.907 Y-14.027
N1465 X38.789 Y-14.12
N1470 X38.681 Y-14.224
N1475 X38.583 Y-14.337
N1480 X38.494 Y-14.459
N1485 X38.417 Y-14.587
N1490 X38.351 Y-14.722
N1495 X38.297 Y-14.862
N1500 X38.254 Y-15.006
N1505 X38.223 Y-15.156
N1510 X38.205 Y-15.305
N1515 Y-15.315
N1520 X38.228 Y-15.555
N1525 X38.314 Y-15.78
N1530 X38.456 Y-15.974
N1535 X38.644 Y-16.124
N1540 X38.866 Y-16.218
N1545 X39.104 Y-16.25
N1550 X40.132
N1555 G3 X40.711 Y-15.63 Z-4.3 I-0.021 J0.6
N1560 G1 X40.703 Y-15.553
N1565 X40.685 Y-15.477
N1570 X40.35 Y-14.364
N1575 X40.3 Y-14.198 Z-4.337
N1580 X40.293 Y-14.176 Z-4.342
N1585 G3 X39.74 Y-13.75 Z-4.5 I-0.574 J-0.173
N1590 G1 X38.673
N1595 X38.55 Y-13.756
N1600 X38.402 Y-13.781
N1605 X38.258 Y-13.823
N1610 X38.12 Y-13.881
N1615 X37.988 Y-13.952
N1620 X37.863 Y-14.036
N1625 X37.747 Y-14.131
N1630 X37.641 Y-14.236
N1635 X37.543 Y-14.35
N1640 X37.456 Y-14.472
N1645 X37.38 Y-14.602
N1650 X37.316 Y-14.737
N1655 X37.262 Y-14.877
N1660 X37.222 Y-15.022
N1665 X37.192 Y-15.171
N1670 X37.175 Y-15.324
N1675 X37.2 Y-15.562
N1680 X37.287 Y-15.785
N1685 X37.43 Y-15.977
N1690 X37.618 Y-16.125
N1695 X37.838 Y-16.218
N1700 X38.075 Y-16.25
N1705 X39.104
N1710 G3 X39.683 Y-15.63 Z-4.3 I-0.021 J0.6
N1715 G1 X39.674 Y-15.545
N1720 X39.653 Y-15.462
N1725 X39.289 Y-14.363
N1730 X39.234 Y-14.198 Z-4.337
N1735 X39.222 Y-14.161 Z-4.345
N1740 G3 X38.673 Y-13.75 Z-4.5 I-0.57 J-0.189
N1745 G1 X37.618
N1750 X37.508 Y-13.755
N1755 X37.361 Y-13.782
N1760 X37.217 Y-13.825
N1765 X37.079 Y-13.885
N1770 X36.948 Y-13.957
N1775 X36.824 Y-14.042
N1780 X36.709 Y-14.138
N1785 X36.603 Y-14.244
N1790 X36.506 Y-14.358
N1795 X36.42 Y-14.481
N1800 X36.345 Y-14.611
N1805 X36.282 Y-14.747
N1810 X36.229 Y-14.888
N1815 X36.189 Y-15.032
N1820 X36.161 Y-15.182
N1825 X36.153 Y-15.254
N1830 X36.162 Y-15.505
N1835 X36.239 Y-15.744
N1840 X36.379 Y-15.952
N1845 X36.571 Y-16.113
N1850 X36.8 Y-16.215
N1855 X37.048 Y-16.25
N1860 X38.075
N1865 G3 X38.654 Y-15.63 Z-4.3 I-0.021 J0.6
N1870 G1 X38.644 Y-15.539
N1875 X38.62 Y-15.451
N1880 X38.237 Y-14.361
N1885 X38.179 Y-14.197 Z-4.337
N1890 X38.163 Y-14.151 Z-4.347
N1895 G3 X37.618 Y-13.75 Z-4.5 I-0.566 J-0.199
N1900 G1 X36.612
N1905 X36.491 Y-13.756
N1910 X36.343 Y-13.78
N1915 X36.199 Y-13.823
N1920 X36.06 Y-13.881
N1925 X35.929 Y-13.952
N1930 X35.804 Y-14.036
N1935 X35.689 Y-14.132
N1940 X35.582 Y-14.237
N1945 X35.485 Y-14.351
N1950 X35.398 Y-14.474
N1955 X35.323 Y-14.603
N1960 X35.258 Y-14.739
N1965 X35.205 Y-14.879
N1970 X35.164 Y-15.028
N1975 X35.135 Y-15.175
N1980 X35.119 Y-15.329
N1985 X35.145 Y-15.566
N1990 X35.232 Y-15.788
N1995 X35.374 Y-15.979
N2000 X35.562 Y-16.126
N2005 X35.782 Y-16.218
N2010 X36.018 Y-16.25
N2015 X37.048
N2020 G3 X37.627 Y-15.63 Z-4.3 I-0.021 J0.6
N2025 G1 X37.618 Y-15.544
N2030 X37.596 Y-15.46
N2035 X37.229 Y-14.362
N2040 X37.173 Y-14.198 Z-4.337
N2045 X37.16 Y-14.159 Z-4.346
N2050 G3 X36.612 Y-13.75 Z-4.5 I-0.569 J-0.191
N2055 G1 X35.607
N2060 X35.474 Y-13.757
N2065 X35.326 Y-13.78
N2070 X35.182 Y-13.821
N2075 X35.043 Y-13.877
N2080 X34.911 Y-13.948
N2085 X34.786 Y-14.031
N2090 X34.669 Y-14.125
N2095 X34.561 Y-14.23
N2100 X34.463 Y-14.343
N2105 X34.376 Y-14.465
N2110 X34.299 Y-14.594
N2115 X34.234 Y-14.729
N2120 X34.18 Y-14.869
N2125 X34.138 Y-15.013
N2130 X34.108 Y-15.164
N2135 X34.091 Y-15.313
N2140 X34.09 Y-15.32
N2145 X34.114 Y-15.558
N2150 X34.2 Y-15.782
N2155 X34.343 Y-15.976
N2160 X34.531 Y-16.124
N2165 X34.752 Y-16.218
N2170 X34.99 Y-16.25
N2175 X36.018
N2180 G3 X36.597 Y-15.63 Z-4.3 I-0.021 J0.6
N2185 G1 X36.589 Y-15.549
N2190 X36.569 Y-15.469
N2195 X36.22 Y-14.363
N2200 X36.167 Y-14.198 Z-4.337
N2205 X36.158 Y-14.169 Z-4.343
N2210 G3 X35.607 Y-13.75 Z-4.5 I-0.572 J-0.181
N2215 G1 X34.601
N2220 X34.457 Y-13.757
N2225 X34.308 Y-13.779
N2230 X34.164 Y-13.818
N2235 X34.024 Y-13.874
N2240 X33.892 Y-13.944
N2245 X33.766 Y-14.026
N2250 X33.649 Y-14.119
N2255 X33.541 Y-14.223
N2260 X33.442 Y-14.336
N2265 X33.353 Y-14.457
N2270 X33.276 Y-14.586
N2275 X33.21 Y-14.72
N2280 X33.155 Y-14.86
N2285 X33.113 Y-15.004
N2290 X33.082 Y-15.154
N2295 X33.063 Y-15.303
N2300 Y-15.315
N2305 X33.086 Y-15.554
N2310 X33.171 Y-15.779
N2315 X33.313 Y-15.974
N2320 X33.502 Y-16.123
N2325 X33.724 Y-16.218
N2330 X33.962 Y-16.25
N2335 X34.99
N2340 G3 X35.569 Y-15.63 Z-4.3 I-0.021 J0.6
N2345 G1 X35.561 Y-15.554
N2350 X35.544 Y-15.479
N2355 X35.211 Y-14.364
N2360 X35.161 Y-14.198 Z-4.337
N2365 X35.155 Y-14.178 Z-4.341
N2370 G3 X34.601 Y-13.75 Z-4.5 I-0.575 J-0.172
N2375 G1 X33.505
N2380 X33.395 Y-13.756
N2385 X33.248 Y-13.782
N2390 X33.104 Y-13.825
N2395 X32.966 Y-13.885
N2400 X32.835 Y-13.957
N2405 X32.711 Y-14.042
N2410 X32.596 Y-14.138
N2415 X32.49 Y-14.244
N2420 X32.393 Y-14.359
N2425 X32.307 Y-14.481
N2430 X32.232 Y-14.612
N2435 X32.169 Y-14.747
N2440 X32.116 Y-14.888
N2445 X32.077 Y-15.032
N2450 X32.048 Y-15.181
N2455 X32.041 Y-15.254
N2460 X32.049 Y-15.505
N2465 X32.126 Y-15.743
N2470 X32.266 Y-15.952
N2475 X32.458 Y-16.113
N2480 X32.687 Y-16.215
N2485 X32.935 Y-16.25
N2490 X33.962
N2495 G3 X34.541 Y-15.63 Z-4.3 I-0.021 J0.6
N2500 G1 X34.531 Y-15.539
N2505 X34.507 Y-15.452
N2510 X34.125 Y-14.361
N2515 X34.067 Y-14.197 Z-4.337
N2520 X34.051 Y-14.151 Z-4.347
N2525 G3 X33.505 Y-13.75 Z-4.5 I-0.566 J-0.199
N2530 G1 X32.5
N2535 X32.378 Y-13.756
N2540 X32.23 Y-13.78
N2545 X32.086 Y-13.823
N2550 X31.948 Y-13.881
N2555 X31.816 Y-13.952
N2560 X31.692 Y-14.036
N2565 X31.576 Y-14.132
N2570 X31.469 Y-14.237
N2575 X31.372 Y-14.351
N2580 X31.285 Y-14.474
N2585 X31.21 Y-14.603
N2590 X31.145 Y-14.739
N2595 X31.092 Y-14.879
N2600 X31.051 Y-15.028
N2605 X31.022 Y-15.175
N2610 X31.006 Y-15.329
N2615 X31.032 Y-15.566
N2620 X31.119 Y-15.788
N2625 X31.262 Y-15.979
N2630 X31.449 Y-16.126
N2635 X31.669 Y-16.218
N2640 X31.906 Y-16.25
N2645 X32.935
N2650 G3 X33.514 Y-15.63 Z-4.3 I-0.021 J0.6
N2655 G1 X33.505 Y-15.544
N2660 X33.483 Y-15.46
N2665 X33.116 Y-14.362
N2670 X33.061 Y-14.198 Z-4.337
N2675 X33.048 Y-14.159 Z-4.345
N2680 G3 X32.5 Y-13.75 Z-4.5 I-0.569 J-0.19
N2685 G1 X31.495
N2690 X31.362 Y-13.757
N2695 X31.213 Y-13.779
N2700 X31.069 Y-13.821
N2705 X30.93 Y-13.877
N2710 X30.798 Y-13.948
N2715 X30.673 Y-14.031
N2720 X30.556 Y-14.125
N2725 X30.449 Y-14.23
N2730 X30.351 Y-14.343
N2735 X30.263 Y-14.465
N2740 X30.186 Y-14.594
N2745 X30.121 Y-14.729
N2750 X30.067 Y-14.869
N2755 X30.025 Y-15.013
N2760 X29.995 Y-15.164
N2765 X29.978 Y-15.312
N2770 Y-15.319
N2775 X30.001 Y-15.558
N2780 X30.088 Y-15.782
N2785 X30.23 Y-15.976
N2790 X30.418 Y-16.124
N2795 X30.639 Y-16.218
N2800 X30.877 Y-16.25
N2805 X31.906
N2810 G3 X32.484 Y-15.63 Z-4.3 I-0.021 J0.6
N2815 G1 X32.476 Y-15.549
N2820 X32.457 Y-15.47
N2825 X32.107 Y-14.363
N2830 X32.055 Y-14.198 Z-4.337
N2835 X32.046 Y-14.169 Z-4.343
N2840 G3 X31.495 Y-13.75 Z-4.5 I-0.572 J-0.181
N2845 G1 X30.489
N2850 X30.344 Y-13.757
N2855 X30.196 Y-13.779
N2860 X30.051 Y-13.818
N2865 X29.912 Y-13.874
N2870 X29.779 Y-13.944
N2875 X29.653 Y-14.026
N2880 X29.536 Y-14.119
N2885 X29.428 Y-14.223
N2890 X29.329 Y-14.336
N2895 X29.24 Y-14.457
N2900 X29.163 Y-14.586
N2905 X29.097 Y-14.72
N2910 X29.042 Y-14.86
N2915 X29. Y-15.004
N2920 X28.969 Y-15.154
N2925 X28.951 Y-15.303
N2930 X28.95 Y-15.314
N2935 X28.973 Y-15.554
N2940 X29.058 Y-15.779
N2945 X29.201 Y-15.974
N2950 X29.389 Y-16.123
N2955 X29.611 Y-16.218
N2960 X29.849 Y-16.25
N2965 X30.877
N2970 G3 X31.456 Y-15.63 Z-4.3 I-0.021 J0.6
N2975 G1 X31.448 Y-15.554
N2980 X31.431 Y-15.479
N2985 X31.099 Y-14.364
N2990 X31.049 Y-14.198 Z-4.337
N2995 X31.043 Y-14.178 Z-4.341
N3000 G3 X30.489 Y-13.75 Z-4.5 I-0.575 J-0.172
N3005 G1 X29.423
N3010 X29.297 Y-13.756
N3015 X29.149 Y-13.78
N3020 X29.005 Y-13.822
N3025 X28.867 Y-13.88
N3030 X28.735 Y-13.952
N3035 X28.61 Y-14.035
N3040 X28.494 Y-14.13
N3045 X28.387 Y-14.235
N3050 X28.29 Y-14.349
N3055 X28.202 Y-14.471
N3060 X28.127 Y-14.6
N3065 X28.062 Y-14.736
N3070 X28.008 Y-14.876
N3075 X27.967 Y-15.02
N3080 X27.938 Y-15.169
N3085 X27.921 Y-15.323
N3090 X27.946 Y-15.561
N3095 X28.032 Y-15.784
N3100 X28.175 Y-15.977
N3105 X28.363 Y-16.125
N3110 X28.583 Y-16.218
N3115 X28.82 Y-16.25
N3120 X29.849
N3125 G3 X30.428 Y-15.63 Z-4.3 I-0.021 J0.6
N3130 G1 X30.419 Y-15.546
N3135 X30.399 Y-15.463
N3140 X30.038 Y-14.363
N3145 X29.983 Y-14.198 Z-4.337
N3150 X29.972 Y-14.163 Z-4.345
N3155 G3 X29.423 Y-13.75 Z-4.5 I-0.57 J-0.187
N3160 G1 X28.367
N3165 X28.256 Y-13.756
N3170 X28.108 Y-13.781
N3175 X27.965 Y-13.825
N3180 X27.827 Y-13.884
N3185 X27.695 Y-13.957
N3190 X27.571 Y-14.041
N3195 X27.456 Y-14.137
N3200 X27.35 Y-14.243
N3205 X27.253 Y-14.357
N3210 X27.166 Y-14.48
N3215 X27.092 Y-14.61
N3220 X27.028 Y-14.746
N3225 X26.975 Y-14.886
N3230 X26.935 Y-15.031
N3235 X26.907 Y-15.18
N3240 X26.901 Y-15.232
N3245 X26.908 Y-15.474
N3250 X26.979 Y-15.706
N3255 X27.109 Y-15.91
N3260 X27.289 Y-16.072
N3265 X27.506 Y-16.181
N3270 X27.744 Y-16.227
N3275 G3 X28.303 Y-15.878 Z-4.352 I0.014 J0.6
N3280 G1 X28.332 Y-15.814 Z-4.337
N3285 X28.405 Y-15.656 Z-4.3
N3290 X28.891 Y-14.601
N3295 X28.92 Y-14.527
N3300 X28.938 Y-14.449
N3305 X28.946 Y-14.37
N3310 G3 X28.367 Y-13.75 Z-4.5 I-0.6 J0.02
N3315 G1 X28.277
N3320 X28.076 Y-13.754
N3325 X27.473 Y-13.789
N3330 X27.412 Y-13.794
N3335 X27.271 Y-13.814
N3340 X27.171 Y-13.833
N3345 X27.07 Y-13.87
N3350 X26.869 Y-13.966
N3355 X26.823 Y-13.995
N3360 X26.668 Y-14.124
N3365 X26.592 Y-14.196
N3370 X26.467 Y-14.375
N3375 X26.453 Y-14.397
N3380 X26.397 Y-14.497
N3385 X26.36 Y-14.598
N3390 X26.305 Y-14.799
N3395 X26.294 Y-14.899
N3400 Y-15.101
N3405 X26.305 Y-15.201
N3410 X26.36 Y-15.402
N3415 X26.397 Y-15.503
N3420 X26.453 Y-15.603
N3425 X26.467 Y-15.625
N3430 X26.592 Y-15.804
N3435 X26.668 Y-15.876
N3440 X26.823 Y-16.005
N3445 X26.869 Y-16.034
N3450 X27.07 Y-16.13
N3455 X27.171 Y-16.167
N3460 X27.271 Y-16.186
N3465 X27.412 Y-16.206
N3470 X27.473 Y-16.211
N3475 X28.076 Y-16.246
N3480 X28.277 Y-16.25
N3485 X28.82
N3490 X28.913 Y-16.24
N3495 X29.002 Y-16.215
N3500 X29.066 Y-16.178 Z-4.495
N3505 X29.129 Y-16.142 Z-4.482
N3510 X29.19 Y-16.106 Z-4.459
N3515 X29.239 Y-16.045 Z-4.421
N3520 X29.285 Y-15.988 Z-4.371
N3525 X29.326 Y-15.938 Z-4.312
N3530 X29.346 Y-15.885 Z-4.241
N3535 X29.363 Y-15.842 Z-4.163
N3540 X29.375 Y-15.811 Z-4.079
N3545 X29.382 Y-15.792 Z-3.991
N3550 X29.384 Y-15.785 Z-3.9
N3555 G0 Z5.
N3560 X43.663 Y-15.817
N3565 Z-2.
N3570 G3 X44.829 Y-14.917 Z-2.123 I0.299 J0.817 F400.
N3575 X43.516 Y-14.257 Z-2.246 I-0.864 J-0.083
N3580 X43.489 Y-15.722 Z-2.368 I0.448 J-0.741
N3585 X44.819 Y-15.115 Z-2.491 I0.474 J0.722
N3590 X43.699 Y-14.18 Z-2.614 I-0.854 J0.115
N3595 X43.341 Y-15.591 Z-2.737 I0.265 J-0.818
N3600 X44.764 Y-15.304 Z-2.86 I0.621 J0.591
N3605 X43.893 Y-14.148 Z-2.982 I-0.8 J0.304
N3610 X43.228 Y-15.43 Z-3.105 I0.072 J-0.85
N3615 X44.668 Y-15.475 Z-3.228 I0.734 J0.431
N3620 X44.087 Y-14.16 Z-3.351 I-0.704 J0.474
N3625 X43.156 Y-15.25 Z-3.474 I-0.123 J-0.838
N3630 X44.537 Y-15.618 Z-3.596 I0.807 J0.251
N3635 X44.272 Y-14.217 Z-3.719 I-0.573 J0.617
N3640 X43.126 Y-15.059 Z-3.842 I-0.308 J-0.782
N3645 X44.378 Y-15.726 Z-3.965 I0.836 J0.06
N3650 X44.439 Y-14.313 Z-4.088 I-0.415 J0.726
N3655 X43.141 Y-14.868 Z-4.211 I-0.474 J-0.686
N3660 X44.2 Y-15.796 Z-4.333 I0.821 J-0.13
N3665 X44.578 Y-14.443 Z-4.456 I-0.237 J0.795
N3670 X43.199 Y-14.687 Z-4.579 I-0.613 J-0.556
N3675 X44.012 Y-15.822 Z-4.702 I0.764 J-0.312
N3680 X44.683 Y-14.601 Z-4.825 I-0.049 J0.822
N3685 X43.295 Y-14.525 Z-4.947 I-0.718 J-0.399
N3690 X43.825 Y-15.805 Z-5.07 I0.668 J-0.474
N3695 X44.748 Y-14.776 Z-5.193 I0.138 J0.805
N3700 X43.425 Y-14.39 Z-5.316 I-0.783 J-0.223
N3705 X43.648 Y-15.747 Z-5.439 I0.539 J-0.608
N3710 X44.772 Y-14.961 Z-5.561 I0.315 J0.747
N3715 X43.581 Y-14.289 Z-5.684 I-0.807 J-0.039
N3720 X43.49 Y-15.65 Z-5.807 I0.383 J-0.709
N3725 X44.753 Y-15.145 Z-5.93 I0.473 J0.65
N3730 X43.754 Y-14.226 Z-6.053 I-0.789 J0.145
N3735 X43.359 Y-15.521 Z-6.175 I0.21 J-0.772
N3740 X44.693 Y-15.318 Z-6.298 I0.603 J0.521
N3745 X43.936 Y-14.205 Z-6.421 I-0.729 J0.318
N3750 X43.262 Y-15.367 Z-6.544 I0.029 J-0.793
N3755 X44.597 Y-15.472 Z-6.667 I0.701 J0.367
N3760 X44.116 Y-14.226 Z-6.789 I-0.632 J0.472
N3765 X43.203 Y-15.196 Z-6.912 I-0.151 J-0.772
N3770 X44.468 Y-15.599 Z-7.035 I0.76 J0.197
N3775 X44.285 Y-14.287 Z-7.158 I-0.504 J0.598
N3780 X43.185 Y-15.017 Z-7.281 I-0.32 J-0.712
N3785 X44.316 Y-15.692 Z-7.404 I0.778 J0.019
N3790 X44.435 Y-14.384 Z-7.526 I-0.352 J0.692
N3795 X43.207 Y-14.841 Z-7.649 I-0.47 J-0.615
N3800 X44.147 Y-15.748 Z-7.772 I0.756 J-0.158
N3805 X44.557 Y-14.511 Z-7.895 I-0.184 J0.747
N3810 X43.269 Y-14.676 Z-8.018 I-0.593 J-0.488
N3815 X43.972 Y-15.763 Z-8.14 I0.694 J-0.323
N3820 X44.647 Y-14.662 Z-8.263 I-0.009 J0.763
N3825 X43.366 Y-14.53 Z-8.386 I-0.682 J-0.337
N3830 X43.799 Y-15.739 Z-8.509 I0.597 J-0.468
N3835 X44.7 Y-14.828 Z-8.632 I0.163 J0.739
N3840 X43.492 Y-14.411 Z-8.754 I-0.735 J-0.172
N3845 X43.638 Y-15.676 Z-8.877 I0.471 J-0.587
N3850 X44.713 Y-15. Z-9. I0.324 J0.677
N3855 X43.212 I-0.75 J0.
N3860 X44.713 I0.75 J0.
N3865 G1 X44.725 Y-14.84 F900.
N3870 X44.752 Y-14.615
N3875 X44.721 Y-14.391
N3880 X44.633 Y-14.182
N3885 X44.494 Y-14.003
N3890 X44.314 Y-13.866
N3895 X44.104 Y-13.779
N3900 X43.88 Y-13.75
N3905 X43.56
N3910 X43.455 Y-13.755
N3915 X43.307 Y-13.781
N3920 X43.164 Y-13.826
N3925 X43.028 Y-13.889
N3930 X42.9 Y-13.968
N3935 X42.783 Y-14.062
N3940 X42.677 Y-14.168
N3945 X42.583 Y-14.285
N3950 X42.503 Y-14.412
N3955 X42.436 Y-14.546
N3960 X42.384 Y-14.687
N3965 X42.346 Y-14.832
N3970 X42.324 Y-14.98
N3975 X42.315 Y-15.13
N3980 X42.322 Y-15.28
N3985 X42.342 Y-15.428
N3990 X42.377 Y-15.574
N3995 X42.426 Y-15.718
N4000 X42.564 Y-15.935
N4005 X42.758 Y-16.105
N4010 X42.992 Y-16.213
N4015 X43.247 Y-16.25
N4020 X44.164
N4025 X44.365 Y-16.234
N4030 X44.475 Y-16.22
N4035 X44.597 Y-16.199
N4040 X44.742 Y-16.157
N4045 X44.879 Y-16.097
N4050 X45.008 Y-16.02
N4055 X45.13 Y-15.933
N4060 X45.244 Y-15.835
N4065 X45.348 Y-15.727
N4070 X45.442 Y-15.611
N4075 X45.527 Y-15.487
N4080 X45.599 Y-15.356
N4085 X45.627 Y-15.295
N4090 X45.671 Y-15.175
N4095 X45.698 Y-15.05
N4100 X45.707 Y-14.922
N4105 G3 X45.085 Y-14.345 Z-8.8 I-0.6 J-0.022
N4110 X44.685 Y-14.518 I0.022 J-0.6
N4115 G1 X44. Y-15.196
N4120 G3 X43.825 Y-15.676 I0.422 J-0.426
N4125 X44.475 Y-16.22 Z-9. I0.598 J0.053
N4130 G1 X44.585 Y-16.206
N4135 X44.767 Y-16.181
N4140 X44.868 Y-16.155
N4145 X44.968 Y-16.113
N4150 X45.169 Y-16.011
N4155 X45.178 Y-16.005
N4160 X45.37 Y-15.841
N4165 X45.406 Y-15.804
N4170 X45.547 Y-15.603
N4175 X45.571 Y-15.564
N4180 X45.612 Y-15.483
N4185 X45.64 Y-15.402
N4190 X45.695 Y-15.201
N4195 X45.706 Y-15.101
N4200 Y-14.899
N4205 X45.695 Y-14.799
N4210 X45.64 Y-14.598
N4215 X45.612 Y-14.517
N4220 X45.571 Y-14.436
N4225 X45.547 Y-14.397
N4230 X45.406 Y-14.196
N4235 X45.37 Y-14.159
N4240 X45.178 Y-13.995
N4245 X45.169 Y-13.989
N4250 X44.968 Y-13.887
N4255 X44.868 Y-13.845
N4260 X44.767 Y-13.819
N4265 X44.566 Y-13.791
N4270 X44.365 Y-13.766
N4275 X44.164 Y-13.75
N4280 X43.88
N4285 X43.811 Y-13.756
N4290 X43.738 Y-13.762
N4295 X43.665 Y-13.758
N4300 X43.56 Y-13.75
N4305 X42.695
N4310 X42.577 Y-13.756
N4315 X42.429 Y-13.779
N4320 X42.286 Y-13.823
N4325 X42.149 Y-13.886
N4330 X42.021 Y-13.963
N4335 X41.902 Y-14.054
N4340 X41.792 Y-14.156
N4345 X41.692 Y-14.268
N4350 X41.603 Y-14.389
N4355 X41.524 Y-14.516
N4360 X41.456 Y-14.65
N4365 X41.399 Y-14.789
N4370 X41.352 Y-14.939
N4375 X41.318 Y-15.089
N4380 X41.297 Y-15.237
N4385 X41.293 Y-15.297
N4390 X41.312 Y-15.54
N4395 X41.395 Y-15.769
N4400 X41.537 Y-15.967
N4405 X41.727 Y-16.12
N4410 X41.95 Y-16.217
N4415 X42.192 Y-16.25
N4420 X43.247
N4425 G3 X43.826 Y-15.63 Z-8.8 I-0.021 J0.6
N4430 G1 X43.819 Y-15.557
N4435 X43.803 Y-15.485
N4440 X43.779 Y-15.416
N4445 X43.329 Y-14.356
N4450 X43.261 Y-14.196 Z-8.837
N4455 X43.226 Y-14.115 Z-8.855
N4460 G3 X42.695 Y-13.75 Z-9. I-0.552 J-0.234
N4465 G1 X41.75
N4470 X41.628 Y-13.756
N4475 X41.479 Y-13.78
N4480 X41.336 Y-13.823
N4485 X41.197 Y-13.881
N4490 X41.066 Y-13.953
N4495 X40.942 Y-14.038
N4500 X40.827 Y-14.134
N4505 X40.721 Y-14.24
N4510 X40.624 Y-14.354
N4515 X40.537 Y-14.477
N4520 X40.463 Y-14.607
N4525 X40.398 Y-14.742
N4530 X40.346 Y-14.883
N4535 X40.306 Y-15.029
N4540 X40.277 Y-15.177
N4545 X40.261 Y-15.328
N4550 X40.287 Y-15.565
N4555 X40.374 Y-15.787
N4560 X40.517 Y-15.979
N4565 X40.704 Y-16.126
N4570 X40.924 Y-16.218
N4575 X41.161 Y-16.25
N4580 X42.192
N4585 G3 X42.771 Y-15.63 Z-8.8 I-0.021 J0.6
N4590 G1 X42.761 Y-15.543
N4595 X42.739 Y-15.458
N4600 X42.367 Y-14.362
N4605 X42.312 Y-14.198 Z-8.837
N4610 X42.298 Y-14.157 Z-8.846
N4615 G3 X41.75 Y-13.75 Z-9. I-0.568 J-0.193
N4620 G1 X40.745
N4625 X40.614 Y-13.757
N4630 X40.466 Y-13.78
N4635 X40.322 Y-13.821
N4640 X40.183 Y-13.878
N4645 X40.051 Y-13.949
N4650 X39.926 Y-14.032
N4655 X39.809 Y-14.126
N4660 X39.702 Y-14.231
N4665 X39.604 Y-14.345
N4670 X39.517 Y-14.467
N4675 X39.44 Y-14.596
N4680 X39.375 Y-14.731
N4685 X39.321 Y-14.871
N4690 X39.28 Y-15.015
N4695 X39.25 Y-15.165
N4700 X39.232 Y-15.321
N4705 X39.257 Y-15.559
N4710 X39.343 Y-15.783
N4715 X39.485 Y-15.976
N4720 X39.673 Y-16.124
N4725 X39.894 Y-16.218
N4730 X40.132 Y-16.25
N4735 X41.161
N4740 G3 X41.739 Y-15.63 Z-8.8 I-0.021 J0.6
N4745 G1 X41.731 Y-15.548
N4750 X41.711 Y-15.468
N4755 X41.358 Y-14.363
N4760 X41.305 Y-14.198 Z-8.837
N4765 X41.296 Y-14.167 Z-8.844
N4770 G3 X40.745 Y-13.75 Z-9. I-0.572 J-0.183
N4775 G1 X39.74
N4780 X39.597 Y-13.757
N4785 X39.449 Y-13.779
N4790 X39.304 Y-13.819
N4795 X39.165 Y-13.875
N4800 X39.032 Y-13.945
N4805 X38.907 Y-14.027
N4810 X38.789 Y-14.12
N4815 X38.681 Y-14.224
N4820 X38.583 Y-14.337
N4825 X38.494 Y-14.459
N4830 X38.417 Y-14.587
N4835 X38.351 Y-14.722
N4840 X38.297 Y-14.862
N4845 X38.254 Y-15.006
N4850 X38.223 Y-15.156
N4855 X38.205 Y-15.305
N4860 Y-15.315
N4865 X38.228 Y-15.555
N4870 X38.314 Y-15.78
N4875 X38.456 Y-15.974
N4880 X38.644 Y-16.124
N4885 X38.866 Y-16.218
N4890 X39.104 Y-16.25
N4895 X40.132
N4900 G3 X40.711 Y-15.63 Z-8.8 I-0.021 J0.6
N4905 G1 X40.703 Y-15.553
N4910 X40.685 Y-15.477
N4915 X40.35 Y-14.364
N4920 X40.3 Y-14.198 Z-8.837
N4925 X40.293 Y-14.176 Z-8.842
N4930 G3 X39.74 Y-13.75 Z-9. I-0.574 J-0.173
N4935 G1 X38.673
N4940 X38.55 Y-13.756
N4945 X38.402 Y-13.781
N4950 X38.258 Y-13.823
N4955 X38.12 Y-13.881
N4960 X37.988 Y-13.952
N4965 X37.863 Y-14.036
N4970 X37.747 Y-14.131
N4975 X37.641 Y-14.236
N4980 X37.543 Y-14.35
N4985 X37.456 Y-14.472
N4990 X37.38 Y-14.602
N4995 X37.316 Y-14.737
N5000 X37.262 Y-14.877
N5005 X37.222 Y-15.022
N5010 X37.192 Y-15.171
N5015 X37.175 Y-15.324
N5020 X37.2 Y-15.562
N5025 X37.287 Y-15.785
N5030 X37.43 Y-15.977
N5035 X37.618 Y-16.125
N5040 X37.838 Y-16.218
N5045 X38.075 Y-16.25
N5050 X39.104
N5055 G3 X39.683 Y-15.63 Z-8.8 I-0.021 J0.6
N5060 G1 X39.674 Y-15.545
N5065 X39.653 Y-15.462
N5070 X39.289 Y-14.363
N5075 X39.234 Y-14.198 Z-8.837
N5080 X39.222 Y-14.161 Z-8.845
N5085 G3 X38.673 Y-13.75 Z-9. I-0.57 J-0.189
N5090 G1 X37.618
N5095 X37.508 Y-13.755
N5100 X37.361 Y-13.782
N5105 X37.217 Y-13.825
N5110 X37.079 Y-13.885
N5115 X36.948 Y-13.957
N5120 X36.824 Y-14.042
N5125 X36.709 Y-14.138
N5130 X36.603 Y-14.244
N5135 X36.506 Y-14.358
N5140 X36.42 Y-14.481
N5145 X36.345 Y-14.611
N5150 X36.282 Y-14.747
N5155 X36.229 Y-14.888
N5160 X36.189 Y-15.032
N5165 X36.161 Y-15.182
N5170 X36.153 Y-15.254
N5175 X36.162 Y-15.505
N5180 X36.239 Y-15.744
N5185 X36.379 Y-15.952
N5190 X36.571 Y-16.113
N5195 X36.8 Y-16.215
N5200 X37.048 Y-16.25
N5205 X38.075
N5210 G3 X38.654 Y-15.63 Z-8.8 I-0.021 J0.6
N5215 G1 X38.644 Y-15.539
N5220 X38.62 Y-15.451
N5225 X38.237 Y-14.361
N5230 X38.179 Y-14.197 Z-8.837
N5235 X38.163 Y-14.151 Z-8.847
N5240 G3 X37.618 Y-13.75 Z-9. I-0.566 J-0.199
N5245 G1 X36.612
N5250 X36.491 Y-13.756
N5255 X36.343 Y-13.78
N5260 X36.199 Y-13.823
N5265 X36.06 Y-13.881
N5270 X35.929 Y-13.952
N5275 X35.804 Y-14.036
N5280 X35.689 Y-14.132
N5285 X35.582 Y-14.237
N5290 X35.485 Y-14.351
N5295 X35.398 Y-14.474
N5300 X35.323 Y-14.603
N5305 X35.258 Y-14.739
N5310 X35.205 Y-14.879
N5315 X35.164 Y-15.028
N5320 X35.135 Y-15.175
N5325 X35.119 Y-15.329
N5330 X35.145 Y-15.566
N5335 X35.232 Y-15.788
N5340 X35.374 Y-15.979
N5345 X35.562 Y-16.126
N5350 X35.782 Y-16.218
N5355 X36.018 Y-16.25
N5360 X37.048
N5365 G3 X37.627 Y-15.63 Z-8.8 I-0.021 J0.6
N5370 G1 X37.618 Y-15.544
N5375 X37.596 Y-15.46
N5380 X37.229 Y-14.362
N5385 X37.173 Y-14.198 Z-8.837
N5390 X37.16 Y-14.159 Z-8.846
N5395 G3 X36.612 Y-13.75 Z-9. I-0.569 J-0.191
N5400 G1 X35.607
N5405 X35.474 Y-13.757
N5410 X35.326 Y-13.78
N5415 X35.182 Y-13.821
N5420 X35.043 Y-13.877
N5425 X34.911 Y-13.948
N5430 X34.786 Y-14.031
N5435 X34.669 Y-14.125
N5440 X34.561 Y-14.23
N5445 X34.463 Y-14.343
N5450 X34.376 Y-14.465
N5455 X34.299 Y-14.594
N5460 X34.234 Y-14.729
N5465 X34.18 Y-14.869
N5470 X34.138 Y-15.013
N5475 X34.108 Y-15.164
N5480 X34.091 Y-15.313
N5485 X34.09 Y-15.32
N5490 X34.114 Y-15.558
N5495 X34.2 Y-15.782
N5500 X34.343 Y-15.976
N5505 X34.531 Y-16.124
N5510 X34.752 Y-16.218
N5515 X34.99 Y-16.25
N5520 X36.018
N5525 G3 X36.597 Y-15.63 Z-8.8 I-0.021 J0.6
N5530 G1 X36.589 Y-15.549
N5535 X36.569 Y-15.469
N5540 X36.22 Y-14.363
N5545 X36.167 Y-14.198 Z-8.837
N5550 X36.158 Y-14.169 Z-8.843
N5555 G3 X35.607 Y-13.75 Z-9. I-0.572 J-0.181
N5560 G1 X34.601
N5565 X34.457 Y-13.757
N5570 X34.308 Y-13.779
N5575 X34.164 Y-13.818
N5580 X34.024 Y-13.874
N5585 X33.892 Y-13.944
N5590 X33.766 Y-14.026
N5595 X33.649 Y-14.119
N5600 X33.541 Y-14.223
N5605 X33.442 Y-14.336
N5610 X33.353 Y-14.457
N5615 X33.276 Y-14.586
N5620 X33.21 Y-14.72
N5625 X33.155 Y-14.86
N5630 X33.113 Y-15.004
N5635 X33.082 Y-15.154
N5640 X33.063 Y-15.303
N5645 Y-15.315
N5650 X33.086 Y-15.554
N5655 X33.171 Y-15.779
N5660 X33.313 Y-15.974
N5665 X33.502 Y-16.123
N5670 X33.724 Y-16.218
N5675 X33.962 Y-16.25
N5680 X34.99
N5685 G3 X35.569 Y-15.63 Z-8.8 I-0.021 J0.6
N5690 G1 X35.561 Y-15.554
N5695 X35.544 Y-15.479
N5700 X35.211 Y-14.364
N5705 X35.161 Y-14.198 Z-8.837
N5710 X35.155 Y-14.178 Z-8.841
N5715 G3 X34.601 Y-13.75 Z-9. I-0.575 J-0.172
N5720 G1 X33.505
N5725 X33.395 Y-13.756
N5730 X33.248 Y-13.782
N5735 X33.104 Y-13.825
N5740 X32.966 Y-13.885
N5745 X32.835 Y-13.957
N5750 X32.711 Y-14.042
N5755 X32.596 Y-14.138
N5760 X32.49 Y-14.244
N5765 X32.393 Y-14.359
N5770 X32.307 Y-14.481
N5775 X32.232 Y-14.612
N5780 X32.169 Y-14.747
N5785 X32.116 Y-14.888
N5790 X32.077 Y-15.032
N5795 X32.048 Y-15.181
N5800 X32.041 Y-15.254
N5805 X32.049 Y-15.505
N5810 X32.126 Y-15.743
N5815 X32.266 Y-15.952
N5820 X32.458 Y-16.113
N5825 X32.687 Y-16.215
N5830 X32.935 Y-16.25
N5835 X33.962
N5840 G3 X34.541 Y-15.63 Z-8.8 I-0.021 J0.6
N5845 G1 X34.531 Y-15.539
N5850 X34.507 Y-15.452
N5855 X34.125 Y-14.361
N5860 X34.067 Y-14.197 Z-8.837
N5865 X34.051 Y-14.151 Z-8.847
N5870 G3 X33.505 Y-13.75 Z-9. I-0.566 J-0.199
N5875 G1 X32.5
N5880 X32.378 Y-13.756
N5885 X32.23 Y-13.78
N5890 X32.086 Y-13.823
N5895 X31.948 Y-13.881
N5900 X31.816 Y-13.952
N5905 X31.692 Y-14.036
N5910 X31.576 Y-14.132
N5915 X31.469 Y-14.237
N5920 X31.372 Y-14.351
N5925 X31.285 Y-14.474
N5930 X31.21 Y-14.603
N5935 X31.145 Y-14.739
N5940 X31.092 Y-14.879
N5945 X31.051 Y-15.028
N5950 X31.022 Y-15.175
N5955 X31.006 Y-15.329
N5960 X31.032 Y-15.566
N5965 X31.119 Y-15.788
N5970 X31.262 Y-15.979
N5975 X31.449 Y-16.126
N5980 X31.669 Y-16.218
N5985 X31.906 Y-16.25
N5990 X32.935
N5995 G3 X33.514 Y-15.63 Z-8.8 I-0.021 J0.6
N6000 G1 X33.505 Y-15.544
N6005 X33.483 Y-15.46
N6010 X33.116 Y-14.362
N6015 X33.061 Y-14.198 Z-8.837
N6020 X33.048 Y-14.159 Z-8.845
N6025 G3 X32.5 Y-13.75 Z-9. I-0.569 J-0.19
N6030 G1 X31.495
N6035 X31.362 Y-13.757
N6040 X31.213 Y-13.779
N6045 X31.069 Y-13.821
N6050 X30.93 Y-13.877
N6055 X30.798 Y-13.948
N6060 X30.673 Y-14.031
N6065 X30.556 Y-14.125
N6070 X30.449 Y-14.23
N6075 X30.351 Y-14.343
N6080 X30.263 Y-14.465
N6085 X30.186 Y-14.594
N6090 X30.121 Y-14.729
N6095 X30.067 Y-14.869
N6100 X30.025 Y-15.013
N6105 X29.995 Y-15.164
N6110 X29.978 Y-15.312
N6115 Y-15.319
N6120 X30.001 Y-15.558
N6125 X30.088 Y-15.782
N6130 X30.23 Y-15.976
N6135 X30.418 Y-16.124
N6140 X30.639 Y-16.218
N6145 X30.877 Y-16.25
N6150 X31.906
N6155 G3 X32.484 Y-15.63 Z-8.8 I-0.021 J0.6
N6160 G1 X32.476 Y-15.549
N6165 X32.457 Y-15.47
N6170 X32.107 Y-14.363
N6175 X32.055 Y-14.198 Z-8.837
N6180 X32.046 Y-14.169 Z-8.843
N6185 G3 X31.495 Y-13.75 Z-9. I-0.572 J-0.181
N6190 G1 X30.489
N6195 X30.344 Y-13.757
N6200 X30.196 Y-13.779
N6205 X30.051 Y-13.818
N6210 X29.912 Y-13.874
N6215 X29.779 Y-13.944
N6220 X29.653 Y-14.026
N6225 X29.536 Y-14.119
N6230 X29.428 Y-14.223
N6235 X29.329 Y-14.336
N6240 X29.24 Y-14.457
N6245 X29.163 Y-14.586
N6250 X29.097 Y-14.72
N6255 X29.042 Y-14.86
N6260 X29. Y-15.004
N6265 X28.969 Y-15.154
N6270 X28.951 Y-15.303
N6275 X28.95 Y-15.314
N6280 X28.973 Y-15.554
N6285 X29.058 Y-15.779
N6290 X29.201 Y-15.974
N6295 X29.389 Y-16.123
N6300 X29.611 Y-16.218
N6305 X29.849 Y-16.25
N6310 X30.877
N6315 G3 X31.456 Y-15.63 Z-8.8 I-0.021 J0.6
N6320 G1 X31.448 Y-15.554
N6325 X31.431 Y-15.479
N6330 X31.099 Y-14.364
N6335 X31.049 Y-14.198 Z-8.837
N6340 X31.043 Y-14.178 Z-8.841
N6345 G3 X30.489 Y-13.75 Z-9. I-0.575 J-0.172
N6350 G1 X29.423
N6355 X29.297 Y-13.756
N6360 X29.149 Y-13.78
N6365 X29.005 Y-13.822
N6370 X28.867 Y-13.88
N6375 X28.735 Y-13.952
N6380 X28.61 Y-14.035
N6385 X28.494 Y-14.13
N6390 X28.387 Y-14.235
N6395 X28.29 Y-14.349
N6400 X28.202 Y-14.471
N6405 X28.127 Y-14.6
N6410 X28.062 Y-14.736
N6415 X28.008 Y-14.876
N6420 X27.967 Y-15.02
N6425 X27.938 Y-15.169
N6430 X27.921 Y-15.323
N6435 X27.946 Y-15.561
N6440 X28.032 Y-15.784
N6445 X28.175 Y-15.977
N6450 X28.363 Y-16.125
N6455 X28.583 Y-16.218
N6460 X28.82 Y-16.25
N6465 X29.849
N6470 G3 X30.428 Y-15.63 Z-8.8 I-0.021 J0.6
N6475 G1 X30.419 Y-15.546
N6480 X30.399 Y-15.463
N6485 X30.038 Y-14.363
N6490 X29.983 Y-14.198 Z-8.837
N6495 X29.972 Y-14.163 Z-8.845
N6500 G3 X29.423 Y-13.75 Z-9. I-0.57 J-0.187
N6505 G1 X28.367
N6510 X28.256 Y-13.756
N6515 X28.108 Y-13.781
N6520 X27.965 Y-13.825
N6525 X27.827 Y-13.884
N6530 X27.695 Y-13.957
N6535 X27.571 Y-14.041
N6540 X27.456 Y-14.137
N6545 X27.35 Y-14.243
N6550 X27.253 Y-14.357
N6555 X27.166 Y-14.48
N6560 X27.092 Y-14.61
N6565 X27.028 Y-14.746
N6570 X26.975 Y-14.886
N6575 X26.935 Y-15.031
N6580 X26.907 Y-15.18
N6585 X26.901 Y-15.232
N6590 X26.908 Y-15.474
N6595 X26.979 Y-15.706
N6600 X27.109 Y-15.91
N6605 X27.289 Y-16.072
N6610 X27.506 Y-16.181
N6615 X27.744 Y-16.227
N6620 G3 X28.303 Y-15.878 Z-8.852 I0.014 J0.6
N6625 G1 X28.332 Y-15.814 Z-8.837
N6630 X28.405 Y-15.656 Z-8.8
N6635 X28.891 Y-14.601
N6640 X28.92 Y-14.527
N6645 X28.938 Y-14.449
N6650 X28.946 Y-14.37
N6655 G3 X28.367 Y-13.75 Z-9. I-0.6 J0.02
N6660 G1 X28.277
N6665 X28.076 Y-13.754
N6670 X27.473 Y-13.789
N6675 X27.412 Y-13.794
N6680 X27.271 Y-13.814
N6685 X27.171 Y-13.833
N6690 X27.07 Y-13.87
N6695 X26.869 Y-13.966
N6700 X26.823 Y-13.995
N6705 X26.668 Y-14.124
N6710 X26.592 Y-14.196
N6715 X26.467 Y-14.375
N6720 X26.453 Y-14.397
N6725 X26.397 Y-14.497
N6730 X26.36 Y-14.598
N6735 X26.305 Y-14.799
N6740 X26.294 Y-14.899
N6745 Y-15.101
N6750 X26.305 Y-15.201
N6755 X26.36 Y-15.402
N6760 X26.397 Y-15.503
N6765 X26.453 Y-15.603
N6770 X26.467 Y-15.625
N6775 X26.592 Y-15.804
N6780 X26.668 Y-15.876
N6785 X26.823 Y-16.005
N6790 X26.869 Y-16.034
N6795 X27.07 Y-16.13
N6800 X27.171 Y-16.167
N6805 X27.271 Y-16.186
N6810 X27.412 Y-16.206
N6815 X27.473 Y-16.211
N6820 X28.076 Y-16.246
N6825 X28.277 Y-16.25
N6830 X28.82
N6835 X28.913 Y-16.24
N6840 X29.002 Y-16.215
N6845 X29.066 Y-16.178 Z-8.995
N6850 X29.129 Y-16.142 Z-8.982
N6855 X29.19 Y-16.106 Z-8.959
N6860 X29.239 Y-16.045 Z-8.921
N6865 X29.285 Y-15.988 Z-8.871
N6870 X29.326 Y-15.938 Z-8.812
N6875 X29.346 Y-15.885 Z-8.741
N6880 X29.363 Y-15.842 Z-8.663
N6885 X29.375 Y-15.811 Z-8.579
N6890 X29.382 Y-15.792 Z-8.491
N6895 X29.384 Y-15.785 Z-8.4
N6900 G0 Z5.
N6905 X43.988 Y-15.854
N6910 Z-6.5
N6915 G3 X44.728 Y-14.62 Z-6.62 I-0.026 J0.854 F400.
N6920 X43.301 Y-14.463 Z-6.739 I-0.764 J-0.379
N6925 X43.753 Y-15.822 Z-6.859 I0.662 J-0.534
N6930 X44.797 Y-14.846 Z-6.978 I0.209 J0.822
N6935 X43.478 Y-14.307 Z-7.098 I-0.832 J-0.153
N6940 X43.538 Y-15.727 Z-7.218 I0.485 J-0.691
N6945 X44.8 Y-15.081 Z-7.337 I0.424 J0.728
N6950 X43.689 Y-14.206 Z-7.457 I-0.836 J0.082
N6955 X43.358 Y-15.577 Z-7.576 I0.274 J-0.792
N6960 X44.739 Y-15.306 Z-7.696 I0.604 J0.578
N6965 X43.919 Y-14.167 Z-7.816 I-0.775 J0.306
N6970 X43.228 Y-15.386 Z-7.935 I0.045 J-0.83
N6975 X44.62 Y-15.504 Z-8.055 I0.734 J0.387
N6980 X44.148 Y-14.193 Z-8.175 I-0.656 J0.504
N6985 X43.156 Y-15.167 Z-8.294 I-0.184 J-0.805
N6990 X44.452 Y-15.661 Z-8.414 I0.806 J0.168
N6995 X44.36 Y-14.281 Z-8.533 I-0.488 J0.66
N7000 X43.147 Y-14.939 Z-8.653 I-0.395 J-0.717
N7005 X44.248 Y-15.764 Z-8.773 I0.815 J-0.06
N7010 X44.538 Y-14.422 Z-8.892 I-0.285 J0.763
N7015 X43.201 Y-14.718 Z-9.012 I-0.573 J-0.576
N7020 X44.026 Y-15.806 Z-9.131 I0.761 J-0.279
N7025 X44.669 Y-14.606 Z-9.251 I-0.064 J0.806
N7030 X43.313 Y-14.523 Z-9.371 I-0.704 J-0.393
N7035 X43.803 Y-15.786 Z-9.49 I0.65 J-0.475
N7040 X44.744 Y-14.817 Z-9.61 I0.16 J0.786
N7045 X43.473 Y-14.368 Z-9.729 I-0.779 J-0.183
N7050 X43.595 Y-15.706 Z-9.849 I0.49 J-0.63
N7055 X44.757 Y-15.038 Z-9.969 I0.367 J0.707
N7060 X43.668 Y-14.263 Z-10.088 I-0.793 J0.039
N7065 X43.419 Y-15.573 Z-10.208 I0.295 J-0.735
N7070 X44.71 Y-15.253 Z-10.327 I0.543 J0.574
N7075 X43.883 Y-14.216 Z-10.447 I-0.746 J0.253
N7080 X43.287 Y-15.398 Z-10.567 I0.081 J-0.782
N7085 X44.606 Y-15.446 Z-10.686 I0.675 J0.399
N7090 X44.1 Y-14.231 Z-10.806 I-0.642 J0.446
N7095 X43.21 Y-15.194 Z-10.925 I-0.136 J-0.767
N7100 X44.454 Y-15.6 Z-11.045 I0.752 J0.196
N7105 X44.304 Y-14.304 Z-11.165 I-0.491 J0.6
N7110 X43.191 Y-14.98 Z-11.284 I-0.34 J-0.695
N7115 X44.267 Y-15.707 Z-11.404 I0.771 J-0.019
N7120 X44.478 Y-14.429 Z-11.524 I-0.304 J0.706
N7125 X43.232 Y-14.77 Z-11.643 I-0.514 J-0.57
N7130 X44.06 Y-15.757 Z-11.763 I0.73 J-0.228
N7135 X44.61 Y-14.596 Z-11.882 I-0.097 J0.757
N7140 X43.329 Y-14.581 Z-12.002 I-0.645 J-0.403
N7145 X43.848 Y-15.748 Z-12.122 I0.634 J-0.417
N7150 X44.69 Y-14.792 Z-12.241 I0.114 J0.748
N7155 X43.473 Y-14.427 Z-12.361 I-0.725 J-0.208
N7160 X43.649 Y-15.681 Z-12.48 I0.49 J-0.571
N7165 X44.712 Y-15. Z-12.6 I0.313 J0.682
N7170 X43.212 I-0.75 J0.
N7175 X44.712 I0.75 J0.
N7180 G1 X44.724 Y-14.84 F900.
N7185 X44.752 Y-14.615
N7190 X44.72 Y-14.391
N7195 X44.632 Y-14.182
N7200 X44.494 Y-14.003
N7205 X44.314 Y-13.866
N7210 X44.104 Y-13.779
N7215 X43.88 Y-13.75
N7220 X43.56
N7225 X43.454 Y-13.755
N7230 X43.307 Y-13.781
N7235 X43.164 Y-13.826
N7240 X43.027 Y-13.889
N7245 X42.9 Y-13.968
N7250 X42.782 Y-14.062
N7255 X42.677 Y-14.168
N7260 X42.583 Y-14.285
N7265 X42.503 Y-14.412
N7270 X42.436 Y-14.546
N7275 X42.384 Y-14.687
N7280 X42.346 Y-14.832
N7285 X42.323 Y-14.98
N7290 X42.315 Y-15.13
N7295 X42.322 Y-15.28
N7300 X42.342 Y-15.428
N7305 X42.377 Y-15.574
N7310 X42.426 Y-15.718
N7315 X42.564 Y-15.936
N7320 X42.758 Y-16.105
N7325 X42.992 Y-16.213
N7330 X43.247 Y-16.25
N7335 X44.164
N7340 X44.365 Y-16.234
N7345 X44.475 Y-16.22
N7350 X44.597 Y-16.199
N7355 X44.741 Y-16.157
N7360 X44.879 Y-16.097
N7365 X45.008 Y-16.02
N7370 X45.13 Y-15.933
N7375 X45.243 Y-15.835
N7380 X45.347 Y-15.727
N7385 X45.442 Y-15.611
N7390 X45.526 Y-15.487
N7395 X45.599 Y-15.355
N7400 X45.627 Y-15.294
N7405 X45.671 Y-15.174
N7410 X45.698 Y-15.049
N7415 X45.707 Y-14.921
N7420 G3 X45.085 Y-14.344 Z-12.4 I-0.6 J-0.022
N7425 X44.684 Y-14.518 I0.022 J-0.6
N7430 G1 X44. Y-15.196
N7435 G3 X43.825 Y-15.676 I0.422 J-0.426
N7440 X44.475 Y-16.22 Z-12.6 I0.598 J0.053
N7445 G1 X44.585 Y-16.206
N7450 X44.767 Y-16.181
N7455 X44.868 Y-16.155
N7460 X44.968 Y-16.113
N7465 X45.169 Y-16.011
N7470 X45.178 Y-16.005
N7475 X45.37 Y-15.841
N7480 X45.406 Y-15.804
N7485 X45.547 Y-15.603
N7490 X45.571 Y-15.564
N7495 X45.612 Y-15.483
N7500 X45.64 Y-15.402
N7505 X45.695 Y-15.201
N7510 X45.706 Y-15.101
N7515 Y-14.899
N7520 X45.695 Y-14.799
N7525 X45.64 Y-14.598
N7530 X45.612 Y-14.517
N7535 X45.571 Y-14.436
N7540 X45.547 Y-14.397
N7545 X45.406 Y-14.196
N7550 X45.37 Y-14.159
N7555 X45.178 Y-13.995
N7560 X45.169 Y-13.989
N7565 X44.968 Y-13.887
N7570 X44.868 Y-13.845
N7575 X44.767 Y-13.819
N7580 X44.566 Y-13.791
N7585 X44.365 Y-13.766
N7590 X44.164 Y-13.75
N7595 X43.88
N7600 X43.815 Y-13.756
N7605 X43.737 Y-13.762
N7610 X43.659 Y-13.758
N7615 X43.56 Y-13.75
N7620 X42.695
N7625 X42.577 Y-13.756
N7630 X42.429 Y-13.779
N7635 X42.286 Y-13.823
N7640 X42.149 Y-13.886
N7645 X42.021 Y-13.963
N7650 X41.902 Y-14.054
N7655 X41.792 Y-14.156
N7660 X41.692 Y-14.268
N7665 X41.603 Y-14.389
N7670 X41.524 Y-14.516
N7675 X41.456 Y-14.65
N7680 X41.399 Y-14.789
N7685 X41.352 Y-14.939
N7690 X41.318 Y-15.089
N7695 X41.297 Y-15.237
N7700 X41.293 Y-15.297
N7705 X41.312 Y-15.54
N7710 X41.395 Y-15.769
N7715 X41.537 Y-15.967
N7720 X41.727 Y-16.12
N7725 X41.95 Y-16.217
N7730 X42.192 Y-16.25
N7735 X43.247
N7740 G3 X43.826 Y-15.63 Z-12.4 I-0.021 J0.6
N7745 G1 X43.819 Y-15.557
N7750 X43.803 Y-15.485
N7755 X43.779 Y-15.416
N7760 X43.329 Y-14.356
N7765 X43.261 Y-14.196 Z-12.437
N7770 X43.227 Y-14.115 Z-12.455
N7775 G3 X42.695 Y-13.75 Z-12.6 I-0.552 J-0.234
N7780 G1 X41.75
N7785 X41.627 Y-13.756
N7790 X41.479 Y-13.78
N7795 X41.336 Y-13.823
N7800 X41.197 Y-13.881
N7805 X41.066 Y-13.953
N7810 X40.942 Y-14.038
N7815 X40.827 Y-14.134
N7820 X40.72 Y-14.24
N7825 X40.624 Y-14.354
N7830 X40.537 Y-14.477
N7835 X40.462 Y-14.607
N7840 X40.398 Y-14.742
N7845 X40.346 Y-14.883
N7850 X40.305 Y-15.029
N7855 X40.277 Y-15.177
N7860 X40.261 Y-15.328
N7865 X40.287 Y-15.565
N7870 X40.374 Y-15.787
N7875 X40.517 Y-15.979
N7880 X40.704 Y-16.126
N7885 X40.924 Y-16.218
N7890 X41.161 Y-16.25
N7895 X42.192
N7900 G3 X42.77 Y-15.63 Z-12.4 I-0.021 J0.6
N7905 G1 X42.761 Y-15.543
N7910 X42.739 Y-15.458
N7915 X42.367 Y-14.362
N7920 X42.312 Y-14.198 Z-12.437
N7925 X42.298 Y-14.157 Z-12.446
N7930 G3 X41.75 Y-13.75 Z-12.6 I-0.568 J-0.193
N7935 G1 X40.745
N7940 X40.614 Y-13.757
N7945 X40.466 Y-13.78
N7950 X40.322 Y-13.821
N7955 X40.183 Y-13.878
N7960 X40.051 Y-13.949
N7965 X39.926 Y-14.032
N7970 X39.809 Y-14.126
N7975 X39.702 Y-14.231
N7980 X39.604 Y-14.345
N7985 X39.517 Y-14.467
N7990 X39.44 Y-14.596
N7995 X39.375 Y-14.731
N8000 X39.321 Y-14.871
N8005 X39.28 Y-15.015
N8010 X39.25 Y-15.165
N8015 X39.232 Y-15.321
N8020 X39.256 Y-15.559
N8025 X39.343 Y-15.783
N8030 X39.485 Y-15.976
N8035 X39.673 Y-16.124
N8040 X39.894 Y-16.218
N8045 X40.132 Y-16.25
N8050 X41.161
N8055 G3 X41.739 Y-15.63 Z-12.4 I-0.021 J0.6
N8060 G1 X41.731 Y-15.548
N8065 X41.711 Y-15.468
N8070 X41.358 Y-14.363
N8075 X41.305 Y-14.198 Z-12.437
N8080 X41.296 Y-14.167 Z-12.444
N8085 G3 X40.745 Y-13.75 Z-12.6 I-0.572 J-0.183
N8090 G1 X39.74
N8095 X39.597 Y-13.757
N8100 X39.448 Y-13.779
N8105 X39.304 Y-13.819
N8110 X39.165 Y-13.875
N8115 X39.032 Y-13.945
N8120 X38.906 Y-14.027
N8125 X38.789 Y-14.12
N8130 X38.681 Y-14.224
N8135 X38.583 Y-14.337
N8140 X38.494 Y-14.458
N8145 X38.417 Y-14.587
N8150 X38.351 Y-14.722
N8155 X38.296 Y-14.862
N8160 X38.254 Y-15.005
N8165 X38.223 Y-15.156
N8170 X38.205 Y-15.305
N8175 Y-15.315
N8180 X38.228 Y-15.555
N8185 X38.313 Y-15.78
N8190 X38.456 Y-15.974
N8195 X38.644 Y-16.124
N8200 X38.866 Y-16.218
N8205 X39.104 Y-16.25
N8210 X40.132
N8215 G3 X40.711 Y-15.63 Z-12.4 I-0.021 J0.6
N8220 G1 X40.703 Y-15.553
N8225 X40.685 Y-15.477
N8230 X40.35 Y-14.364
N8235 X40.3 Y-14.198 Z-12.437
N8240 X40.293 Y-14.176 Z-12.442
N8245 G3 X39.74 Y-13.75 Z-12.6 I-0.574 J-0.173
N8250 G1 X38.673
N8255 X38.55 Y-13.756
N8260 X38.402 Y-13.781
N8265 X38.258 Y-13.823
N8270 X38.12 Y-13.881
N8275 X37.988 Y-13.952
N8280 X37.863 Y-14.036
N8285 X37.747 Y-14.131
N8290 X37.64 Y-14.236
N8295 X37.543 Y-14.35
N8300 X37.456 Y-14.472
N8305 X37.38 Y-14.602
N8310 X37.316 Y-14.737
N8315 X37.262 Y-14.877
N8320 X37.222 Y-15.022
N8325 X37.192 Y-15.171
N8330 X37.175 Y-15.324
N8335 X37.2 Y-15.562
N8340 X37.287 Y-15.785
N8345 X37.429 Y-15.977
N8350 X37.617 Y-16.125
N8355 X37.838 Y-16.218
N8360 X38.075 Y-16.25
N8365 X39.104
N8370 G3 X39.683 Y-15.63 Z-12.4 I-0.021 J0.6
N8375 G1 X39.674 Y-15.545
N8380 X39.653 Y-15.462
N8385 X39.289 Y-14.363
N8390 X39.234 Y-14.198 Z-12.437
N8395 X39.222 Y-14.161 Z-12.445
N8400 G3 X38.673 Y-13.75 Z-12.6 I-0.57 J-0.189
N8405 G1 X37.618
N8410 X37.508 Y-13.755
N8415 X37.361 Y-13.782
N8420 X37.217 Y-13.825
N8425 X37.079 Y-13.885
N8430 X36.948 Y-13.957
N8435 X36.824 Y-14.042
N8440 X36.709 Y-14.138
N8445 X36.603 Y-14.244
N8450 X36.506 Y-14.358
N8455 X36.42 Y-14.481
N8460 X36.345 Y-14.611
N8465 X36.281 Y-14.747
N8470 X36.229 Y-14.888
N8475 X36.189 Y-15.032
N8480 X36.161 Y-15.182
N8485 X36.153 Y-15.254
N8490 X36.162 Y-15.505
N8495 X36.239 Y-15.744
N8500 X36.379 Y-15.952
N8505 X36.571 Y-16.113
N8510 X36.8 Y-16.215
N8515 X37.048 Y-16.25
N8520 X38.075
N8525 G3 X38.654 Y-15.63 Z-12.4 I-0.021 J0.6
N8530 G1 X38.644 Y-15.539
N8535 X38.62 Y-15.451
N8540 X38.237 Y-14.361
N8545 X38.179 Y-14.197 Z-12.437
N8550 X38.163 Y-14.151 Z-12.447
N8555 G3 X37.618 Y-13.75 Z-12.6 I-0.566 J-0.199
N8560 G1 X36.612
N8565 X36.491 Y-13.756
N8570 X36.343 Y-13.78
N8575 X36.199 Y-13.823
N8580 X36.06 Y-13.881
N8585 X35.929 Y-13.952
N8590 X35.804 Y-14.036
N8595 X35.689 Y-14.132
N8600 X35.582 Y-14.237
N8605 X35.485 Y-14.351
N8610 X35.398 Y-14.474
N8615 X35.323 Y-14.603
N8620 X35.258 Y-14.739
N8625 X35.205 Y-14.879
N8630 X35.164 Y-15.028
N8635 X35.135 Y-15.175
N8640 X35.118 Y-15.329
N8645 X35.144 Y-15.566
N8650 X35.232 Y-15.788
N8655 X35.374 Y-15.979
N8660 X35.562 Y-16.126
N8665 X35.782 Y-16.218
N8670 X36.018 Y-16.25
N8675 X37.048
N8680 G3 X37.627 Y-15.63 Z-12.4 I-0.021 J0.6
N8685 G1 X37.618 Y-15.544
N8690 X37.596 Y-15.46
N8695 X37.229 Y-14.362
N8700 X37.173 Y-14.198 Z-12.437
N8705 X37.16 Y-14.159 Z-12.446
N8710 G3 X36.612 Y-13.75 Z-12.6 I-0.569 J-0.191
N8715 G1 X35.607
N8720 X35.474 Y-13.757
N8725 X35.326 Y-13.78
N8730 X35.182 Y-13.821
N8735 X35.043 Y-13.877
N8740 X34.911 Y-13.948
N8745 X34.786 Y-14.031
N8750 X34.669 Y-14.125
N8755 X34.561 Y-14.23
N8760 X34.463 Y-14.343
N8765 X34.375 Y-14.465
N8770 X34.299 Y-14.594
N8775 X34.234 Y-14.729
N8780 X34.18 Y-14.869
N8785 X34.138 Y-15.013
N8790 X34.108 Y-15.164
N8795 X34.09 Y-15.313
N8800 Y-15.32
N8805 X34.114 Y-15.558
N8810 X34.2 Y-15.782
N8815 X34.343 Y-15.976
N8820 X34.531 Y-16.124
N8825 X34.752 Y-16.218
N8830 X34.99 Y-16.25
N8835 X36.018
N8840 G3 X36.597 Y-15.63 Z-12.4 I-0.021 J0.6
N8845 G1 X36.589 Y-15.549
N8850 X36.569 Y-15.469
N8855 X36.22 Y-14.363
N8860 X36.167 Y-14.198 Z-12.437
N8865 X36.158 Y-14.169 Z-12.443
N8870 G3 X35.607 Y-13.75 Z-12.6 I-0.572 J-0.181
N8875 G1 X34.601
N8880 X34.457 Y-13.757
N8885 X34.308 Y-13.779
N8890 X34.164 Y-13.818
N8895 X34.024 Y-13.874
N8900 X33.892 Y-13.944
N8905 X33.766 Y-14.026
N8910 X33.648 Y-14.119
N8915 X33.54 Y-14.223
N8920 X33.442 Y-14.336
N8925 X33.353 Y-14.457
N8930 X33.276 Y-14.586
N8935 X33.21 Y-14.72
N8940 X33.155 Y-14.86
N8945 X33.112 Y-15.004
N8950 X33.082 Y-15.154
N8955 X33.063 Y-15.303
N8960 Y-15.315
N8965 X33.086 Y-15.554
N8970 X33.171 Y-15.779
N8975 X33.313 Y-15.974
N8980 X33.502 Y-16.123
N8985 X33.723 Y-16.218
N8990 X33.962 Y-16.25
N8995 X34.99
N9000 G3 X35.568 Y-15.63 Z-12.4 I-0.021 J0.6
N9005 G1 X35.561 Y-15.554
N9010 X35.544 Y-15.479
N9015 X35.211 Y-14.364
N9020 X35.161 Y-14.198 Z-12.437
N9025 X35.155 Y-14.178 Z-12.441
N9030 G3 X34.601 Y-13.75 Z-12.6 I-0.575 J-0.172
N9035 G1 X33.505
N9040 X33.395 Y-13.756
N9045 X33.248 Y-13.782
N9050 X33.104 Y-13.825
N9055 X32.966 Y-13.885
N9060 X32.835 Y-13.957
N9065 X32.711 Y-14.042
N9070 X32.596 Y-14.138
N9075 X32.49 Y-14.244
N9080 X32.393 Y-14.359
N9085 X32.307 Y-14.481
N9090 X32.232 Y-14.611
N9095 X32.168 Y-14.747
N9100 X32.116 Y-14.888
N9105 X32.076 Y-15.032
N9110 X32.048 Y-15.181
N9115 X32.04 Y-15.254
N9120 X32.049 Y-15.505
N9125 X32.126 Y-15.743
N9130 X32.266 Y-15.952
N9135 X32.458 Y-16.113
N9140 X32.687 Y-16.215
N9145 X32.935 Y-16.25
N9150 X33.962
N9155 G3 X34.541 Y-15.63 Z-12.4 I-0.021 J0.6
N9160 G1 X34.531 Y-15.539
N9165 X34.507 Y-15.452
N9170 X34.125 Y-14.361
N9175 X34.067 Y-14.197 Z-12.437
N9180 X34.051 Y-14.151 Z-12.447
N9185 G3 X33.505 Y-13.75 Z-12.6 I-0.566 J-0.199
N9190 G1 X32.5
N9195 X32.378 Y-13.756
N9200 X32.23 Y-13.78
N9205 X32.086 Y-13.823
N9210 X31.948 Y-13.881
N9215 X31.816 Y-13.952
N9220 X31.692 Y-14.036
N9225 X31.576 Y-14.132
N9230 X31.469 Y-14.237
N9235 X31.372 Y-14.351
N9240 X31.285 Y-14.474
N9245 X31.21 Y-14.603
N9250 X31.145 Y-14.739
N9255 X31.092 Y-14.879
N9260 X31.051 Y-15.028
N9265 X31.022 Y-15.175
N9270 X31.006 Y-15.329
N9275 X31.032 Y-15.566
N9280 X31.119 Y-15.788
N9285 X31.261 Y-15.979
N9290 X31.449 Y-16.126
N9295 X31.669 Y-16.218
N9300 X31.905 Y-16.25
N9305 X32.935
N9310 G3 X33.514 Y-15.63 Z-12.4 I-0.021 J0.6
N9315 G1 X33.505 Y-15.544
N9320 X33.483 Y-15.46
N9325 X33.116 Y-14.362
N9330 X33.061 Y-14.198 Z-12.437
N9335 X33.048 Y-14.159 Z-12.445
N9340 G3 X32.5 Y-13.75 Z-12.6 I-0.569 J-0.19
N9345 G1 X31.495
N9350 X31.362 Y-13.757
N9355 X31.213 Y-13.779
N9360 X31.069 Y-13.821
N9365 X30.93 Y-13.877
N9370 X30.798 Y-13.948
N9375 X30.673 Y-14.031
N9380 X30.556 Y-14.125
N9385 X30.449 Y-14.23
N9390 X30.351 Y-14.343
N9395 X30.263 Y-14.465
N9400 X30.186 Y-14.594
N9405 X30.121 Y-14.729
N9410 X30.067 Y-14.869
N9415 X30.025 Y-15.013
N9420 X29.995 Y-15.163
N9425 X29.978 Y-15.312
N9430 X29.977 Y-15.319
N9435 X30.001 Y-15.558
N9440 X30.088 Y-15.782
N9445 X30.23 Y-15.976
N9450 X30.418 Y-16.124
N9455 X30.639 Y-16.218
N9460 X30.877 Y-16.25
N9465 X31.905
N9470 G3 X32.484 Y-15.63 Z-12.4 I-0.021 J0.6
N9475 G1 X32.476 Y-15.549
N9480 X32.457 Y-15.47
N9485 X32.107 Y-14.363
N9490 X32.055 Y-14.198 Z-12.437
N9495 X32.046 Y-14.169 Z-12.443
N9500 G3 X31.495 Y-13.75 Z-12.6 I-0.572 J-0.181
N9505 G1 X30.489
N9510 X30.344 Y-13.757
N9515 X30.196 Y-13.779
N9520 X30.051 Y-13.818
N9525 X29.912 Y-13.874
N9530 X29.779 Y-13.944
N9535 X29.653 Y-14.026
N9540 X29.536 Y-14.119
N9545 X29.428 Y-14.223
N9550 X29.329 Y-14.336
N9555 X29.24 Y-14.457
N9560 X29.163 Y-14.586
N9565 X29.097 Y-14.72
N9570 X29.042 Y-14.86
N9575 X29. Y-15.004
N9580 X28.969 Y-15.154
N9585 X28.951 Y-15.303
N9590 X28.95 Y-15.314
N9595 X28.973 Y-15.554
N9600 X29.058 Y-15.779
N9605 X29.2 Y-15.974
N9610 X29.389 Y-16.123
N9615 X29.611 Y-16.218
N9620 X29.849 Y-16.25
N9625 X30.877
N9630 G3 X31.456 Y-15.63 Z-12.4 I-0.021 J0.6
N9635 G1 X31.448 Y-15.554
N9640 X31.431 Y-15.479
N9645 X31.099 Y-14.364
N9650 X31.049 Y-14.198 Z-12.437
N9655 X31.043 Y-14.178 Z-12.441
N9660 G3 X30.489 Y-13.75 Z-12.6 I-0.575 J-0.171
N9665 G1 X29.423
N9670 X29.297 Y-13.756
N9675 X29.149 Y-13.78
N9680 X29.005 Y-13.822
N9685 X28.867 Y-13.88
N9690 X28.735 Y-13.952
N9695 X28.61 Y-14.035
N9700 X28.494 Y-14.13
N9705 X28.387 Y-14.235
N9710 X28.289 Y-14.349
N9715 X28.202 Y-14.471
N9720 X28.127 Y-14.6
N9725 X28.062 Y-14.736
N9730 X28.008 Y-14.876
N9735 X27.967 Y-15.02
N9740 X27.938 Y-15.169
N9745 X27.921 Y-15.323
N9750 X27.946 Y-15.561
N9755 X28.032 Y-15.784
N9760 X28.175 Y-15.977
N9765 X28.363 Y-16.125
N9770 X28.583 Y-16.218
N9775 X28.82 Y-16.25
N9780 X29.849
N9785 G3 X30.428 Y-15.63 Z-12.4 I-0.021 J0.6
N9790 G1 X30.419 Y-15.546
N9795 X30.399 Y-15.463
N9800 X30.038 Y-14.363
N9805 X29.983 Y-14.198 Z-12.437
N9810 X29.972 Y-14.163 Z-12.445
N9815 G3 X29.423 Y-13.75 Z-12.6 I-0.57 J-0.187
N9820 G1 X28.367
N9825 X28.256 Y-13.756
N9830 X28.108 Y-13.781
N9835 X27.964 Y-13.825
N9840 X27.827 Y-13.884
N9845 X27.695 Y-13.956
N9850 X27.571 Y-14.041
N9855 X27.456 Y-14.136
N9860 X27.35 Y-14.243
N9865 X27.253 Y-14.357
N9870 X27.166 Y-14.48
N9875 X27.092 Y-14.61
N9880 X27.028 Y-14.745
N9885 X26.975 Y-14.886
N9890 X26.935 Y-15.031
N9895 X26.907 Y-15.18
N9900 X26.901 Y-15.232
N9905 X26.908 Y-15.474
N9910 X26.979 Y-15.706
N9915 X27.109 Y-15.91
N9920 X27.289 Y-16.072
N9925 X27.506 Y-16.181
N9930 X27.744 Y-16.227
N9935 G3 X28.303 Y-15.878 Z-12.452 I0.014 J0.6
N9940 G1 X28.332 Y-15.814 Z-12.437
N9945 X28.405 Y-15.656 Z-12.4
N9950 X28.891 Y-14.601
N9955 X28.92 Y-14.527
N9960 X28.938 Y-14.449
N9965 X28.946 Y-14.37
N9970 G3 X28.367 Y-13.75 Z-12.6 I-0.6 J0.02
N9975 G1 X28.277
N9980 X28.076 Y-13.754
N9985 X27.473 Y-13.789
N9990 X27.412 Y-13.794
N9995 X27.271 Y-13.814
N10000 X27.171 Y-13.833
N10005 X27.07 Y-13.87
N10010 X26.869 Y-13.966
N10015 X26.823 Y-13.995
N10020 X26.668 Y-14.124
N10025 X26.592 Y-14.196
N10030 X26.467 Y-14.375
N10035 X26.453 Y-14.397
N10040 X26.397 Y-14.497
N10045 X26.36 Y-14.598
N10050 X26.305 Y-14.799
N10055 X26.294 Y-14.899
N10060 Y-15.101
N10065 X26.305 Y-15.201
N10070 X26.36 Y-15.402
N10075 X26.397 Y-15.503
N10080 X26.453 Y-15.603
N10085 X26.467 Y-15.625
N10090 X26.592 Y-15.804
N10095 X26.668 Y-15.876
N10100 X26.823 Y-16.005
N10105 X26.869 Y-16.034
N10110 X27.07 Y-16.13
N10115 X27.171 Y-16.167
N10120 X27.271 Y-16.186
N10125 X27.412 Y-16.206
N10130 X27.473 Y-16.211
N10135 X28.076 Y-16.246
N10140 X28.277 Y-16.25
N10145 X28.82
N10150 G3 X29.384 Y-15.785 I-0.021 J0.6
N10155 G1 X29.405 Y-15.694 Z-12.593
N10160 X29.426 Y-15.605 Z-12.571
N10165 X29.445 Y-15.52 Z-12.535
N10170 X29.463 Y-15.442 Z-12.485
N10175 X29.48 Y-15.372 Z-12.424
N10180 X29.493 Y-15.312 Z-12.353
N10185 X29.504 Y-15.264 Z-12.272
N10190 X29.512 Y-15.229 Z-12.185
N10195 X29.517 Y-15.208 Z-12.094
N10200 X29.519 Y-15.201 Z-12.
N10205 G0 Z15.
(ADAPTIVE2)
N10210 S15000 M3
N10215 G0 X48.658 Y-37.687
N10220 Z15.
N10225 Z5.
N10230 Z-3.
N10235 G1 Z-4.5 F1600.
N10240 X48.66 Y-37.68 Z-4.647
N10245 X48.665 Y-37.659 Z-4.793
N10250 X48.674 Y-37.624 Z-4.935
N10255 X48.686 Y-37.576 Z-5.074
N10260 X48.702 Y-37.515 Z-5.207
N10265 X48.721 Y-37.442 Z-5.333
N10270 X48.743 Y-37.357 Z-5.452
N10275 X48.767 Y-37.261 Z-5.561
N10280 X48.794 Y-37.156 Z-5.66
N10285 X48.823 Y-37.041 Z-5.747
N10290 X48.855 Y-36.919 Z-5.823
N10295 X48.888 Y-36.79 Z-5.886
N10300 X48.922 Y-36.656 Z-5.935
N10305 X48.958 Y-36.517 Z-5.971
N10310 X48.994 Y-36.376 Z-5.993
N10315 X49.03 Y-36.234 Z-6.
N10320 G3 X49.5 Y-32.967 I-14.839 J3.801
N10325 G1 Y-32.939
N10330 X49.386 Y-32.841
N10335 X49.259 Y-32.762
N10340 X49.125 Y-32.694
N10345 X48.988 Y-32.633
N10350 X48.826 Y-32.571
N10355 X48.627 Y-32.505
N10360 X48.377 Y-32.433
N10365 X48.061 Y-32.356
N10370 X47.647 Y-32.276
N10375 X47.082 Y-32.19
N10380 X46.242 Y-32.101
N10385 X45.322 Y-32.043
N10390 X44.4 Y-32.011
N10395 X43.477 Y-31.992
N10400 X42.555 Y-31.981
N10405 X41.632 Y-31.975
N10410 X40.709 Y-31.971
N10415 X38.864 Y-31.968
N10420 X35.174 Y-31.967
N10425 X1.96 Y-31.975
N10430 X1.503 Y-31.913
N10435 X0.619 Y-31.65
N10440 X-0.122 Y-31.1
N10445 X-0.706 Y-30.385
N10450 X-1.138 Y-29.57
N10455 X-1.442 Y-28.699
N10460 X-1.646 Y-27.8
N10465 X-1.779 Y-26.887
N10470 X-1.861 Y-25.968
N10475 X-1.912 Y-25.047
N10480 X-1.943 Y-24.124
N10485 X-1.961 Y-23.202
N10490 X-1.972 Y-22.279
N10495 X-1.979 Y-21.357
N10500 X-1.983 Y-20.434
N10505 X-1.987 Y-18.589
N10510 X-1.989 Y-14.899
N10515 X-1.991 Y-1.982
N10520 X-1.929 Y-1.525
N10525 X-1.664 Y-0.641
N10530 X-1.114 Y0.099
N10535 X-0.398 Y0.682
N10540 X0.417 Y1.114
N10545 X1.288 Y1.417
N10550 X2.188 Y1.621
N10555 X3.101 Y1.753
N10560 X4.02 Y1.836
N10565 X4.941 Y1.887
N10570 X5.863 Y1.917
N10575 X6.786 Y1.936
N10580 X7.708 Y1.947
N10585 X8.631 Y1.953
N10590 X9.554 Y1.957
N10595 X11.399 Y1.961
N10600 X15.089 Y1.964
N10605 X16.934
N10610 X63.065 Y1.975
N10615 X63.521 Y1.906
N10620 X64.401 Y1.63
N10625 X65.137 Y1.074
N10630 X65.715 Y0.355
N10635 X66.143 Y-0.463
N10640 X66.443 Y-1.335
N10645 X66.645 Y-2.235
N10650 X66.775 Y-3.149
N10655 X66.857 Y-4.068
N10660 X66.907 Y-4.989
N10665 X66.938 Y-5.911
N10670 X66.956 Y-6.833
N10675 X66.967 Y-7.756
N10680 X66.974 Y-8.679
N10685 X66.978 Y-9.601
N10690 X66.982 Y-11.446
N10695 X66.985 Y-15.137
N10700 X66.991 Y-28.053
N10705 X66.921 Y-28.509
N10710 X66.641 Y-29.388
N10715 X66.084 Y-30.123
N10720 X65.364 Y-30.7
N10725 X64.546 Y-31.127
N10730 X63.673 Y-31.426
N10735 X62.773 Y-31.627
N10740 X61.859 Y-31.757
N10745 X60.94 Y-31.838
N10750 X60.019 Y-31.888
N10755 X59.097 Y-31.918
N10760 X58.174 Y-31.936
N10765 X57.252 Y-31.947
N10770 X56.329 Y-31.953
N10775 X55.407 Y-31.957
N10780 X53.561 Y-31.961
N10785 X51.716 Y-31.963
N10790 X50.8 Y-31.853
N10795 X49.892 Y-31.689
N10800 X48.986 Y-31.516
N10805 X48.076 Y-31.365
N10810 X47.161 Y-31.243
N10815 X46.243 Y-31.153
N10820 X45.323 Y-31.09
N10825 X44.401 Y-31.047
N10830 X43.479 Y-31.019
N10835 X42.556 Y-31.
N10840 X41.634 Y-30.988
N10845 X40.711 Y-30.98
N10850 X39.789 Y-30.975
N10855 X38.866 Y-30.972
N10860 X37.021 Y-30.969
N10865 X33.331 Y-30.968
N10870 X3.807 Y-30.974
N10875 X2.885 Y-30.944
N10880 X1.997 Y-30.694
N10885 X1.213 Y-30.207
N10890 X0.572 Y-29.544
N10895 X0.079 Y-28.764
N10900 X0.026 Y-28.65
N10905 X-0.036 Y-28.539
N10910 X-0.105 Y-28.433
N10915 X-0.248 Y-28.228
N10920 X-0.285 Y-28.172
N10925 X-0.398 Y-27.963
N10930 X-0.458 Y-27.84
N10935 X-0.493 Y-27.754
N10940 X-0.575 Y-27.545
N10945 X-0.638 Y-27.336
N10950 X-0.684 Y-27.126
N10955 X-0.713 Y-26.917
N10960 X-0.728 Y-26.708
N10965 X-0.84 Y-25.793
N10970 X-0.89 Y-24.871
N10975 X-0.924 Y-23.949
N10980 X-0.947 Y-23.027
N10985 X-0.962 Y-22.105
N10990 X-0.972 Y-21.182
N10995 X-0.978 Y-20.259
N11000 X-0.982 Y-19.337
N11005 X-0.986 Y-17.492
N11010 X-0.989 Y-13.801
N11015 X-0.991 Y-3.653
N11020 X-0.935 Y-2.732
N11025 X-0.632 Y-1.86
N11030 X-0.106 Y-1.102
N11035 X0.584 Y-0.49
N11040 X1.331 Y-0.054
N11045 X1.387 Y-0.02
N11050 X1.442 Y0.016
N11055 X1.496 Y0.054
N11060 X1.635 Y0.155
N11065 X1.844 Y0.293
N11070 X2.054 Y0.405
N11075 X2.189 Y0.472
N11080 X2.263 Y0.501
N11085 X2.472 Y0.581
N11090 X2.841 Y0.681
N11095 X2.891 Y0.691
N11100 X3.1 Y0.719
N11105 X3.309 Y0.73
N11110 X4.227 Y0.827
N11115 X5.148 Y0.871
N11120 X6.07 Y0.903
N11125 X6.993 Y0.924
N11130 X7.915 Y0.938
N11135 X8.838 Y0.947
N11140 X9.76 Y0.953
N11145 X10.683 Y0.957
N11150 X12.528 Y0.961
N11155 X16.218 Y0.964
N11160 X54.045 Y0.973
N11165 X61.426 Y0.975
N11170 X62.346 Y0.903
N11175 X63.212 Y0.585
N11180 X63.961 Y0.046
N11185 X64.563 Y-0.653
N11190 X65.019 Y-1.455
N11195 X65.347 Y-2.317
N11200 X65.574 Y-3.211
N11205 X65.724 Y-4.121
N11210 X65.822 Y-5.039
N11215 X65.884 Y-5.959
N11220 X65.922 Y-6.881
N11225 X65.946 Y-7.804
N11230 X65.961 Y-8.726
N11235 X65.97 Y-9.649
N11240 X65.976 Y-10.571
N11245 X65.979 Y-11.494
N11250 X65.983 Y-13.339
N11255 X65.986 Y-17.952
N11260 X65.99 Y-26.255
N11265 X65.948 Y-27.177
N11270 X65.671 Y-28.057
N11275 X65.165 Y-28.828
N11280 X64.488 Y-29.455
N11285 X63.699 Y-29.934
N11290 X62.845 Y-30.282
N11295 X61.954 Y-30.523
N11300 X61.046 Y-30.685
N11305 X60.129 Y-30.789
N11310 X59.209 Y-30.856
N11315 X58.287 Y-30.898
N11320 X57.365 Y-30.923
N11325 X56.443 Y-30.939
N11330 X55.52 Y-30.948
N11335 X54.598 Y-30.954
N11340 X53.675 Y-30.958
N11345 X52.752 Y-30.95
N11350 X51.832 Y-30.89
N11355 X50.915 Y-30.783
N11360 X50.469 Y-30.718
N11365 X50.304 Y-30.701
N11370 X50.138 Y-30.699
N11375 X49.973 Y-30.711
N11380 X49.763 Y-30.737
N11385 X49.554 Y-30.748
N11390 X49.345 Y-30.75
N11395 X3.728
N11400 X3.518 Y-30.742
N11405 X3.1 Y-30.719
N11410 X2.891 Y-30.691
N11415 X2.841 Y-30.681
N11420 X2.472 Y-30.581
N11425 X2.263 Y-30.501
N11430 X2.189 Y-30.472
N11435 X2.054 Y-30.405
N11440 X1.844 Y-30.293
N11445 X1.635 Y-30.155
N11450 X1.496 Y-30.054
N11455 X1.426 Y-29.995
N11460 X1.251 Y-29.844
N11465 X0.798 Y-29.394
N11470 X0.203 Y-28.799
N11475 X0.17 Y-28.764
N11480 X-0.039 Y-28.527
N11485 X-0.105 Y-28.433
N11490 X-0.118 Y-28.418
N11495 X-0.241 Y-28.29
N11500 G2 X-0.522 Y-27.813 I1.13 J0.987
N11505 G1 X-0.532 Y-27.783
N11510 X-0.641 Y-27.481
N11515 X-0.652 Y-27.451
N11520 G2 X-0.741 Y-26.904 I1.411 J0.509
N11525 G1 X-0.729 Y-26.727
N11530 X-0.728 Y-26.708
N11535 X-0.743 Y-26.499
N11540 X-0.75 Y-26.29
N11545 Y-3.71
N11550 X-0.743 Y-3.501
N11555 X-0.713 Y-3.083
N11560 X-0.684 Y-2.874
N11565 X-0.638 Y-2.664
N11570 X-0.575 Y-2.455
N11575 X-0.493 Y-2.246
N11580 X-0.458 Y-2.16
N11585 X-0.398 Y-2.037
N11590 X-0.285 Y-1.828
N11595 X-0.248 Y-1.772
N11600 X-0.039 Y-1.473
N11605 X0.17 Y-1.236
N11610 X0.203 Y-1.201
N11615 X0.83 Y-0.574
N11620 X1.251 Y-0.156
N11625 X1.426 Y-0.005
N11630 X1.496 Y0.054
N11635 X1.51 Y0.068
N11640 X1.618 Y0.19
N11645 G2 X2.17 Y0.552 I1.078 J-1.043
N11650 G1 X2.468 Y0.664
N11655 G2 X3.123 Y0.753 I0.526 J-1.405
N11660 G1 X3.284 Y0.732
N11665 X3.309 Y0.73
N11670 X3.518 Y0.742
N11675 X3.728 Y0.75
N11680 X49.345
N11685 X49.554 Y0.748
N11690 X49.763 Y0.737
N11695 X49.973 Y0.711
N11700 X50.162 Y0.681
N11705 X50.391 Y0.623
N11710 X50.6 Y0.554
N11715 X50.677 Y0.529
N11720 X50.913 Y0.458
N11725 X51.212 Y0.383
N11730 X51.599 Y0.303
N11735 X52.121 Y0.219
N11740 X52.876 Y0.131
N11745 X53.796 Y0.063
N11750 X54.718 Y0.026
N11755 X55.641 Y0.004
N11760 X56.563 Y-0.009
N11765 X57.486 Y-0.016
N11770 X58.408 Y-0.02
N11775 X60.254 Y-0.024
N11780 X61.172 Y-0.108
N11785 X62.042 Y-0.415
N11790 X62.805 Y-0.935
N11795 X63.427 Y-1.615
N11800 X63.908 Y-2.403
N11805 X64.26 Y-3.256
N11810 X64.508 Y-4.145
N11815 X64.677 Y-5.052
N11820 X64.789 Y-5.967
N11825 X64.861 Y-6.887
N11830 X64.905 Y-7.763
N11835 X64.942 Y-8.047
N11840 X65.022 Y-8.321
N11845 X65.143 Y-8.579
N11850 X65.228 Y-8.728
N11855 X65.458 Y-9.187
N11860 X65.54 Y-9.355
N11865 X65.609 Y-9.564
N11870 X65.667 Y-9.786
N11875 X65.705 Y-9.982
N11880 X65.734 Y-10.191
N11885 X65.745 Y-10.4
N11890 X65.75 Y-10.609
N11895 Y-19.391
N11900 X65.745 Y-19.6
N11905 X65.734 Y-19.809
N11910 X65.705 Y-20.018
N11915 X65.664 Y-20.227
N11920 X65.609 Y-20.436
N11925 X65.54 Y-20.645
N11930 X65.504 Y-20.754
N11935 X65.43 Y-21.024
N11940 X65.352 Y-21.371
N11945 X65.27 Y-21.829
N11950 X65.184 Y-22.471
N11955 X65.1 Y-23.39
N11960 X65.054 Y-24.311
N11965 X65.023 Y-25.233
N11970 X64.929 Y-26.151
N11975 X64.619 Y-27.02
N11980 X64.098 Y-27.781
N11985 X63.418 Y-28.405
N11990 X62.63 Y-28.885
N11995 X61.778 Y-29.238
N12000 X60.889 Y-29.487
N12005 X59.982 Y-29.656
N12010 X59.066 Y-29.768
N12015 X58.147 Y-29.84
N12020 X57.225 Y-29.887
N12025 X56.303 Y-29.916
N12030 X55.381 Y-29.934
N12035 X54.458 Y-29.944
N12040 X53.535 Y-29.936
N12045 X52.614 Y-29.894
N12050 X52.522 Y-29.886
N12055 X52.244 Y-29.884
N12060 X51.969 Y-29.924
N12065 X51.704 Y-30.005
N12070 X51.453 Y-30.125
N12075 X51.228 Y-30.248
N12080 X50.789 Y-30.472
N12085 X50.6 Y-30.554
N12090 X50.391 Y-30.623
N12095 X50.162 Y-30.681
N12100 X49.973 Y-30.711
N12105 G3 X49.276 Y-31.054 I0.291 J-1.471
N12110 G1 X49.165 Y-31.151 Z-5.993
N12115 X49.056 Y-31.247 Z-5.971
N12120 X48.948 Y-31.341 Z-5.935
N12125 X48.844 Y-31.432 Z-5.886
N12130 X48.744 Y-31.52 Z-5.823
N12135 X48.649 Y-31.603 Z-5.747
N12140 X48.56 Y-31.681 Z-5.66
N12145 X48.478 Y-31.753 Z-5.561
N12150 X48.403 Y-31.818 Z-5.452
N12155 X48.337 Y-31.875 Z-5.333
N12160 X48.28 Y-31.925 Z-5.207
N12165 X48.233 Y-31.967 Z-5.074
N12170 X48.196 Y-31.999 Z-4.935
N12175 X48.169 Y-32.023 Z-4.793
N12180 X48.153 Y-32.037 Z-4.647
N12185 X48.147 Y-32.042 Z-4.5
N12190 G0 Z5.
N12195 X67.324 Y-19.243
N12200 Z-3.
N12205 G1 Z-4.5 F1600.
N12210 X67.318 Y-19.247 Z-4.647
N12215 X67.3 Y-19.259 Z-4.793
N12220 X67.27 Y-19.279 Z-4.935
N12225 X67.229 Y-19.306 Z-5.074
N12230 X67.176 Y-19.34 Z-5.207
N12235 X67.113 Y-19.382 Z-5.333
N12240 X67.039 Y-19.43 Z-5.452
N12245 X66.957 Y-19.484 Z-5.561
N12250 X66.865 Y-19.544 Z-5.66
N12255 X66.766 Y-19.609 Z-5.747
N12260 X66.661 Y-19.678 Z-5.823
N12265 X66.549 Y-19.751 Z-5.886
N12270 X66.434 Y-19.827 Z-5.935
N12275 X66.314 Y-19.905 Z-5.971
N12280 X66.192 Y-19.985 Z-5.993
N12285 X66.069 Y-20.065 Z-6.
N12290 G3 X65.54 Y-20.645 I0.867 J-1.324
N12295 G1 X65.437 Y-20.854
N12300 X65.228 Y-21.272
N12305 X65.109 Y-21.481
N12310 X64.988 Y-21.69
N12315 X64.895 Y-21.87
N12320 X64.822 Y-22.021
N12325 X64.75 Y-22.188
N12330 X64.671 Y-22.396
N12335 X64.586 Y-22.653
N12340 X64.5 Y-22.958
N12345 X64.389 Y-23.429
N12350 X64.216 Y-24.335
N12355 X64.014 Y-25.236
N12360 X63.637 Y-26.077
N12365 X63.077 Y-26.811
N12370 X62.378 Y-27.412
N12375 X61.581 Y-27.879
N12380 X60.726 Y-28.224
N12385 X59.837 Y-28.471
N12390 X58.93 Y-28.641
N12395 X58.015 Y-28.755
N12400 X57.095 Y-28.83
N12405 X56.174 Y-28.879
N12410 X55.252 Y-28.907
N12415 X54.329 Y-28.913
N12420 X54.072 Y-28.91
N12425 X53.747 Y-28.935
N12430 X53.431 Y-29.018
N12435 X53.135 Y-29.155
N12440 X51.453 Y-30.125
N12445 G3 X50.924 Y-30.693 I0.794 J-1.272
N12450 G1 X50.855 Y-30.823 Z-5.993
N12455 X50.786 Y-30.951 Z-5.971
N12460 X50.719 Y-31.077 Z-5.935
N12465 X50.654 Y-31.2 Z-5.886
N12470 X50.591 Y-31.317 Z-5.823
N12475 X50.532 Y-31.429 Z-5.747
N12480 X50.477 Y-31.533 Z-5.66
N12485 X50.425 Y-31.629 Z-5.561
N12490 X50.379 Y-31.716 Z-5.452
N12495 X50.338 Y-31.794 Z-5.333
N12500 X50.302 Y-31.861 Z-5.207
N12505 X50.273 Y-31.916 Z-5.074
N12510 X50.249 Y-31.96 Z-4.935
N12515 X50.232 Y-31.992 Z-4.793
N12520 X50.222 Y-32.011 Z-4.647
N12525 X50.219 Y-32.017 Z-4.5
N12530 G0 Z5.
N12535 X66.871 Y-20.424
N12540 Z-3.
N12545 G1 Z-4.5 F1600.
N12550 X66.865 Y-20.428 Z-4.647
N12555 X66.846 Y-20.438 Z-4.793
N12560 X66.815 Y-20.456 Z-4.935
N12565 X66.771 Y-20.48 Z-5.074
N12570 X66.716 Y-20.51 Z-5.207
N12575 X66.65 Y-20.547 Z-5.333
N12580 X66.573 Y-20.589 Z-5.452
N12585 X66.487 Y-20.637 Z-5.561
N12590 X66.391 Y-20.69 Z-5.66
N12595 X66.288 Y-20.747 Z-5.747
N12600 X66.177 Y-20.809 Z-5.823
N12605 X66.061 Y-20.873 Z-5.886
N12610 X65.94 Y-20.94 Z-5.935
N12615 X65.815 Y-21.009 Z-5.971
N12620 X65.688 Y-21.08 Z-5.993
N12625 X65.559 Y-21.151 Z-6.
N12630 G3 X64.988 Y-21.69 I0.767 J-1.384
N12635 G1 X64.866 Y-21.9
N12640 X64.83 Y-21.959
N12645 X64.726 Y-22.109
N12650 X64.621 Y-22.256
N12655 X64.411 Y-22.497
N12660 X64.309 Y-22.627
N12665 X64.22 Y-22.747
N12670 X64.134 Y-22.878
N12675 X64.024 Y-23.062
N12680 X63.584 Y-23.873
N12685 X63.164 Y-24.694
N12690 X62.628 Y-25.445
N12695 X61.966 Y-26.087
N12700 X61.204 Y-26.608
N12705 X60.374 Y-27.011
N12710 X59.501 Y-27.309
N12715 X58.603 Y-27.523
N12720 X57.693 Y-27.671
N12725 X56.776 Y-27.771
N12730 X55.855 Y-27.834
N12735 X55.829 Y-27.835
N12740 X55.541 Y-27.872
N12745 X55.263 Y-27.954
N12750 X55.001 Y-28.078
N12755 X53.135 Y-29.155
N12760 G3 X52.605 Y-29.723 I0.794 J-1.272
N12765 G1 X52.536 Y-29.853 Z-5.993
N12770 X52.467 Y-29.981 Z-5.971
N12775 X52.4 Y-30.107 Z-5.935
N12780 X52.335 Y-30.23 Z-5.886
N12785 X52.273 Y-30.347 Z-5.823
N12790 X52.213 Y-30.459 Z-5.747
N12795 X52.158 Y-30.563 Z-5.66
N12800 X52.107 Y-30.659 Z-5.561
N12805 X52.06 Y-30.746 Z-5.452
N12810 X52.019 Y-30.824 Z-5.333
N12815 X51.983 Y-30.891 Z-5.207
N12820 X51.954 Y-30.946 Z-5.074
N12825 X51.931 Y-30.99 Z-4.935
N12830 X51.914 Y-31.022 Z-4.793
N12835 X51.904 Y-31.041 Z-4.647
N12840 X51.9 Y-31.047 Z-4.5
N12845 G0 Z5.
N12850 X66.497 Y-21.604
N12855 Z-3.
N12860 G1 Z-4.5 F1600.
N12865 X66.491 Y-21.606 Z-4.647
N12870 X66.47 Y-21.613 Z-4.793
N12875 X66.436 Y-21.624 Z-4.935
N12880 X66.389 Y-21.64 Z-5.074
N12885 X66.329 Y-21.66 Z-5.207
N12890 X66.257 Y-21.683 Z-5.333
N12895 X66.174 Y-21.711 Z-5.452
N12900 X66.08 Y-21.742 Z-5.561
N12905 X65.977 Y-21.776 Z-5.66
N12910 X65.864 Y-21.813 Z-5.747
N12915 X65.744 Y-21.852 Z-5.823
N12920 X65.618 Y-21.894 Z-5.886
N12925 X65.486 Y-21.937 Z-5.935
N12930 X65.351 Y-21.982 Z-5.971
N12935 X65.213 Y-22.028 Z-5.993
N12940 X65.073 Y-22.074 Z-6.
N12945 G3 X64.411 Y-22.497 I0.495 J-1.503
N12950 G1 X64.385 Y-22.527
N12955 X64.153 Y-22.736
N12960 X63.993 Y-22.862
N12965 X63.875 Y-22.945
N12970 X63.784 Y-23.008
N12975 X63.66 Y-23.094
N12980 X63.498 Y-23.23
N12985 X62.817 Y-23.853
N12990 X62.156 Y-24.496
N12995 X61.437 Y-25.074
N13000 X60.653 Y-25.561
N13005 X59.817 Y-25.951
N13010 X58.944 Y-26.25
N13015 X58.048 Y-26.47
N13020 X58.001 Y-26.478
N13025 X57.791 Y-26.527
N13030 X57.588 Y-26.601
N13035 X57.395 Y-26.697
N13040 G3 X58.94 Y-29.269 I0.794 J-1.272
N13045 G1 X65.252 Y-25.624
N13050 G3 X63.784 Y-23.008 I-0.75 J1.299
N13055 G1 X63.537 Y-23.154
N13060 X55.001 Y-28.078
N13065 G3 X54.471 Y-28.646 I0.794 J-1.272
N13070 G1 X54.402 Y-28.776 Z-5.993
N13075 X54.334 Y-28.905 Z-5.971
N13080 X54.267 Y-29.031 Z-5.935
N13085 X54.202 Y-29.153 Z-5.886
N13090 X54.139 Y-29.27 Z-5.823
N13095 X54.08 Y-29.382 Z-5.747
N13100 X54.024 Y-29.486 Z-5.66
N13105 X53.973 Y-29.583 Z-5.561
N13110 X53.927 Y-29.67 Z-5.452
N13115 X53.885 Y-29.747 Z-5.333
N13120 X53.85 Y-29.814 Z-5.207
N13125 X53.82 Y-29.87 Z-5.074
N13130 X53.797 Y-29.913 Z-4.935
N13135 X53.78 Y-29.945 Z-4.793
N13140 X53.77 Y-29.964 Z-4.647
N13145 X53.767 Y-29.97 Z-4.5
N13150 G0 Z5.
N13155 X49.124 Y2.277
N13160 Z-3.
N13165 G1 Z-4.5 F1600.
N13170 X49.128 Y2.271 Z-4.647
N13175 X49.141 Y2.254 Z-4.793
N13180 X49.162 Y2.225 Z-4.935
N13185 X49.191 Y2.185 Z-5.074
N13190 X49.227 Y2.133 Z-5.207
N13195 X49.271 Y2.072 Z-5.333
N13200 X49.322 Y2.001 Z-5.452
N13205 X49.38 Y1.92 Z-5.561
N13210 X49.444 Y1.832 Z-5.66
N13215 X49.513 Y1.736 Z-5.747
N13220 X49.586 Y1.633 Z-5.823
N13225 X49.664 Y1.525 Z-5.886
N13230 X49.745 Y1.412 Z-5.935
N13235 X49.828 Y1.296 Z-5.971
N13240 X49.913 Y1.178 Z-5.993
N13245 X49.999 Y1.059 Z-6.
N13250 G3 X50.6 Y0.554 I1.286 J0.923
N13255 G1 X50.789 Y0.472
N13260 X51.228 Y0.248
N13265 X51.438 Y0.134
N13270 X51.762 Y-0.053
N13275 X51.92 Y-0.134
N13280 X52.078 Y-0.208
N13285 X52.269 Y-0.288
N13290 X52.48 Y-0.365
N13295 X52.746 Y-0.449
N13300 X53.071 Y-0.537
N13305 X53.473 Y-0.627
N13310 X53.996 Y-0.721
N13315 X54.716 Y-0.817
N13320 X55.635 Y-0.9
N13325 X56.556 Y-0.95
N13330 X57.478 Y-0.979
N13335 X58.401 Y-0.998
N13340 X59.323 Y-1.019
N13345 X60.236 Y-1.151
N13350 X61.091 Y-1.499
N13355 X61.835 Y-2.045
N13360 X62.442 Y-2.739
N13365 X62.911 Y-3.534
N13370 X63.256 Y-4.389
N13375 X63.501 Y-5.279
N13380 X63.669 Y-6.186
N13385 X63.681 Y-6.269
N13390 X63.753 Y-6.578
N13395 X63.878 Y-6.87
N13400 X64.052 Y-7.136
N13405 X64.269 Y-7.368
N13410 X64.385 Y-7.473
N13415 X64.621 Y-7.744
N13420 X64.726 Y-7.891
N13425 X64.83 Y-8.041
N13430 X64.866 Y-8.1
N13435 X65.039 Y-8.398
N13440 X65.143 Y-8.579
N13445 G3 X65.708 Y-9.112 I1.277 J0.788
N13450 G1 X65.837 Y-9.182 Z-5.993
N13455 X65.966 Y-9.251 Z-5.971
N13460 X66.091 Y-9.318 Z-5.935
N13465 X66.213 Y-9.384 Z-5.886
N13470 X66.33 Y-9.447 Z-5.823
N13475 X66.441 Y-9.507 Z-5.747
N13480 X66.546 Y-9.563 Z-5.66
N13485 X66.642 Y-9.615 Z-5.561
N13490 X66.729 Y-9.662 Z-5.452
N13495 X66.806 Y-9.704 Z-5.333
N13500 X66.872 Y-9.74 Z-5.207
N13505 X66.928 Y-9.769 Z-5.074
N13510 X66.971 Y-9.793 Z-4.935
N13515 X67.003 Y-9.81 Z-4.793
N13520 X67.022 Y-9.82 Z-4.647
N13525 X67.028 Y-9.824 Z-4.5
N13530 G0 Z5.
N13535 X50.486 Y1.824
N13540 Z-3.
N13545 G1 Z-4.5 F1600.
N13550 X50.49 Y1.817 Z-4.647
N13555 X50.5 Y1.799 Z-4.793
N13560 X50.518 Y1.767 Z-4.935
N13565 X50.542 Y1.724 Z-5.074
N13570 X50.573 Y1.669 Z-5.207
N13575 X50.61 Y1.603 Z-5.333
N13580 X50.653 Y1.527 Z-5.452
N13585 X50.701 Y1.441 Z-5.561
N13590 X50.754 Y1.345 Z-5.66
N13595 X50.812 Y1.242 Z-5.747
N13600 X50.874 Y1.132 Z-5.823
N13605 X50.939 Y1.016 Z-5.886
N13610 X51.007 Y0.895 Z-5.935
N13615 X51.077 Y0.771 Z-5.971
N13620 X51.148 Y0.644 Z-5.993
N13625 X51.22 Y0.515 Z-6.
N13630 G3 X51.762 Y-0.053 I1.38 J0.774
N13635 G1 X53.321 Y-0.952
N13640 X53.519 Y-1.054
N13645 X53.681 Y-1.132
N13650 X53.883 Y-1.218
N13655 X54.113 Y-1.305
N13660 X54.38 Y-1.393
N13665 X54.723 Y-1.489
N13670 X55.12 Y-1.583
N13675 X55.646 Y-1.682
N13680 X56.349 Y-1.784
N13685 X57.267 Y-1.876
N13690 X58.188 Y-1.945
N13695 X59.098 Y-2.091
N13700 X59.957 Y-2.428
N13705 X60.711 Y-2.96
N13710 X61.334 Y-3.641
N13715 X61.821 Y-4.424
N13720 X62.192 Y-5.269
N13725 X62.356 Y-5.695
N13730 X62.492 Y-5.975
N13735 X62.674 Y-6.227
N13740 X62.895 Y-6.446
N13745 X63.15 Y-6.623
N13750 X63.574 Y-6.868
N13755 X63.784 Y-6.992
N13760 X63.875 Y-7.055
N13765 X63.993 Y-7.138
N13770 X64.153 Y-7.264
N13775 X64.269 Y-7.368
N13780 G3 X64.973 Y-7.696 I0.964 J1.15
N13785 G1 X65.118 Y-7.722 Z-5.993
N13790 X65.261 Y-7.747 Z-5.971
N13795 X65.402 Y-7.772 Z-5.935
N13800 X65.538 Y-7.796 Z-5.886
N13805 X65.669 Y-7.819 Z-5.823
N13810 X65.794 Y-7.84 Z-5.747
N13815 X65.91 Y-7.861 Z-5.66
N13820 X66.017 Y-7.88 Z-5.561
N13825 X66.115 Y-7.897 Z-5.452
N13830 X66.201 Y-7.912 Z-5.333
N13835 X66.276 Y-7.925 Z-5.207
N13840 X66.338 Y-7.936 Z-5.074
N13845 X66.386 Y-7.945 Z-4.935
N13850 X66.422 Y-7.951 Z-4.793
N13855 X66.443 Y-7.955 Z-4.647
N13860 X66.45 Y-7.956 Z-4.5
N13865 G0 Z5.
N13870 X52.045 Y0.924
N13875 Z-3.
N13880 G1 Z-4.5 F1600.
N13885 X52.049 Y0.918 Z-4.647
N13890 X52.059 Y0.899 Z-4.793
N13895 X52.077 Y0.868 Z-4.935
N13900 X52.101 Y0.825 Z-5.074
N13905 X52.132 Y0.77 Z-5.207
N13910 X52.169 Y0.704 Z-5.333
N13915 X52.212 Y0.627 Z-5.452
N13920 X52.26 Y0.541 Z-5.561
N13925 X52.313 Y0.446 Z-5.66
N13930 X52.371 Y0.343 Z-5.747
N13935 X52.433 Y0.233 Z-5.823
N13940 X52.498 Y0.117 Z-5.886
N13945 X52.566 Y-0.004 Z-5.935
N13950 X52.636 Y-0.129 Z-5.971
N13955 X52.707 Y-0.256 Z-5.993
N13960 X52.779 Y-0.384 Z-6.
N13965 G3 X53.321 Y-0.952 I1.38 J0.774
N13970 G1 X54.995 Y-1.918
N13975 X55.205 Y-2.026
N13980 X55.373 Y-2.107
N13985 X55.583 Y-2.197
N13990 X55.819 Y-2.287
N13995 X56.114 Y-2.385
N14000 X57.002 Y-2.636
N14005 X57.898 Y-2.859
N14010 X58.753 Y-3.205
N14015 X59.52 Y-3.716
N14020 X60.171 Y-4.371
N14025 X60.625 Y-4.988
N14030 X60.788 Y-5.181
N14035 X60.976 Y-5.349
N14040 X61.186 Y-5.49
N14045 G3 X62.639 Y-2.866 I0.704 J1.325
N14050 G1 X56.539 Y0.654
N14055 G3 X54.995 Y-1.918 I-0.75 J-1.299
N14060 G1 X63.15 Y-6.623
N14065 X63.233 Y-6.656 Z-5.995
N14070 X63.315 Y-6.688 Z-5.98
N14075 X63.395 Y-6.719 Z-5.954
N14080 X63.472 Y-6.749 Z-5.92
N14085 X63.555 Y-6.761 Z-5.871
N14090 X63.633 Y-6.772 Z-5.813
N14095 X63.702 Y-6.782 Z-5.745
N14100 X63.763 Y-6.791 Z-5.669
N14105 X63.813 Y-6.798 Z-5.587
N14110 X63.854 Y-6.799 Z-5.498
N14115 X63.883 Y-6.798 Z-5.406
N14120 X63.901 Z-5.311
N14125 X63.907 Z-5.215
N14130 G0 Z5.
N14135 X52.428 Y0.629
N14140 Z-2.394
N14145 G1 Z-3.894 F1600.
N14150 X52.433 Y0.624 Z-4.041
N14155 X52.448 Y0.608 Z-4.187
N14160 X52.473 Y0.583 Z-4.329
N14165 X52.508 Y0.548 Z-4.468
N14170 X52.553 Y0.503 Z-4.601
N14175 X52.606 Y0.449 Z-4.727
N14180 X52.667 Y0.387 Z-4.846
N14185 X52.737 Y0.316 Z-4.955
N14190 X52.814 Y0.239 Z-5.054
N14195 X52.897 Y0.155 Z-5.141
N14200 X52.985 Y0.065 Z-5.217
N14205 X53.079 Y-0.03 Z-5.28
N14210 X53.176 Y-0.128 Z-5.329
N14215 X53.277 Y-0.23 Z-5.365
N14220 X53.379 Y-0.334 Z-5.387
N14225 X53.482 Y-0.438 Z-5.394
N14230 G3 X56.041 Y-2.522 I10.896 J10.766
N14235 G1 X56.25 Y-2.648
N14240 X56.277 Y-2.664
N14245 X56.46 Y-2.796
N14250 X56.56 Y-2.874
N14255 X56.669 Y-2.969
N14260 X56.79 Y-3.083
N14265 X56.878 Y-3.176
N14270 X56.984 Y-3.292
N14275 X57.144 Y-3.501
N14280 X57.215 Y-3.592
N14285 X57.328 Y-3.73
N14290 X57.474 Y-3.893
N14295 X57.662 Y-4.085
N14300 X57.91 Y-4.317
N14305 X58.246 Y-4.605
N14310 X58.723 Y-4.98
N14315 X59.467 Y-5.513
N14320 X60.24 Y-6.018
N14325 X61.024 Y-6.504
N14330 X61.814 Y-6.98
N14335 X62.561 Y-7.522
N14340 X63.217 Y-8.17
N14345 X63.718 Y-8.945
N14350 X64.078 Y-9.794
N14355 X64.325 Y-10.683
N14360 X64.488 Y-11.591
N14365 X64.591 Y-12.508
N14370 X64.654 Y-13.429
N14375 X64.693 Y-14.35
N14380 X64.716 Y-15.273
N14385 X64.73 Y-16.195
N14390 X64.738 Y-17.118
N14395 X64.743 Y-18.04
N14400 X64.632 Y-18.956
N14405 X64.37 Y-19.841
N14410 X63.927 Y-20.65
N14415 X63.356 Y-21.375
N14420 X62.7 Y-22.023
N14425 X61.988 Y-22.61
N14430 X61.241 Y-23.152
N14435 X60.474 Y-23.664
N14440 X59.693 Y-24.156
N14445 X58.905 Y-24.636
N14450 X58.251 Y-25.025
N14455 X57.949 Y-25.248
N14460 X57.698 Y-25.527
N14465 X57.506 Y-25.849
N14470 X57.397 Y-26.081
N14475 X57.297 Y-26.263
N14480 X57.28 Y-26.29
N14485 X57.205 Y-26.405
N14490 G3 X56.992 Y-27.152 I1.286 J-0.772
N14495 G1 X56.989 Y-27.299 Z-5.387
N14500 X56.986 Y-27.444 Z-5.365
N14505 X56.984 Y-27.587 Z-5.329
N14510 X56.982 Y-27.726 Z-5.28
N14515 X56.979 Y-27.859 Z-5.217
N14520 X56.977 Y-27.985 Z-5.141
N14525 X56.975 Y-28.103 Z-5.054
N14530 X56.973 Y-28.212 Z-4.955
N14535 X56.971 Y-28.311 Z-4.846
N14540 X56.97 Y-28.399 Z-4.727
N14545 X56.969 Y-28.474 Z-4.601
N14550 X56.968 Y-28.537 Z-4.468
N14555 X56.967 Y-28.587 Z-4.329
N14560 X56.966 Y-28.623 Z-4.187
N14565 Y-28.644 Z-4.041
N14570 Y-28.651 Z-3.894
N14575 G0 Z5.
N14580 X56.861 Y-1.249
N14585 Z-2.394
N14590 G1 Z-3.894 F1600.
N14595 Y-1.257 Z-4.041
N14600 X56.862 Y-1.278 Z-4.187
N14605 X56.863 Y-1.314 Z-4.329
N14610 X56.865 Y-1.363 Z-4.468
N14615 X56.868 Y-1.426 Z-4.601
N14620 X56.871 Y-1.502 Z-4.727
N14625 X56.874 Y-1.59 Z-4.846
N14630 X56.878 Y-1.688 Z-4.955
N14635 X56.882 Y-1.797 Z-5.054
N14640 X56.887 Y-1.915 Z-5.141
N14645 X56.892 Y-2.042 Z-5.217
N14650 X56.897 Y-2.175 Z-5.28
N14655 X56.903 Y-2.313 Z-5.329
N14660 X56.908 Y-2.456 Z-5.365
N14665 X56.914 Y-2.601 Z-5.387
N14670 X56.92 Y-2.748 Z-5.394
N14675 G3 X57.144 Y-3.501 I1.581 J0.062
N14680 G1 X57.28 Y-3.71
N14685 X57.297 Y-3.737
N14690 X57.397 Y-3.919
N14695 X57.506 Y-4.151
N14700 X57.526 Y-4.207
N14705 X57.577 Y-4.331
N14710 X57.64 Y-4.468
N14715 X57.71 Y-4.6
N14720 X57.788 Y-4.728
N14725 X57.887 Y-4.877
N14730 X58.008 Y-5.042
N14735 X58.144 Y-5.212
N14740 X58.322 Y-5.415
N14745 X58.544 Y-5.647
N14750 X58.819 Y-5.911
N14755 X59.183 Y-6.232
N14760 X59.902 Y-6.81
N14765 X60.645 Y-7.357
N14770 X61.368 Y-7.931
N14775 X61.995 Y-8.607
N14780 X62.504 Y-9.377
N14785 X62.894 Y-10.213
N14790 X63.178 Y-11.091
N14795 X63.377 Y-11.992
N14800 X63.511 Y-12.904
N14805 X63.6 Y-13.823
N14810 X63.656 Y-14.744
N14815 X63.692 Y-15.665
N14820 X63.715 Y-16.588
N14825 X63.684 Y-17.51
N14830 X63.524 Y-18.419
N14835 X63.203 Y-19.283
N14840 X62.741 Y-20.082
N14845 X62.171 Y-20.808
N14850 X61.523 Y-21.464
N14855 X60.821 Y-22.063
N14860 X60.083 Y-22.617
N14865 X59.322 Y-23.139
N14870 X58.723 Y-23.533
N14875 X58.437 Y-23.739
N14880 X58.206 Y-23.939
N14885 X58.013 Y-24.176
N14890 X57.865 Y-24.444
N14895 X57.766 Y-24.733
N14900 X57.72 Y-25.036
N14905 X57.687 Y-25.245
N14910 X57.636 Y-25.454
N14915 X57.572 Y-25.663
N14920 X57.506 Y-25.849
N14925 G0 Z5.
N14930 X57.771 Y-1.951
N14935 Z-2.394
N14940 G1 Z-3.894 F1600.
N14945 X57.77 Y-1.958 Z-4.041
N14950 X57.766 Y-1.979 Z-4.187
N14955 X57.759 Y-2.015 Z-4.329
N14960 X57.749 Y-2.063 Z-4.468
N14965 X57.737 Y-2.125 Z-4.601
N14970 X57.722 Y-2.199 Z-4.727
N14975 X57.705 Y-2.285 Z-4.846
N14980 X57.686 Y-2.382 Z-4.955
N14985 X57.665 Y-2.489 Z-5.054
N14990 X57.642 Y-2.605 Z-5.141
N14995 X57.618 Y-2.729 Z-5.217
N15000 X57.592 Y-2.86 Z-5.28
N15005 X57.566 Y-2.996 Z-5.329
N15010 X57.538 Y-3.136 Z-5.365
N15015 X57.51 Y-3.279 Z-5.387
N15020 X57.482 Y-3.423 Z-5.394
N15025 G3 X57.526 Y-4.207 I1.553 J-0.305
N15030 G1 X57.572 Y-4.337
N15035 X57.636 Y-4.546
N15040 X57.687 Y-4.755
N15045 X57.715 Y-4.935
N15050 X57.736 Y-5.034
N15055 X57.773 Y-5.18
N15060 X57.822 Y-5.322
N15065 X57.879 Y-5.46
N15070 X57.943 Y-5.596
N15075 X58.015 Y-5.729
N15080 X58.106 Y-5.883
N15085 X58.225 Y-6.066
N15090 X58.37 Y-6.269
N15095 X58.537 Y-6.482
N15100 X58.758 Y-6.741
N15105 X59.388 Y-7.415
N15110 X60.048 Y-8.06
N15115 X60.668 Y-8.743
N15120 X61.201 Y-9.496
N15125 X61.633 Y-10.311
N15130 X61.966 Y-11.172
N15135 X62.213 Y-12.061
N15140 X62.39 Y-12.966
N15145 X62.513 Y-13.88
N15150 X62.597 Y-14.799
N15155 X62.645 Y-15.721
N15160 X62.63 Y-16.643
N15165 X62.486 Y-17.554
N15170 X62.194 Y-18.429
N15175 X61.767 Y-19.248
N15180 X61.231 Y-19.998
N15185 X60.611 Y-20.681
N15190 X59.931 Y-21.306
N15195 X59.212 Y-21.884
N15200 X58.791 Y-22.214
N15205 X58.506 Y-22.459
N15210 X58.323 Y-22.63
N15215 X58.273 Y-22.682
N15220 X58.051 Y-22.958
N15225 X57.886 Y-23.271
N15230 X57.784 Y-23.611
N15235 X57.75 Y-23.964
N15240 Y-24.199
N15245 X57.748 Y-24.408
N15250 X57.733 Y-24.827
N15255 X57.72 Y-25.036
N15260 G3 X57.898 Y-25.791 I1.499 J-0.045
N15265 G1 X57.968 Y-25.921 Z-5.387
N15270 X58.037 Y-26.049 Z-5.365
N15275 X58.105 Y-26.175 Z-5.329
N15280 X58.17 Y-26.297 Z-5.28
N15285 X58.233 Y-26.414 Z-5.217
N15290 X58.293 Y-26.525 Z-5.141
N15295 X58.349 Y-26.629 Z-5.054
N15300 X58.401 Y-26.725 Z-4.955
N15305 X58.448 Y-26.812 Z-4.846
N15310 X58.489 Y-26.89 Z-4.727
N15315 X58.525 Y-26.956 Z-4.601
N15320 X58.555 Y-27.012 Z-4.468
N15325 X58.578 Y-27.055 Z-4.329
N15330 X58.595 Y-27.087 Z-4.187
N15335 X58.606 Y-27.106 Z-4.041
N15340 X58.609 Y-27.112 Z-3.894
N15345 G0 Z5.
N15350 X58.373 Y-2.763
N15355 Z-2.394
N15360 G1 Z-3.894 F1600.
N15365 X58.371 Y-2.77 Z-4.041
N15370 X58.363 Y-2.79 Z-4.187
N15375 X58.349 Y-2.823 Z-4.329
N15380 X58.331 Y-2.869 Z-4.468
N15385 X58.308 Y-2.927 Z-4.601
N15390 X58.28 Y-2.998 Z-4.727
N15395 X58.247 Y-3.079 Z-4.846
N15400 X58.21 Y-3.171 Z-4.955
N15405 X58.17 Y-3.272 Z-5.054
N15410 X58.126 Y-3.382 Z-5.141
N15415 X58.079 Y-3.499 Z-5.217
N15420 X58.03 Y-3.623 Z-5.28
N15425 X57.978 Y-3.751 Z-5.329
N15430 X57.925 Y-3.884 Z-5.365
N15435 X57.871 Y-4.019 Z-5.387
N15440 X57.817 Y-4.156 Z-5.394
N15445 G3 X57.715 Y-4.935 I1.469 J-0.587
N15450 G1 X57.72 Y-4.964
N15455 X57.733 Y-5.173
N15460 X57.748 Y-5.592
N15465 X57.753 Y-5.679
N15470 X57.769 Y-5.829
N15475 X57.798 Y-5.976
N15480 X57.837 Y-6.121
N15485 X57.884 Y-6.263
N15490 X57.943 Y-6.415
N15495 X58.023 Y-6.595
N15500 X58.112 Y-6.776
N15505 X58.227 Y-6.986
N15510 X58.398 Y-7.268
N15515 X58.909 Y-8.036
N15520 X59.452 Y-8.781
N15525 X59.965 Y-9.549
N15530 X60.407 Y-10.358
N15535 X60.768 Y-11.208
N15540 X61.049 Y-12.086
N15545 X61.261 Y-12.984
N15550 X61.414 Y-13.894
N15555 X61.514 Y-14.811
N15560 X61.538 Y-15.733
N15565 X61.437 Y-16.651
N15570 X61.191 Y-17.54
N15575 X60.809 Y-18.38
N15580 X60.312 Y-19.157
N15585 X59.725 Y-19.868
N15590 X59.078 Y-20.526
N15595 X58.578 Y-21.007
N15600 X58.339 Y-21.258
N15605 X58.203 Y-21.414
N15610 X58.01 Y-21.68
N15615 X57.867 Y-21.976
N15620 X57.779 Y-22.293
N15625 X57.75 Y-22.62
N15630 Y-23.964
N15635 G3 X57.977 Y-24.706 I1.499 J0.052
N15640 G1 X58.055 Y-24.831 Z-5.387
N15645 X58.132 Y-24.954 Z-5.365
N15650 X58.208 Y-25.076 Z-5.329
N15655 X58.281 Y-25.193 Z-5.28
N15660 X58.352 Y-25.306 Z-5.217
N15665 X58.419 Y-25.413 Z-5.141
N15670 X58.481 Y-25.513 Z-5.054
N15675 X58.539 Y-25.606 Z-4.955
N15680 X58.591 Y-25.69 Z-4.846
N15685 X58.638 Y-25.764 Z-4.727
N15690 X58.678 Y-25.828 Z-4.601
N15695 X58.711 Y-25.882 Z-4.468
N15700 X58.738 Y-25.924 Z-4.329
N15705 X58.757 Y-25.954 Z-4.187
N15710 X58.768 Y-25.972 Z-4.041
N15715 X58.772 Y-25.978 Z-3.894
N15720 G0 Z5.
N15725 X58.712 Y-3.537
N15730 Z-2.394
N15735 G1 Z-3.894 F1600.
N15740 X58.708 Y-3.544 Z-4.041
N15745 X58.697 Y-3.562 Z-4.187
N15750 X58.68 Y-3.593 Z-4.329
N15755 X58.655 Y-3.636 Z-4.468
N15760 X58.623 Y-3.691 Z-4.601
N15765 X58.585 Y-3.756 Z-4.727
N15770 X58.541 Y-3.832 Z-4.846
N15775 X58.492 Y-3.918 Z-4.955
N15780 X58.437 Y-4.012 Z-5.054
N15785 X58.378 Y-4.114 Z-5.141
N15790 X58.315 Y-4.224 Z-5.217
N15795 X58.248 Y-4.339 Z-5.28
N15800 X58.178 Y-4.459 Z-5.329
N15805 X58.107 Y-4.582 Z-5.365
N15810 X58.034 Y-4.708 Z-5.387
N15815 X57.96 Y-4.835 Z-5.394
N15820 G3 X57.748 Y-5.592 I1.37 J-0.793
N15825 G1 X57.75 Y-5.801
N15830 Y-6.491
N15835 X57.756 Y-6.616
N15840 X57.769 Y-6.765
N15845 X57.792 Y-6.914
N15850 X57.824 Y-7.07
N15855 X57.865 Y-7.23
N15860 X57.921 Y-7.418
N15865 X58. Y-7.645
N15870 X58.135 Y-7.988
N15875 X58.467 Y-8.729
N15880 X58.881 Y-9.554
N15885 X59.279 Y-10.387
N15890 X59.629 Y-11.24
N15895 X59.918 Y-12.116
N15900 X60.145 Y-13.011
N15905 X60.309 Y-13.918
N15910 X60.39 Y-14.838
N15915 X60.346 Y-15.759
N15920 X60.155 Y-16.662
N15925 X59.823 Y-17.522
N15930 X59.371 Y-18.327
N15935 X58.831 Y-19.075
N15940 X58.247 Y-19.789
N15945 X58.116 Y-19.964
N15950 X57.959 Y-20.213
N15955 X57.844 Y-20.484
N15960 X57.774 Y-20.77
N15965 X57.75 Y-21.063
N15970 Y-22.62
N15975 G3 X57.977 Y-23.363 I1.499 J0.052
N15980 G1 X58.055 Y-23.487 Z-5.387
N15985 X58.132 Y-23.611 Z-5.365
N15990 X58.208 Y-23.732 Z-5.329
N15995 X58.281 Y-23.849 Z-5.28
N16000 X58.352 Y-23.962 Z-5.217
N16005 X58.419 Y-24.069 Z-5.141
N16010 X58.481 Y-24.17 Z-5.054
N16015 X58.539 Y-24.262 Z-4.955
N16020 X58.591 Y-24.346 Z-4.846
N16025 X58.638 Y-24.42 Z-4.727
N16030 X58.678 Y-24.484 Z-4.601
N16035 X58.711 Y-24.538 Z-4.468
N16040 X58.738 Y-24.58 Z-4.329
N16045 X58.757 Y-24.61 Z-4.187
N16050 X58.768 Y-24.629 Z-4.041
N16055 X58.772 Y-24.635 Z-3.894
N16060 G0 Z5.
N16065 X58.738 Y-4.448
N16070 Z-2.394
N16075 G1 Z-3.894 F1600.
N16080 X58.734 Y-4.454 Z-4.041
N16085 X58.723 Y-4.473 Z-4.187
N16090 X58.705 Y-4.504 Z-4.329
N16095 X58.68 Y-4.546 Z-4.468
N16100 X58.647 Y-4.6 Z-4.601
N16105 X58.609 Y-4.665 Z-4.727
N16110 X58.564 Y-4.741 Z-4.846
N16115 X58.513 Y-4.826 Z-4.955
N16120 X58.458 Y-4.92 Z-5.054
N16125 X58.397 Y-5.021 Z-5.141
N16130 X58.333 Y-5.13 Z-5.217
N16135 X58.265 Y-5.244 Z-5.28
N16140 X58.194 Y-5.363 Z-5.329
N16145 X58.121 Y-5.486 Z-5.365
N16150 X58.046 Y-5.611 Z-5.387
N16155 X57.971 Y-5.738 Z-5.394
N16160 G3 X57.75 Y-6.491 I1.36 J-0.809
N16165 G1 Y-7.797
N16170 X57.76 Y-7.996
N16175 X57.772 Y-8.154
N16180 X57.795 Y-8.345
N16185 X57.837 Y-8.599
N16190 X57.904 Y-8.915
N16195 X58.057 Y-9.511
N16200 X58.325 Y-10.394
N16205 X58.602 Y-11.274
N16210 X58.857 Y-12.161
N16215 X59.065 Y-13.06
N16220 X59.197 Y-13.973
N16225 X59.213 Y-14.895
N16230 X59.08 Y-15.808
N16235 X58.804 Y-16.689
N16240 X58.411 Y-17.524
N16245 X58.005 Y-18.211
N16250 X57.865 Y-18.505
N16255 X57.779 Y-18.819
N16260 X57.75 Y-19.144
N16265 Y-21.063
N16270 G3 X57.977 Y-21.805 I1.499 J0.052
N16275 G1 X58.055 Y-21.93 Z-5.387
N16280 X58.132 Y-22.054 Z-5.365
N16285 X58.208 Y-22.175 Z-5.329
N16290 X58.281 Y-22.292 Z-5.28
N16295 X58.352 Y-22.405 Z-5.217
N16300 X58.419 Y-22.512 Z-5.141
N16305 X58.481 Y-22.612 Z-5.054
N16310 X58.539 Y-22.705 Z-4.955
N16315 X58.591 Y-22.789 Z-4.846
N16320 X58.638 Y-22.863 Z-4.727
N16325 X58.678 Y-22.927 Z-4.601
N16330 X58.711 Y-22.981 Z-4.468
N16335 X58.738 Y-23.023 Z-4.329
N16340 X58.757 Y-23.053 Z-4.187
N16345 X58.768 Y-23.071 Z-4.041
N16350 X58.772 Y-23.077 Z-3.894
N16355 G0 Z5.
N16360 X58.738 Y-5.754
N16365 Z-2.394
N16370 G1 Z-3.894 F1600.
N16375 X58.734 Y-5.761 Z-4.041
N16380 X58.723 Y-5.779 Z-4.187
N16385 X58.705 Y-5.81 Z-4.329
N16390 X58.68 Y-5.853 Z-4.468
N16395 X58.647 Y-5.907 Z-4.601
N16400 X58.609 Y-5.972 Z-4.727
N16405 X58.564 Y-6.047 Z-4.846
N16410 X58.513 Y-6.132 Z-4.955
N16415 X58.458 Y-6.226 Z-5.054
N16420 X58.397 Y-6.327 Z-5.141
N16425 X58.333 Y-6.436 Z-5.217
N16430 X58.265 Y-6.55 Z-5.28
N16435 X58.194 Y-6.669 Z-5.329
N16440 X58.121 Y-6.792 Z-5.365
N16445 X58.046 Y-6.917 Z-5.387
N16450 X57.971 Y-7.044 Z-5.394
N16455 G3 X57.75 Y-7.797 I1.36 J-0.809
N16460 G1 Y-9.982
N16465 X57.773 Y-10.443
N16470 X57.804 Y-10.922
N16475 X57.903 Y-11.839
N16480 X58.024 Y-12.754
N16485 X58.098 Y-13.674
N16490 X58.062 Y-14.595
N16495 X57.897 Y-15.503
N16500 X57.84 Y-15.677
N16505 X57.79 Y-15.863
N16510 X57.76 Y-16.053
N16515 X57.75 Y-16.244
N16520 G3 X60.749 Y-16.192 I1.499 J0.052
N16525 G1 Y-10.034
N16530 G3 X57.75 Y-9.982 I-1.5 J0.
N16535 G1 Y-19.144
N16540 X57.763 Y-19.232 Z-5.389
N16545 X57.776 Y-19.319 Z-5.374
N16550 X57.789 Y-19.404 Z-5.348
N16555 X57.802 Y-19.485 Z-5.314
N16560 X57.833 Y-19.564 Z-5.265
N16565 X57.862 Y-19.636 Z-5.207
N16570 X57.888 Y-19.701 Z-5.139
N16575 X57.911 Y-19.758 Z-5.063
N16580 X57.93 Y-19.805 Z-4.981
N16585 X57.95 Y-19.84 Z-4.893
N16590 X57.965 Y-19.866 Z-4.8
N16595 X57.974 Y-19.881 Z-4.705
N16600 X57.977 Y-19.886 Z-4.609
N16605 G0 Z5.
N16610 X-3.252 Y-32.041
N16615 Z2.4
N16620 G1 Z0.9 F1600.
N16625 X-3.245 Y-32.037 Z0.753
N16630 X-3.227 Y-32.026 Z0.607
N16635 X-3.196 Y-32.008 Z0.465
N16640 X-3.153 Y-31.982 Z0.326
N16645 X-3.099 Y-31.95 Z0.193
N16650 X-3.034 Y-31.912 Z0.067
N16655 X-2.959 Y-31.867 Z-0.052
N16660 X-2.874 Y-31.817 Z-0.161
N16665 X-2.78 Y-31.761 Z-0.26
N16670 X-2.678 Y-31.701 Z-0.347
N16675 X-2.569 Y-31.637 Z-0.423
N16680 X-2.455 Y-31.569 Z-0.486
N16685 X-2.336 Y-31.498 Z-0.535
N16690 X-2.213 Y-31.425 Z-0.571
N16695 X-2.087 Y-31.351 Z-0.593
N16700 X-1.961 Y-31.276 Z-0.6
N16705 G3 X0.681 Y-29.299 I-7.805 J13.18
N16710 G1 X0.722 Y-29.258
N16715 X0.709 Y-29.2
N16720 X0.683 Y-29.147
N16725 X0.646 Y-29.101
N16730 X0.344 Y-28.799
N16735 X0.16 Y-28.59
N16740 X-0.039 Y-28.362
N16745 X-0.105 Y-28.267
N16750 X-0.165 Y-28.172
N16755 X-0.447 Y-27.602
N16760 X-0.451 Y-27.591
N16765 X-0.61 Y-26.996
N16770 X-0.614 Y-26.97
N16775 X-0.644 Y-26.499
N16780 X-0.65 Y-26.29
N16785 Y-3.71
N16790 X-0.644 Y-3.501
N16795 X-0.614 Y-3.03
N16800 X-0.61 Y-3.004
N16805 X-0.451 Y-2.409
N16810 X-0.447 Y-2.398
N16815 X-0.165 Y-1.828
N16820 X-0.105 Y-1.733
N16825 X-0.039 Y-1.638
N16830 X0.17 Y-1.398
N16835 X0.344 Y-1.201
N16840 X1.216 Y-0.329
N16845 X1.426 Y-0.145
N16850 X1.666 Y0.054
N16855 X1.844 Y0.178
N16860 X2.054 Y0.279
N16865 X2.464 Y0.472
N16870 X3.047 Y0.615
N16875 X3.518 Y0.641
N16880 X3.728 Y0.65
N16885 X49.345
N16890 X49.554 Y0.644
N16895 X50.104 Y0.589
N16900 X50.13 Y0.581
N16905 X50.692 Y0.413
N16910 X51.228 Y0.134
N16915 X51.377 Y0.054
N16920 X55.725 Y-2.455
N16925 X56.086 Y-2.664
N16930 X56.25 Y-2.772
N16935 X56.395 Y-2.874
N16940 X56.46 Y-2.92
N16945 X56.669 Y-3.108
N16950 X56.852 Y-3.292
N16955 X57.018 Y-3.501
N16960 X57.087 Y-3.591
N16965 X57.161 Y-3.71
N16970 X57.287 Y-3.919
N16975 X57.297 Y-3.938
N16980 X57.379 Y-4.128
N16985 X57.462 Y-4.337
N16990 X57.506 Y-4.454
N16995 X57.614 Y-4.964
N17000 X57.633 Y-5.173
N17005 X57.648 Y-5.592
N17010 X57.65 Y-5.801
N17015 Y-24.199
N17020 X57.648 Y-24.408
N17025 X57.633 Y-24.827
N17030 X57.614 Y-25.036
N17035 X57.506 Y-25.546
N17040 X57.462 Y-25.663
N17045 X57.379 Y-25.872
N17050 X57.297 Y-26.062
N17055 X57.287 Y-26.081
N17060 X57.161 Y-26.29
N17065 X57.087 Y-26.409
N17070 X57.018 Y-26.499
N17075 X56.852 Y-26.708
N17080 X56.669 Y-26.892
N17085 X56.46 Y-27.08
N17090 X56.395 Y-27.126
N17095 X56.25 Y-27.228
N17100 X56.086 Y-27.336
N17105 X54.995 Y-27.967
N17110 X51.377 Y-30.054
N17115 X51.228 Y-30.134
N17120 X50.692 Y-30.413
N17125 X50.117 Y-30.585
N17130 X50.104 Y-30.589
N17135 X49.554 Y-30.644
N17140 X49.345 Y-30.65
N17145 X3.728
N17150 X3.518 Y-30.641
N17155 X3.047 Y-30.615
N17160 X2.464 Y-30.472
N17165 X2.018 Y-30.263
N17170 X1.844 Y-30.178
N17175 X1.666 Y-30.054
N17180 X1.413 Y-29.844
N17185 X1.216 Y-29.671
N17190 X0.646 Y-29.101
N17195 X0.574 Y-29.048 Z-0.595
N17200 X0.503 Y-28.996 Z-0.58
N17205 X0.434 Y-28.945 Z-0.554
N17210 X0.368 Y-28.896 Z-0.52
N17215 X0.291 Y-28.863 Z-0.471
N17220 X0.219 Y-28.832 Z-0.413
N17225 X0.154 Y-28.804 Z-0.345
N17230 X0.098 Y-28.78 Z-0.269
N17235 X0.051 Y-28.76 Z-0.187
N17240 X0.012 Y-28.75 Z-0.099
N17245 X-0.017 Y-28.742 Z-0.006
N17250 X-0.034 Y-28.738 Z0.089
N17255 X-0.04 Y-28.736 Z0.185
N17260 G0 Z5.
N17265 X48.658 Y-37.687
N17270 Z-9.
N17275 G1 Z-10.5 F1600.
N17280 X48.66 Y-37.68 Z-10.647
N17285 X48.665 Y-37.659 Z-10.793
N17290 X48.674 Y-37.624 Z-10.935
N17295 X48.686 Y-37.576 Z-11.074
N17300 X48.702 Y-37.515 Z-11.207
N17305 X48.721 Y-37.442 Z-11.333
N17310 X48.743 Y-37.357 Z-11.452
N17315 X48.767 Y-37.261 Z-11.561
N17320 X48.794 Y-37.156 Z-11.66
N17325 X48.823 Y-37.041 Z-11.747
N17330 X48.855 Y-36.919 Z-11.823
N17335 X48.888 Y-36.79 Z-11.886
N17340 X48.922 Y-36.656 Z-11.935
N17345 X48.958 Y-36.517 Z-11.971
N17350 X48.994 Y-36.376 Z-11.993
N17355 X49.03 Y-36.234 Z-12.
N17360 G3 X49.5 Y-32.967 I-14.839 J3.801
N17365 G1 Y-32.939
N17370 X49.386 Y-32.841
N17375 X49.259 Y-32.762
N17380 X49.125 Y-32.694
N17385 X48.988 Y-32.633
N17390 X48.826 Y-32.571
N17395 X48.627 Y-32.505
N17400 X48.377 Y-32.433
N17405 X48.061 Y-32.356
N17410 X47.647 Y-32.276
N17415 X47.082 Y-32.19
N17420 X46.242 Y-32.101
N17425 X45.322 Y-32.043
N17430 X44.4 Y-32.011
N17435 X43.477 Y-31.992
N17440 X42.555 Y-31.981
N17445 X41.632 Y-31.975
N17450 X40.709 Y-31.971
N17455 X38.864 Y-31.968
N17460 X35.174 Y-31.967
N17465 X1.96 Y-31.975
N17470 X1.503 Y-31.913
N17475 X0.619 Y-31.65
N17480 X-0.122 Y-31.1
N17485 X-0.706 Y-30.385
N17490 X-1.138 Y-29.57
N17495 X-1.442 Y-28.699
N17500 X-1.646 Y-27.8
N17505 X-1.779 Y-26.887
N17510 X-1.861 Y-25.968
N17515 X-1.912 Y-25.047
N17520 X-1.943 Y-24.124
N17525 X-1.961 Y-23.202
N17530 X-1.972 Y-22.279
N17535 X-1.979 Y-21.357
N17540 X-1.983 Y-20.434
N17545 X-1.987 Y-18.589
N17550 X-1.989 Y-14.899
N17555 X-1.991 Y-1.982
N17560 X-1.929 Y-1.525
N17565 X-1.664 Y-0.641
N17570 X-1.114 Y0.099
N17575 X-0.398 Y0.682
N17580 X0.417 Y1.114
N17585 X1.288 Y1.417
N17590 X2.188 Y1.621
N17595 X3.101 Y1.753
N17600 X4.02 Y1.836
N17605 X4.941 Y1.887
N17610 X5.863 Y1.917
N17615 X6.786 Y1.936
N17620 X7.708 Y1.947
N17625 X8.631 Y1.953
N17630 X9.554 Y1.957
N17635 X11.399 Y1.961
N17640 X15.089 Y1.964
N17645 X16.934
N17650 X63.065 Y1.975
N17655 X63.521 Y1.906
N17660 X64.401 Y1.63
N17665 X65.137 Y1.074
N17670 X65.715 Y0.355
N17675 X66.143 Y-0.463
N17680 X66.443 Y-1.335
N17685 X66.645 Y-2.235
N17690 X66.775 Y-3.149
N17695 X66.857 Y-4.068
N17700 X66.907 Y-4.989
N17705 X66.938 Y-5.911
N17710 X66.956 Y-6.833
N17715 X66.967 Y-7.756
N17720 X66.974 Y-8.679
N17725 X66.978 Y-9.601
N17730 X66.982 Y-11.446
N17735 X66.985 Y-15.137
N17740 X66.991 Y-28.053
N17745 X66.921 Y-28.509
N17750 X66.641 Y-29.388
N17755 X66.084 Y-30.123
N17760 X65.364 Y-30.7
N17765 X64.546 Y-31.127
N17770 X63.673 Y-31.426
N17775 X62.773 Y-31.627
N17780 X61.859 Y-31.757
N17785 X60.94 Y-31.838
N17790 X60.019 Y-31.888
N17795 X59.097 Y-31.918
N17800 X58.174 Y-31.936
N17805 X57.252 Y-31.947
N17810 X56.329 Y-31.953
N17815 X55.407 Y-31.957
N17820 X53.561 Y-31.961
N17825 X51.716 Y-31.963
N17830 X50.8 Y-31.853
N17835 X49.892 Y-31.689
N17840 X48.986 Y-31.516
N17845 X48.076 Y-31.365
N17850 X47.161 Y-31.243
N17855 X46.243 Y-31.153
N17860 X45.323 Y-31.09
N17865 X44.401 Y-31.047
N17870 X43.479 Y-31.019
N17875 X42.556 Y-31.
N17880 X41.634 Y-30.988
N17885 X40.711 Y-30.98
N17890 X39.789 Y-30.975
N17895 X38.866 Y-30.972
N17900 X37.021 Y-30.969
N17905 X33.331 Y-30.968
N17910 X3.807 Y-30.974
N17915 X2.885 Y-30.944
N17920 X1.997 Y-30.694
N17925 X1.213 Y-30.207
N17930 X0.572 Y-29.544
N17935 X0.079 Y-28.764
N17940 X0.026 Y-28.65
N17945 X-0.036 Y-28.539
N17950 X-0.105 Y-28.433
N17955 X-0.248 Y-28.228
N17960 X-0.285 Y-28.172
N17965 X-0.398 Y-27.963
N17970 X-0.458 Y-27.84
N17975 X-0.493 Y-27.754
N17980 X-0.575 Y-27.545
N17985 X-0.638 Y-27.336
N17990 X-0.684 Y-27.126
N17995 X-0.713 Y-26.917
N18000 X-0.728 Y-26.708
N18005 X-0.84 Y-25.793
N18010 X-0.89 Y-24.871
N18015 X-0.924 Y-23.949
N18020 X-0.947 Y-23.027
N18025 X-0.962 Y-22.105
N18030 X-0.972 Y-21.182
N18035 X-0.978 Y-20.259
N18040 X-0.982 Y-19.337
N18045 X-0.986 Y-17.492
N18050 X-0.989 Y-13.801
N18055 X-0.991 Y-3.653
N18060 X-0.935 Y-2.732
N18065 X-0.632 Y-1.86
N18070 X-0.106 Y-1.102
N18075 X0.584 Y-0.49
N18080 X1.331 Y-0.054
N18085 X1.387 Y-0.02
N18090 X1.442 Y0.016
N18095 X1.496 Y0.054
N18100 X1.635 Y0.155
N18105 X1.844 Y0.293
N18110 X2.054 Y0.405
N18115 X2.189 Y0.472
N18120 X2.263 Y0.501
N18125 X2.472 Y0.581
N18130 X2.841 Y0.681
N18135 X2.891 Y0.691
N18140 X3.1 Y0.719
N18145 X3.309 Y0.73
N18150 X4.227 Y0.827
N18155 X5.148 Y0.871
N18160 X6.07 Y0.903
N18165 X6.993 Y0.924
N18170 X7.915 Y0.938
N18175 X8.838 Y0.947
N18180 X9.76 Y0.953
N18185 X10.683 Y0.957
N18190 X12.528 Y0.961
N18195 X16.218 Y0.964
N18200 X54.045 Y0.973
N18205 X61.426 Y0.975
N18210 X62.346 Y0.903
N18215 X63.212 Y0.585
N18220 X63.961 Y0.046
N18225 X64.563 Y-0.653
N18230 X65.019 Y-1.455
N18235 X65.347 Y-2.317
N18240 X65.574 Y-3.211
N18245 X65.724 Y-4.121
N18250 X65.822 Y-5.039
N18255 X65.884 Y-5.959
N18260 X65.922 Y-6.881
N18265 X65.946 Y-7.804
N18270 X65.961 Y-8.726
N18275 X65.97 Y-9.649
N18280 X65.976 Y-10.571
N18285 X65.979 Y-11.494
N18290 X65.983 Y-13.339
N18295 X65.986 Y-17.952
N18300 X65.99 Y-26.255
N18305 X65.948 Y-27.177
N18310 X65.671 Y-28.057
N18315 X65.165 Y-28.828
N18320 X64.488 Y-29.455
N18325 X63.699 Y-29.934
N18330 X62.845 Y-30.282
N18335 X61.954 Y-30.523
N18340 X61.046 Y-30.685
N18345 X60.129 Y-30.789
N18350 X59.209 Y-30.856
N18355 X58.287 Y-30.898
N18360 X57.365 Y-30.923
N18365 X56.443 Y-30.939
N18370 X55.52 Y-30.948
N18375 X54.598 Y-30.954
N18380 X53.675 Y-30.958
N18385 X52.752 Y-30.95
N18390 X51.832 Y-30.89
N18395 X50.915 Y-30.783
N18400 X50.469 Y-30.718
N18405 X50.304 Y-30.701
N18410 X50.138 Y-30.699
N18415 X49.973 Y-30.711
N18420 X49.763 Y-30.737
N18425 X49.554 Y-30.748
N18430 X49.345 Y-30.75
N18435 X3.728
N18440 X3.518 Y-30.742
N18445 X3.1 Y-30.719
N18450 X2.891 Y-30.691
N18455 X2.841 Y-30.681
N18460 X2.472 Y-30.581
N18465 X2.263 Y-30.501
N18470 X2.189 Y-30.472
N18475 X2.054 Y-30.405
N18480 X1.844 Y-30.293
N18485 X1.635 Y-30.155
N18490 X1.496 Y-30.054
N18495 X1.426 Y-29.995
N18500 X1.251 Y-29.844
N18505 X0.798 Y-29.394
N18510 X0.203 Y-28.799
N18515 X0.17 Y-28.764
N18520 X-0.039 Y-28.527
N18525 X-0.105 Y-28.433
N18530 X-0.118 Y-28.418
N18535 X-0.241 Y-28.29
N18540 G2 X-0.522 Y-27.813 I1.13 J0.987
N18545 G1 X-0.532 Y-27.783
N18550 X-0.641 Y-27.481
N18555 X-0.652 Y-27.451
N18560 G2 X-0.741 Y-26.904 I1.411 J0.509
N18565 G1 X-0.729 Y-26.727
N18570 X-0.728 Y-26.708
N18575 X-0.743 Y-26.499
N18580 X-0.75 Y-26.29
N18585 Y-3.71
N18590 X-0.743 Y-3.501
N18595 X-0.713 Y-3.083
N18600 X-0.684 Y-2.874
N18605 X-0.638 Y-2.664
N18610 X-0.575 Y-2.455
N18615 X-0.493 Y-2.246
N18620 X-0.458 Y-2.16
N18625 X-0.398 Y-2.037
N18630 X-0.285 Y-1.828
N18635 X-0.248 Y-1.772
N18640 X-0.039 Y-1.473
N18645 X0.17 Y-1.236
N18650 X0.203 Y-1.201
N18655 X0.83 Y-0.574
N18660 X1.251 Y-0.156
N18665 X1.426 Y-0.005
N18670 X1.496 Y0.054
N18675 X1.51 Y0.068
N18680 X1.618 Y0.19
N18685 G2 X2.17 Y0.552 I1.078 J-1.043
N18690 G1 X2.468 Y0.664
N18695 G2 X3.123 Y0.753 I0.526 J-1.405
N18700 G1 X3.284 Y0.732
N18705 X3.309 Y0.73
N18710 X3.518 Y0.742
N18715 X3.728 Y0.75
N18720 X49.345
N18725 X49.554 Y0.748
N18730 X49.763 Y0.737
N18735 X49.973 Y0.711
N18740 X50.162 Y0.681
N18745 X50.391 Y0.623
N18750 X50.6 Y0.554
N18755 X50.677 Y0.529
N18760 X50.913 Y0.458
N18765 X51.212 Y0.383
N18770 X51.599 Y0.303
N18775 X52.121 Y0.219
N18780 X52.876 Y0.131
N18785 X53.796 Y0.063
N18790 X54.718 Y0.026
