%
(CLAMP_80_S2_V1)
(T1  D=6. CR=0. TAPER=45DEG - ZMIN=10.5 - CHAMFER MILL)
(T17  D=6. CR=0. - ZMIN=12. - BULLNOSE END MILL)
N10 G90 G94 G17 G91.1
N15 G21
N20 G53 G0 Z0.
(FACE4)
N25 T17 M6
N30 S12000 M3
N35 G54
N40 M8
N45 G0 X80.955 Y6.4
N50 G43 Z29.7 H17
N55 G0 Z19.7
N60 G1 Z12.6 F400.
N65 G19 G2 Y5.8 Z12. J-0.6 K0. F1440.
N70 G1 Y5.51
N75 Y-30.51
N80 G17 G2 X76.952 I-2.002 J0.
N85 G1 Y5.51
N90 G3 X72.949 I-2.002 J0.
N95 G1 Y-30.51
N100 G2 X68.945 I-2.002 J0.
N105 G1 Y5.51
N110 G3 X64.942 I-2.002 J0.
N115 G1 Y-30.51
N120 G2 X60.939 I-2.002 J0.
N125 G1 Y5.51
N130 G3 X56.936 I-2.002 J0.
N135 G1 Y-30.51
N140 G2 X52.933 I-2.002 J0.
N145 G1 Y5.51
N150 G3 X48.93 I-2.002 J0.
N155 G1 Y-30.51
N160 G2 X44.927 I-2.002 J0.
N165 G1 Y5.51
N170 G3 X40.923 I-2.002 J0.
N175 G1 Y-30.51
N180 G2 X36.92 I-2.002 J0.
N185 G1 Y5.51
N190 G3 X32.917 I-2.002 J0.
N195 G1 Y-30.51
N200 G2 X28.914 I-2.002 J0.
N205 G1 Y5.51
N210 G3 X24.911 I-2.002 J0.
N215 G1 Y-30.51
N220 G2 X20.908 I-2.002 J0.
N225 G1 Y5.51
N230 G3 X16.905 I-2.002 J0.
N235 G1 Y-30.51
N240 G2 X12.901 I-2.002 J0.
N245 G1 Y5.51
N250 G3 X8.898 I-2.002 J0.
N255 G1 Y-30.51
N260 G2 X4.895 I-2.002 J0.
N265 G1 Y5.51
N270 G3 X0.892 I-2.002 J0.
N275 G1 Y-30.51
N280 G19 G2 Y-31.11 Z12.6 J0. K0.6
N285 G0 Z29.7
N290 G17
N295 M5
N300 G53 G0 Z0.
(2D CHAMFER2)
N305 M9
N310 T1 M6
N315 S18000 M3
N320 G54
N325 M8
N330 G0 X25. Y-15.1
N335 G43 Z29.7 H1
N340 G0 Z19.7
N345 G1 Z16.7 F500.
N350 Z10.5
N355 Y-15.7 F1500.
N360 X62.
N365 G3 Y-9.3 I0. J3.2
N370 G1 X25.
N375 G3 Y-15.7 I0. J-3.2
N380 G1 Y-15.1
N385 G0 Z19.7
N390 X-1.65 Y-12.5
N395 G1 Z16.7 F500.
N400 Z10.5
N405 X-1.05 F1500.
N410 Y-1.
N415 G2 X-0.742 Y-0.258 I1.05 J0.
N420 G1 X0.258 Y0.742
N425 G2 X1. Y1.05 I0.742 J-0.742
N430 G1 X67.
N435 G2 X67.525 Y0.909 I0. J-1.05
N440 G1 X80.092 Y-6.341
N445 G2 X80.476 Y-6.725 I-0.525 J-0.909
N450 G1 X80.909 Y-7.475
N455 G2 X81.05 Y-8. I-0.909 J-0.525
N460 G1 Y-17.
N465 G2 X80.909 Y-17.525 I-1.05 J0.
N470 G1 X80.476 Y-18.275
N475 G2 X80.092 Y-18.659 I-0.909 J0.525
N480 G1 X67.525 Y-25.909
N485 G2 X67. Y-26.05 I-0.525 J0.909
N490 G1 X1.
N495 G2 X0.258 Y-25.742 I0. J1.05
N500 G1 X-0.742 Y-24.742
N505 G2 X-1.05 Y-24. I0.742 J0.742
N510 G1 Y-12.5
N515 X-1.65
N520 G0 Z19.7
N525 X8.07 Y-14.238
N530 G1 Z16.7 F500.
N535 Z10.5
N540 X8.094 Y-14.838 F1500.
N545 G3 X10.34 Y-12.5 I-0.093 J2.338
N550 X5.66 I-2.34 J0.
N555 X8.094 Y-14.838 I2.34 J0.
N560 G1 X8.07 Y-14.238
N565 G0 Z29.7
N570 M9
N575 G53 Z0.
N580 M30
%
