%
(CLAMP_S2_V10)
(T1  D=6. CR=0. TAPER=45DEG - ZMIN=10.5 - CHAMFER MILL)
(T16  D=6. CR=0.5 - ZMIN=12. - BULLNOSE END MILL)
N10 G90 G94 G17 G91.1
N15 G21
N20 G53 G0 Z0.
(FACE4)
N25 T16 M6
N30 S16000 M3
N35 G54
N40 M8
N45 G0 X66.4 Y-27.07
N50 G43 Z29.6 H16
N55 G0 Z19.6
N60 G1 Z12.6 F400.
N65 G18 G3 X65.8 Z12. I-0.6 K0.
N70 G1 X65.51
N75 X-5.51 F1300.
N80 G17 G2 Y-23.675 I0. J1.698
N85 G1 X65.51
N90 G3 Y-20.28 I0. J1.697
N95 G1 X-5.51
N100 G2 Y-16.885 I0. J1.698
N105 G1 X65.51
N110 G3 Y-13.49 I0. J1.698
N115 G1 X-5.51
N120 G2 Y-10.095 I0. J1.698
N125 G1 X65.51
N130 G3 Y-6.7 I0. J1.698
N135 G1 X-5.51
N140 G2 Y-3.305 I0. J1.697
N145 G1 X65.51
N150 G3 Y0.09 I0. J1.698
N155 G1 X-5.51
N160 G18 G3 X-6.11 Z12.6 I0. K0.6 F400.
N165 G0 Z29.6
N170 G17
N175 M5
N180 G53 G0 Z0.
(2D CHAMFER2)
N185 M9
N190 T1 M6
N195 S18000 M3
N200 G54
N205 M8
N210 G0 X25. Y-15.1
N215 G43 Z29.6 H1
N220 G0 Z19.6
N225 G1 Z16.6 F500.
N230 Z10.5
N235 Y-15.7 F1500.
N240 X42.
N245 G3 Y-9.3 I0. J3.2
N250 G1 X25.
N255 G3 Y-15.7 I0. J-3.2
N260 G1 Y-15.1
N265 G0 Z19.6
N270 X-1.65 Y-12.5
N275 G1 Z16.6 F500.
N280 Z10.5
N285 X-1.05 F1500.
N290 Y-1.
N295 G2 X-0.742 Y-0.258 I1.05 J0.
N300 G1 X0.258 Y0.742
N305 G2 X1. Y1.05 I0.742 J-0.742
N310 G1 X47.
N315 G2 X47.525 Y0.909 I0. J-1.05
N320 G1 X60.092 Y-6.341
N325 G2 X60.476 Y-6.725 I-0.525 J-0.909
N330 G1 X60.909 Y-7.475
N335 G2 X61.05 Y-8. I-0.909 J-0.525
N340 G1 Y-17.
N345 G2 X60.909 Y-17.525 I-1.05 J0.
N350 G1 X60.476 Y-18.275
N355 G2 X60.092 Y-18.659 I-0.909 J0.525
N360 G1 X47.525 Y-25.909
N365 G2 X47. Y-26.05 I-0.525 J0.909
N370 G1 X1.
N375 G2 X0.258 Y-25.742 I0. J1.05
N380 G1 X-0.742 Y-24.742
N385 G2 X-1.05 Y-24. I0.742 J0.742
N390 G1 Y-12.5
N395 X-1.65
N400 G0 Z19.6
N405 X8.07 Y-14.238
N410 G1 Z16.6 F500.
N415 Z10.5
N420 X8.094 Y-14.838 F1500.
N425 G3 X10.34 Y-12.5 I-0.093 J2.338
N430 X5.66 I-2.34 J0.
N435 X8.094 Y-14.838 I2.34 J0.
N440 G1 X8.07 Y-14.238
N445 G0 Z29.6
N450 M9
N455 G53 Z0.
N460 M30
%
