%
(CLAMP_60MM)
(T1  D=6. CR=0. TAPER=45DEG - ZMIN=-2.5 - CHAMFER MILL)
(T11  D=4. CR=0. TAPER=118DEG - ZMIN=-15.202 - DRILL)
(T16  D=6. CR=0.5 - ZMIN=-14. - BULLNOSE END MILL)
N10 G90 G94 G17 G91.1
N15 G21
N20 G53 G0 Z0.
(FACE2)
N25 T16 M6
N30 T11
N35 S18568 M3
N40 G54
N45 M8
N50 G0 X8.145 Y-18.449
N55 G43 Z15. H16
N60 G0 Z5.
N65 G1 Z-0.4 F1800.
N70 G18 G3 X7.545 Z-1. I-0.6 K0.
N75 G1 X4.979
N80 X-69.979
N85 X-70.
N90 G17 G2 Y-13.946 I0. J2.252
N95 G1 X5.
N100 G3 Y-9.443 I0. J2.252
N105 G1 X-70.
N110 G2 Y-4.939 I0. J2.252
N115 G1 X5.
N120 G3 Y-0.436 I0. J2.252
N125 G1 X-70.
N130 G2 Y4.068 I0. J2.252
N135 G1 X5.
N140 G3 Y8.571 I0. J2.252
N145 G1 X-70.
N150 G2 Y13.074 I0. J2.252
N155 G1 X5.
N160 G3 Y17.577 I0. J2.252
N165 G1 X-70.
N170 G18 G3 X-70.6 Z-0.4 I0. K0.6
N175 G0 Z15.
N180 G17
(POCKET1)
N185 G0 X-25.81 Y-0.3
N190 Z15.
N195 Z2.
N200 G1 Z1.05 F400.
N205 S14000
N210 X-17.001 Z0.871
N215 G3 Y0.3 I0. J0.3
N220 G1 X-40.721 Z0.391
N225 G3 Y-0.3 I0. J-0.3
N230 G1 X-17.001 Z-0.09
N235 G3 Y0.3 I0. J0.3
N240 G1 X-37.206 Z-0.5
N245 G2 X-38.578 Y1.222 I0. J1.481
N250 G1 X-38.967 Y2.179
N255 G2 X-37.804 Y4.203 I1.371 J0.558
N260 S18568
N265 G1 X-37.507 Y4.245 F1800.
N270 X-20.492
N275 X-19.41 Y4.093
N280 X-19.313 Y4.076
N285 X-19.277 Y4.064
N290 X-18.253 Y3.598
N295 X-18.214 Y3.578
N300 X-17.305 Y2.795
N305 X-17.28 Y2.769
N310 X-17.036 Y2.391
N315 X-16.639 Y1.763
N320 X-16.628 Y1.738
N325 X-16.299 Y0.613
N330 X-16.295 Y0.576
N335 X-16.299 Y-0.611
N340 X-16.3 Y-0.617
N345 X-16.634 Y-1.76
N350 X-16.646 Y-1.782
N355 X-17.28 Y-2.769
N360 X-17.305 Y-2.795
N365 X-18.215 Y-3.58
N370 X-19.185 Y-4.024
N375 X-19.297 Y-4.072
N380 X-19.324 Y-4.079
N385 X-20.493 Y-4.245
N390 X-37.508
N395 X-38.59 Y-4.093
N400 X-38.687 Y-4.076
N405 X-38.723 Y-4.064
N410 X-39.747 Y-3.598
N415 X-39.786 Y-3.578
N420 X-40.695 Y-2.795
N425 X-40.72 Y-2.769
N430 X-41.322 Y-1.834
N435 X-41.353 Y-1.782
N440 X-41.372 Y-1.738
N445 X-41.701 Y-0.613
N450 X-41.705 Y-0.576
N455 X-41.701 Y0.611
N460 X-41.7 Y0.617
N465 X-41.366 Y1.76
N470 X-41.354 Y1.782
N475 X-40.72 Y2.769
N480 X-40.695 Y2.795
N485 X-39.785 Y3.58
N490 X-38.815 Y4.024
N495 X-38.703 Y4.072
N500 X-38.676 Y4.079
N505 X-37.804 Y4.203
N510 G2 X-35.395 Y2.867 I0.321 J-2.26
N515 G3 X-33.086 Y1.364 I2.309 J1.022
N520 G1 X-20.693
N525 X-20.486 Y1.345
N530 X-20.279 Y1.319
N535 G2 X-19.971 Y1.23 I-0.155 J-1.107
N540 G1 X-19.926 Y1.209
N545 G2 X-19.659 Y1.038 I-0.463 J-1.017
N550 G1 X-19.598 Y0.986
N555 G2 X-19.383 Y0.736 I-0.729 J-0.847
N560 G1 X-19.329 Y0.644
N565 X-19.283 Y0.549
N570 X-19.243 Y0.45
N575 X-19.21 Y0.349
N580 G2 X-19.165 Y0.031 I-1.073 J-0.314
N585 X-19.228 Y-0.411 I-1.567 J-0.001
N590 X-19.36 Y-0.701 I-1.073 J0.314
N595 G1 X-19.387 Y-0.743
N600 G2 X-19.598 Y-0.985 I-0.94 J0.604
N605 G1 X-19.683 Y-1.055
N610 X-19.773 Y-1.119
N615 X-19.866 Y-1.177
N620 X-19.964 Y-1.226
N625 G2 X-20.272 Y-1.317 I-0.466 J1.016
N630 G1 X-20.484 Y-1.344
N635 X-20.697 Y-1.364
N640 X-37.307
N645 X-37.514 Y-1.345
N650 X-37.721 Y-1.319
N655 G2 X-38.029 Y-1.23 I0.155 J1.107
N660 G1 X-38.074 Y-1.209
N665 G2 X-38.341 Y-1.038 I0.463 J1.017
N670 G1 X-38.403 Y-0.984
N675 G2 X-38.613 Y-0.743 I0.729 J0.847
N680 G1 X-38.639 Y-0.703
N685 G2 X-38.772 Y-0.412 I0.94 J0.605
N690 G1 X-38.79 Y-0.349
N695 G2 X-38.835 Y-0.031 I1.073 J0.314
N700 X-38.772 Y0.411 I1.567 J0.001
N705 X-38.64 Y0.701 I1.073 J-0.314
N710 G1 X-38.613 Y0.743
N715 G2 X-38.402 Y0.985 I0.94 J-0.604
N720 G1 X-38.317 Y1.055
N725 X-38.227 Y1.119
N730 X-38.134 Y1.177
N735 X-38.036 Y1.226
N740 G2 X-37.728 Y1.317 I0.466 J-1.016
N745 G1 X-37.516 Y1.344
N750 X-37.303 Y1.364
N755 X-33.086
N760 X-33.042 Y1.357
N765 X-33.002 Y1.338
N770 X-32.97 Y1.307
N775 X-32.949 Y1.268
N780 X-32.94 Y1.225
N785 X-32.91 Y0.588
N790 X-32.905 Y0.559
N795 X-32.895 Y0.532
N800 X-32.885 Y0.504
N805 X-32.881 Y0.475
N810 X-32.85 Y-0.161
N815 X-32.842 Y-0.204
N820 X-32.82 Y-0.243
N825 X-32.788 Y-0.274
N830 X-32.748 Y-0.293
N835 X-32.705 Y-0.3
N840 S14000
N845 X-20.812 Z-0.915 F400.
N850 G3 Y0.3 I0. J0.3
N855 G1 X-37.379 Z-1.494
N860 G3 Y-0.3 I0. J-0.3
N865 G1 X-37.202 Z-1.5
N870 X-37.164 Y-0.307
N875 X-37.13 Y-0.326
N880 X-37.105 Y-0.356
N885 X-37.092 Y-0.393
N890 Y-0.432
N895 X-37.105 Y-0.468
N900 X-37.13 Y-0.498
N905 X-37.164 Y-0.518
N910 X-37.202 Y-0.524
N915 X-37.24 Y-0.531
N920 X-37.274 Y-0.551
N925 X-37.299 Y-0.58
N930 X-37.313 Y-0.617
N935 Y-0.656
N940 X-37.299 Y-0.693
N945 X-37.274 Y-0.723
N950 X-37.24 Y-0.742
N955 X-37.202 Y-0.749
N960 S18568
N965 X-20.744 F1800.
N970 X-20.294 Y-0.683
N975 X-20.114 Y-0.601
N980 X-19.96 Y-0.467
N985 X-19.854 Y-0.302
N990 X-19.793 Y-0.089
N995 Y0.089
N1000 X-19.854 Y0.302
N1005 X-19.96 Y0.467
N1010 X-20.114 Y0.601
N1015 X-20.294 Y0.683
N1020 X-20.744 Y0.749
N1025 X-37.256
N1030 X-37.706 Y0.683
N1035 X-37.886 Y0.601
N1040 X-38.04 Y0.467
N1045 X-38.146 Y0.302
N1050 X-38.207 Y0.089
N1055 Y-0.089
N1060 X-38.146 Y-0.302
N1065 X-38.049 Y-0.454
N1070 X-38.04 Y-0.467
N1075 X-37.886 Y-0.601
N1080 X-37.706 Y-0.683
N1085 X-37.256 Y-0.749
N1090 X-37.202
N1095 X-37.14 Y-0.741
N1100 X-37.082 Y-0.718
N1105 X-37.031 Y-0.681
N1110 X-36.991 Y-0.633
N1115 X-36.664 Y-0.116
N1120 X-36.624 Y-0.068
N1125 X-36.574 Y-0.031
N1130 X-36.515 Y-0.008
N1135 X-36.453 Y0.
N1140 X-33.358
N1145 X-33.325 Y-0.006
N1150 X-33.296 Y-0.022
N1155 X-33.274 Y-0.047
N1160 X-33.143 Y-0.253
N1165 X-33.121 Y-0.278
N1170 X-33.091 Y-0.294
N1175 X-33.058 Y-0.3
N1180 S14000
N1185 X-20.812 Z-1.928 F400.
N1190 G3 Y0.3 I0. J0.3
N1195 G1 X-37.202 Z-2.5
N1200 X-37.242 Y0.307
N1205 X-37.276 Y0.328
N1210 X-37.302 Y0.359
N1215 X-37.314 Y0.397
N1220 X-37.313 Y0.437
N1225 X-37.298 Y0.474
N1230 X-37.27 Y0.504
N1235 X-37.226 Y0.538
N1240 X-37.2 Y0.565
N1245 X-37.184 Y0.599
N1250 X-37.181 Y0.636
N1255 X-37.189 Y0.672
N1260 X-37.209 Y0.704
N1265 X-37.238 Y0.727
N1270 X-37.273 Y0.74
N1275 X-37.31 Y0.741
N1280 S18568
N1285 X-37.706 Y0.683 F1800.
N1290 X-37.886 Y0.601
N1295 X-38.04 Y0.467
N1300 X-38.146 Y0.302
N1305 X-38.207 Y0.089
N1310 Y-0.089
N1315 X-38.146 Y-0.302
N1320 X-38.049 Y-0.454
N1325 X-38.04 Y-0.467
N1330 X-37.886 Y-0.601
N1335 X-37.706 Y-0.683
N1340 X-37.256 Y-0.749
N1345 X-20.744
N1350 X-20.294 Y-0.683
N1355 X-20.114 Y-0.601
N1360 X-19.96 Y-0.467
N1365 X-19.854 Y-0.302
N1370 X-19.793 Y-0.089
N1375 Y0.089
N1380 X-19.854 Y0.302
N1385 X-19.96 Y0.467
N1390 X-20.114 Y0.601
N1395 X-20.294 Y0.683
N1400 X-20.744 Y0.749
N1405 X-37.256
N1410 X-37.31 Y0.741
N1415 G3 X-37.345 Y0.255 I0.036 J-0.247
N1420 G1 X-36.525 Y0.01
N1425 X-36.489 Y0.003
N1430 X-36.453 Y0.
N1435 X-33.358
N1440 X-33.325 Y-0.006
N1445 X-33.296 Y-0.022
N1450 X-33.274 Y-0.047
N1455 X-33.143 Y-0.253
N1460 X-33.121 Y-0.278
N1465 X-33.091 Y-0.294
N1470 X-33.058 Y-0.3
N1475 S14000
N1480 X-20.812 Z-2.928 F400.
N1485 G3 Y0.3 I0. J0.3
N1490 G1 X-37.202 Z-3.5
N1495 X-37.242 Y0.307
N1500 X-37.276 Y0.328
N1505 X-37.302 Y0.359
N1510 X-37.314 Y0.397
N1515 X-37.313 Y0.437
N1520 X-37.298 Y0.474
N1525 X-37.27 Y0.504
N1530 X-37.226 Y0.538
N1535 X-37.2 Y0.565
N1540 X-37.184 Y0.599
N1545 X-37.181 Y0.636
N1550 X-37.189 Y0.672
N1555 X-37.209 Y0.704
N1560 X-37.238 Y0.727
N1565 X-37.273 Y0.74
N1570 X-37.31 Y0.741
N1575 S18568
N1580 X-37.706 Y0.683 F1800.
N1585 X-37.886 Y0.601
N1590 X-38.04 Y0.467
N1595 X-38.146 Y0.302
N1600 X-38.207 Y0.089
N1605 Y-0.089
N1610 X-38.146 Y-0.302
N1615 X-38.049 Y-0.454
N1620 X-38.04 Y-0.467
N1625 X-37.886 Y-0.601
N1630 X-37.706 Y-0.683
N1635 X-37.256 Y-0.749
N1640 X-20.744
N1645 X-20.294 Y-0.683
N1650 X-20.114 Y-0.601
N1655 X-19.96 Y-0.467
N1660 X-19.854 Y-0.302
N1665 X-19.793 Y-0.089
N1670 Y0.089
N1675 X-19.854 Y0.302
N1680 X-19.96 Y0.467
N1685 X-20.114 Y0.601
N1690 X-20.294 Y0.683
N1695 X-20.744 Y0.749
N1700 X-37.256
N1705 X-37.31 Y0.741
N1710 G3 X-37.345 Y0.255 I0.036 J-0.247
N1715 G1 X-36.525 Y0.01
N1720 X-36.489 Y0.003
N1725 X-36.453 Y0.
N1730 X-33.358
N1735 X-33.325 Y-0.006
N1740 X-33.296 Y-0.022
N1745 X-33.274 Y-0.047
N1750 X-33.143 Y-0.253
N1755 X-33.121 Y-0.278
N1760 X-33.091 Y-0.294
N1765 X-33.058 Y-0.3
N1770 S14000
N1775 X-20.812 Z-3.928 F400.
N1780 G3 Y0.3 I0. J0.3
N1785 G1 X-37.202 Z-4.5
N1790 X-37.242 Y0.307
N1795 X-37.276 Y0.328
N1800 X-37.302 Y0.359
N1805 X-37.314 Y0.397
N1810 X-37.313 Y0.437
N1815 X-37.298 Y0.474
N1820 X-37.27 Y0.504
N1825 X-37.226 Y0.538
N1830 X-37.2 Y0.565
N1835 X-37.184 Y0.599
N1840 X-37.181 Y0.636
N1845 X-37.189 Y0.672
N1850 X-37.209 Y0.704
N1855 X-37.238 Y0.727
N1860 X-37.273 Y0.74
N1865 X-37.31 Y0.741
N1870 S18568
N1875 X-37.706 Y0.683 F1800.
N1880 X-37.886 Y0.601
N1885 X-38.04 Y0.467
N1890 X-38.146 Y0.302
N1895 X-38.207 Y0.089
N1900 Y-0.089
N1905 X-38.146 Y-0.302
N1910 X-38.049 Y-0.454
N1915 X-38.04 Y-0.467
N1920 X-37.886 Y-0.601
N1925 X-37.706 Y-0.683
N1930 X-37.256 Y-0.749
N1935 X-20.744
N1940 X-20.294 Y-0.683
N1945 X-20.114 Y-0.601
N1950 X-19.96 Y-0.467
N1955 X-19.854 Y-0.302
N1960 X-19.793 Y-0.089
N1965 Y0.089
N1970 X-19.854 Y0.302
N1975 X-19.96 Y0.467
N1980 X-20.114 Y0.601
N1985 X-20.294 Y0.683
N1990 X-20.744 Y0.749
N1995 X-37.256
N2000 X-37.31 Y0.741
N2005 G3 X-37.298 Y0.146 I0.043 J-0.297
N2010 G1 X-33.09 Y-0.298
N2015 X-33.058 Y-0.3
N2020 S14000
N2025 X-20.812 Z-4.928 F400.
N2030 G3 Y0.3 I0. J0.3
N2035 G1 X-37.202 Z-5.5
N2040 X-37.242 Y0.307
N2045 X-37.276 Y0.328
N2050 X-37.302 Y0.359
N2055 X-37.314 Y0.397
N2060 X-37.313 Y0.437
N2065 X-37.298 Y0.474
N2070 X-37.27 Y0.504
N2075 X-37.226 Y0.538
N2080 X-37.2 Y0.565
N2085 X-37.184 Y0.599
N2090 X-37.181 Y0.636
N2095 X-37.189 Y0.672
N2100 X-37.209 Y0.704
N2105 X-37.238 Y0.727
N2110 X-37.273 Y0.74
N2115 X-37.31 Y0.741
N2120 S18568
N2125 X-37.706 Y0.683 F1800.
N2130 X-37.886 Y0.601
N2135 X-38.04 Y0.467
N2140 X-38.146 Y0.302
N2145 X-38.207 Y0.089
N2150 Y-0.089
N2155 X-38.146 Y-0.302
N2160 X-38.049 Y-0.454
N2165 X-38.04 Y-0.467
N2170 X-37.886 Y-0.601
N2175 X-37.706 Y-0.683
N2180 X-37.256 Y-0.749
N2185 X-20.744
N2190 X-20.294 Y-0.683
N2195 X-20.114 Y-0.601
N2200 X-19.96 Y-0.467
N2205 X-19.854 Y-0.302
N2210 X-19.793 Y-0.089
N2215 Y0.089
N2220 X-19.854 Y0.302
N2225 X-19.96 Y0.467
N2230 X-20.114 Y0.601
N2235 X-20.294 Y0.683
N2240 X-20.744 Y0.749
N2245 X-37.256
N2250 X-37.31 Y0.741
N2255 G3 X-37.298 Y0.146 I0.043 J-0.297
N2260 G1 X-33.09 Y-0.298
N2265 X-33.058 Y-0.3
N2270 S14000
N2275 X-20.812 Z-5.928 F400.
N2280 G3 Y0.3 I0. J0.3
N2285 G1 X-37.202 Z-6.5
N2290 X-37.242 Y0.307
N2295 X-37.276 Y0.328
N2300 X-37.302 Y0.359
N2305 X-37.314 Y0.397
N2310 X-37.313 Y0.437
N2315 X-37.298 Y0.474
N2320 X-37.27 Y0.504
N2325 X-37.226 Y0.538
N2330 X-37.2 Y0.565
N2335 X-37.184 Y0.599
N2340 X-37.181 Y0.636
N2345 X-37.189 Y0.672
N2350 X-37.209 Y0.704
N2355 X-37.238 Y0.727
N2360 X-37.273 Y0.74
N2365 X-37.31 Y0.741
N2370 S18568
N2375 X-37.706 Y0.683 F1800.
N2380 X-37.886 Y0.601
N2385 X-38.04 Y0.467
N2390 X-38.146 Y0.302
N2395 X-38.207 Y0.089
N2400 Y-0.089
N2405 X-38.146 Y-0.302
N2410 X-38.049 Y-0.454
N2415 X-38.04 Y-0.467
N2420 X-37.886 Y-0.601
N2425 X-37.706 Y-0.683
N2430 X-37.256 Y-0.749
N2435 X-20.744
N2440 X-20.294 Y-0.683
N2445 X-20.114 Y-0.601
N2450 X-19.96 Y-0.467
N2455 X-19.854 Y-0.302
N2460 X-19.793 Y-0.089
N2465 Y0.089
N2470 X-19.854 Y0.302
N2475 X-19.96 Y0.467
N2480 X-20.114 Y0.601
N2485 X-20.294 Y0.683
N2490 X-20.744 Y0.749
N2495 X-37.256
N2500 X-37.31 Y0.741
N2505 G3 X-37.298 Y0.146 I0.043 J-0.297
N2510 G1 X-33.09 Y-0.298
N2515 X-33.058 Y-0.3
N2520 S14000
N2525 X-20.812 Z-6.928 F400.
N2530 G3 Y0.3 I0. J0.3
N2535 G1 X-37.202 Z-7.5
N2540 X-37.242 Y0.307
N2545 X-37.276 Y0.328
N2550 X-37.302 Y0.359
N2555 X-37.314 Y0.397
N2560 X-37.313 Y0.437
N2565 X-37.298 Y0.474
N2570 X-37.27 Y0.504
N2575 X-37.226 Y0.538
N2580 X-37.2 Y0.565
N2585 X-37.184 Y0.599
N2590 X-37.181 Y0.636
N2595 X-37.189 Y0.672
N2600 X-37.209 Y0.704
N2605 X-37.238 Y0.727
N2610 X-37.273 Y0.74
N2615 X-37.31 Y0.741
N2620 S18568
N2625 X-37.706 Y0.683 F1800.
N2630 X-37.886 Y0.601
N2635 X-38.04 Y0.467
N2640 X-38.146 Y0.302
N2645 X-38.207 Y0.089
N2650 Y-0.089
N2655 X-38.146 Y-0.302
N2660 X-38.049 Y-0.454
N2665 X-38.04 Y-0.467
N2670 X-37.886 Y-0.601
N2675 X-37.706 Y-0.683
N2680 X-37.256 Y-0.749
N2685 X-20.744
N2690 X-20.294 Y-0.683
N2695 X-20.114 Y-0.601
N2700 X-19.96 Y-0.467
N2705 X-19.854 Y-0.302
N2710 X-19.793 Y-0.089
N2715 Y0.089
N2720 X-19.854 Y0.302
N2725 X-19.96 Y0.467
N2730 X-20.114 Y0.601
N2735 X-20.294 Y0.683
N2740 X-20.744 Y0.749
N2745 X-37.256
N2750 X-37.31 Y0.741
N2755 G3 X-37.296 Y0.145 I0.043 J-0.297
N2760 G1 X-32.734 Y-0.299
N2765 X-32.705 Y-0.3
N2770 S14000
N2775 X-20.812 Z-7.915 F400.
N2780 G3 Y0.3 I0. J0.3
N2785 G1 X-37.379 Z-8.494
N2790 G3 Y-0.3 I0. J-0.3
N2795 G1 X-37.202 Z-8.5
N2800 X-37.164 Y-0.307
N2805 X-37.13 Y-0.326
N2810 X-37.105 Y-0.356
N2815 X-37.092 Y-0.393
N2820 Y-0.432
N2825 X-37.105 Y-0.468
N2830 X-37.13 Y-0.498
N2835 X-37.164 Y-0.518
N2840 X-37.202 Y-0.524
N2845 X-37.24 Y-0.531
N2850 X-37.274 Y-0.551
N2855 X-37.299 Y-0.58
N2860 X-37.313 Y-0.617
N2865 Y-0.656
N2870 X-37.299 Y-0.693
N2875 X-37.274 Y-0.722
N2880 X-37.24 Y-0.742
N2885 X-37.202 Y-0.749
N2890 S18568
N2895 X-20.744 F1800.
N2900 X-20.294 Y-0.683
N2905 X-20.114 Y-0.601
N2910 X-19.96 Y-0.467
N2915 X-19.854 Y-0.302
N2920 X-19.793 Y-0.089
N2925 Y0.089
N2930 X-19.854 Y0.302
N2935 X-19.96 Y0.467
N2940 X-20.114 Y0.601
N2945 X-20.294 Y0.683
N2950 X-20.744 Y0.749
N2955 X-37.256
N2960 X-37.706 Y0.683
N2965 X-37.886 Y0.601
N2970 X-38.04 Y0.467
N2975 X-38.146 Y0.302
N2980 X-38.207 Y0.089
N2985 Y-0.089
N2990 X-38.146 Y-0.302
N2995 X-38.049 Y-0.454
N3000 X-38.04 Y-0.467
N3005 X-37.886 Y-0.601
N3010 X-37.706 Y-0.683
N3015 X-37.256 Y-0.749
N3020 X-37.202
N3025 X-37.14 Y-0.741
N3030 X-37.082 Y-0.718
N3035 X-37.031 Y-0.681
N3040 X-36.991 Y-0.633
N3045 X-36.664 Y-0.116
N3050 X-36.624 Y-0.068
N3055 X-36.574 Y-0.031
N3060 X-36.515 Y-0.008
N3065 X-36.453 Y0.
N3070 X-33.358
N3075 X-33.325 Y-0.006
N3080 X-33.296 Y-0.022
N3085 X-33.274 Y-0.047
N3090 X-33.143 Y-0.253
N3095 X-33.121 Y-0.278
N3100 X-33.091 Y-0.294
N3105 X-33.058 Y-0.3
N3110 S14000
N3115 X-20.812 Z-8.928 F400.
N3120 G3 Y0.3 I0. J0.3
N3125 G1 X-37.202 Z-9.5
N3130 X-37.242 Y0.307
N3135 X-37.276 Y0.328
N3140 X-37.302 Y0.359
N3145 X-37.314 Y0.397
N3150 X-37.313 Y0.437
N3155 X-37.298 Y0.474
N3160 X-37.27 Y0.504
N3165 X-37.226 Y0.538
N3170 X-37.2 Y0.565
N3175 X-37.184 Y0.599
N3180 X-37.181 Y0.636
N3185 X-37.189 Y0.672
N3190 X-37.209 Y0.704
N3195 X-37.238 Y0.727
N3200 X-37.273 Y0.74
N3205 X-37.31 Y0.741
N3210 S18568
N3215 X-37.706 Y0.683 F1800.
N3220 X-37.886 Y0.601
N3225 X-38.04 Y0.467
N3230 X-38.146 Y0.302
N3235 X-38.207 Y0.089
N3240 Y-0.089
N3245 X-38.146 Y-0.302
N3250 X-38.049 Y-0.454
N3255 X-38.04 Y-0.467
N3260 X-37.886 Y-0.601
N3265 X-37.706 Y-0.683
N3270 X-37.256 Y-0.749
N3275 X-20.744
N3280 X-20.294 Y-0.683
N3285 X-20.114 Y-0.601
N3290 X-19.96 Y-0.467
N3295 X-19.854 Y-0.302
N3300 X-19.793 Y-0.089
N3305 Y0.089
N3310 X-19.854 Y0.302
N3315 X-19.96 Y0.467
N3320 X-20.114 Y0.601
N3325 X-20.294 Y0.683
N3330 X-20.744 Y0.749
N3335 X-37.256
N3340 X-37.31 Y0.741
N3345 G3 X-37.298 Y0.146 I0.043 J-0.297
N3350 G1 X-33.09 Y-0.298
N3355 X-33.058 Y-0.3
N3360 S14000
N3365 X-20.812 Z-9.928 F400.
N3370 G3 Y0.3 I0. J0.3
N3375 G1 X-37.202 Z-10.5
N3380 X-37.242 Y0.307
N3385 X-37.276 Y0.328
N3390 X-37.302 Y0.359
N3395 X-37.314 Y0.397
N3400 X-37.313 Y0.437
N3405 X-37.298 Y0.474
N3410 X-37.27 Y0.504
N3415 X-37.226 Y0.538
N3420 X-37.2 Y0.565
N3425 X-37.184 Y0.599
N3430 X-37.181 Y0.636
N3435 X-37.189 Y0.672
N3440 X-37.209 Y0.704
N3445 X-37.238 Y0.727
N3450 X-37.273 Y0.74
N3455 X-37.31 Y0.741
N3460 S18568
N3465 X-37.706 Y0.683 F1800.
N3470 X-37.886 Y0.601
N3475 X-38.04 Y0.467
N3480 X-38.146 Y0.302
N3485 X-38.207 Y0.089
N3490 Y-0.089
N3495 X-38.146 Y-0.302
N3500 X-38.049 Y-0.454
N3505 X-38.04 Y-0.467
N3510 X-37.886 Y-0.601
N3515 X-37.706 Y-0.683
N3520 X-37.256 Y-0.749
N3525 X-20.744
N3530 X-20.294 Y-0.683
N3535 X-20.114 Y-0.601
N3540 X-19.96 Y-0.467
N3545 X-19.854 Y-0.302
N3550 X-19.793 Y-0.089
N3555 Y0.089
N3560 X-19.854 Y0.302
N3565 X-19.96 Y0.467
N3570 X-20.114 Y0.601
N3575 X-20.294 Y0.683
N3580 X-20.744 Y0.749
N3585 X-37.256
N3590 X-37.31 Y0.741
N3595 G3 X-37.296 Y0.145 I0.043 J-0.297
N3600 G1 X-32.734 Y-0.299
N3605 X-32.705 Y-0.3
N3610 S14000
N3615 X-20.812 Z-10.915 F400.
N3620 G3 Y0.3 I0. J0.3
N3625 G1 X-37.379 Z-11.494
N3630 G3 Y-0.3 I0. J-0.3
N3635 G1 X-37.202 Z-11.5
N3640 X-37.164 Y-0.307
N3645 X-37.13 Y-0.326
N3650 X-37.105 Y-0.356
N3655 X-37.092 Y-0.393
N3660 Y-0.432
N3665 X-37.105 Y-0.468
N3670 X-37.13 Y-0.498
N3675 X-37.164 Y-0.518
N3680 X-37.202 Y-0.524
N3685 X-37.24 Y-0.531
N3690 X-37.274 Y-0.551
N3695 X-37.299 Y-0.58
N3700 X-37.313 Y-0.617
N3705 Y-0.656
N3710 X-37.299 Y-0.693
N3715 X-37.274 Y-0.722
N3720 X-37.24 Y-0.742
N3725 X-37.202 Y-0.749
N3730 S18568
N3735 X-20.744 F1800.
N3740 X-20.294 Y-0.683
N3745 X-20.114 Y-0.601
N3750 X-19.96 Y-0.467
N3755 X-19.854 Y-0.302
N3760 X-19.793 Y-0.089
N3765 Y0.089
N3770 X-19.854 Y0.302
N3775 X-19.96 Y0.467
N3780 X-20.114 Y0.601
N3785 X-20.294 Y0.683
N3790 X-20.744 Y0.749
N3795 X-37.256
N3800 X-37.706 Y0.683
N3805 X-37.886 Y0.601
N3810 X-38.04 Y0.467
N3815 X-38.146 Y0.302
N3820 X-38.207 Y0.089
N3825 Y-0.089
N3830 X-38.146 Y-0.302
N3835 X-38.049 Y-0.454
N3840 X-38.04 Y-0.467
N3845 X-37.886 Y-0.601
N3850 X-37.706 Y-0.683
N3855 X-37.256 Y-0.749
N3860 X-37.202
N3865 X-37.14 Y-0.741
N3870 X-37.082 Y-0.718
N3875 X-37.031 Y-0.681
N3880 X-36.991 Y-0.633
N3885 X-36.664 Y-0.116
N3890 X-36.624 Y-0.068
N3895 X-36.574 Y-0.031
N3900 X-36.515 Y-0.008
N3905 X-36.453 Y0.
N3910 X-33.358
N3915 X-33.325 Y-0.006
N3920 X-33.296 Y-0.022
N3925 X-33.274 Y-0.047
N3930 X-33.143 Y-0.253
N3935 X-33.121 Y-0.278
N3940 X-33.091 Y-0.294
N3945 X-33.058 Y-0.3
N3950 S14000
N3955 X-20.812 Z-11.928 F400.
N3960 G3 Y0.3 I0. J0.3
N3965 G1 X-37.202 Z-12.5
N3970 X-37.233
N3975 G3 X-37.31 Y-0.741 I-0.002 J-0.523
N3980 S18568
N3985 G1 X-37.256 Y-0.749 F1800.
N3990 X-20.744
N3995 X-20.294 Y-0.683
N4000 X-20.114 Y-0.601
N4005 X-19.96 Y-0.467
N4010 X-19.854 Y-0.302
N4015 X-19.793 Y-0.089
N4020 Y0.089
N4025 X-19.854 Y0.302
N4030 X-19.96 Y0.467
N4035 X-20.114 Y0.601
N4040 X-20.294 Y0.683
N4045 X-20.744 Y0.749
N4050 X-37.256
N4055 X-37.706 Y0.683
N4060 X-37.886 Y0.601
N4065 X-38.04 Y0.467
N4070 X-38.146 Y0.302
N4075 X-38.207 Y0.089
N4080 Y-0.089
N4085 X-38.146 Y-0.302
N4090 X-38.049 Y-0.454
N4095 X-38.04 Y-0.467
N4100 X-37.886 Y-0.601
N4105 X-37.706 Y-0.683
N4110 X-37.31 Y-0.741
N4115 X-37.273 Y-0.744
N4120 X-37.235 Y-0.742
N4125 X-33.09 Y-0.302
N4130 X-33.058 Y-0.3
N4135 S14000
N4140 X-20.812 Z-12.928 F400.
N4145 G3 Y0.3 I0. J0.3
N4150 G1 X-37.202 Z-13.5
N4155 X-37.233
N4160 G3 X-37.31 Y-0.741 I-0.002 J-0.523
N4165 S18568
N4170 G1 X-37.256 Y-0.749 F1800.
N4175 X-20.744
N4180 X-20.294 Y-0.683
N4185 X-20.114 Y-0.601
N4190 X-19.96 Y-0.467
N4195 X-19.854 Y-0.302
N4200 X-19.793 Y-0.089
N4205 Y0.089
N4210 X-19.854 Y0.302
N4215 X-19.96 Y0.467
N4220 X-20.114 Y0.601
N4225 X-20.294 Y0.683
N4230 X-20.744 Y0.749
N4235 X-37.256
N4240 X-37.706 Y0.683
N4245 X-37.886 Y0.601
N4250 X-38.04 Y0.467
N4255 X-38.146 Y0.302
N4260 X-38.207 Y0.089
N4265 Y-0.089
N4270 X-38.146 Y-0.302
N4275 X-38.049 Y-0.454
N4280 X-38.04 Y-0.467
N4285 X-37.886 Y-0.601
N4290 X-37.706 Y-0.683
N4295 X-37.31 Y-0.741
N4300 X-37.244 Y-0.747 Z-13.492
N4305 X-37.177 Y-0.745 Z-13.485
N4310 X-37.114 Y-0.737 Z-13.463
N4315 X-37.053 Y-0.722 Z-13.441
N4320 X-36.999 Y-0.704 Z-13.405
N4325 X-36.947 Y-0.68 Z-13.369
N4330 X-36.867 Y-0.63 Z-13.274
N4335 X-36.812 Y-0.584 Z-13.16
N4340 X-36.781 Y-0.552 Z-13.034
N4345 X-36.771 Y-0.541 Z-12.9
N4350 G0 Z15.
(2D CONTOUR1)
N4355 G0 X-21.05 Y-0.6
N4360 Z15.
N4365 Z5.
N4370 G1 Z1. F400.
N4375 Z-13.4
N4380 G18 G2 X-20.45 Z-14. I0.6 K0. F1800.
N4385 G1 X-19.85
N4390 G17 G3 X-19.25 Y0. I0. J0.6
N4395 X-20.5 Y1.25 I-1.25 J0.
N4400 G1 X-37.5
N4405 G3 Y-1.25 I0. J-1.25
N4410 G1 X-20.5
N4415 G3 X-19.25 Y0. I0. J1.25
N4420 X-19.85 Y0.6 I-0.6 J0.
N4425 G1 X-20.45
N4430 G18 G3 X-21.05 Z-13.4 I0. K0.6
N4435 G0 Z15.
N4440 G17
(ADAPTIVE2)
N4445 G0 X-18.119 Y-21.935
N4450 Z15.
N4455 Z5.
N4460 Z-8.8
N4465 G1 Z-9.4 F1800.
N4470 X-18.117 Y-21.928 Z-9.494
N4475 X-18.111 Y-21.907 Z-9.585
N4480 X-18.102 Y-21.872 Z-9.672
N4485 X-18.09 Y-21.824 Z-9.753
N4490 X-18.075 Y-21.765 Z-9.824
N4495 X-18.057 Y-21.696 Z-9.885
N4500 X-18.037 Y-21.618 Z-9.935
N4505 X-18.016 Y-21.534 Z-9.971
N4510 X-17.993 Y-21.445 Z-9.993
N4515 X-17.97 Y-21.354 Z-10.
N4520 G3 X-17.5 Y-18.088 I-14.839 J3.801
N4525 G1 Y-17.91
N4530 X-17.602 Y-17.8
N4535 X-17.717 Y-17.704
N4540 X-17.839 Y-17.617
N4545 X-17.978 Y-17.532
N4550 X-18.065 Y-17.486
N4555 X-18.162 Y-17.437
N4560 X-18.379 Y-17.336
N4565 X-18.652 Y-17.228
N4570 X-18.998 Y-17.112
N4575 X-19.447 Y-16.99
N4580 X-20.052 Y-16.861
N4585 X-20.924 Y-16.726
N4590 X-21.877 Y-16.634
N4595 X-22.833 Y-16.577
N4600 X-23.79 Y-16.541
N4605 X-24.748 Y-16.519
N4610 X-25.705 Y-16.505
N4615 X-26.663 Y-16.496
N4620 X-27.621 Y-16.49
N4625 X-28.578 Y-16.487
N4630 X-30.494 Y-16.483
N4635 X-34.324 Y-16.48
N4640 X-63.055 Y-16.476
N4645 X-63.516 Y-16.345
N4650 X-64.342 Y-15.86
N4655 X-64.988 Y-15.153
N4660 X-65.466 Y-14.324
N4665 X-65.807 Y-13.428
N4670 X-66.041 Y-12.5
N4675 X-66.198 Y-11.555
N4680 X-66.301 Y-10.603
N4685 X-66.369 Y-9.647
N4690 X-66.412 Y-8.691
N4695 X-66.44 Y-7.733
N4700 X-66.457 Y-6.776
N4705 X-66.469 Y-5.818
N4710 X-66.476 Y-4.861
N4715 X-66.481 Y-3.903
N4720 X-66.484 Y-2.945
N4725 X-66.487 Y-1.03
N4730 X-66.49 Y3.759
N4735 X-66.491 Y12.378
N4740 X-66.486 Y12.857
N4745 X-66.378 Y13.323
N4750 X-65.965 Y14.187
N4755 X-65.287 Y14.864
N4760 X-64.474 Y15.369
N4765 X-63.587 Y15.731
N4770 X-62.662 Y15.981
N4775 X-61.72 Y16.149
N4780 X-60.769 Y16.261
N4785 X-59.814 Y16.333
N4790 X-58.857 Y16.38
N4795 X-57.9 Y16.41
N4800 X-56.942 Y16.429
N4805 X-55.985 Y16.442
N4810 X-55.027 Y16.45
N4815 X-54.069 Y16.455
N4820 X-53.112 Y16.458
N4825 X-51.196 Y16.461
N4830 X-47.365 Y16.464
N4835 X-43.535 Y16.465
N4840 X-2.354 Y16.475
N4845 X-1.881 Y16.4
N4850 X-1.426 Y16.249
N4855 X-0.615 Y15.741
N4860 X0.019 Y15.023
N4865 X0.487 Y14.187
N4870 X0.818 Y13.289
N4875 X1.046 Y12.358
N4880 X1.198 Y11.413
N4885 X1.299 Y10.46
N4890 X1.364 Y9.505
N4895 X1.406 Y8.548
N4900 X1.432 Y7.591
N4905 X1.45 Y6.633
N4910 X1.46 Y5.676
N4915 X1.467 Y4.718
N4920 X1.471 Y3.76
N4925 X1.474 Y2.803
N4930 X1.477 Y0.887
N4935 X1.479 Y-3.901
N4940 Y-12.521
N4945 X1.439 Y-12.998
N4950 X1.325 Y-13.463
N4955 X0.862 Y-14.301
N4960 X0.164 Y-14.956
N4965 X-0.661 Y-15.443
N4970 X-1.554 Y-15.79
N4975 X-2.482 Y-16.028
N4980 X-3.426 Y-16.189
N4985 X-4.378 Y-16.294
N4990 X-5.333 Y-16.363
N4995 X-6.29 Y-16.407
N5000 X-7.247 Y-16.435
N5005 X-8.204 Y-16.453
N5010 X-9.162 Y-16.464
N5015 X-10.12 Y-16.471
N5020 X-11.077 Y-16.476
N5025 X-12.035 Y-16.478
N5030 X-13.95 Y-16.481
N5035 X-14.908 Y-16.457
N5040 X-15.853 Y-16.305
N5045 X-16.79 Y-16.105
N5050 X-17.083 Y-16.033
N5055 X-17.226 Y-16.005
N5060 X-17.371 Y-15.991
N5065 X-17.517
N5070 X-17.707 Y-16.
N5075 X-60.997
N5080 X-61.448 Y-15.995
N5085 X-61.65 Y-15.992
N5090 X-61.868 Y-15.977
N5095 X-62.085 Y-15.949
N5100 X-62.303 Y-15.904
N5105 X-62.52 Y-15.843
N5110 X-62.721 Y-15.777
N5115 X-62.955 Y-15.681
N5120 X-63.191 Y-15.559
N5125 X-63.39 Y-15.44
N5130 X-63.537 Y-15.342
N5135 X-63.608 Y-15.291
N5140 X-63.825 Y-15.108
N5145 X-64.043 Y-14.906
N5150 X-64.478 Y-14.471
N5155 X-64.914 Y-14.036
N5160 X-65.131 Y-13.798
N5165 X-65.295 Y-13.601
N5170 X-65.348 Y-13.527
N5175 X-65.448 Y-13.383
N5180 X-65.576 Y-13.166
N5185 X-65.682 Y-12.948
N5190 X-65.775 Y-12.73
N5195 X-65.847 Y-12.513
N5200 X-65.904 Y-12.295
N5205 X-65.949 Y-12.078
N5210 X-65.979 Y-11.86
N5215 X-65.988 Y-11.642
N5220 X-65.999 Y-11.207
N5225 X-66. Y-10.99
N5230 Y10.99
N5235 X-65.999 Y11.207
N5240 X-65.988 Y11.642
N5245 X-65.979 Y11.86
N5250 X-65.949 Y12.078
N5255 X-65.904 Y12.295
N5260 X-65.847 Y12.513
N5265 X-65.775 Y12.73
N5270 X-65.682 Y12.948
N5275 X-65.576 Y13.166
N5280 X-65.448 Y13.383
N5285 X-65.348 Y13.527
N5290 X-65.295 Y13.601
N5295 X-65.131 Y13.798
N5300 X-64.913 Y14.037
N5305 X-64.26 Y14.689
N5310 X-64.042 Y14.907
N5315 X-63.825 Y15.108
N5320 X-63.608 Y15.291
N5325 X-63.537 Y15.342
N5330 X-63.39 Y15.44
N5335 X-63.191 Y15.559
N5340 X-62.955 Y15.681
N5345 X-62.721 Y15.777
N5350 X-62.52 Y15.843
N5355 X-62.303 Y15.904
N5360 X-62.085 Y15.949
N5365 X-61.868 Y15.977
N5370 X-61.65 Y15.992
N5375 X-61.215 Y15.998
N5380 X-60.997 Y16.
N5385 X-17.707
N5390 X-17.49 Y15.99
N5395 X-17.055 Y15.968
N5400 X-16.837 Y15.933
N5405 X-16.62 Y15.883
N5410 X-16.402 Y15.821
N5415 X-16.293 Y15.777
N5420 X-15.951 Y15.659
N5425 X-15.557 Y15.54
N5430 X-15.037 Y15.415
N5435 X-14.317 Y15.283
N5440 X-13.367 Y15.164
N5445 X-12.412 Y15.092
N5450 X-11.455 Y15.048
N5455 X-10.498 Y15.02
N5460 X-9.54 Y15.003
N5465 X-8.583 Y14.992
N5470 X-7.625 Y14.985
N5475 X-6.667 Y14.981
N5480 X-5.71 Y14.979
N5485 X-4.752 Y14.977
N5490 X-3.794 Y14.967
N5495 X-2.879 Y14.684
N5500 X-2.095 Y14.135
N5505 X-1.479 Y13.402
N5510 X-1.021 Y12.561
N5515 X-0.695 Y11.66
N5520 X-0.468 Y10.73
N5525 X-0.315 Y9.784
N5530 X-0.213 Y8.832
N5535 X-0.145 Y7.877
N5540 X-0.101 Y6.919
N5545 X-0.054 Y6.589
N5550 X0.064 Y6.279
N5555 X0.247 Y6.001
N5560 X0.261 Y5.984
N5565 X0.348 Y5.867
N5570 X0.42 Y5.767
N5575 X0.566 Y5.523
N5580 X0.661 Y5.332
N5585 X0.757 Y5.114
N5590 X0.834 Y4.896
N5595 X0.894 Y4.679
N5600 X0.941 Y4.461
N5605 X0.976 Y4.243
N5610 X0.992 Y4.026
N5615 X0.999 Y3.808
N5620 X1. Y2.938
N5625 Y-3.373
N5630 X0.999 Y-3.808
N5635 X0.992 Y-4.026
N5640 X0.976 Y-4.243
N5645 X0.941 Y-4.461
N5650 X0.894 Y-4.679
N5655 X0.834 Y-4.896
N5660 X0.757 Y-5.114
N5665 X0.664 Y-5.373
N5670 X0.545 Y-5.768
N5675 X0.419 Y-6.291
N5680 X0.287 Y-7.016
N5685 X0.169 Y-7.966
N5690 X0.098 Y-8.921
N5695 X0.053 Y-9.878
N5700 X0.022 Y-10.835
N5705 X-0.133 Y-11.78
N5710 X-0.588 Y-12.623
N5715 X-1.259 Y-13.306
N5720 X-2.065 Y-13.824
N5725 X-2.946 Y-14.198
N5730 X-3.867 Y-14.46
N5735 X-4.808 Y-14.639
N5740 X-5.758 Y-14.758
N5745 X-6.713 Y-14.837
N5750 X-7.669 Y-14.889
N5755 X-8.626 Y-14.923
N5760 X-9.584 Y-14.945
N5765 X-10.541 Y-14.958
N5770 X-11.499 Y-14.967
N5775 X-12.457 Y-14.973
N5780 X-13.414 Y-14.964
N5785 X-14.153 Y-14.909
N5790 X-14.451 Y-14.917
N5795 X-14.742 Y-14.983
N5800 X-15.014 Y-15.106
N5805 X-15.801 Y-15.559
N5810 X-15.967 Y-15.646
N5815 X-16.402 Y-15.821
N5820 X-16.62 Y-15.883
N5825 X-16.837 Y-15.933
N5830 X-17.055 Y-15.968
N5835 X-17.517 Y-15.991
N5840 G3 X-18.056 Y-16.484 I0.051 J-0.598
N5845 G1 X-18.073 Y-16.576 Z-9.993
N5850 X-18.089 Y-16.666 Z-9.971
N5855 X-18.104 Y-16.752 Z-9.935
N5860 X-18.118 Y-16.831 Z-9.885
N5865 X-18.131 Y-16.901 Z-9.824
N5870 X-18.142 Y-16.961 Z-9.753
N5875 X-18.15 Y-17.01 Z-9.672
N5880 X-18.157 Y-17.045 Z-9.585
N5885 X-18.161 Y-17.067 Z-9.494
N5890 X-18.162 Y-17.074 Z-9.4
N5895 G0 Z5.
N5900 X1.752 Y-4.166
N5905 Z-8.8
N5910 G1 Z-9.4 F1800.
N5915 X1.746 Y-4.17 Z-9.494
N5920 X1.728 Y-4.183 Z-9.585
N5925 X1.699 Y-4.204 Z-9.672
N5930 X1.659 Y-4.232 Z-9.753
N5935 X1.609 Y-4.268 Z-9.824
N5940 X1.55 Y-4.309 Z-9.885
N5945 X1.485 Y-4.356 Z-9.935
N5950 X1.414 Y-4.406 Z-9.971
N5955 X1.34 Y-4.459 Z-9.993
N5960 X1.263 Y-4.514 Z-10.
N5965 G3 X0.757 Y-5.114 I0.918 J-1.289
N5970 G1 X0.661 Y-5.332
N5975 X0.566 Y-5.523
N5980 X0.42 Y-5.767
N5985 X0.348 Y-5.867
N5990 X0.261 Y-5.984
N5995 X0.131 Y-6.141
N6000 X0.075 Y-6.202
N6005 X0.021 Y-6.266
N6010 X-0.079 Y-6.39
N6015 X-0.177 Y-6.527
N6020 X-0.283 Y-6.694
N6025 X-0.4 Y-6.904
N6030 X-0.521 Y-7.153
N6035 X-0.647 Y-7.454
N6040 X-0.782 Y-7.835
N6045 X-0.922 Y-8.314
N6050 X-1.137 Y-9.247
N6055 X-1.385 Y-10.172
N6060 X-1.859 Y-11.004
N6065 X-2.527 Y-11.69
N6070 X-3.324 Y-12.221
N6075 X-4.198 Y-12.613
N6080 X-5.114 Y-12.893
N6085 X-6.051 Y-13.088
N6090 X-7. Y-13.221
N6095 X-7.953 Y-13.31
N6100 X-8.909 Y-13.37
N6105 X-9.866 Y-13.409
N6110 X-10.823 Y-13.435
N6115 X-11.76 Y-13.448
N6120 X-12.014 Y-13.473
N6125 X-12.259 Y-13.541
N6130 X-12.49 Y-13.649
N6135 X-15.014 Y-15.106
N6140 G3 X-15.27 Y-15.79 I0.318 J-0.509
N6145 G1 X-15.242 Y-15.88 Z-9.993
N6150 X-15.216 Y-15.968 Z-9.971
N6155 X-15.19 Y-16.051 Z-9.935
N6160 X-15.167 Y-16.128 Z-9.885
N6165 X-15.146 Y-16.196 Z-9.824
N6170 X-15.128 Y-16.255 Z-9.753
N6175 X-15.114 Y-16.302 Z-9.672
N6180 X-15.103 Y-16.336 Z-9.585
N6185 X-15.097 Y-16.357 Z-9.494
N6190 X-15.094 Y-16.364 Z-9.4
N6195 G0 Z5.
N6200 X1.33 Y-5.641
N6205 Z-8.8
N6210 G1 Z-9.4 F1800.
N6215 X1.323 Y-5.643 Z-9.494
N6220 X1.302 Y-5.649 Z-9.585
N6225 X1.268 Y-5.659 Z-9.672
N6230 X1.22 Y-5.672 Z-9.753
N6235 X1.161 Y-5.689 Z-9.824
N6240 X1.093 Y-5.709 Z-9.885
N6245 X1.015 Y-5.731 Z-9.935
N6250 X0.932 Y-5.755 Z-9.971
N6255 X0.844 Y-5.78 Z-9.993
N6260 X0.753 Y-5.806 Z-10.
N6265 G3 X0.075 Y-6.202 I0.435 J-1.522
N6270 G1 X-0.087 Y-6.374
N6275 X-0.138 Y-6.42
N6280 X-0.305 Y-6.56
N6285 X-0.4 Y-6.637
N6290 X-0.522 Y-6.722
N6295 X-0.726 Y-6.855
N6300 X-0.793 Y-6.899
N6305 X-0.911 Y-6.992
N6310 X-1.022 Y-7.092
N6315 X-1.137 Y-7.211
N6320 X-1.268 Y-7.363
N6325 X-1.435 Y-7.579
N6330 X-1.978 Y-8.368
N6335 X-2.513 Y-9.162
N6340 X-3.168 Y-9.861
N6345 X-3.936 Y-10.433
N6350 X-4.784 Y-10.878
N6355 X-5.682 Y-11.211
N6360 X-6.609 Y-11.451
N6365 X-7.552 Y-11.621
N6370 X-8.502 Y-11.739
N6375 X-8.964 Y-11.778
N6380 X-9.181 Y-11.812
N6385 X-9.39 Y-11.878
N6390 X-9.588 Y-11.973
N6395 X-12.49 Y-13.649
N6400 G3 X-12.746 Y-14.333 I0.318 J-0.509
N6405 G1 X-12.718 Y-14.423 Z-9.993
N6410 X-12.691 Y-14.51 Z-9.971
N6415 X-12.666 Y-14.594 Z-9.935
N6420 X-12.642 Y-14.67 Z-9.885
N6425 X-12.622 Y-14.739 Z-9.824
N6430 X-12.604 Y-14.797 Z-9.753
N6435 X-12.589 Y-14.844 Z-9.672
N6440 X-12.579 Y-14.879 Z-9.585
N6445 X-12.572 Y-14.9 Z-9.494
N6450 X-12.57 Y-14.907 Z-9.4
N6455 G0 Z5.
N6460 X0.636 Y-6.67
N6465 Z-8.8
N6470 G1 Z-9.4 F1800.
N6475 X0.629 Z-9.494
N6480 X0.607 Z-9.585
N6485 X0.571 Z-9.672
N6490 X0.521 Y-6.669 Z-9.753
N6495 X0.46 Z-9.824
N6500 X0.389 Y-6.668 Z-9.885
N6505 X0.308 Z-9.935
N6510 X0.221 Y-6.667 Z-9.971
N6515 X0.13 Y-6.666 Z-9.993
N6520 X0.036 Z-10.
N6525 G3 X-0.726 Y-6.855 I-0.012 J-1.583
N6530 G1 X-1.175 Y-7.116
N6535 X-9.588 Y-11.973
N6540 G3 X-9.844 Y-12.658 I0.318 J-0.509
N6545 G1 X-9.816 Y-12.747 Z-9.993
N6550 X-9.789 Y-12.835 Z-9.971
N6555 X-9.764 Y-12.918 Z-9.935
N6560 X-9.741 Y-12.995 Z-9.885
N6565 X-9.72 Y-13.063 Z-9.824
N6570 X-9.702 Y-13.122 Z-9.753
N6575 X-9.687 Y-13.169 Z-9.672
N6580 X-9.677 Y-13.203 Z-9.585
N6585 X-9.67 Y-13.224 Z-9.494
N6590 X-9.668 Y-13.231 Z-9.4
N6595 G0 Z5.
N6600 X-17.275 Y16.739
N6605 Z-8.8
N6610 G1 Z-9.4 F1800.
N6615 X-17.27 Y16.734 Z-9.494
N6620 X-17.257 Y16.716 Z-9.585
N6625 X-17.235 Y16.687 Z-9.672
N6630 X-17.205 Y16.648 Z-9.753
N6635 X-17.168 Y16.6 Z-9.824
N6640 X-17.124 Y16.543 Z-9.885
N6645 X-17.076 Y16.479 Z-9.935
N6650 X-17.023 Y16.41 Z-9.971
N6655 X-16.967 Y16.337 Z-9.993
N6660 X-16.91 Y16.263 Z-10.
N6665 G3 X-16.293 Y15.777 I1.257 J0.962
N6670 G1 X-15.967 Y15.646
N6675 X-15.801 Y15.559
N6680 X-14.291 Y14.689
N6685 X-14.011 Y14.545
N6690 X-13.758 Y14.427
N6695 X-13.443 Y14.3
N6700 X-13.059 Y14.17
N6705 X-12.563 Y14.033
N6710 X-11.908 Y13.891
N6715 X-10.989 Y13.745
N6720 X-10.036 Y13.649
N6725 X-9.081 Y13.587
N6730 X-8.124 Y13.548
N6735 X-7.166 Y13.522
N6740 X-6.209 Y13.505
N6745 X-5.252 Y13.458
N6750 X-4.349 Y13.139
N6755 X-3.58 Y12.568
N6760 X-2.975 Y11.826
N6765 X-2.525 Y10.98
N6770 X-2.202 Y10.079
N6775 X-1.977 Y9.148
N6780 X-1.822 Y8.203
N6785 X-1.797 Y8.071
N6790 X-1.703 Y7.766
N6795 X-1.547 Y7.488
N6800 X-1.336 Y7.249
N6805 X-1.079 Y7.06
N6810 X-0.726 Y6.855
N6815 X-0.522 Y6.722
N6820 X-0.4 Y6.637
N6825 X-0.305 Y6.56
N6830 X-0.138 Y6.42
N6835 X-0.087 Y6.374
N6840 X0.075 Y6.202
N6845 X0.131 Y6.141
N6850 X0.247 Y6.001
N6855 G3 X0.965 Y5.867 I0.447 J0.401
N6860 G1 X1.049 Y5.909 Z-9.993
N6865 X1.131 Y5.951 Z-9.971
N6870 X1.208 Y5.99 Z-9.935
N6875 X1.28 Y6.026 Z-9.885
N6880 X1.344 Y6.059 Z-9.824
N6885 X1.398 Y6.086 Z-9.753
N6890 X1.442 Y6.109 Z-9.672
N6895 X1.474 Y6.125 Z-9.585
N6900 X1.494 Y6.135 Z-9.494
N6905 X1.5 Y6.138 Z-9.4
N6910 G0 Z5.
N6915 X-15.127 Y15.781
N6920 Z-8.8
N6925 G1 Z-9.4 F1800.
N6930 X-15.123 Y15.774 Z-9.494
N6935 X-15.112 Y15.755 Z-9.585
N6940 X-15.095 Y15.724 Z-9.672
N6945 X-15.071 Y15.681 Z-9.753
N6950 X-15.041 Y15.628 Z-9.824
N6955 X-15.006 Y15.565 Z-9.885
N6960 X-14.967 Y15.495 Z-9.935
N6965 X-14.924 Y15.419 Z-9.971
N6970 X-14.879 Y15.339 Z-9.993
N6975 X-14.833 Y15.257 Z-10.
N6980 G3 X-14.291 Y14.689 I1.381 J0.774
N6985 G1 X-11.653 Y13.166
N6990 X-11.432 Y13.053
N6995 X-11.143 Y12.923
N7000 X-10.804 Y12.793
N7005 X-10.365 Y12.653
N7010 X-9.818 Y12.511
N7015 X-9.074 Y12.363
N7020 X-8.126 Y12.228
N7025 X-7.174 Y12.126
N7030 X-6.245 Y11.892
N7035 X-5.421 Y11.404
N7040 X-4.75 Y10.721
N7045 X-4.236 Y9.913
N7050 X-3.843 Y9.039
N7055 X-3.819 Y8.983
N7060 X-3.662 Y8.706
N7065 X-3.45 Y8.469
N7070 X-3.193 Y8.281
N7075 X-1.079 Y7.06
N7080 G3 X-0.358 Y7.179 I0.283 J0.529
N7085 G1 X-0.293 Y7.247 Z-9.993
N7090 X-0.231 Y7.314 Z-9.971
N7095 X-0.171 Y7.377 Z-9.935
N7100 X-0.116 Y7.436 Z-9.885
N7105 X-0.067 Y7.488 Z-9.824
N7110 X-0.025 Y7.533 Z-9.753
N7115 X0.008 Y7.568 Z-9.672
N7120 X0.033 Y7.595 Z-9.585
N7125 X0.048 Y7.611 Z-9.494
N7130 X0.053 Y7.616 Z-9.4
N7135 G0 Z5.
N7140 X-12.488 Y14.258
N7145 Z-8.8
N7150 G1 Z-9.4 F1800.
N7155 X-12.485 Y14.251 Z-9.494
N7160 X-12.474 Y14.232 Z-9.585
N7165 X-12.456 Y14.201 Z-9.672
N7170 X-12.432 Y14.158 Z-9.753
N7175 X-12.402 Y14.104 Z-9.824
N7180 X-12.367 Y14.042 Z-9.885
N7185 X-12.328 Y13.972 Z-9.935
N7190 X-12.286 Y13.896 Z-9.971
N7195 X-12.241 Y13.816 Z-9.993
N7200 X-12.195 Y13.734 Z-10.
N7205 G3 X-11.653 Y13.166 I1.381 J0.774
N7210 G1 X-3.193 Y8.281
N7215 X-3.108 Y8.244
N7220 X-3.019 Y8.221
N7225 X-2.965 Y8.216 Z-9.998
N7230 X-2.911 Y8.211 Z-9.99
N7235 X-2.837 Y8.225 Z-9.971
N7240 X-2.765 Y8.238 Z-9.942
N7245 X-2.698 Y8.25 Z-9.904
N7250 X-2.641 Y8.285 Z-9.853
N7255 X-2.59 Y8.316 Z-9.794
N7260 X-2.547 Y8.342 Z-9.726
N7265 X-2.512 Y8.363 Z-9.653
N7270 X-2.49 Y8.384 Z-9.572
N7275 X-2.477 Y8.397 Z-9.487
N7280 X-2.473 Y8.402 Z-9.4
N7285 G0 Z5.
N7290 X-12.232 Y14.24
N7295 Z-5.8
N7300 G1 Z-6.4 F1800.
N7305 X-12.227 Y14.235 Z-6.494
N7310 X-12.211 Y14.219 Z-6.585
N7315 X-12.185 Y14.194 Z-6.672
N7320 X-12.15 Y14.159 Z-6.753
N7325 X-12.107 Y14.116 Z-6.824
N7330 X-12.056 Y14.066 Z-6.885
N7335 X-11.999 Y14.009 Z-6.935
N7340 X-11.937 Y13.948 Z-6.971
N7345 X-11.872 Y13.884 Z-6.993
N7350 X-11.805 Y13.818 Z-7.
N7355 G3 X-9.224 Y11.762 I10.776 J10.887
N7360 G1 X-8.647 Y11.425
N7365 X-8.571 Y11.378
N7370 X-8.34 Y11.207
N7375 X-8.136 Y11.039
N7380 X-8.001 Y10.913
N7385 X-7.918 Y10.855
N7390 X-1.367 Y7.072
N7395 X-0.74 Y6.704
N7400 X-0.633 Y6.637
N7405 X-0.305 Y6.389
N7410 X-0.087 Y6.181
N7415 X0.082 Y5.984
N7420 X0.131 Y5.925
N7425 X0.256 Y5.767
N7430 X0.581 Y5.194
N7435 X0.587 Y5.181
N7440 X0.787 Y4.551
N7445 X0.852 Y4.026
N7450 X0.865 Y3.808
N7455 X0.866 Y2.938
N7460 Y-3.373
N7465 X0.865 Y-3.808
N7470 X0.852 Y-4.026
N7475 X0.787 Y-4.551
N7480 X0.587 Y-5.181
N7485 X0.581 Y-5.194
N7490 X0.256 Y-5.767
N7495 X0.131 Y-5.925
N7500 X0.082 Y-5.984
N7505 X-0.087 Y-6.181
N7510 X-0.305 Y-6.389
N7515 X-0.633 Y-6.637
N7520 X-0.74 Y-6.704
N7525 X-1.367 Y-7.072
N7530 X-7.918 Y-10.855
N7535 X-8.001 Y-10.913
N7540 X-8.136 Y-11.039
N7545 X-8.34 Y-11.207
N7550 X-8.571 Y-11.378
N7555 X-8.647 Y-11.425
N7560 X-9.006 Y-11.635
N7565 X-9.08 Y-11.691
N7570 X-9.145 Y-11.757
N7575 X-9.181 Y-11.821 Z-6.995
N7580 X-9.217 Y-11.884 Z-6.982
N7585 X-9.252 Y-11.945 Z-6.959
N7590 X-9.264 Y-12.016 Z-6.925
N7595 X-9.275 Y-12.082 Z-6.882
N7600 X-9.285 Y-12.142 Z-6.83
N7605 X-9.276 Y-12.204 Z-6.758
N7610 X-9.268 Y-12.254 Z-6.677
N7615 X-9.262 Y-12.291 Z-6.589
N7620 X-9.259 Y-12.313 Z-6.496
N7625 X-9.258 Y-12.321 Z-6.4
N7630 G0 Z5.
N7635 X-10.545 Y14.093
N7640 Z-4.8
N7645 G1 Z-5.4 F1800.
N7650 X-10.541 Y14.087 Z-5.494
N7655 X-10.529 Y14.069 Z-5.585
N7660 X-10.51 Y14.038 Z-5.672
N7665 X-10.483 Y13.997 Z-5.753
N7670 X-10.45 Y13.946 Z-5.824
N7675 X-10.411 Y13.886 Z-5.885
N7680 X-10.367 Y13.818 Z-5.935
N7685 X-10.32 Y13.745 Z-5.971
N7690 X-10.27 Y13.669 Z-5.993
N7695 X-10.219 Y13.59 Z-6.
N7700 G3 X-8.136 Y11.031 I12.853 J8.334
N7705 G1 X-8.091 Y10.99
N7710 X-7.918 Y10.82
N7715 X-7.874 Y10.772
N7720 X-7.701 Y10.55
N7725 X-7.553 Y10.337
N7730 X-7.483 Y10.225
N7735 X-7.42 Y10.119
N7740 X-7.403 Y10.083
N7745 X-7.349 Y9.976
N7750 X-7.292 Y9.889
N7755 X-7.163 Y9.7
N7760 X-6.992 Y9.478
N7765 X-6.765 Y9.215
N7770 X-6.46 Y8.899
N7775 X-6.036 Y8.507
N7780 X-5.412 Y7.993
N7785 X-4.64 Y7.427
N7790 X-3.845 Y6.894
N7795 X-3.037 Y6.38
N7800 X-2.331 Y5.733
N7805 X-1.798 Y4.936
N7810 X-1.415 Y4.059
N7815 X-1.149 Y3.139
N7820 X-0.969 Y2.198
N7825 X-0.85 Y1.248
N7830 X-0.772 Y0.293
N7835 X-0.722 Y-0.663
N7840 X-0.69 Y-1.62
N7845 X-0.735 Y-2.577
N7850 X-1.045 Y-3.483
N7855 X-1.539 Y-4.304
N7860 X-2.153 Y-5.038
N7865 X-2.846 Y-5.699
N7870 X-3.59 Y-6.303
N7875 X-4.365 Y-6.865
N7880 X-5.16 Y-7.399
N7885 X-5.968 Y-7.913
N7890 X-6.389 Y-8.172
N7895 X-6.636 Y-8.362
N7900 X-6.839 Y-8.599
N7905 X-6.988 Y-8.873
N7910 X-7.078 Y-9.172
N7915 G0 Z5.
N7920 X-7.445 Y11.457
N7925 Z-4.8
N7930 G1 Z-5.4 F1800.
N7935 X-7.446 Y11.45 Z-5.494
N7940 X-7.448 Y11.428 Z-5.585
N7945 X-7.453 Y11.392 Z-5.672
N7950 X-7.458 Y11.343 Z-5.753
N7955 X-7.465 Y11.282 Z-5.824
N7960 X-7.473 Y11.211 Z-5.885
N7965 X-7.482 Y11.131 Z-5.935
N7970 X-7.491 Y11.045 Z-5.971
N7975 X-7.502 Y10.954 Z-5.993
N7980 X-7.512 Y10.861 Z-6.
N7985 G3 X-7.403 Y10.083 I1.573 J-0.177
N7990 G1 X-7.321 Y9.901
N7995 X-7.232 Y9.684
N8000 X-7.151 Y9.466
N8005 X-7.092 Y9.249
N8010 X-7.051 Y9.031
N8015 X-7.023 Y8.91
N8020 X-6.979 Y8.767
N8025 X-6.918 Y8.604
N8030 X-6.847 Y8.44
N8035 X-6.75 Y8.25
N8040 X-6.62 Y8.025
N8045 X-6.464 Y7.788
N8050 X-6.263 Y7.518
N8055 X-6.001 Y7.203
N8060 X-5.587 Y6.759
N8065 X-4.895 Y6.096
N8070 X-4.228 Y5.409
N8075 X-3.669 Y4.632
N8080 X-3.228 Y3.781
N8085 X-2.897 Y2.883
N8090 X-2.657 Y1.956
N8095 X-2.487 Y1.013
N8100 X-2.37 Y0.063
N8105 X-2.329 Y-0.894
N8110 X-2.489 Y-1.838
N8115 X-2.843 Y-2.728
N8120 X-3.348 Y-3.542
N8125 X-3.961 Y-4.277
N8130 X-4.649 Y-4.944
N8135 X-5.386 Y-5.556
N8140 X-6.153 Y-6.129
N8145 X-6.523 Y-6.437
N8150 X-6.725 Y-6.668
N8155 X-6.876 Y-6.936
N8160 X-6.969 Y-7.228
N8165 X-7. Y-7.534
N8170 Y-8.161
N8175 X-7.006 Y-8.378
N8180 X-7.027 Y-8.813
N8185 X-7.048 Y-9.015
N8190 X-7.078 Y-9.172
N8195 G0 Z5.
N8200 X-6.754 Y10.373
N8205 Z-4.8
N8210 G1 Z-5.4 F1800.
N8215 X-6.757 Y10.366 Z-5.494
N8220 X-6.764 Y10.346 Z-5.585
N8225 X-6.777 Y10.312 Z-5.672
N8230 X-6.794 Y10.266 Z-5.753
N8235 X-6.816 Y10.209 Z-5.824
N8240 X-6.841 Y10.142 Z-5.885
N8245 X-6.869 Y10.067 Z-5.935
N8250 X-6.9 Y9.985 Z-5.971
N8255 X-6.932 Y9.9 Z-5.993
N8260 X-6.965 Y9.812 Z-6.
N8265 G3 X-7.051 Y9.031 I1.481 J-0.557
N8270 G1 X-7.048 Y9.015
N8275 X-7.027 Y8.813
N8280 X-7.006 Y8.378
N8285 X-7. Y8.161
N8290 Y8.041
N8295 X-6.993 Y7.905
N8300 X-6.977 Y7.756
N8305 X-6.949 Y7.607
N8310 X-6.911 Y7.449
N8315 X-6.858 Y7.273
N8320 X-6.782 Y7.065
N8325 X-6.666 Y6.796
N8330 X-6.477 Y6.418
N8335 X-6.002 Y5.586
N8340 X-5.514 Y4.763
N8345 X-5.069 Y3.915
N8350 X-4.697 Y3.032
N8355 X-4.404 Y2.12
N8360 X-4.186 Y1.188
N8365 X-4.079 Y0.236
N8370 X-4.174 Y-0.717
N8375 X-4.464 Y-1.63
N8380 X-4.917 Y-2.473
N8385 X-5.491 Y-3.24
N8390 X-6.144 Y-3.94
N8395 X-6.609 Y-4.416
N8400 X-6.63 Y-4.441
N8405 X-6.788 Y-4.658
N8410 X-6.905 Y-4.9
N8415 X-6.976 Y-5.159
N8420 X-7. Y-5.427
N8425 Y-7.534
N8430 G3 X-6.535 Y-8.097 I0.6 J0.021
N8435 G1 X-6.444 Y-8.118 Z-5.993
N8440 X-6.355 Y-8.139 Z-5.971
N8445 X-6.27 Y-8.159 Z-5.935
N8450 X-6.192 Y-8.177 Z-5.885
N8455 X-6.122 Y-8.193 Z-5.824
N8460 X-6.062 Y-8.207 Z-5.753
N8465 X-6.014 Y-8.218 Z-5.672
N8470 X-5.979 Y-8.226 Z-5.585
N8475 X-5.958 Y-8.231 Z-5.494
N8480 X-5.951 Y-8.232 Z-5.4
N8485 G0 Z5.
N8490 X-6.472 Y9.31
N8495 Z-4.8
N8500 G1 Z-5.4 F1800.
N8505 X-6.476 Y9.304 Z-5.494
N8510 X-6.487 Y9.285 Z-5.585
N8515 X-6.505 Y9.254 Z-5.672
N8520 X-6.531 Y9.212 Z-5.753
N8525 X-6.562 Y9.159 Z-5.824
N8530 X-6.598 Y9.098 Z-5.885
N8535 X-6.639 Y9.029 Z-5.935
N8540 X-6.684 Y8.954 Z-5.971
N8545 X-6.731 Y8.875 Z-5.993
N8550 X-6.779 Y8.794 Z-6.
N8555 G3 X-7. Y8.041 I1.36 J-0.809
N8560 G1 Y6.42
N8565 X-6.988 Y6.187
N8570 X-6.963 Y5.926
N8575 X-6.908 Y5.574
N8580 X-6.77 Y4.932
N8585 X-6.517 Y4.008
N8590 X-6.25 Y3.088
N8595 X-6.008 Y2.162
N8600 X-5.863 Y1.215
N8605 X-5.911 Y0.259
N8610 X-6.159 Y-0.666
N8615 X-6.569 Y-1.532
N8620 X-6.772 Y-1.855
N8625 X-6.897 Y-2.105
N8630 X-6.974 Y-2.373
N8635 X-7. Y-2.651
N8640 G3 X-6.535 Y-3.215 I0.6 J0.021
N8645 G1 X-6.444 Y-3.236 Z-5.993
N8650 X-6.355 Y-3.256 Z-5.971
N8655 X-6.27 Y-3.276 Z-5.935
N8660 X-6.192 Y-3.294 Z-5.885
N8665 X-6.122 Y-3.31 Z-5.824
N8670 X-6.062 Y-3.324 Z-5.753
N8675 X-6.014 Y-3.335 Z-5.672
N8680 X-5.979 Y-3.343 Z-5.585
N8685 X-5.958 Y-3.348 Z-5.494
N8690 X-5.951 Y-3.35 Z-5.4
N8695 G0 Z5.
N8700 X-6.472 Y7.689
N8705 Z-4.8
N8710 G1 Z-5.4 F1800.
N8715 X-6.476 Y7.683 Z-5.494
N8720 X-6.487 Y7.664 Z-5.585
N8725 X-6.505 Y7.633 Z-5.672
N8730 X-6.531 Y7.59 Z-5.753
N8735 X-6.562 Y7.538 Z-5.824
N8740 X-6.598 Y7.476 Z-5.885
N8745 X-6.639 Y7.407 Z-5.935
N8750 X-6.684 Y7.333 Z-5.971
N8755 X-6.731 Y7.254 Z-5.993
N8760 X-6.779 Y7.173 Z-6.
N8765 G3 X-7. Y6.42 I1.36 J-0.809
N8770 G1 Y-5.427
N8775 X-6.99 Y-5.519
N8780 X-6.965 Y-5.608
N8785 X-6.928 Y-5.672 Z-5.995
N8790 X-6.892 Y-5.735 Z-5.982
N8795 X-6.856 Y-5.796 Z-5.959
N8800 X-6.795 Y-5.846 Z-5.921
N8805 X-6.738 Y-5.892 Z-5.871
N8810 X-6.688 Y-5.933 Z-5.812
N8815 X-6.635 Y-5.953 Z-5.741
N8820 X-6.592 Y-5.969 Z-5.663
N8825 X-6.561 Y-5.981 Z-5.579
N8830 X-6.542 Y-5.988 Z-5.491
N8835 X-6.535 Y-5.991 Z-5.4
N8840 G0 Z5.
N8845 X-67.615 Y-16.922
N8850 Z0.2
N8855 G1 Z-0.4 F1800.
N8860 X-67.608 Y-16.919 Z-0.494
N8865 X-67.59 Y-16.907 Z-0.585
N8870 X-67.559 Y-16.889 Z-0.672
N8875 X-67.516 Y-16.864 Z-0.753
N8880 X-67.464 Y-16.833 Z-0.824
N8885 X-67.402 Y-16.796 Z-0.885
N8890 X-67.333 Y-16.756 Z-0.935
N8895 X-67.258 Y-16.711 Z-0.971
N8900 X-67.179 Y-16.665 Z-0.993
N8905 X-67.099 Y-16.617 Z-1.
N8910 G3 X-64.457 Y-14.639 I-7.805 J13.18
N8915 G1 X-64.373 Y-14.555
N8920 Y-14.465
N8925 X-64.4 Y-14.38
N8930 X-64.453 Y-14.307
N8935 X-64.939 Y-13.819
N8940 X-65.125 Y-13.601
N8945 X-65.286 Y-13.383
N8950 X-65.348 Y-13.287
N8955 X-65.419 Y-13.166
N8960 X-65.537 Y-12.948
N8965 X-65.566 Y-12.888
N8970 X-65.703 Y-12.513
N8975 X-65.758 Y-12.295
N8980 X-65.841 Y-11.86
N8985 X-65.854 Y-11.642
N8990 X-65.865 Y-11.207
N8995 X-65.866 Y-10.99
N9000 Y10.99
N9005 X-65.865 Y11.207
N9010 X-65.854 Y11.642
N9015 X-65.841 Y11.86
N9020 X-65.758 Y12.295
N9025 X-65.703 Y12.513
N9030 X-65.566 Y12.888
N9035 X-65.537 Y12.948
N9040 X-65.419 Y13.166
N9045 X-65.348 Y13.287
N9050 X-65.286 Y13.383
N9055 X-65.125 Y13.601
N9060 X-64.939 Y13.819
N9065 X-64.26 Y14.5
N9070 X-63.825 Y14.926
N9075 X-63.606 Y15.124
N9080 X-63.39 Y15.278
N9085 X-63.299 Y15.342
N9090 X-63.173 Y15.415
N9095 X-62.955 Y15.534
N9100 X-62.738 Y15.629
N9105 X-62.52 Y15.701
N9110 X-62.303 Y15.762
N9115 X-61.868 Y15.834
N9120 X-61.65 Y15.858
N9125 X-61.215 Y15.864
N9130 X-60.997 Y15.866
N9135 X-17.707
N9140 X-17.041 Y15.832
N9145 X-16.402 Y15.681
N9150 X-16.185 Y15.589
N9155 X-15.967 Y15.485
N9160 X-15.75 Y15.376
N9165 X-8.906 Y11.425
N9170 X-8.788 Y11.356
N9175 X-8.571 Y11.213
N9180 X-8.353 Y11.048
N9185 X-8.287 Y10.99
N9190 X-8.059 Y10.772
N9195 X-7.918 Y10.61
N9200 X-7.874 Y10.554
N9205 X-7.712 Y10.337
N9210 X-7.575 Y10.119
N9215 X-7.468 Y9.901
N9220 X-7.367 Y9.684
N9225 X-7.297 Y9.466
N9230 X-7.169 Y8.922
N9235 X-7.167 Y8.909
N9240 X-7.14 Y8.378
N9245 X-7.134 Y8.161
N9250 Y-8.161
N9255 X-7.14 Y-8.378
N9260 X-7.167 Y-8.909
N9265 X-7.169 Y-8.922
N9270 X-7.297 Y-9.466
N9275 X-7.367 Y-9.684
N9280 X-7.468 Y-9.901
N9285 X-7.575 Y-10.119
N9290 X-7.712 Y-10.337
N9295 X-7.874 Y-10.554
N9300 X-7.918 Y-10.61
N9305 X-8.059 Y-10.772
N9310 X-8.287 Y-10.99
N9315 X-8.353 Y-11.048
N9320 X-8.571 Y-11.213
N9325 X-8.788 Y-11.356
N9330 X-11.181 Y-12.739
N9335 X-15.75 Y-15.376
N9340 X-15.967 Y-15.485
N9345 X-16.185 Y-15.589
N9350 X-16.402 Y-15.681
N9355 X-17.041 Y-15.832
N9360 X-17.707 Y-15.866
N9365 X-60.997
N9370 X-61.432 Y-15.861
N9375 X-61.65 Y-15.858
N9380 X-61.868 Y-15.834
N9385 X-62.303 Y-15.762
N9390 X-62.52 Y-15.701
N9395 X-62.738 Y-15.629
N9400 X-62.955 Y-15.534
N9405 X-63.173 Y-15.415
N9410 X-63.299 Y-15.342
N9415 X-63.39 Y-15.278
N9420 X-63.608 Y-15.123
N9425 X-63.825 Y-14.926
N9430 X-64.289 Y-14.471
N9435 X-64.453 Y-14.307
N9440 X-64.525 Y-14.249
N9445 X-64.606 Y-14.203
N9450 X-64.677 Y-14.184 Z-0.995
N9455 X-64.747 Y-14.166 Z-0.982
N9460 X-64.815 Y-14.148 Z-0.959
N9465 X-64.862 Y-14.146 Z-0.939
N9470 Z-0.938
N9475 X-64.943 Y-14.161 Z-0.889
N9480 X-65.014 Y-14.174 Z-0.827
N9485 X-65.076 Y-14.185 Z-0.755
N9490 X-65.12 Y-14.207 Z-0.675
N9495 X-65.153 Y-14.223 Z-0.587
N9500 X-65.173 Y-14.233 Z-0.495
N9505 X-65.18 Y-14.237 Z-0.4
N9510 G0 Z5.
N9515 X-18.119 Y-21.935
N9520 Z-11.29
N9525 G1 Z-11.89 F1800.
N9530 X-18.117 Y-21.928 Z-11.984
N9535 X-18.111 Y-21.907 Z-12.075
N9540 X-18.102 Y-21.872 Z-12.162
N9545 X-18.09 Y-21.824 Z-12.243
N9550 X-18.075 Y-21.765 Z-12.314
N9555 X-18.057 Y-21.696 Z-12.375
N9560 X-18.037 Y-21.618 Z-12.425
N9565 X-18.016 Y-21.534 Z-12.461
N9570 X-17.993 Y-21.445 Z-12.483
N9575 X-17.97 Y-21.354 Z-12.49
N9580 G3 X-17.5 Y-18.088 I-14.839 J3.801
N9585 G1 Y-17.91
N9590 X-17.602 Y-17.8
N9595 X-17.717 Y-17.704
N9600 X-17.839 Y-17.617
N9605 X-17.978 Y-17.532
N9610 X-18.065 Y-17.486
N9615 X-18.162 Y-17.437
N9620 X-18.379 Y-17.336
N9625 X-18.652 Y-17.228
N9630 X-18.998 Y-17.112
N9635 X-19.447 Y-16.99
N9640 X-20.052 Y-16.861
N9645 X-20.924 Y-16.726
N9650 X-21.877 Y-16.634
N9655 X-22.833 Y-16.577
N9660 X-23.79 Y-16.541
N9665 X-24.748 Y-16.519
N9670 X-25.705 Y-16.505
N9675 X-26.663 Y-16.496
N9680 X-27.621 Y-16.49
N9685 X-28.578 Y-16.487
N9690 X-30.494 Y-16.483
N9695 X-34.324 Y-16.48
N9700 X-63.055 Y-16.476
N9705 X-63.516 Y-16.345
N9710 X-64.342 Y-15.86
N9715 X-64.988 Y-15.153
N9720 X-65.466 Y-14.324
N9725 X-65.807 Y-13.428
N9730 X-66.041 Y-12.5
N9735 X-66.198 Y-11.555
N9740 X-66.301 Y-10.603
N9745 X-66.369 Y-9.647
N9750 X-66.412 Y-8.691
N9755 X-66.44 Y-7.733
N9760 X-66.457 Y-6.776
N9765 X-66.469 Y-5.818
N9770 X-66.476 Y-4.861
N9775 X-66.481 Y-3.903
N9780 X-66.484 Y-2.945
N9785 X-66.487 Y-1.03
N9790 X-66.49 Y3.759
N9795 X-66.491 Y12.378
N9800 X-66.486 Y12.857
N9805 X-66.378 Y13.323
N9810 X-65.965 Y14.187
N9815 X-65.287 Y14.864
N9820 X-64.474 Y15.369
N9825 X-63.587 Y15.731
N9830 X-62.662 Y15.981
N9835 X-61.72 Y16.149
N9840 X-60.769 Y16.261
N9845 X-59.814 Y16.333
N9850 X-58.857 Y16.38
N9855 X-57.9 Y16.41
N9860 X-56.942 Y16.429
N9865 X-55.985 Y16.442
N9870 X-55.027 Y16.45
N9875 X-54.069 Y16.455
N9880 X-53.112 Y16.458
N9885 X-51.196 Y16.461
N9890 X-47.365 Y16.464
N9895 X-43.535 Y16.465
N9900 X-2.354 Y16.475
N9905 X-1.881 Y16.4
N9910 X-1.426 Y16.249
N9915 X-0.615 Y15.741
N9920 X0.019 Y15.023
N9925 X0.487 Y14.187
N9930 X0.818 Y13.289
N9935 X1.046 Y12.358
N9940 X1.198 Y11.413
N9945 X1.299 Y10.46
N9950 X1.364 Y9.505
N9955 X1.406 Y8.548
N9960 X1.432 Y7.591
N9965 X1.45 Y6.633
N9970 X1.46 Y5.676
N9975 X1.467 Y4.718
N9980 X1.471 Y3.76
N9985 X1.474 Y2.803
N9990 X1.477 Y0.887
N9995 X1.479 Y-3.901
N10000 Y-12.521
N10005 X1.439 Y-12.998
N10010 X1.325 Y-13.463
N10015 X0.862 Y-14.301
N10020 X0.164 Y-14.956
N10025 X-0.661 Y-15.443
N10030 X-1.554 Y-15.79
N10035 X-2.482 Y-16.028
N10040 X-3.426 Y-16.189
N10045 X-4.378 Y-16.294
N10050 X-5.333 Y-16.363
N10055 X-6.29 Y-16.407
N10060 X-7.247 Y-16.435
N10065 X-8.204 Y-16.453
N10070 X-9.162 Y-16.464
N10075 X-10.12 Y-16.471
N10080 X-11.077 Y-16.476
N10085 X-12.035 Y-16.478
N10090 X-13.95 Y-16.481
N10095 X-14.908 Y-16.457
N10100 X-15.853 Y-16.305
N10105 X-16.79 Y-16.105
N10110 X-17.083 Y-16.033
N10115 X-17.226 Y-16.005
N10120 X-17.371 Y-15.991
N10125 X-17.517
N10130 X-17.707 Y-16.
N10135 X-60.997
N10140 X-61.448 Y-15.995
N10145 X-61.65 Y-15.992
N10150 X-61.868 Y-15.977
N10155 X-62.085 Y-15.949
N10160 X-62.303 Y-15.904
N10165 X-62.52 Y-15.843
N10170 X-62.721 Y-15.777
N10175 X-62.955 Y-15.681
N10180 X-63.191 Y-15.559
N10185 X-63.39 Y-15.44
N10190 X-63.537 Y-15.342
N10195 X-63.608 Y-15.291
N10200 X-63.825 Y-15.108
N10205 X-64.043 Y-14.906
N10210 X-64.478 Y-14.471
N10215 X-64.914 Y-14.036
N10220 X-65.131 Y-13.798
N10225 X-65.295 Y-13.601
N10230 X-65.348 Y-13.527
N10235 X-65.448 Y-13.383
N10240 X-65.576 Y-13.166
N10245 X-65.682 Y-12.948
N10250 X-65.775 Y-12.73
N10255 X-65.847 Y-12.513
N10260 X-65.904 Y-12.295
N10265 X-65.949 Y-12.078
N10270 X-65.979 Y-11.86
N10275 X-65.988 Y-11.642
N10280 X-65.999 Y-11.207
N10285 X-66. Y-10.99
N10290 Y10.99
N10295 X-65.999 Y11.207
N10300 X-65.988 Y11.642
N10305 X-65.979 Y11.86
N10310 X-65.949 Y12.078
N10315 X-65.904 Y12.295
N10320 X-65.847 Y12.513
N10325 X-65.775 Y12.73
N10330 X-65.682 Y12.948
N10335 X-65.576 Y13.166
N10340 X-65.448 Y13.383
N10345 X-65.348 Y13.527
N10350 X-65.295 Y13.601
N10355 X-65.131 Y13.798
N10360 X-64.913 Y14.037
N10365 X-64.26 Y14.689
N10370 X-64.042 Y14.907
N10375 X-63.825 Y15.108
N10380 X-63.608 Y15.291
N10385 X-63.537 Y15.342
N10390 X-63.39 Y15.44
N10395 X-63.191 Y15.559
N10400 X-62.955 Y15.681
N10405 X-62.721 Y15.777
N10410 X-62.52 Y15.843
N10415 X-62.303 Y15.904
N10420 X-62.085 Y15.949
N10425 X-61.868 Y15.977
N10430 X-61.65 Y15.992
N10435 X-61.215 Y15.998
N10440 X-60.997 Y16.
N10445 X-17.707
N10450 X-17.49 Y15.99
N10455 X-17.055 Y15.968
N10460 X-16.837 Y15.933
N10465 X-16.62 Y15.883
N10470 X-16.402 Y15.821
N10475 X-16.293 Y15.777
N10480 X-15.951 Y15.659
N10485 X-15.557 Y15.54
N10490 X-15.037 Y15.415
N10495 X-14.317 Y15.283
N10500 X-13.367 Y15.164
N10505 X-12.412 Y15.092
N10510 X-11.455 Y15.048
N10515 X-10.498 Y15.02
N10520 X-9.54 Y15.003
N10525 X-8.583 Y14.992
N10530 X-7.625 Y14.985
N10535 X-6.667 Y14.981
N10540 X-5.71 Y14.979
N10545 X-4.752 Y14.977
N10550 X-3.794 Y14.967
N10555 X-2.879 Y14.684
N10560 X-2.095 Y14.135
N10565 X-1.479 Y13.402
N10570 X-1.021 Y12.561
N10575 X-0.695 Y11.66
N10580 X-0.468 Y10.73
N10585 X-0.315 Y9.784
N10590 X-0.213 Y8.832
N10595 X-0.145 Y7.877
N10600 X-0.101 Y6.919
N10605 X-0.054 Y6.589
N10610 X0.064 Y6.279
N10615 X0.247 Y6.001
N10620 X0.261 Y5.984
N10625 X0.348 Y5.867
N10630 X0.42 Y5.767
N10635 X0.566 Y5.523
N10640 X0.661 Y5.332
N10645 X0.757 Y5.114
N10650 X0.834 Y4.896
N10655 X0.894 Y4.679
N10660 X0.941 Y4.461
N10665 X0.976 Y4.243
N10670 X0.992 Y4.026
N10675 X0.999 Y3.808
N10680 X1. Y2.938
N10685 Y-3.373
N10690 X0.999 Y-3.808
N10695 X0.992 Y-4.026
N10700 X0.976 Y-4.243
N10705 X0.941 Y-4.461
N10710 X0.894 Y-4.679
N10715 X0.834 Y-4.896
N10720 X0.757 Y-5.114
N10725 X0.664 Y-5.373
N10730 X0.545 Y-5.768
N10735 X0.419 Y-6.291
N10740 X0.287 Y-7.016
N10745 X0.169 Y-7.966
N10750 X0.098 Y-8.921
N10755 X0.053 Y-9.878
N10760 X0.022 Y-10.835
N10765 X-0.133 Y-11.78
N10770 X-0.588 Y-12.623
N10775 X-1.259 Y-13.306
N10780 X-2.065 Y-13.824
N10785 X-2.946 Y-14.198
N10790 X-3.867 Y-14.46
N10795 X-4.808 Y-14.639
N10800 X-5.758 Y-14.758
N10805 X-6.713 Y-14.837
N10810 X-7.669 Y-14.889
N10815 X-8.626 Y-14.923
N10820 X-9.584 Y-14.945
N10825 X-10.541 Y-14.958
N10830 X-11.499 Y-14.967
N10835 X-12.457 Y-14.973
N10840 X-13.414 Y-14.964
N10845 X-14.153 Y-14.909
N10850 X-14.451 Y-14.917
N10855 X-14.742 Y-14.983
N10860 X-15.014 Y-15.106
N10865 X-15.801 Y-15.559
N10870 X-15.967 Y-15.646
N10875 X-16.402 Y-15.821
N10880 X-16.62 Y-15.883
N10885 X-16.837 Y-15.933
N10890 X-17.055 Y-15.968
N10895 X-17.517 Y-15.991
N10900 G3 X-18.056 Y-16.484 I0.051 J-0.598
N10905 G1 X-18.073 Y-16.576 Z-12.483
N10910 X-18.089 Y-16.666 Z-12.461
N10915 X-18.104 Y-16.752 Z-12.425
N10920 X-18.118 Y-16.831 Z-12.375
N10925 X-18.131 Y-16.901 Z-12.314
N10930 X-18.142 Y-16.961 Z-12.243
N10935 X-18.15 Y-17.01 Z-12.162
N10940 X-18.157 Y-17.045 Z-12.075
N10945 X-18.161 Y-17.067 Z-11.984
N10950 X-18.162 Y-17.074 Z-11.89
N10955 G0 Z5.
N10960 X1.752 Y-4.166
N10965 Z-11.29
N10970 G1 Z-11.89 F1800.
N10975 X1.746 Y-4.17 Z-11.984
N10980 X1.728 Y-4.183 Z-12.075
N10985 X1.699 Y-4.204 Z-12.162
N10990 X1.659 Y-4.232 Z-12.243
N10995 X1.609 Y-4.268 Z-12.314
N11000 X1.55 Y-4.309 Z-12.375
N11005 X1.485 Y-4.356 Z-12.425
N11010 X1.414 Y-4.406 Z-12.461
N11015 X1.34 Y-4.459 Z-12.483
N11020 X1.263 Y-4.514 Z-12.49
N11025 G3 X0.757 Y-5.114 I0.918 J-1.289
N11030 G1 X0.661 Y-5.332
N11035 X0.566 Y-5.523
N11040 X0.42 Y-5.767
N11045 X0.348 Y-5.867
N11050 X0.261 Y-5.984
N11055 X0.131 Y-6.141
N11060 X0.075 Y-6.202
N11065 X0.021 Y-6.266
N11070 X-0.079 Y-6.39
N11075 X-0.177 Y-6.527
N11080 X-0.283 Y-6.694
N11085 X-0.4 Y-6.904
N11090 X-0.521 Y-7.153
N11095 X-0.647 Y-7.454
N11100 X-0.782 Y-7.835
N11105 X-0.922 Y-8.314
N11110 X-1.137 Y-9.247
N11115 X-1.385 Y-10.172
N11120 X-1.859 Y-11.004
N11125 X-2.527 Y-11.69
N11130 X-3.324 Y-12.221
N11135 X-4.198 Y-12.613
N11140 X-5.114 Y-12.893
N11145 X-6.051 Y-13.088
N11150 X-7. Y-13.221
N11155 X-7.953 Y-13.31
N11160 X-8.909 Y-13.37
N11165 X-9.866 Y-13.409
N11170 X-10.823 Y-13.435
N11175 X-11.76 Y-13.448
N11180 X-12.014 Y-13.473
N11185 X-12.259 Y-13.541
N11190 X-12.49 Y-13.649
N11195 X-15.014 Y-15.106
N11200 G3 X-15.27 Y-15.79 I0.318 J-0.509
N11205 G1 X-15.242 Y-15.88 Z-12.483
N11210 X-15.216 Y-15.968 Z-12.461
N11215 X-15.19 Y-16.051 Z-12.425
N11220 X-15.167 Y-16.128 Z-12.375
N11225 X-15.146 Y-16.196 Z-12.314
N11230 X-15.128 Y-16.255 Z-12.243
N11235 X-15.114 Y-16.302 Z-12.162
N11240 X-15.103 Y-16.336 Z-12.075
N11245 X-15.097 Y-16.357 Z-11.984
N11250 X-15.094 Y-16.364 Z-11.89
N11255 G0 Z5.
N11260 X1.33 Y-5.641
N11265 Z-11.29
N11270 G1 Z-11.89 F1800.
N11275 X1.323 Y-5.643 Z-11.984
N11280 X1.302 Y-5.649 Z-12.075
N11285 X1.268 Y-5.659 Z-12.162
N11290 X1.22 Y-5.672 Z-12.243
N11295 X1.161 Y-5.689 Z-12.314
N11300 X1.093 Y-5.709 Z-12.375
N11305 X1.015 Y-5.731 Z-12.425
N11310 X0.932 Y-5.755 Z-12.461
N11315 X0.844 Y-5.78 Z-12.483
N11320 X0.753 Y-5.806 Z-12.49
N11325 G3 X0.075 Y-6.202 I0.435 J-1.522
N11330 G1 X-0.087 Y-6.374
N11335 X-0.138 Y-6.42
N11340 X-0.305 Y-6.56
N11345 X-0.4 Y-6.637
N11350 X-0.522 Y-6.722
N11355 X-0.726 Y-6.855
N11360 X-0.793 Y-6.899
N11365 X-0.911 Y-6.992
N11370 X-1.022 Y-7.092
N11375 X-1.137 Y-7.211
N11380 X-1.268 Y-7.363
N11385 X-1.435 Y-7.579
N11390 X-1.978 Y-8.368
N11395 X-2.513 Y-9.162
N11400 X-3.168 Y-9.861
N11405 X-3.936 Y-10.433
N11410 X-4.784 Y-10.878
N11415 X-5.682 Y-11.211
N11420 X-6.609 Y-11.451
N11425 X-7.552 Y-11.621
N11430 X-8.502 Y-11.739
N11435 X-8.964 Y-11.778
N11440 X-9.181 Y-11.812
N11445 X-9.39 Y-11.878
N11450 X-9.588 Y-11.973
N11455 X-12.49 Y-13.649
N11460 G3 X-12.746 Y-14.333 I0.318 J-0.509
N11465 G1 X-12.718 Y-14.423 Z-12.483
N11470 X-12.691 Y-14.51 Z-12.461
N11475 X-12.666 Y-14.594 Z-12.425
N11480 X-12.642 Y-14.67 Z-12.375
N11485 X-12.622 Y-14.739 Z-12.314
N11490 X-12.604 Y-14.797 Z-12.243
N11495 X-12.589 Y-14.844 Z-12.162
N11500 X-12.579 Y-14.879 Z-12.075
N11505 X-12.572 Y-14.9 Z-11.984
N11510 X-12.57 Y-14.907 Z-11.89
N11515 G0 Z5.
N11520 X0.636 Y-6.67
N11525 Z-11.29
N11530 G1 Z-11.89 F1800.
N11535 X0.629 Z-11.984
N11540 X0.607 Z-12.075
N11545 X0.571 Z-12.162
N11550 X0.521 Y-6.669 Z-12.243
N11555 X0.46 Z-12.314
N11560 X0.389 Y-6.668 Z-12.375
N11565 X0.308 Z-12.425
N11570 X0.221 Y-6.667 Z-12.461
N11575 X0.13 Y-6.666 Z-12.483
N11580 X0.036 Z-12.49
N11585 G3 X-0.726 Y-6.855 I-0.012 J-1.583
N11590 G1 X-1.175 Y-7.116
N11595 X-9.588 Y-11.973
N11600 G3 X-9.844 Y-12.658 I0.318 J-0.509
N11605 G1 X-9.816 Y-12.747 Z-12.483
N11610 X-9.789 Y-12.835 Z-12.461
N11615 X-9.764 Y-12.918 Z-12.425
N11620 X-9.741 Y-12.995 Z-12.375
N11625 X-9.72 Y-13.063 Z-12.314
N11630 X-9.702 Y-13.122 Z-12.243
N11635 X-9.687 Y-13.169 Z-12.162
N11640 X-9.677 Y-13.203 Z-12.075
N11645 X-9.67 Y-13.224 Z-11.984
N11650 X-9.668 Y-13.231 Z-11.89
N11655 G0 Z5.
N11660 X-17.275 Y16.739
N11665 Z-11.29
N11670 G1 Z-11.89 F1800.
N11675 X-17.27 Y16.734 Z-11.984
N11680 X-17.257 Y16.716 Z-12.075
N11685 X-17.235 Y16.687 Z-12.162
N11690 X-17.205 Y16.648 Z-12.243
N11695 X-17.168 Y16.6 Z-12.314
N11700 X-17.124 Y16.543 Z-12.375
N11705 X-17.076 Y16.479 Z-12.425
N11710 X-17.023 Y16.41 Z-12.461
N11715 X-16.967 Y16.337 Z-12.483
N11720 X-16.91 Y16.263 Z-12.49
N11725 G3 X-16.293 Y15.777 I1.257 J0.962
N11730 G1 X-15.967 Y15.646
N11735 X-15.801 Y15.559
N11740 X-14.291 Y14.689
N11745 X-14.011 Y14.545
N11750 X-13.758 Y14.427
N11755 X-13.443 Y14.3
N11760 X-13.059 Y14.17
N11765 X-12.563 Y14.033
N11770 X-11.908 Y13.891
N11775 X-10.989 Y13.745
N11780 X-10.036 Y13.649
N11785 X-9.081 Y13.587
N11790 X-8.124 Y13.548
N11795 X-7.166 Y13.522
N11800 X-6.209 Y13.505
N11805 X-5.252 Y13.458
N11810 X-4.349 Y13.139
N11815 X-3.58 Y12.568
N11820 X-2.975 Y11.826
N11825 X-2.525 Y10.98
N11830 X-2.202 Y10.079
N11835 X-1.977 Y9.148
N11840 X-1.822 Y8.203
N11845 X-1.797 Y8.071
N11850 X-1.703 Y7.766
N11855 X-1.547 Y7.488
N11860 X-1.336 Y7.249
N11865 X-1.079 Y7.06
N11870 X-0.726 Y6.855
N11875 X-0.522 Y6.722
N11880 X-0.4 Y6.637
N11885 X-0.305 Y6.56
N11890 X-0.138 Y6.42
N11895 X-0.087 Y6.374
N11900 X0.075 Y6.202
N11905 X0.131 Y6.141
N11910 X0.247 Y6.001
N11915 G3 X0.965 Y5.867 I0.447 J0.401
N11920 G1 X1.049 Y5.909 Z-12.483
N11925 X1.131 Y5.951 Z-12.461
N11930 X1.208 Y5.99 Z-12.425
N11935 X1.28 Y6.026 Z-12.375
N11940 X1.344 Y6.059 Z-12.314
N11945 X1.398 Y6.086 Z-12.243
N11950 X1.442 Y6.109 Z-12.162
N11955 X1.474 Y6.125 Z-12.075
N11960 X1.494 Y6.135 Z-11.984
N11965 X1.5 Y6.138 Z-11.89
N11970 G0 Z5.
N11975 X-15.127 Y15.781
N11980 Z-11.29
N11985 G1 Z-11.89 F1800.
N11990 X-15.123 Y15.774 Z-11.984
N11995 X-15.112 Y15.755 Z-12.075
N12000 X-15.095 Y15.724 Z-12.162
N12005 X-15.071 Y15.681 Z-12.243
N12010 X-15.041 Y15.628 Z-12.314
N12015 X-15.006 Y15.565 Z-12.375
N12020 X-14.967 Y15.495 Z-12.425
N12025 X-14.924 Y15.419 Z-12.461
N12030 X-14.879 Y15.339 Z-12.483
N12035 X-14.833 Y15.257 Z-12.49
N12040 G3 X-14.291 Y14.689 I1.381 J0.774
N12045 G1 X-11.653 Y13.166
N12050 X-11.432 Y13.053
N12055 X-11.143 Y12.923
N12060 X-10.804 Y12.793
N12065 X-10.365 Y12.653
N12070 X-9.818 Y12.511
N12075 X-9.074 Y12.363
N12080 X-8.126 Y12.228
N12085 X-7.174 Y12.126
N12090 X-6.245 Y11.892
N12095 X-5.421 Y11.404
N12100 X-4.75 Y10.721
N12105 X-4.236 Y9.913
N12110 X-3.843 Y9.039
N12115 X-3.819 Y8.983
N12120 X-3.662 Y8.706
N12125 X-3.45 Y8.469
N12130 X-3.193 Y8.281
N12135 X-1.079 Y7.06
N12140 G3 X-0.358 Y7.179 I0.283 J0.529
N12145 G1 X-0.293 Y7.247 Z-12.483
N12150 X-0.231 Y7.314 Z-12.461
N12155 X-0.171 Y7.377 Z-12.425
N12160 X-0.116 Y7.436 Z-12.375
N12165 X-0.067 Y7.488 Z-12.314
N12170 X-0.025 Y7.533 Z-12.243
N12175 X0.008 Y7.568 Z-12.162
N12180 X0.033 Y7.595 Z-12.075
N12185 X0.048 Y7.611 Z-11.984
N12190 X0.053 Y7.616 Z-11.89
N12195 G0 Z5.
N12200 X-12.488 Y14.258
N12205 Z-11.29
N12210 G1 Z-11.89 F1800.
N12215 X-12.485 Y14.251 Z-11.984
N12220 X-12.474 Y14.232 Z-12.075
N12225 X-12.456 Y14.201 Z-12.162
N12230 X-12.432 Y14.158 Z-12.243
N12235 X-12.402 Y14.104 Z-12.314
N12240 X-12.367 Y14.042 Z-12.375
N12245 X-12.328 Y13.972 Z-12.425
N12250 X-12.286 Y13.896 Z-12.461
N12255 X-12.241 Y13.816 Z-12.483
N12260 X-12.195 Y13.734 Z-12.49
N12265 G3 X-11.653 Y13.166 I1.381 J0.774
N12270 G1 X-3.193 Y8.281
N12275 G3 X-2.473 Y8.402 I0.282 J0.53
N12280 G1 X-2.409 Y8.471 Z-12.483
N12285 X-2.346 Y8.537 Z-12.461
N12290 X-2.287 Y8.601 Z-12.425
N12295 X-2.232 Y8.66 Z-12.375
N12300 X-2.183 Y8.712 Z-12.314
N12305 X-2.141 Y8.757 Z-12.243
N12310 X-2.108 Y8.793 Z-12.162
N12315 X-2.083 Y8.819 Z-12.075
N12320 X-2.068 Y8.835 Z-11.984
N12325 X-2.063 Y8.841 Z-11.89
N12330 G0 Z15.
(2D CONTOUR2)
N12335 G0 X-67.3 Y-0.6
N12340 Z15.
N12345 Z5.
N12350 G1 Z1. F400.
N12355 Z-12.4
N12360 G18 G2 X-66.7 Z-13. I0.6 K0. F1800.
N12365 G1 X-66.1
N12370 G17 G3 X-65.5 Y0. I0. J0.6
N12375 G1 Y11.5
N12380 G2 X-64.621 Y13.621 I3. J0.
N12385 G1 X-63.621 Y14.621
N12390 G2 X-61.5 Y15.5 I2.121 J-2.121
N12395 G1 X-17.5
N12400 G2 X-16. Y15.098 I0. J-3.
N12405 G1 X-1. Y6.438
N12410 G2 X0.5 Y3.84 I-1.5 J-2.598
N12415 G1 Y-3.84
N12420 G2 X-1. Y-6.438 I-3. J0.
N12425 G1 X-16. Y-15.098
N12430 G2 X-17.5 Y-15.5 I-1.5 J2.598
N12435 G1 X-61.5
N12440 G2 X-63.621 Y-14.621 I0. J3.
N12445 G1 X-64.621 Y-13.621
N12450 G2 X-65.5 Y-11.5 I2.121 J2.121
N12455 G1 Y0.
N12460 G3 X-66.1 Y0.6 I-0.6 J0.
N12465 G1 X-66.7
N12470 G18 G3 X-67.3 Z-12.4 I0. K0.6
N12475 G0 Z15.
N12480 G17
(2D POCKET1)
N12485 G0 X-2.827 Y8.527
N12490 Z15.
N12495 Z5.
N12500 G1 Z-6.4 F1800.
N12505 G19 G2 Y7.927 Z-7. J-0.6 K0.
N12510 G1 Y7.367
N12515 Y-7.371
N12520 G17 G3 X-0.743 Y-7.373 I1.042 J0.
N12525 G1 X-0.733 Y-0.149
N12530 X-0.736 Y-0.076
N12535 X-0.743 Y-0.002
N12540 X-1.785 Y7.367
N12545 G3 X-2.158 Y8.029 I-1.032 J-0.146
N12550 G1 X-5.3 Y10.59
N12555 G3 X-7. Y9.783 I-0.659 J-0.807
N12560 G1 Y-8.459
N12565 Y-9.779
N12570 X-6.993 Y-9.873
N12575 X-6.941 Y-10.197
N12580 X-6.927 Y-10.289 Z-6.993
N12585 X-6.912 Y-10.38 Z-6.971
N12590 X-6.899 Y-10.466 Z-6.935
N12595 X-6.886 Y-10.545 Z-6.885
N12600 X-6.875 Y-10.616 Z-6.824
N12605 X-6.865 Y-10.676 Z-6.753
N12610 X-6.858 Y-10.725 Z-6.672
N12615 X-6.852 Y-10.76 Z-6.585
N12620 X-6.849 Y-10.782 Z-6.494
N12625 X-6.847 Y-10.789 Z-6.4
N12630 G0 Z15.
(2D CONTOUR7)
N12635 G0 X-5.7 Y9.059
N12640 Z15.
N12645 Z5.
N12650 G1 Z1. F400.
N12655 Z-6.4
N12660 G18 G3 X-6.3 Z-7. I-0.6 K0. F1800.
N12665 G1 X-6.9
N12670 G17 G3 X-7.5 Y8.459 I0. J-0.6
N12675 G1 Y-8.459
N12680 G3 X-6.9 Y-9.059 I0.6 J0.
N12685 G1 X-6.3
N12690 G18 G2 X-5.7 Z-6.4 I0. K0.6
N12695 G0 Z15.
N12700 G17
N12705 M5
N12710 G53 G0 Z0.
(DRILL1)
N12715 M9
N12720 M1
N12725 T11 M6
N12730 T1
N12735 S15915 M3
N12740 G54
N12745 M8
N12750 G0 X-54.5 Y0.
N12755 G43 Z15. H11
N12760 G0 Z5.
N12765 G98 G81 X-54.5 Y0. Z-15.202 R4. F400.
N12770 G80
N12775 G0 Z15.
N12780 M5
N12785 G53 Z0.
(2D CHAMFER1)
N12790 M9
N12795 M1
N12800 T1 M6
N12805 T16
N12810 S5000 M3
N12815 G54
N12820 M8
N12825 G0 X-37.5 Y-2.6
N12830 G43 Z15. H1
N12835 G0 Z5.
N12840 G1 Z2. F333.33
N12845 Z-2.5
N12850 Y-3.2 F1000.
N12855 X-20.5
N12860 G3 Y3.2 I0. J3.2
N12865 G1 X-37.5
N12870 G3 Y-3.2 I0. J-3.2
N12875 G1 Y-2.6
N12880 G0 Z5.
N12885 X-64.15 Y0.
N12890 G1 Z2. F333.33
N12895 Z-2.5
N12900 X-63.55 F1000.
N12905 Y11.5
N12910 G2 X-63.242 Y12.242 I1.05 J0.
N12915 G1 X-62.242 Y13.242
N12920 G2 X-61.5 Y13.55 I0.742 J-0.742
N12925 G1 X-17.5
N12930 G2 X-16.975 Y13.409 I0. J-1.05
N12935 G1 X-9.975 Y9.368
N12940 G2 X-9.45 Y8.459 I-0.525 J-0.909
N12945 G1 Y-8.459
N12950 G2 X-9.975 Y-9.368 I-1.05 J0.
N12955 G1 X-16.975 Y-13.409
N12960 G2 X-17.5 Y-13.55 I-0.525 J0.909
N12965 G1 X-61.5
N12970 G2 X-62.242 Y-13.242 I0. J1.05
N12975 G1 X-63.242 Y-12.242
N12980 G2 X-63.55 Y-11.5 I0.742 J0.742
N12985 G1 Y0.
N12990 X-64.15
N12995 G0 Z15.
N13000 M9
N13005 G53 Z0.
N13010 M30
%
