%
(CLAMP_SETUP_2)
(T1  D=6. CR=0. TAPER=45DEG - ZMIN=-1.5 - CHAMFER MILL)
(T16  D=6. CR=0.5 - ZMIN=-12. - BULLNOSE END MILL)
N10 G90 G94 G17 G91.1
N15 G21
N20 G53 G0 Z0.
(BORE2)
N25 T16 M6
N30 T1
N35 S17000 M3
N40 G54
N45 M8
N50 G0 X7.895 Y12.305
N55 G43 Z15. H16
N60 G0 Z4.4
N65 G1 Z3. F1800.
N70 X8.195
N75 G3 X8.39 Y12.5 I0. J0.195
N80 X7.61 Z2.75 I-0.39 J0.
N85 X8.39 Z2.5 I0.39 J0.
N90 X7.61 Z2.25 I-0.39 J0.
N95 X8.39 Z2. I0.39 J0.
N100 X7.61 Z1.75 I-0.39 J0.
N105 X8.39 Z1.5 I0.39 J0.
N110 X7.61 Z1.25 I-0.39 J0.
N115 X8.39 Z1. I0.39 J0.
N120 X7.61 Z0.75 I-0.39 J0.
N125 X8.39 Z0.5 I0.39 J0.
N130 X7.61 Z0.25 I-0.39 J0.
N135 X8.39 Z0. I0.39 J0.
N140 X7.61 Z-0.25 I-0.39 J0.
N145 X8.39 Z-0.5 I0.39 J0.
N150 X7.61 Z-0.75 I-0.39 J0.
N155 X8.39 Z-1. I0.39 J0.
N160 X7.61 Z-1.25 I-0.39 J0.
N165 X8.39 Z-1.5 I0.39 J0.
N170 X7.61 Z-1.75 I-0.39 J0.
N175 X8.39 Z-2. I0.39 J0.
N180 X7.61 Z-2.25 I-0.39 J0.
N185 X8.39 Z-2.5 I0.39 J0.
N190 X7.61 Z-2.75 I-0.39 J0.
N195 X8.39 Z-3. I0.39 J0.
N200 X7.61 Z-3.25 I-0.39 J0.
N205 X8.39 Z-3.5 I0.39 J0.
N210 X7.61 Z-3.75 I-0.39 J0.
N215 X8.39 Z-4. I0.39 J0.
N220 X7.61 Z-4.25 I-0.39 J0.
N225 X8.39 Z-4.5 I0.39 J0.
N230 X7.61 Z-4.75 I-0.39 J0.
N235 X8.39 Z-5. I0.39 J0.
N240 X7.61 Z-5.25 I-0.39 J0.
N245 X8.39 Z-5.5 I0.39 J0.
N250 X7.61 Z-5.75 I-0.39 J0.
N255 X8.39 Z-6. I0.39 J0.
N260 X7.61 Z-6.25 I-0.39 J0.
N265 X8.39 Z-6.5 I0.39 J0.
N270 X7.61 Z-6.75 I-0.39 J0.
N275 X8.39 Z-7. I0.39 J0.
N280 X7.61 Z-7.25 I-0.39 J0.
N285 X8.39 Z-7.5 I0.39 J0.
N290 X7.61 Z-7.75 I-0.39 J0.
N295 X8.39 Z-8. I0.39 J0.
N300 X7.61 Z-8.25 I-0.39 J0.
N305 X8.39 Z-8.5 I0.39 J0.
N310 X7.61 Z-8.75 I-0.39 J0.
N315 X8.39 Z-9. I0.39 J0.
N320 X7.61 Z-9.25 I-0.39 J0.
N325 X8.39 Z-9.5 I0.39 J0.
N330 X7.61 Z-9.75 I-0.39 J0.
N335 X8.39 Z-10. I0.39 J0.
N340 X7.61 Z-10.25 I-0.39 J0.
N345 X8.39 Z-10.5 I0.39 J0.
N350 X7.61 Z-10.75 I-0.39 J0.
N355 X8.39 Z-11. I0.39 J0.
N360 X7.61 Z-11.25 I-0.39 J0.
N365 X8.39 Z-11.5 I0.39 J0.
N370 X7.61 Z-11.75 I-0.39 J0.
N375 X8.39 Z-12. I0.39 J0.
N380 X7.61 I-0.39 J0.
N385 X8.39 I0.39 J0.
N390 X8.195 Y12.695 I-0.195 J0.
N395 G1 X7.895
N400 G0 Z15.
N405 M5
N410 G53 Z0.
(2D CHAMFER2)
N415 M9
N420 M1
N425 T1 M6
N430 T16
N435 S18000 M3
N440 G54
N445 M8
N450 G0 X25. Y15.1
N455 G43 Z15. H1
N460 G0 Z5.
N465 G1 Z2. F500.
N470 Z-1.5
N475 Y15.7 F1500.
N480 G3 Y9.3 I0. J-3.2
N485 G1 X42.
N490 G3 Y15.7 I0. J3.2
N495 G1 X25.
N500 Y15.1
N505 G0 Z5.
N510 X-1.65 Y12.5
N515 G1 Z2. F500.
N520 Z-1.5
N525 X-1.05 F1500.
N530 Y24.
N535 G2 X-0.742 Y24.742 I1.05 J0.
N540 G1 X0.258 Y25.742
N545 G2 X1. Y26.05 I0.742 J-0.742
N550 G1 X45.
N555 G2 X45.525 Y25.909 I0. J-1.05
N560 G1 X60.525 Y17.249
N565 G2 X61.05 Y16.34 I-0.525 J-0.909
N570 G1 Y8.66
N575 G2 X60.525 Y7.751 I-1.05 J0.
N580 G1 X45.525 Y-0.909
N585 G2 X45. Y-1.05 I-0.525 J0.909
N590 G1 X1.
N595 G2 X0.258 Y-0.742 I0. J1.05
N600 G1 X-0.742 Y0.258
N605 G2 X-1.05 Y1. I0.742 J0.742
N610 G1 Y12.5
N615 X-1.65
N620 G0 Z15.
N625 M9
N630 G53 Z0.
N635 M30
%
