%
(T1  D=6. CR=0. TAPER=45DEG - ZMIN=-6.55 - CHAMFER MILL)
(T11  D=4. CR=0. TAPER=118DEG - ZMIN=-17.202 - DRILL)
(T17  D=6. CR=0. - ZMIN=-12.5 - BULLNOSE END MILL)
(T21  D=5.72 CR=0. - ZMIN=-14.456 - THREAD MILL)
(T22  D=6.8 CR=0. TAPER=118DEG - ZMIN=-18.043 - DRILL)
N10 G90 G94 G17 G91.1
N15 G21
N20 G53 G0 Z0.
(FACE2)
N25 T17 M6
N30 S13000 M3
N35 G54
N40 M8
N45 G0 X88.04 Y7.845
N50 G43 Z15. H17
N55 G0 Z5.
N60 G1 Z0.3 F400.
N65 G19 G2 Y7.245 Z-0.3 J-0.6 K0. F1560.
N70 G1 Y4.886
N75 Y-34.886
N80 Y-35.
N85 G17 G2 X84.121 I-1.96 J0.
N90 G1 Y5.
N95 G3 X80.201 I-1.96 J0.
N100 G1 Y-35.
N105 G2 X76.282 I-1.96 J0.
N110 G1 Y5.
N115 G3 X72.362 I-1.96 J0.
N120 G1 Y-35.
N125 G2 X68.442 I-1.96 J0.
N130 G1 Y5.
N135 G3 X64.523 I-1.96 J0.
N140 G1 Y-35.
N145 G2 X60.603 I-1.96 J0.
N150 G1 Y5.
N155 G3 X56.684 I-1.96 J0.
N160 G1 Y-35.
N165 G2 X52.764 I-1.96 J0.
N170 G1 Y5.
N175 G3 X48.845 I-1.96 J0.
N180 G1 Y-35.
N185 G2 X44.925 I-1.96 J0.
N190 G1 Y5.
N195 G3 X41.005 I-1.96 J0.
N200 G1 Y-35.
N205 G2 X37.086 I-1.96 J0.
N210 G1 Y5.
N215 G3 X33.166 I-1.96 J0.
N220 G1 Y-35.
N225 G2 X29.247 I-1.96 J0.
N230 G1 Y5.
N235 G3 X25.327 I-1.96 J0.
N240 G1 Y-35.
N245 G2 X21.407 I-1.96 J0.
N250 G1 Y5.
N255 G3 X17.488 I-1.96 J0.
N260 G1 Y-35.
N265 G2 X13.568 I-1.96 J0.
N270 G1 Y5.
N275 G3 X9.649 I-1.96 J0.
N280 G1 Y-35.
N285 G2 X5.729 I-1.96 J0.
N290 G1 Y5.
N295 G3 X1.81 I-1.96 J0.
N300 G1 Y-35.
N305 G2 X-2.11 I-1.96 J0.
N310 G1 Y5.
N315 G19 G3 Y5.6 Z0.3 J0. K0.6
N320 G0 Z15.
N325 G17
(2D ADAPTIVE3)
N330 G0 X62.432 Y-15.817
N335 Z15.
N340 Z5.
N345 Z2.5
N350 G3 X63.598 Y-14.917 Z2.377 I0.299 J0.817 F400.
N355 X62.285 Y-14.257 Z2.254 I-0.864 J-0.083
N360 X62.258 Y-15.722 Z2.132 I0.448 J-0.741
N365 X63.588 Y-15.115 Z2.009 I0.474 J0.722
N370 X62.468 Y-14.18 Z1.886 I-0.854 J0.115
N375 X62.11 Y-15.591 Z1.763 I0.265 J-0.818
N380 X63.533 Y-15.304 Z1.64 I0.621 J0.591
N385 X62.662 Y-14.148 Z1.518 I-0.8 J0.304
N390 X61.998 Y-15.43 Z1.395 I0.072 J-0.85
N395 X63.437 Y-15.475 Z1.272 I0.734 J0.431
N400 X62.856 Y-14.16 Z1.149 I-0.704 J0.474
N405 X61.925 Y-15.25 Z1.026 I-0.123 J-0.838
N410 X63.306 Y-15.618 Z0.904 I0.806 J0.251
N415 X63.042 Y-14.217 Z0.781 I-0.573 J0.617
N420 X61.896 Y-15.059 Z0.658 I-0.308 J-0.782
N425 X63.147 Y-15.726 Z0.535 I0.836 J0.06
N430 X63.208 Y-14.313 Z0.412 I-0.415 J0.726
N435 X61.91 Y-14.868 Z0.289 I-0.474 J-0.686
N440 X62.969 Y-15.796 Z0.167 I0.821 J-0.13
N445 X63.347 Y-14.443 Z0.044 I-0.237 J0.795
N450 X61.968 Y-14.687 Z-0.079 I-0.613 J-0.556
N455 X62.781 Y-15.822 Z-0.202 I0.764 J-0.312
N460 X63.452 Y-14.601 Z-0.325 I-0.049 J0.822
N465 X62.064 Y-14.525 Z-0.447 I-0.718 J-0.399
N470 X62.594 Y-15.805 Z-0.57 I0.668 J-0.474
N475 X63.517 Y-14.776 Z-0.693 I0.138 J0.805
N480 X62.194 Y-14.39 Z-0.816 I-0.783 J-0.223
N485 X62.417 Y-15.747 Z-0.939 I0.539 J-0.608
N490 X63.541 Y-14.961 Z-1.061 I0.315 J0.747
N495 X62.35 Y-14.289 Z-1.184 I-0.807 J-0.039
N500 X62.259 Y-15.65 Z-1.307 I0.383 J-0.709
N505 X63.522 Y-15.145 Z-1.43 I0.473 J0.65
N510 X62.523 Y-14.226 Z-1.553 I-0.789 J0.145
N515 X62.128 Y-15.521 Z-1.675 I0.21 J-0.772
N520 X63.462 Y-15.318 Z-1.798 I0.603 J0.521
N525 X62.705 Y-14.205 Z-1.921 I-0.729 J0.318
N530 X62.031 Y-15.367 Z-2.044 I0.029 J-0.793
N535 X63.366 Y-15.472 Z-2.167 I0.701 J0.367
N540 X62.885 Y-14.226 Z-2.289 I-0.632 J0.472
N545 X61.972 Y-15.196 Z-2.412 I-0.151 J-0.772
N550 X63.237 Y-15.599 Z-2.535 I0.76 J0.197
N555 X63.054 Y-14.287 Z-2.658 I-0.504 J0.598
N560 X61.954 Y-15.017 Z-2.781 I-0.32 J-0.712
N565 X63.085 Y-15.692 Z-2.904 I0.778 J0.019
N570 X63.204 Y-14.384 Z-3.026 I-0.352 J0.692
N575 X61.976 Y-14.841 Z-3.149 I-0.47 J-0.615
N580 X62.916 Y-15.748 Z-3.272 I0.756 J-0.158
N585 X63.326 Y-14.511 Z-3.395 I-0.184 J0.747
N590 X62.038 Y-14.676 Z-3.518 I-0.593 J-0.488
N595 X62.741 Y-15.763 Z-3.64 I0.694 J-0.323
N600 X63.416 Y-14.662 Z-3.763 I-0.009 J0.763
N605 X62.135 Y-14.53 Z-3.886 I-0.682 J-0.337
N610 X62.568 Y-15.739 Z-4.009 I0.597 J-0.468
N615 X63.469 Y-14.828 Z-4.132 I0.163 J0.739
N620 X62.261 Y-14.411 Z-4.254 I-0.735 J-0.172
N625 X62.407 Y-15.676 Z-4.377 I0.471 J-0.587
N630 X63.482 Y-15. Z-4.5 I0.324 J0.677
N635 X61.981 I-0.75 J0.
N640 X63.482 I0.75 J0.
N645 S15000
N650 G1 X63.522 Y-14.453 F900.
N655 X63.521 Y-14.303
N660 X63.45 Y-14.123
N665 X63.333 Y-13.969
N670 X63.181 Y-13.85
N675 X63.002 Y-13.775
N680 X62.811 Y-13.75
N685 X62.329
N690 X62.179 Y-13.757
N695 X62.033 Y-13.789
N700 X61.892 Y-13.84
N705 X61.758 Y-13.908
N710 X61.633 Y-13.991
N715 X61.519 Y-14.089
N720 X61.417 Y-14.198
N725 X61.327 Y-14.319
N730 X61.25 Y-14.448
N735 X61.188 Y-14.584
N740 X61.14 Y-14.726
N745 X61.108 Y-15.003
N750 X61.139 Y-15.281
N755 X61.231 Y-15.544
N760 X61.38 Y-15.781
N765 X61.577 Y-15.978
N770 X61.813 Y-16.127
N775 X62.077 Y-16.219
N780 X62.354 Y-16.25
N785 X63.134
N790 X63.284 Y-16.241
N795 X63.431 Y-16.209
N800 X63.572 Y-16.159
N805 X63.705 Y-16.091
N810 X63.831 Y-16.008
N815 X63.954 Y-15.912
N820 X64.076 Y-15.8
N825 X64.182 Y-15.684
N830 X64.275 Y-15.566
N835 X64.358 Y-15.441
N840 X64.464 Y-15.167
N845 X64.496 Y-14.875
N850 X64.454 Y-14.585
N855 X64.339 Y-14.315
N860 X64.158 Y-14.083
N865 X63.925 Y-13.905
N870 X63.654 Y-13.792
N875 X63.363 Y-13.752
N880 X63.134 Y-13.75
N885 X62.811
N890 G3 X62.232 Y-14.37 Z-4.3 I0.021 J-0.6
N895 G1 X62.238 Y-14.433
N900 X62.25 Y-14.494
N905 X62.532 Y-15.634
N910 X62.572 Y-15.795 Z-4.335
N915 X62.574 Y-15.802 Z-4.337
N920 G3 X63.134 Y-16.25 Z-4.5 I0.58 J0.152
N925 G1 X63.738 Y-16.245
N930 X63.939 Y-16.228
N935 X64.141 Y-16.199
N940 X64.342 Y-16.163
N945 X64.543 Y-16.079
N950 X64.61 Y-16.046
N955 X64.678 Y-16.005
N960 X64.744 Y-15.952
N965 X64.907 Y-15.804
N970 X64.946 Y-15.757
N975 X65.047 Y-15.603
N980 X65.103 Y-15.503
N985 X65.14 Y-15.402
N990 X65.195 Y-15.201
N995 X65.206 Y-15.101
N1000 Y-14.899
N1005 X65.195 Y-14.799
N1010 X65.14 Y-14.598
N1015 X65.103 Y-14.497
N1020 X65.047 Y-14.397
N1025 X64.946 Y-14.243
N1030 X64.907 Y-14.196
N1035 X64.744 Y-14.048
N1040 X64.678 Y-13.995
N1045 X64.61 Y-13.954
N1050 X64.543 Y-13.921
N1055 X64.342 Y-13.837
N1060 X64.141 Y-13.801
N1065 X63.939 Y-13.772
N1070 X63.738 Y-13.755
N1075 X63.363 Y-13.752
N1080 G3 X62.758 Y-14.347 Z-4.3 I-0.005 J-0.6
N1085 X63.958 Y-14.357 I0.6 J-0.005
N1090 X63.296 Y-13.755 I-0.6 J0.005
N1095 G1 X62.526 Y-13.835
N1100 G3 X62.649 Y-15.029 I0.062 J-0.597
N1105 X63.126 Y-14.167 I-0.062 J0.597
N1110 X62.894 Y-13.916 Z-4.374 I-0.539 J-0.264
N1115 X62.329 Y-13.75 Z-4.5 I-0.607 J-1.02
N1120 G1 X61.463
N1125 X61.313 Y-13.757
N1130 X61.166 Y-13.786
N1135 X61.024 Y-13.834
N1140 X60.89 Y-13.902
N1145 X60.765 Y-13.985
N1150 X60.651 Y-14.082
N1155 X60.547 Y-14.191
N1160 X60.455 Y-14.309
N1165 X60.375 Y-14.436
N1170 X60.306 Y-14.569
N1175 X60.25 Y-14.708
N1180 X60.2 Y-14.981
N1185 X60.215 Y-15.259
N1190 X60.294 Y-15.526
N1195 X60.433 Y-15.767
N1200 X60.623 Y-15.969
N1205 X60.855 Y-16.122
N1210 X61.116 Y-16.218
N1215 X61.392 Y-16.25
N1220 X62.354
N1225 G3 X62.933 Y-15.63 Z-4.3 I-0.021 J0.6
N1230 X62.828 Y-15.311 I-0.6 J-0.02
N1235 G1 X62.152 Y-14.325
N1240 X62.054 Y-14.181 Z-4.337
N1245 X61.937 Y-14.011 Z-4.381
N1250 G3 X61.463 Y-13.75 Z-4.5 I-0.495 J-0.339
N1255 G1 X60.558
N1260 X60.409 Y-13.757
N1265 X60.261 Y-13.787
N1270 X60.12 Y-13.837
N1275 X59.986 Y-13.904
N1280 X59.861 Y-13.987
N1285 X59.746 Y-14.083
N1290 X59.64 Y-14.19
N1295 X59.547 Y-14.307
N1300 X59.465 Y-14.433
N1305 X59.394 Y-14.565
N1310 X59.314 Y-14.852
N1315 X59.306 Y-15.15
N1320 X59.371 Y-15.442
N1325 X59.505 Y-15.708
N1330 X59.699 Y-15.934
N1335 X59.943 Y-16.106
N1340 X60.221 Y-16.213
N1345 X60.517 Y-16.25
N1350 X61.392
N1355 G3 X61.971 Y-15.63 Z-4.3 I-0.021 J0.6
N1360 X61.877 Y-15.327 I-0.6 J-0.02
N1365 G1 X61.238 Y-14.331
N1370 X61.144 Y-14.185 Z-4.337
N1375 X61.043 Y-14.026 Z-4.377
N1380 G3 X60.558 Y-13.75 Z-4.5 I-0.505 J-0.324
N1385 G1 X59.652
N1390 X59.502 Y-13.757
N1395 X59.355 Y-13.788
N1400 X59.214 Y-13.838
N1405 X59.08 Y-13.906
N1410 X58.956 Y-13.99
N1415 X58.841 Y-14.087
N1420 X58.737 Y-14.195
N1425 X58.645 Y-14.313
N1430 X58.563 Y-14.439
N1435 X58.495 Y-14.573
N1440 X58.438 Y-14.712
N1445 X58.387 Y-14.984
N1450 X58.4 Y-15.26
N1455 X58.477 Y-15.526
N1460 X58.613 Y-15.767
N1465 X58.802 Y-15.969
N1470 X59.033 Y-16.122
N1475 X59.292 Y-16.218
N1480 X59.567 Y-16.25
N1485 X60.517
N1490 G3 X61.095 Y-15.63 Z-4.3 I-0.021 J0.6
N1495 X60.995 Y-15.318 I-0.6 J-0.02
N1500 G1 X60.337 Y-14.328
N1505 X60.24 Y-14.183 Z-4.337
N1510 X60.13 Y-14.017 Z-4.379
N1515 G3 X59.652 Y-13.75 Z-4.5 I-0.5 J-0.332
N1520 G1 X58.747
N1525 X58.597 Y-13.757
N1530 X58.45 Y-13.787
N1535 X58.309 Y-13.838
N1540 X58.174 Y-13.904
N1545 X58.049 Y-13.987
N1550 X57.934 Y-14.082
N1555 X57.828 Y-14.189
N1560 X57.734 Y-14.306
N1565 X57.652 Y-14.431
N1570 X57.581 Y-14.563
N1575 X57.499 Y-14.85
N1580 X57.491 Y-15.149
N1585 X57.555 Y-15.44
N1590 X57.688 Y-15.707
N1595 X57.882 Y-15.933
N1600 X58.126 Y-16.106
N1605 X58.404 Y-16.213
N1610 X58.7 Y-16.25
N1615 X59.567
N1620 G3 X60.146 Y-15.63 Z-4.3 I-0.021 J0.6
N1625 X60.054 Y-15.33 I-0.6 J-0.02
N1630 G1 X59.424 Y-14.332
N1635 X59.332 Y-14.185 Z-4.337
N1640 X59.233 Y-14.03 Z-4.376
N1645 G3 X58.747 Y-13.75 Z-4.5 I-0.507 J-0.32
N1650 G1 X57.84
N1655 X57.69 Y-13.757
N1660 X57.543 Y-13.788
N1665 X57.402 Y-13.837
N1670 X57.268 Y-13.905
N1675 X57.143 Y-13.989
N1680 X57.028 Y-14.085
N1685 X56.924 Y-14.193
N1690 X56.832 Y-14.311
N1695 X56.75 Y-14.437
N1700 X56.681 Y-14.57
N1705 X56.624 Y-14.709
N1710 X56.572 Y-14.981
N1715 X56.585 Y-15.258
N1720 X56.661 Y-15.524
N1725 X56.798 Y-15.766
N1730 X56.986 Y-15.969
N1735 X57.217 Y-16.122
N1740 X57.478 Y-16.218
N1745 X57.753 Y-16.25
N1750 X58.7
N1755 G3 X59.279 Y-15.63 Z-4.3 I-0.021 J0.6
N1760 X59.18 Y-15.32 I-0.6 J-0.02
N1765 G1 X58.524 Y-14.328
N1770 X58.428 Y-14.183 Z-4.337
N1775 X58.32 Y-14.019 Z-4.379
N1780 G3 X57.84 Y-13.75 Z-4.5 I-0.501 J-0.331
N1785 G1 X56.935
N1790 X56.786 Y-13.757
N1795 X56.638 Y-13.787
N1800 X56.497 Y-13.837
N1805 X56.363 Y-13.903
N1810 X56.237 Y-13.985
N1815 X56.121 Y-14.08
N1820 X56.015 Y-14.187
N1825 X55.921 Y-14.304
N1830 X55.839 Y-14.429
N1835 X55.767 Y-14.561
N1840 X55.686 Y-14.848
N1845 X55.676 Y-15.147
N1850 X55.74 Y-15.438
N1855 X55.873 Y-15.706
N1860 X56.067 Y-15.933
N1865 X56.311 Y-16.105
N1870 X56.59 Y-16.213
N1875 X56.886 Y-16.25
N1880 X57.753
N1885 G3 X58.331 Y-15.63 Z-4.3 I-0.021 J0.6
N1890 X58.24 Y-15.331 I-0.6 J-0.02
N1895 G1 X57.612 Y-14.333
N1900 X57.52 Y-14.186 Z-4.337
N1905 X57.422 Y-14.03 Z-4.376
N1910 G3 X56.935 Y-13.75 Z-4.5 I-0.508 J-0.319
N1915 G1 X56.029
N1920 X55.879 Y-13.757
N1925 X55.732 Y-13.787
N1930 X55.59 Y-13.837
N1935 X55.456 Y-13.904
N1940 X55.331 Y-13.987
N1945 X55.216 Y-14.083
N1950 X55.112 Y-14.191
N1955 X55.019 Y-14.309
N1960 X54.937 Y-14.435
N1965 X54.868 Y-14.568
N1970 X54.811 Y-14.707
N1975 X54.759 Y-14.979
N1980 X54.771 Y-15.256
N1985 X54.847 Y-15.523
N1990 X54.984 Y-15.765
N1995 X55.173 Y-15.968
N2000 X55.404 Y-16.122
N2005 X55.664 Y-16.217
N2010 X55.94 Y-16.25
N2015 X56.886
N2020 G3 X57.465 Y-15.63 Z-4.3 I-0.021 J0.6
N2025 X57.366 Y-15.32 I-0.6 J-0.02
N2030 G1 X56.712 Y-14.328
N2035 X56.617 Y-14.183 Z-4.337
N2040 X56.509 Y-14.019 Z-4.379
N2045 G3 X56.029 Y-13.75 Z-4.5 I-0.501 J-0.33
N2050 G1 X55.124
N2055 X54.974 Y-13.757
N2060 X54.827 Y-13.786
N2065 X54.685 Y-13.836
N2070 X54.551 Y-13.902
N2075 X54.425 Y-13.984
N2080 X54.309 Y-14.079
N2085 X54.203 Y-14.185
N2090 X54.109 Y-14.302
N2095 X54.026 Y-14.427
N2100 X53.955 Y-14.559
N2105 X53.872 Y-14.846
N2110 X53.863 Y-15.145
N2115 X53.927 Y-15.437
N2120 X54.06 Y-15.705
N2125 X54.254 Y-15.932
N2130 X54.498 Y-16.105
N2135 X54.777 Y-16.213
N2140 X55.073 Y-16.25
N2145 X55.94
N2150 G3 X56.518 Y-15.63 Z-4.3 I-0.021 J0.6
N2155 X56.427 Y-15.332 I-0.6 J-0.02
N2160 G1 X55.801 Y-14.333
N2165 X55.708 Y-14.186 Z-4.337
N2170 X55.611 Y-14.031 Z-4.376
N2175 G3 X55.124 Y-13.75 Z-4.5 I-0.508 J-0.319
N2180 G1 X54.217
N2185 X54.067 Y-13.757
N2190 X53.92 Y-13.787
N2195 X53.778 Y-13.836
N2200 X53.644 Y-13.903
N2205 X53.519 Y-13.986
N2210 X53.404 Y-14.082
N2215 X53.3 Y-14.19
N2220 X53.207 Y-14.308
N2225 X53.125 Y-14.433
N2230 X53.056 Y-14.566
N2235 X52.999 Y-14.705
N2240 X52.946 Y-14.978
N2245 X52.958 Y-15.255
N2250 X53.034 Y-15.522
N2255 X53.17 Y-15.764
N2260 X53.359 Y-15.968
N2265 X53.591 Y-16.122
N2270 X53.851 Y-16.217
N2275 X54.127 Y-16.25
N2280 X55.073
N2285 G3 X55.652 Y-15.63 Z-4.3 I-0.021 J0.6
N2290 X55.553 Y-15.32 I-0.6 J-0.02
N2295 G1 X54.901 Y-14.329
N2300 X54.805 Y-14.183 Z-4.337
N2305 X54.697 Y-14.02 Z-4.379
N2310 G3 X54.217 Y-13.75 Z-4.5 I-0.501 J-0.33
N2315 G1 X53.312
N2320 X53.163 Y-13.757
N2325 X53.015 Y-13.786
N2330 X52.874 Y-13.835
N2335 X52.739 Y-13.902
N2340 X52.613 Y-13.983
N2345 X52.497 Y-14.078
N2350 X52.391 Y-14.184
N2355 X52.297 Y-14.301
N2360 X52.214 Y-14.426
N2365 X52.142 Y-14.558
N2370 X52.06 Y-14.845
N2375 X52.05 Y-15.144
N2380 X52.114 Y-15.437
N2385 X52.247 Y-15.705
N2390 X52.441 Y-15.932
N2395 X52.685 Y-16.105
N2400 X52.964 Y-16.213
N2405 X53.261 Y-16.25
N2410 X54.127
N2415 G3 X54.706 Y-15.63 Z-4.3 I-0.021 J0.6
N2420 X54.615 Y-15.332 I-0.6 J-0.02
N2425 G1 X53.989 Y-14.333
N2430 X53.897 Y-14.186 Z-4.337
N2435 X53.8 Y-14.031 Z-4.376
N2440 G3 X53.312 Y-13.75 Z-4.5 I-0.508 J-0.318
N2445 G1 X52.406
N2450 X52.256 Y-13.757
N2455 X52.109 Y-13.787
N2460 X51.967 Y-13.836
N2465 X51.833 Y-13.903
N2470 X51.708 Y-13.986
N2475 X51.592 Y-14.081
N2480 X51.488 Y-14.189
N2485 X51.395 Y-14.307
N2490 X51.313 Y-14.433
N2495 X51.244 Y-14.566
N2500 X51.186 Y-14.704
N2505 X51.133 Y-14.977
N2510 X51.145 Y-15.255
N2515 X51.222 Y-15.522
N2520 X51.358 Y-15.764
N2525 X51.547 Y-15.967
N2530 X51.778 Y-16.121
N2535 X52.039 Y-16.217
N2540 X52.315 Y-16.25
N2545 X53.261
N2550 G3 X53.84 Y-15.63 Z-4.3 I-0.021 J0.6
N2555 X53.741 Y-15.321 I-0.6 J-0.02
N2560 G1 X53.089 Y-14.329
N2565 X52.994 Y-14.184 Z-4.337
N2570 X52.886 Y-14.02 Z-4.378
N2575 G3 X52.406 Y-13.75 Z-4.5 I-0.501 J-0.33
N2580 G1 X51.501
N2585 X51.351 Y-13.757
N2590 X51.204 Y-13.786
N2595 X51.062 Y-13.835
N2600 X50.927 Y-13.901
N2605 X50.801 Y-13.983
N2610 X50.685 Y-14.078
N2615 X50.579 Y-14.184
N2620 X50.485 Y-14.301
N2625 X50.402 Y-14.425
N2630 X50.33 Y-14.557
N2635 X50.248 Y-14.845
N2640 X50.238 Y-15.144
N2645 X50.301 Y-15.436
N2650 X50.434 Y-15.704
N2655 X50.629 Y-15.932
N2660 X50.873 Y-16.105
N2665 X51.152 Y-16.213
N2670 X51.449 Y-16.25
N2675 X52.315
N2680 G3 X52.894 Y-15.63 Z-4.3 I-0.021 J0.6
N2685 X52.803 Y-15.332 I-0.6 J-0.02
N2690 G1 X52.177 Y-14.333
N2695 X52.085 Y-14.186 Z-4.337
N2700 X51.989 Y-14.031 Z-4.376
N2705 G3 X51.501 Y-13.75 Z-4.5 I-0.509 J-0.318
N2710 G1 X50.594
N2715 X50.444 Y-13.757
N2720 X50.297 Y-13.787
N2725 X50.155 Y-13.836
N2730 X50.021 Y-13.902
N2735 X49.896 Y-13.985
N2740 X49.781 Y-14.081
N2745 X49.676 Y-14.189
N2750 X49.583 Y-14.306
N2755 X49.501 Y-14.432
N2760 X49.432 Y-14.565
N2765 X49.374 Y-14.704
N2770 X49.321 Y-14.976
N2775 X49.333 Y-15.254
N2780 X49.409 Y-15.521
N2785 X49.546 Y-15.764
N2790 X49.735 Y-15.967
N2795 X49.966 Y-16.121
N2800 X50.227 Y-16.217
N2805 X50.503 Y-16.25
N2810 X51.449
N2815 G3 X52.028 Y-15.63 Z-4.3 I-0.021 J0.6
N2820 X51.929 Y-15.321 I-0.6 J-0.02
N2825 G1 X51.277 Y-14.329
N2830 X51.182 Y-14.184 Z-4.337
N2835 X51.075 Y-14.02 Z-4.378
N2840 G3 X50.594 Y-13.75 Z-4.5 I-0.501 J-0.329
N2845 G1 X49.689
N2850 X49.54 Y-13.757
N2855 X49.392 Y-13.786
N2860 X49.251 Y-13.835
N2865 X49.116 Y-13.901
N2870 X48.99 Y-13.982
N2875 X48.874 Y-14.077
N2880 X48.768 Y-14.184
N2885 X48.673 Y-14.3
N2890 X48.59 Y-14.425
N2895 X48.519 Y-14.557
N2900 X48.436 Y-14.844
N2905 X48.426 Y-15.144
N2910 X48.489 Y-15.436
N2915 X48.622 Y-15.704
N2920 X48.817 Y-15.932
N2925 X49.061 Y-16.105
N2930 X49.34 Y-16.213
N2935 X49.637 Y-16.25
N2940 X50.503
N2945 G3 X51.082 Y-15.63 Z-4.3 I-0.021 J0.6
N2950 X50.991 Y-15.332 I-0.6 J-0.02
N2955 G1 X50.366 Y-14.333
N2960 X50.274 Y-14.186 Z-4.337
N2965 X50.177 Y-14.031 Z-4.376
N2970 G3 X49.689 Y-13.75 Z-4.5 I-0.509 J-0.318
N2975 G1 X48.783
N2980 X48.633 Y-13.757
N2985 X48.486 Y-13.786
N2990 X48.344 Y-13.835
N2995 X48.21 Y-13.902
N3000 X48.085 Y-13.985
N3005 X47.969 Y-14.081
N3010 X47.865 Y-14.188
N3015 X47.771 Y-14.306
N3020 X47.689 Y-14.432
N3025 X47.62 Y-14.565
N3030 X47.563 Y-14.703
N3035 X47.509 Y-14.976
N3040 X47.521 Y-15.254
N3045 X47.597 Y-15.521
N3050 X47.734 Y-15.763
N3055 X47.923 Y-15.967
N3060 X48.154 Y-16.121
N3065 X48.415 Y-16.217
N3070 X48.691 Y-16.25
N3075 X49.637
N3080 G3 X50.216 Y-15.63 Z-4.3 I-0.021 J0.6
N3085 X50.118 Y-15.321 I-0.6 J-0.02
N3090 G1 X49.466 Y-14.329
N3095 X49.37 Y-14.184 Z-4.337
N3100 X49.263 Y-14.02 Z-4.378
N3105 G3 X48.783 Y-13.75 Z-4.5 I-0.501 J-0.329
N3110 G1 X47.878
N3115 X47.728 Y-13.757
N3120 X47.581 Y-13.786
N3125 X47.439 Y-13.835
N3130 X47.304 Y-13.901
N3135 X47.178 Y-13.982
N3140 X47.062 Y-14.077
N3145 X46.956 Y-14.183
N3150 X46.862 Y-14.3
N3155 X46.779 Y-14.425
N3160 X46.707 Y-14.557
N3165 X46.624 Y-14.844
N3170 X46.614 Y-15.143
N3175 X46.678 Y-15.436
N3180 X46.811 Y-15.704
N3185 X47.005 Y-15.932
N3190 X47.249 Y-16.105
N3195 X47.528 Y-16.213
N3200 X47.825 Y-16.25
N3205 X48.691
N3210 G3 X49.27 Y-15.63 Z-4.3 I-0.021 J0.6
N3215 X49.179 Y-15.332 I-0.6 J-0.02
N3220 G1 X48.554 Y-14.333
N3225 X48.462 Y-14.186 Z-4.337
N3230 X48.366 Y-14.032 Z-4.376
N3235 G3 X47.878 Y-13.75 Z-4.5 I-0.509 J-0.318
N3240 G1 X46.971
N3245 X46.821 Y-13.757
N3250 X46.674 Y-13.786
N3255 X46.532 Y-13.835
N3260 X46.398 Y-13.902
N3265 X46.273 Y-13.985
N3270 X46.157 Y-14.081
N3275 X46.053 Y-14.188
N3280 X45.96 Y-14.306
N3285 X45.878 Y-14.431
N3290 X45.808 Y-14.564
N3295 X45.751 Y-14.703
N3300 X45.698 Y-14.976
N3305 X45.709 Y-15.254
N3310 X45.786 Y-15.521
N3315 X45.922 Y-15.763
N3320 X46.111 Y-15.967
N3325 X46.343 Y-16.121
N3330 X46.603 Y-16.217
N3335 X46.88 Y-16.25
N3340 X47.825
N3345 G3 X48.404 Y-15.63 Z-4.3 I-0.021 J0.6
N3350 X48.306 Y-15.321 I-0.6 J-0.02
N3355 G1 X47.654 Y-14.329
N3360 X47.559 Y-14.184 Z-4.337
N3365 X47.452 Y-14.02 Z-4.378
N3370 G3 X46.971 Y-13.75 Z-4.5 I-0.502 J-0.329
N3375 G1 X46.066
N3380 X45.917 Y-13.757
N3385 X45.769 Y-13.786
N3390 X45.627 Y-13.835
N3395 X45.493 Y-13.901
N3400 X45.367 Y-13.982
N3405 X45.251 Y-14.077
N3410 X45.145 Y-14.183
N3415 X45.05 Y-14.3
N3420 X44.967 Y-14.425
N3425 X44.895 Y-14.556
N3430 X44.813 Y-14.844
N3435 X44.803 Y-15.143
N3440 X44.866 Y-15.436
N3445 X44.999 Y-15.704
N3450 X45.193 Y-15.932
N3455 X45.437 Y-16.105
N3460 X45.717 Y-16.213
N3465 X46.014 Y-16.25
N3470 X46.88
N3475 G3 X47.458 Y-15.63 Z-4.3 I-0.021 J0.6
N3480 X47.367 Y-15.332 I-0.6 J-0.02
N3485 G1 X46.743 Y-14.333
N3490 X46.651 Y-14.186 Z-4.337
N3495 X46.554 Y-14.032 Z-4.376
N3500 G3 X46.066 Y-13.75 Z-4.5 I-0.509 J-0.318
N3505 G1 X45.11
N3510 X44.96 Y-13.757
N3515 X44.815 Y-13.794
N3520 X44.675 Y-13.849
N3525 X44.544 Y-13.922
N3530 X44.422 Y-14.009
N3535 X44.31 Y-14.109
N3540 X44.209 Y-14.22
N3545 X44.119 Y-14.34
N3550 X44.041 Y-14.468
N3555 X43.976 Y-14.603
N3560 X43.904 Y-14.887
N3565 X43.903 Y-15.18
N3570 X43.972 Y-15.465
N3575 X44.108 Y-15.724
N3580 X44.301 Y-15.944
N3585 X44.542 Y-16.111
N3590 X44.816 Y-16.215
N3595 X45.106 Y-16.25
N3600 X46.014
N3605 G3 X46.592 Y-15.63 Z-4.3 I-0.021 J0.6
N3610 X46.485 Y-15.308 I-0.6 J-0.02
N3615 G1 X45.801 Y-14.323
N3620 X45.702 Y-14.181 Z-4.337
N3625 X45.582 Y-14.007 Z-4.382
N3630 G3 X45.11 Y-13.75 Z-4.5 I-0.493 J-0.342
N3635 G1 X44.214
N3640 X44.064 Y-13.757
N3645 X43.919 Y-13.793
N3650 X43.779 Y-13.848
N3655 X43.647 Y-13.919
N3660 X43.525 Y-14.006
N3665 X43.412 Y-14.105
N3670 X43.31 Y-14.215
N3675 X43.22 Y-14.335
N3680 X43.141 Y-14.463
N3685 X43.075 Y-14.597
N3690 X43.003 Y-14.882
N3695 X43.001 Y-15.176
N3700 X43.07 Y-15.461
N3705 X43.205 Y-15.722
N3710 X43.399 Y-15.942
N3715 X43.64 Y-16.11
N3720 X43.915 Y-16.214
N3725 X44.207 Y-16.25
N3730 X45.106
N3735 G3 X45.685 Y-15.63 Z-4.3 I-0.021 J0.6
N3740 X45.58 Y-15.311 I-0.6 J-0.02
N3745 G1 X44.904 Y-14.325
N3750 X44.805 Y-14.181 Z-4.337
N3755 X44.688 Y-14.01 Z-4.381
N3760 G3 X44.214 Y-13.75 Z-4.5 I-0.495 J-0.339
N3765 G1 X43.348
N3770 X43.198 Y-13.757
N3775 X43.051 Y-13.787
N3780 X42.91 Y-13.837
N3785 X42.776 Y-13.904
N3790 X42.651 Y-13.988
N3795 X42.536 Y-14.084
N3800 X42.432 Y-14.192
N3805 X42.339 Y-14.31
N3810 X42.258 Y-14.436
N3815 X42.189 Y-14.569
N3820 X42.132 Y-14.708
N3825 X42.08 Y-14.98
N3830 X42.092 Y-15.257
N3835 X42.169 Y-15.524
N3840 X42.305 Y-15.765
N3845 X42.494 Y-15.968
N3850 X42.725 Y-16.122
N3855 X42.985 Y-16.218
N3860 X43.261 Y-16.25
N3865 X44.207
N3870 G3 X44.785 Y-15.63 Z-4.3 I-0.021 J0.6
N3875 X44.686 Y-15.32 I-0.6 J-0.02
N3880 G1 X44.032 Y-14.328
N3885 X43.936 Y-14.183 Z-4.337
N3890 X43.828 Y-14.019 Z-4.379
N3895 G3 X43.348 Y-13.75 Z-4.5 I-0.501 J-0.33
N3900 G1 X42.443
N3905 X42.294 Y-13.757
N3910 X42.146 Y-13.786
N3915 X42.005 Y-13.836
N3920 X41.87 Y-13.903
N3925 X41.745 Y-13.985
N3930 X41.629 Y-14.08
N3935 X41.523 Y-14.186
N3940 X41.429 Y-14.303
N3945 X41.346 Y-14.428
N3950 X41.275 Y-14.56
N3955 X41.193 Y-14.848
N3960 X41.184 Y-15.146
N3965 X41.248 Y-15.438
N3970 X41.381 Y-15.706
N3975 X41.575 Y-15.933
N3980 X41.819 Y-16.105
N3985 X42.097 Y-16.213
N3990 X42.394 Y-16.25
N3995 X43.261
N4000 G3 X43.839 Y-15.63 Z-4.3 I-0.021 J0.6
N4005 X43.748 Y-15.331 I-0.6 J-0.02
N4010 G1 X43.12 Y-14.333
N4015 X43.028 Y-14.186 Z-4.337
N4020 X42.93 Y-14.03 Z-4.376
N4025 G3 X42.443 Y-13.75 Z-4.5 I-0.508 J-0.319
N4030 G1 X41.537
N4035 X41.387 Y-13.757
N4040 X41.24 Y-13.787
N4045 X41.098 Y-13.836
N4050 X40.964 Y-13.904
N4055 X40.839 Y-13.987
N4060 X40.724 Y-14.083
N4065 X40.62 Y-14.191
N4070 X40.527 Y-14.309
N4075 X40.445 Y-14.434
N4080 X40.376 Y-14.568
N4085 X40.319 Y-14.706
N4090 X40.266 Y-14.979
N4095 X40.278 Y-15.256
N4100 X40.355 Y-15.523
N4105 X40.491 Y-15.765
N4110 X40.68 Y-15.968
N4115 X40.911 Y-16.122
N4120 X41.172 Y-16.217
N4125 X41.447 Y-16.25
N4130 X42.394
N4135 G3 X42.973 Y-15.63 Z-4.3 I-0.021 J0.6
N4140 X42.874 Y-15.32 I-0.6 J-0.02
N4145 G1 X42.22 Y-14.328
N4150 X42.125 Y-14.183 Z-4.337
N4155 X42.017 Y-14.019 Z-4.379
N4160 G3 X41.537 Y-13.75 Z-4.5 I-0.501 J-0.33
N4165 G1 X40.632
N4170 X40.482 Y-13.757
N4175 X40.335 Y-13.786
N4180 X40.193 Y-13.836
N4185 X40.059 Y-13.902
N4190 X39.933 Y-13.984
N4195 X39.817 Y-14.079
N4200 X39.711 Y-14.185
N4205 X39.617 Y-14.302
N4210 X39.534 Y-14.427
N4215 X39.463 Y-14.559
N4220 X39.38 Y-14.846
N4225 X39.371 Y-15.145
N4230 X39.434 Y-15.437
N4235 X39.567 Y-15.705
N4240 X39.762 Y-15.932
N4245 X40.006 Y-16.105
N4250 X40.284 Y-16.213
N4255 X40.581 Y-16.25
N4260 X41.447
N4265 G3 X42.026 Y-15.63 Z-4.3 I-0.021 J0.6
N4270 X41.935 Y-15.332 I-0.6 J-0.02
N4275 G1 X41.309 Y-14.333
N4280 X41.216 Y-14.186 Z-4.337
N4285 X41.119 Y-14.031 Z-4.376
N4290 G3 X40.632 Y-13.75 Z-4.5 I-0.508 J-0.319
N4295 G1 X39.725
N4300 X39.575 Y-13.757
N4305 X39.428 Y-13.787
N4310 X39.286 Y-13.836
N4315 X39.152 Y-13.903
N4320 X39.027 Y-13.986
N4325 X38.912 Y-14.082
N4330 X38.808 Y-14.19
N4335 X38.715 Y-14.307
N4340 X38.633 Y-14.433
N4345 X38.564 Y-14.566
N4350 X38.506 Y-14.705
N4355 X38.453 Y-14.978
N4360 X38.465 Y-15.255
N4365 X38.542 Y-15.522
N4370 X38.678 Y-15.764
N4375 X38.867 Y-15.968
N4380 X39.098 Y-16.122
N4385 X39.359 Y-16.217
N4390 X39.635 Y-16.25
N4395 X40.581
N4400 G3 X41.16 Y-15.63 Z-4.3 I-0.021 J0.6
N4405 X41.061 Y-15.321 I-0.6 J-0.02
N4410 G1 X40.409 Y-14.329
N4415 X40.313 Y-14.183 Z-4.337
N4420 X40.205 Y-14.02 Z-4.378
N4425 G3 X39.725 Y-13.75 Z-4.5 I-0.501 J-0.33
N4430 G1 X38.82
N4435 X38.67 Y-13.757
N4440 X38.523 Y-13.786
N4445 X38.382 Y-13.835
N4450 X38.247 Y-13.901
N4455 X38.121 Y-13.983
N4460 X38.005 Y-14.078
N4465 X37.899 Y-14.184
N4470 X37.805 Y-14.301
N4475 X37.722 Y-14.426
N4480 X37.65 Y-14.558
N4485 X37.568 Y-14.845
N4490 X37.558 Y-15.144
N4495 X37.622 Y-15.437
N4500 X37.755 Y-15.705
N4505 X37.949 Y-15.932
N4510 X38.193 Y-16.105
N4515 X38.472 Y-16.213
N4520 X38.769 Y-16.25
N4525 X39.635
N4530 G3 X40.214 Y-15.63 Z-4.3 I-0.021 J0.6
N4535 X40.122 Y-15.332 I-0.6 J-0.02
N4540 G1 X39.497 Y-14.333
N4545 X39.405 Y-14.186 Z-4.337
N4550 X39.308 Y-14.031 Z-4.376
N4555 G3 X38.82 Y-13.75 Z-4.5 I-0.509 J-0.318
N4560 G1 X37.914
N4565 X37.764 Y-13.757
N4570 X37.617 Y-13.787
N4575 X37.475 Y-13.836
N4580 X37.341 Y-13.903
N4585 X37.216 Y-13.986
N4590 X37.1 Y-14.081
N4595 X36.996 Y-14.189
N4600 X36.903 Y-14.307
N4605 X36.821 Y-14.432
N4610 X36.751 Y-14.565
N4615 X36.694 Y-14.704
N4620 X36.641 Y-14.977
N4625 X36.653 Y-15.254
N4630 X36.729 Y-15.522
N4635 X36.866 Y-15.764
N4640 X37.055 Y-15.967
N4645 X37.286 Y-16.121
N4650 X37.547 Y-16.217
N4655 X37.823 Y-16.25
N4660 X38.769
N4665 G3 X39.347 Y-15.63 Z-4.3 I-0.021 J0.6
N4670 X39.249 Y-15.321 I-0.6 J-0.02
N4675 G1 X38.597 Y-14.329
N4680 X38.501 Y-14.184 Z-4.337
N4685 X38.394 Y-14.02 Z-4.378
N4690 G3 X37.914 Y-13.75 Z-4.5 I-0.501 J-0.33
N4695 G1 X37.009
N4700 X36.859 Y-13.757
N4705 X36.712 Y-13.786
N4710 X36.57 Y-13.835
N4715 X36.435 Y-13.901
N4720 X36.309 Y-13.983
N4725 X36.193 Y-14.078
N4730 X36.087 Y-14.184
N4735 X35.993 Y-14.3
N4740 X35.91 Y-14.425
N4745 X35.838 Y-14.557
N4750 X35.756 Y-14.845
N4755 X35.746 Y-15.144
N4760 X35.809 Y-15.436
N4765 X35.942 Y-15.704
N4770 X36.137 Y-15.932
N4775 X36.381 Y-16.105
N4780 X36.66 Y-16.213
N4785 X36.957 Y-16.25
N4790 X37.823
N4795 G3 X38.401 Y-15.63 Z-4.3 I-0.021 J0.6
N4800 X38.31 Y-15.332 I-0.6 J-0.02
N4805 G1 X37.685 Y-14.333
N4810 X37.593 Y-14.186 Z-4.337
N4815 X37.496 Y-14.031 Z-4.376
N4820 G3 X37.009 Y-13.75 Z-4.5 I-0.509 J-0.318
N4825 G1 X36.102
N4830 X35.952 Y-13.757
N4835 X35.805 Y-13.787
N4840 X35.663 Y-13.835
N4845 X35.529 Y-13.902
N4850 X35.404 Y-13.985
N4855 X35.288 Y-14.081
N4860 X35.184 Y-14.189
N4865 X35.091 Y-14.306
N4870 X35.009 Y-14.432
N4875 X34.94 Y-14.565
N4880 X34.882 Y-14.704
N4885 X34.829 Y-14.976
N4890 X34.841 Y-15.254
N4895 X34.917 Y-15.521
N4900 X35.054 Y-15.764
N4905 X35.243 Y-15.967
N4910 X35.474 Y-16.121
N4915 X35.735 Y-16.217
N4920 X36.011 Y-16.25
N4925 X36.957
N4930 G3 X37.535 Y-15.63 Z-4.3 I-0.021 J0.6
N4935 X37.437 Y-15.321 I-0.6 J-0.02
N4940 G1 X36.785 Y-14.329
N4945 X36.69 Y-14.184 Z-4.337
N4950 X36.583 Y-14.02 Z-4.378
N4955 G3 X36.102 Y-13.75 Z-4.5 I-0.501 J-0.329
N4960 G1 X35.197
N4965 X35.047 Y-13.757
N4970 X34.9 Y-13.786
N4975 X34.758 Y-13.835
N4980 X34.624 Y-13.901
N4985 X34.498 Y-13.982
N4990 X34.382 Y-14.077
N4995 X34.276 Y-14.183
N5000 X34.181 Y-14.3
N5005 X34.098 Y-14.425
N5010 X34.027 Y-14.557
N5015 X33.944 Y-14.844
N5020 X33.934 Y-15.144
N5025 X33.997 Y-15.436
N5030 X34.13 Y-15.704
N5035 X34.325 Y-15.932
N5040 X34.569 Y-16.105
N5045 X34.848 Y-16.213
N5050 X35.145 Y-16.25
N5055 X36.011
N5060 G3 X36.59 Y-15.63 Z-4.3 I-0.021 J0.6
N5065 X36.499 Y-15.332 I-0.6 J-0.02
N5070 G1 X35.874 Y-14.333
N5075 X35.782 Y-14.186 Z-4.337
N5080 X35.685 Y-14.031 Z-4.376
N5085 G3 X35.197 Y-13.75 Z-4.5 I-0.509 J-0.318
N5090 G1 X34.291
N5095 X34.141 Y-13.757
N5100 X33.994 Y-13.786
N5105 X33.852 Y-13.835
N5110 X33.717 Y-13.902
N5115 X33.592 Y-13.985
N5120 X33.477 Y-14.081
N5125 X33.372 Y-14.188
N5130 X33.279 Y-14.306
N5135 X33.197 Y-14.432
N5140 X33.128 Y-14.565
N5145 X33.071 Y-14.703
N5150 X33.017 Y-14.976
N5155 X33.029 Y-15.254
N5160 X33.105 Y-15.521
N5165 X33.242 Y-15.763
N5170 X33.431 Y-15.967
N5175 X33.662 Y-16.121
N5180 X33.923 Y-16.217
N5185 X34.199 Y-16.25
N5190 X35.145
N5195 G3 X35.724 Y-15.63 Z-4.3 I-0.021 J0.6
N5200 X35.625 Y-15.321 I-0.6 J-0.02
N5205 G1 X34.974 Y-14.329
N5210 X34.878 Y-14.184 Z-4.337
N5215 X34.771 Y-14.02 Z-4.378
N5220 G3 X34.291 Y-13.75 Z-4.5 I-0.501 J-0.329
N5225 G1 X33.386
N5230 X33.236 Y-13.757
N5235 X33.089 Y-13.786
N5240 X32.947 Y-13.835
N5245 X32.812 Y-13.901
N5250 X32.686 Y-13.982
N5255 X32.57 Y-14.077
N5260 X32.464 Y-14.183
N5265 X32.37 Y-14.3
N5270 X32.287 Y-14.425
N5275 X32.215 Y-14.556
N5280 X32.132 Y-14.844
N5285 X32.122 Y-15.143
N5290 X32.186 Y-15.436
N5295 X32.318 Y-15.704
N5300 X32.513 Y-15.932
N5305 X32.757 Y-16.105
N5310 X33.036 Y-16.213
N5315 X33.333 Y-16.25
N5320 X34.199
N5325 G3 X34.778 Y-15.63 Z-4.3 I-0.021 J0.6
N5330 X34.687 Y-15.332 I-0.6 J-0.02
N5335 G1 X34.062 Y-14.333
N5340 X33.97 Y-14.186 Z-4.337
N5345 X33.874 Y-14.032 Z-4.376
N5350 G3 X33.386 Y-13.75 Z-4.5 I-0.509 J-0.318
N5355 G1 X32.479
N5360 X32.329 Y-13.757
N5365 X32.182 Y-13.786
N5370 X32.04 Y-13.835
N5375 X31.906 Y-13.902
N5380 X31.781 Y-13.985
N5385 X31.665 Y-14.081
N5390 X31.561 Y-14.188
N5395 X31.468 Y-14.306
N5400 X31.386 Y-14.431
N5405 X31.316 Y-14.564
N5410 X31.259 Y-14.703
N5415 X31.206 Y-14.976
N5420 X31.217 Y-15.254
N5425 X31.294 Y-15.521
N5430 X31.43 Y-15.763
N5435 X31.619 Y-15.967
N5440 X31.85 Y-16.121
N5445 X32.111 Y-16.217
N5450 X32.387 Y-16.25
N5455 X33.333
N5460 G3 X33.912 Y-15.63 Z-4.3 I-0.021 J0.6
N5465 X33.814 Y-15.321 I-0.6 J-0.02
N5470 G1 X33.162 Y-14.329
N5475 X33.067 Y-14.184 Z-4.337
N5480 X32.96 Y-14.02 Z-4.378
N5485 G3 X32.479 Y-13.75 Z-4.5 I-0.502 J-0.329
N5490 G1 X31.574
N5495 X31.424 Y-13.757
N5500 X31.277 Y-13.786
N5505 X31.135 Y-13.835
N5510 X31.001 Y-13.901
N5515 X30.875 Y-13.982
N5520 X30.759 Y-14.077
N5525 X30.652 Y-14.183
N5530 X30.558 Y-14.3
N5535 X30.475 Y-14.425
N5540 X30.403 Y-14.556
N5545 X30.32 Y-14.844
N5550 X30.31 Y-15.143
N5555 X30.374 Y-15.436
N5560 X30.507 Y-15.704
N5565 X30.701 Y-15.932
N5570 X30.945 Y-16.105
N5575 X31.224 Y-16.213
N5580 X31.522 Y-16.25
N5585 X32.387
N5590 G3 X32.966 Y-15.63 Z-4.3 I-0.021 J0.6
N5595 X32.875 Y-15.332 I-0.6 J-0.02
N5600 G1 X32.251 Y-14.333
N5605 X32.159 Y-14.186 Z-4.337
N5610 X32.062 Y-14.032 Z-4.376
N5615 G3 X31.574 Y-13.75 Z-4.5 I-0.509 J-0.318
N5620 G1 X30.618
N5625 X30.468 Y-13.757
N5630 X30.322 Y-13.794
N5635 X30.183 Y-13.849
N5640 X30.052 Y-13.922
N5645 X29.93 Y-14.009
N5650 X29.818 Y-14.109
N5655 X29.717 Y-14.22
N5660 X29.627 Y-14.34
N5665 X29.549 Y-14.468
N5670 X29.484 Y-14.603
N5675 X29.412 Y-14.887
N5680 X29.411 Y-15.18
N5685 X29.48 Y-15.465
N5690 X29.616 Y-15.724
N5695 X29.809 Y-15.944
N5700 X30.05 Y-16.111
N5705 X30.324 Y-16.215
N5710 X30.614 Y-16.25
N5715 X31.522
N5720 G3 X32.1 Y-15.63 Z-4.3 I-0.021 J0.6
N5725 X31.993 Y-15.308 I-0.6 J-0.02
N5730 G1 X31.309 Y-14.323
N5735 X31.21 Y-14.181 Z-4.337
N5740 X31.089 Y-14.007 Z-4.382
N5745 G3 X30.618 Y-13.75 Z-4.5 I-0.493 J-0.342
N5750 G1 X29.722
N5755 X29.572 Y-13.757
N5760 X29.426 Y-13.793
N5765 X29.287 Y-13.848
N5770 X29.155 Y-13.919
N5775 X29.033 Y-14.006
N5780 X28.92 Y-14.105
N5785 X28.818 Y-14.215
N5790 X28.728 Y-14.335
N5795 X28.649 Y-14.463
N5800 X28.583 Y-14.597
N5805 X28.511 Y-14.882
N5810 X28.509 Y-15.176
N5815 X28.578 Y-15.461
N5820 X28.713 Y-15.722
N5825 X28.907 Y-15.942
N5830 X29.148 Y-16.11
N5835 X29.423 Y-16.214
N5840 X29.714 Y-16.25
N5845 X30.614
N5850 G3 X31.193 Y-15.63 Z-4.3 I-0.021 J0.6
N5855 X31.088 Y-15.311 I-0.6 J-0.02
N5860 G1 X30.412 Y-14.325
N5865 X30.313 Y-14.181 Z-4.337
N5870 X30.196 Y-14.01 Z-4.381
N5875 G3 X29.722 Y-13.75 Z-4.5 I-0.495 J-0.339
N5880 G1 X28.856
N5885 X28.706 Y-13.757
N5890 X28.559 Y-13.787
N5895 X28.418 Y-13.837
N5900 X28.284 Y-13.904
N5905 X28.159 Y-13.988
N5910 X28.044 Y-14.084
N5915 X27.94 Y-14.192
N5920 X27.847 Y-14.31
N5925 X27.766 Y-14.436
N5930 X27.697 Y-14.569
N5935 X27.64 Y-14.708
N5940 X27.588 Y-14.98
N5945 X27.6 Y-15.257
N5950 X27.677 Y-15.524
N5955 X27.813 Y-15.765
N5960 X28.002 Y-15.968
N5965 X28.233 Y-16.122
N5970 X28.493 Y-16.218
N5975 X28.769 Y-16.25
N5980 X29.714
N5985 G3 X30.293 Y-15.63 Z-4.3 I-0.021 J0.6
N5990 X30.194 Y-15.32 I-0.6 J-0.02
N5995 G1 X29.54 Y-14.328
N6000 X29.444 Y-14.183 Z-4.337
N6005 X29.336 Y-14.019 Z-4.379
N6010 G3 X28.856 Y-13.75 Z-4.5 I-0.501 J-0.33
N6015 G1 X27.951
N6020 X27.801 Y-13.757
N6025 X27.654 Y-13.786
N6030 X27.513 Y-13.836
N6035 X27.378 Y-13.903
N6040 X27.253 Y-13.985
N6045 X27.137 Y-14.08
N6050 X27.031 Y-14.186
N6055 X26.937 Y-14.303
N6060 X26.854 Y-14.428
N6065 X26.783 Y-14.56
N6070 X26.701 Y-14.848
N6075 X26.692 Y-15.146
N6080 X26.756 Y-15.438
N6085 X26.889 Y-15.706
N6090 X27.083 Y-15.933
N6095 X27.327 Y-16.105
N6100 X27.605 Y-16.213
N6105 X27.902 Y-16.25
N6110 X28.769
N6115 G3 X29.347 Y-15.63 Z-4.3 I-0.021 J0.6
N6120 X29.256 Y-15.331 I-0.6 J-0.02
N6125 G1 X28.628 Y-14.333
N6130 X28.536 Y-14.186 Z-4.337
N6135 X28.438 Y-14.03 Z-4.376
N6140 G3 X27.951 Y-13.75 Z-4.5 I-0.508 J-0.319
N6145 G1 X27.709
N6150 X27.508 Y-13.755
N6155 X26.964 Y-13.794
N6160 X26.815 Y-13.812
N6165 X26.671 Y-13.851
N6170 X26.532 Y-13.91
N6175 X26.403 Y-13.986
N6180 X26.284 Y-14.076
N6185 X26.175 Y-14.179
N6190 X26.014 Y-14.417
N6195 X25.91 Y-14.683
N6200 X25.867 Y-14.966
N6205 X25.887 Y-15.252
N6210 X25.968 Y-15.526
N6215 X26.108 Y-15.776
N6220 X26.299 Y-15.988
N6225 G3 X26.549 Y-15.913 I0.1 J0.12
N6230 G1 X26.685 Y-15.456
N6235 X26.98 Y-14.463
N6240 X27.119 Y-13.994
N6245 G3 X26.964 Y-13.794 I-0.149 J0.044
N6250 G1 X26.904 Y-13.798
N6255 X26.703 Y-13.825
N6260 X26.653 Y-13.838
N6265 X26.602 Y-13.856
N6270 X26.502 Y-13.901
N6275 X26.412 Y-13.942
N6280 X26.322 Y-13.995
N6285 X26.3 Y-14.011
N6290 X26.099 Y-14.19
N6295 X26.052 Y-14.246
N6300 X26.018 Y-14.296
N6305 X25.953 Y-14.397
N6310 X25.898 Y-14.496
N6315 X25.86 Y-14.598
N6320 X25.805 Y-14.799
N6325 X25.794 Y-14.899
N6330 Y-15.101
N6335 X25.805 Y-15.201
N6340 X25.86 Y-15.402
N6345 X25.898 Y-15.504
N6350 X25.953 Y-15.603
N6355 X26.018 Y-15.704
N6360 X26.052 Y-15.754
N6365 X26.099 Y-15.81
N6370 X26.3 Y-15.989
N6375 X26.322 Y-16.005
N6380 X26.412 Y-16.058
N6385 X26.502 Y-16.099
N6390 X26.602 Y-16.144
N6395 X26.653 Y-16.162
N6400 X26.703 Y-16.175
N6405 X26.904 Y-16.202
N6410 X27.508 Y-16.245
N6415 X27.709 Y-16.25
N6420 X27.902
N6425 X27.994 Y-16.24
N6430 X28.083 Y-16.215
N6435 X28.147 Y-16.178 Z-4.495
N6440 X28.21 Y-16.142 Z-4.482
N6445 X28.271 Y-16.106 Z-4.459
N6450 X28.321 Y-16.045 Z-4.421
N6455 X28.367 Y-15.988 Z-4.371
N6460 X28.408 Y-15.938 Z-4.312
N6465 X28.428 Y-15.885 Z-4.241
N6470 X28.444 Y-15.842 Z-4.163
N6475 X28.456 Y-15.811 Z-4.079
N6480 X28.463 Y-15.792 Z-3.991
N6485 X28.465 Y-15.785 Z-3.9
N6490 G0 Z5.
N6495 X62.432 Y-15.817
N6500 Z-2.
N6505 S13000
N6510 G3 X63.598 Y-14.917 Z-2.123 I0.299 J0.817 F400.
N6515 X62.285 Y-14.257 Z-2.246 I-0.864 J-0.083
N6520 X62.258 Y-15.722 Z-2.368 I0.448 J-0.741
N6525 X63.588 Y-15.115 Z-2.491 I0.474 J0.722
N6530 X62.468 Y-14.18 Z-2.614 I-0.854 J0.115
N6535 X62.11 Y-15.591 Z-2.737 I0.265 J-0.818
N6540 X63.533 Y-15.304 Z-2.86 I0.621 J0.591
N6545 X62.662 Y-14.148 Z-2.982 I-0.8 J0.304
N6550 X61.998 Y-15.43 Z-3.105 I0.072 J-0.85
N6555 X63.437 Y-15.475 Z-3.228 I0.734 J0.431
N6560 X62.856 Y-14.16 Z-3.351 I-0.704 J0.474
N6565 X61.925 Y-15.25 Z-3.474 I-0.123 J-0.838
N6570 X63.306 Y-15.618 Z-3.596 I0.806 J0.251
N6575 X63.042 Y-14.217 Z-3.719 I-0.573 J0.617
N6580 X61.896 Y-15.059 Z-3.842 I-0.308 J-0.782
N6585 X63.147 Y-15.726 Z-3.965 I0.836 J0.06
N6590 X63.208 Y-14.313 Z-4.088 I-0.415 J0.726
N6595 X61.91 Y-14.868 Z-4.211 I-0.474 J-0.686
N6600 X62.969 Y-15.796 Z-4.333 I0.821 J-0.13
N6605 X63.347 Y-14.443 Z-4.456 I-0.237 J0.795
N6610 X61.968 Y-14.687 Z-4.579 I-0.613 J-0.556
N6615 X62.781 Y-15.822 Z-4.702 I0.764 J-0.312
N6620 X63.452 Y-14.601 Z-4.825 I-0.049 J0.822
N6625 X62.064 Y-14.525 Z-4.947 I-0.718 J-0.399
N6630 X62.594 Y-15.805 Z-5.07 I0.668 J-0.474
N6635 X63.517 Y-14.776 Z-5.193 I0.138 J0.805
N6640 X62.194 Y-14.39 Z-5.316 I-0.783 J-0.223
N6645 X62.417 Y-15.747 Z-5.439 I0.539 J-0.608
N6650 X63.541 Y-14.961 Z-5.561 I0.315 J0.747
N6655 X62.35 Y-14.289 Z-5.684 I-0.807 J-0.039
N6660 X62.259 Y-15.65 Z-5.807 I0.383 J-0.709
N6665 X63.522 Y-15.145 Z-5.93 I0.473 J0.65
N6670 X62.523 Y-14.226 Z-6.053 I-0.789 J0.145
N6675 X62.128 Y-15.521 Z-6.175 I0.21 J-0.772
N6680 X63.462 Y-15.318 Z-6.298 I0.603 J0.521
N6685 X62.705 Y-14.205 Z-6.421 I-0.729 J0.318
N6690 X62.031 Y-15.367 Z-6.544 I0.029 J-0.793
N6695 X63.366 Y-15.472 Z-6.667 I0.701 J0.367
N6700 X62.885 Y-14.226 Z-6.789 I-0.632 J0.472
N6705 X61.972 Y-15.196 Z-6.912 I-0.151 J-0.772
N6710 X63.237 Y-15.599 Z-7.035 I0.76 J0.197
N6715 X63.054 Y-14.287 Z-7.158 I-0.504 J0.598
N6720 X61.954 Y-15.017 Z-7.281 I-0.32 J-0.712
N6725 X63.085 Y-15.692 Z-7.404 I0.778 J0.019
N6730 X63.204 Y-14.384 Z-7.526 I-0.352 J0.692
N6735 X61.976 Y-14.841 Z-7.649 I-0.47 J-0.615
N6740 X62.916 Y-15.748 Z-7.772 I0.756 J-0.158
N6745 X63.326 Y-14.511 Z-7.895 I-0.184 J0.747
N6750 X62.038 Y-14.676 Z-8.018 I-0.593 J-0.488
N6755 X62.741 Y-15.763 Z-8.14 I0.694 J-0.323
N6760 X63.416 Y-14.662 Z-8.263 I-0.009 J0.763
N6765 X62.135 Y-14.53 Z-8.386 I-0.682 J-0.337
N6770 X62.568 Y-15.739 Z-8.509 I0.597 J-0.468
N6775 X63.469 Y-14.828 Z-8.632 I0.163 J0.739
N6780 X62.261 Y-14.411 Z-8.754 I-0.735 J-0.172
N6785 X62.407 Y-15.676 Z-8.877 I0.471 J-0.587
N6790 X63.482 Y-15. Z-9. I0.324 J0.677
N6795 X61.981 I-0.75 J0.
N6800 X63.482 I0.75 J0.
N6805 S15000
N6810 G1 X63.522 Y-14.453 F900.
N6815 X63.521 Y-14.303
N6820 X63.45 Y-14.123
N6825 X63.333 Y-13.969
N6830 X63.181 Y-13.85
N6835 X63.002 Y-13.775
N6840 X62.811 Y-13.75
N6845 X62.329
N6850 X62.179 Y-13.757
N6855 X62.033 Y-13.789
N6860 X61.892 Y-13.84
N6865 X61.758 Y-13.908
N6870 X61.633 Y-13.991
N6875 X61.519 Y-14.089
N6880 X61.417 Y-14.198
N6885 X61.327 Y-14.319
N6890 X61.25 Y-14.448
N6895 X61.188 Y-14.584
N6900 X61.14 Y-14.726
N6905 X61.108 Y-15.003
N6910 X61.139 Y-15.281
N6915 X61.231 Y-15.544
N6920 X61.38 Y-15.781
N6925 X61.577 Y-15.978
N6930 X61.813 Y-16.127
N6935 X62.077 Y-16.219
N6940 X62.354 Y-16.25
N6945 X63.134
N6950 X63.284 Y-16.241
N6955 X63.431 Y-16.209
N6960 X63.572 Y-16.159
N6965 X63.705 Y-16.091
N6970 X63.831 Y-16.008
N6975 X63.954 Y-15.912
N6980 X64.076 Y-15.8
N6985 X64.182 Y-15.684
N6990 X64.275 Y-15.566
N6995 X64.358 Y-15.441
N7000 X64.464 Y-15.167
N7005 X64.496 Y-14.875
N7010 X64.454 Y-14.585
N7015 X64.339 Y-14.315
N7020 X64.158 Y-14.083
N7025 X63.925 Y-13.905
N7030 X63.654 Y-13.792
N7035 X63.363 Y-13.752
N7040 X63.134 Y-13.75
N7045 X62.811
N7050 G3 X62.232 Y-14.37 Z-8.8 I0.021 J-0.6
N7055 G1 X62.238 Y-14.433
N7060 X62.25 Y-14.494
N7065 X62.532 Y-15.634
N7070 X62.572 Y-15.795 Z-8.835
N7075 X62.574 Y-15.802 Z-8.837
N7080 G3 X63.134 Y-16.25 Z-9. I0.58 J0.152
N7085 G1 X63.738 Y-16.245
N7090 X63.939 Y-16.228
N7095 X64.141 Y-16.199
N7100 X64.342 Y-16.163
N7105 X64.543 Y-16.079
N7110 X64.61 Y-16.046
N7115 X64.678 Y-16.005
N7120 X64.744 Y-15.952
N7125 X64.907 Y-15.804
N7130 X64.946 Y-15.757
N7135 X65.047 Y-15.603
N7140 X65.103 Y-15.503
N7145 X65.14 Y-15.402
N7150 X65.195 Y-15.201
N7155 X65.206 Y-15.101
N7160 Y-14.899
N7165 X65.195 Y-14.799
N7170 X65.14 Y-14.598
N7175 X65.103 Y-14.497
N7180 X65.047 Y-14.397
N7185 X64.946 Y-14.243
N7190 X64.907 Y-14.196
N7195 X64.744 Y-14.048
N7200 X64.678 Y-13.995
N7205 X64.61 Y-13.954
N7210 X64.543 Y-13.921
N7215 X64.342 Y-13.837
N7220 X64.141 Y-13.801
N7225 X63.939 Y-13.772
N7230 X63.738 Y-13.755
N7235 X63.363 Y-13.752
N7240 G3 X62.758 Y-14.347 Z-8.8 I-0.005 J-0.6
N7245 X63.958 Y-14.357 I0.6 J-0.005
N7250 X63.296 Y-13.755 I-0.6 J0.005
N7255 G1 X62.526 Y-13.835
N7260 G3 X62.649 Y-15.029 I0.062 J-0.597
N7265 X63.126 Y-14.167 I-0.062 J0.597
N7270 X62.894 Y-13.916 Z-8.874 I-0.539 J-0.264
N7275 X62.329 Y-13.75 Z-9. I-0.607 J-1.02
N7280 G1 X61.463
N7285 X61.313 Y-13.757
N7290 X61.166 Y-13.786
N7295 X61.024 Y-13.834
N7300 X60.89 Y-13.902
N7305 X60.765 Y-13.985
N7310 X60.651 Y-14.082
N7315 X60.547 Y-14.191
N7320 X60.455 Y-14.309
N7325 X60.375 Y-14.436
N7330 X60.306 Y-14.569
N7335 X60.25 Y-14.708
N7340 X60.2 Y-14.981
N7345 X60.215 Y-15.259
N7350 X60.294 Y-15.526
N7355 X60.433 Y-15.767
N7360 X60.623 Y-15.969
N7365 X60.855 Y-16.122
N7370 X61.116 Y-16.218
N7375 X61.392 Y-16.25
N7380 X62.354
N7385 G3 X62.933 Y-15.63 Z-8.8 I-0.021 J0.6
N7390 X62.828 Y-15.311 I-0.6 J-0.02
N7395 G1 X62.152 Y-14.325
N7400 X62.054 Y-14.181 Z-8.837
N7405 X61.937 Y-14.011 Z-8.881
N7410 G3 X61.463 Y-13.75 Z-9. I-0.495 J-0.339
N7415 G1 X60.558
N7420 X60.409 Y-13.757
N7425 X60.261 Y-13.787
N7430 X60.12 Y-13.837
N7435 X59.986 Y-13.904
N7440 X59.861 Y-13.987
N7445 X59.746 Y-14.083
N7450 X59.64 Y-14.19
N7455 X59.547 Y-14.307
N7460 X59.465 Y-14.433
N7465 X59.394 Y-14.565
N7470 X59.314 Y-14.852
N7475 X59.306 Y-15.15
N7480 X59.371 Y-15.442
N7485 X59.505 Y-15.708
N7490 X59.699 Y-15.934
N7495 X59.943 Y-16.106
N7500 X60.221 Y-16.213
N7505 X60.517 Y-16.25
N7510 X61.392
N7515 G3 X61.971 Y-15.63 Z-8.8 I-0.021 J0.6
N7520 X61.877 Y-15.327 I-0.6 J-0.02
N7525 G1 X61.238 Y-14.331
N7530 X61.144 Y-14.185 Z-8.837
N7535 X61.043 Y-14.026 Z-8.877
N7540 G3 X60.558 Y-13.75 Z-9. I-0.505 J-0.324
N7545 G1 X59.652
N7550 X59.502 Y-13.757
N7555 X59.355 Y-13.788
N7560 X59.214 Y-13.838
N7565 X59.08 Y-13.906
N7570 X58.956 Y-13.99
N7575 X58.841 Y-14.087
N7580 X58.737 Y-14.195
N7585 X58.645 Y-14.313
N7590 X58.563 Y-14.439
N7595 X58.495 Y-14.573
N7600 X58.438 Y-14.712
N7605 X58.387 Y-14.984
N7610 X58.4 Y-15.26
N7615 X58.477 Y-15.526
N7620 X58.613 Y-15.767
N7625 X58.802 Y-15.969
N7630 X59.033 Y-16.122
N7635 X59.292 Y-16.218
N7640 X59.567 Y-16.25
N7645 X60.517
N7650 G3 X61.095 Y-15.63 Z-8.8 I-0.021 J0.6
N7655 X60.995 Y-15.318 I-0.6 J-0.02
N7660 G1 X60.337 Y-14.328
N7665 X60.24 Y-14.183 Z-8.837
N7670 X60.13 Y-14.017 Z-8.879
N7675 G3 X59.652 Y-13.75 Z-9. I-0.5 J-0.332
N7680 G1 X58.747
N7685 X58.597 Y-13.757
N7690 X58.45 Y-13.787
N7695 X58.309 Y-13.838
N7700 X58.174 Y-13.904
N7705 X58.049 Y-13.987
N7710 X57.934 Y-14.082
N7715 X57.828 Y-14.189
N7720 X57.734 Y-14.306
N7725 X57.652 Y-14.431
N7730 X57.581 Y-14.563
N7735 X57.499 Y-14.85
N7740 X57.491 Y-15.149
N7745 X57.555 Y-15.44
N7750 X57.688 Y-15.707
N7755 X57.882 Y-15.933
N7760 X58.126 Y-16.106
N7765 X58.404 Y-16.213
N7770 X58.7 Y-16.25
N7775 X59.567
N7780 G3 X60.146 Y-15.63 Z-8.8 I-0.021 J0.6
N7785 X60.054 Y-15.33 I-0.6 J-0.02
N7790 G1 X59.424 Y-14.332
N7795 X59.332 Y-14.185 Z-8.837
N7800 X59.233 Y-14.03 Z-8.876
N7805 G3 X58.747 Y-13.75 Z-9. I-0.507 J-0.32
N7810 G1 X57.84
N7815 X57.69 Y-13.757
N7820 X57.543 Y-13.788
N7825 X57.402 Y-13.837
N7830 X57.268 Y-13.905
N7835 X57.143 Y-13.989
N7840 X57.028 Y-14.085
N7845 X56.924 Y-14.193
N7850 X56.832 Y-14.311
N7855 X56.75 Y-14.437
N7860 X56.681 Y-14.57
N7865 X56.624 Y-14.709
N7870 X56.572 Y-14.981
N7875 X56.585 Y-15.258
N7880 X56.661 Y-15.524
N7885 X56.798 Y-15.766
N7890 X56.986 Y-15.969
N7895 X57.217 Y-16.122
N7900 X57.478 Y-16.218
N7905 X57.753 Y-16.25
N7910 X58.7
N7915 G3 X59.279 Y-15.63 Z-8.8 I-0.021 J0.6
N7920 X59.18 Y-15.32 I-0.6 J-0.02
N7925 G1 X58.524 Y-14.328
N7930 X58.428 Y-14.183 Z-8.837
N7935 X58.32 Y-14.019 Z-8.879
N7940 G3 X57.84 Y-13.75 Z-9. I-0.501 J-0.331
N7945 G1 X56.935
N7950 X56.786 Y-13.757
N7955 X56.638 Y-13.787
N7960 X56.497 Y-13.837
N7965 X56.363 Y-13.903
N7970 X56.237 Y-13.985
N7975 X56.121 Y-14.08
N7980 X56.015 Y-14.187
N7985 X55.921 Y-14.304
N7990 X55.839 Y-14.429
N7995 X55.767 Y-14.561
N8000 X55.686 Y-14.848
N8005 X55.676 Y-15.147
N8010 X55.74 Y-15.438
N8015 X55.873 Y-15.706
N8020 X56.067 Y-15.933
N8025 X56.311 Y-16.105
N8030 X56.59 Y-16.213
N8035 X56.886 Y-16.25
N8040 X57.753
N8045 G3 X58.331 Y-15.63 Z-8.8 I-0.021 J0.6
N8050 X58.24 Y-15.331 I-0.6 J-0.02
N8055 G1 X57.612 Y-14.333
N8060 X57.52 Y-14.186 Z-8.837
N8065 X57.422 Y-14.03 Z-8.876
N8070 G3 X56.935 Y-13.75 Z-9. I-0.508 J-0.319
N8075 G1 X56.029
N8080 X55.879 Y-13.757
N8085 X55.732 Y-13.787
N8090 X55.59 Y-13.837
N8095 X55.456 Y-13.904
N8100 X55.331 Y-13.987
N8105 X55.216 Y-14.083
N8110 X55.112 Y-14.191
N8115 X55.019 Y-14.309
N8120 X54.937 Y-14.435
N8125 X54.868 Y-14.568
N8130 X54.811 Y-14.707
N8135 X54.759 Y-14.979
N8140 X54.771 Y-15.256
N8145 X54.847 Y-15.523
N8150 X54.984 Y-15.765
N8155 X55.173 Y-15.968
N8160 X55.404 Y-16.122
N8165 X55.664 Y-16.217
N8170 X55.94 Y-16.25
N8175 X56.886
N8180 G3 X57.465 Y-15.63 Z-8.8 I-0.021 J0.6
N8185 X57.366 Y-15.32 I-0.6 J-0.02
N8190 G1 X56.712 Y-14.328
N8195 X56.617 Y-14.183 Z-8.837
N8200 X56.509 Y-14.019 Z-8.879
N8205 G3 X56.029 Y-13.75 Z-9. I-0.501 J-0.33
N8210 G1 X55.124
N8215 X54.974 Y-13.757
N8220 X54.827 Y-13.786
N8225 X54.685 Y-13.836
N8230 X54.551 Y-13.902
N8235 X54.425 Y-13.984
N8240 X54.309 Y-14.079
N8245 X54.203 Y-14.185
N8250 X54.109 Y-14.302
N8255 X54.026 Y-14.427
N8260 X53.955 Y-14.559
N8265 X53.872 Y-14.846
N8270 X53.863 Y-15.145
N8275 X53.927 Y-15.437
N8280 X54.06 Y-15.705
N8285 X54.254 Y-15.932
N8290 X54.498 Y-16.105
N8295 X54.777 Y-16.213
N8300 X55.073 Y-16.25
N8305 X55.94
N8310 G3 X56.518 Y-15.63 Z-8.8 I-0.021 J0.6
N8315 X56.427 Y-15.332 I-0.6 J-0.02
N8320 G1 X55.801 Y-14.333
N8325 X55.708 Y-14.186 Z-8.837
N8330 X55.611 Y-14.031 Z-8.876
N8335 G3 X55.124 Y-13.75 Z-9. I-0.508 J-0.319
N8340 G1 X54.217
N8345 X54.067 Y-13.757
N8350 X53.92 Y-13.787
N8355 X53.778 Y-13.836
N8360 X53.644 Y-13.903
N8365 X53.519 Y-13.986
N8370 X53.404 Y-14.082
N8375 X53.3 Y-14.19
N8380 X53.207 Y-14.308
N8385 X53.125 Y-14.433
N8390 X53.056 Y-14.566
N8395 X52.999 Y-14.705
N8400 X52.946 Y-14.978
N8405 X52.958 Y-15.255
N8410 X53.034 Y-15.522
N8415 X53.17 Y-15.764
N8420 X53.359 Y-15.968
N8425 X53.591 Y-16.122
N8430 X53.851 Y-16.217
N8435 X54.127 Y-16.25
N8440 X55.073
N8445 G3 X55.652 Y-15.63 Z-8.8 I-0.021 J0.6
N8450 X55.553 Y-15.32 I-0.6 J-0.02
N8455 G1 X54.901 Y-14.329
N8460 X54.805 Y-14.183 Z-8.837
N8465 X54.697 Y-14.02 Z-8.879
N8470 G3 X54.217 Y-13.75 Z-9. I-0.501 J-0.33
N8475 G1 X53.312
N8480 X53.163 Y-13.757
N8485 X53.015 Y-13.786
N8490 X52.874 Y-13.835
N8495 X52.739 Y-13.902
N8500 X52.613 Y-13.983
N8505 X52.497 Y-14.078
N8510 X52.391 Y-14.184
N8515 X52.297 Y-14.301
N8520 X52.214 Y-14.426
N8525 X52.142 Y-14.558
N8530 X52.06 Y-14.845
N8535 X52.05 Y-15.144
N8540 X52.114 Y-15.437
N8545 X52.247 Y-15.705
N8550 X52.441 Y-15.932
N8555 X52.685 Y-16.105
N8560 X52.964 Y-16.213
N8565 X53.261 Y-16.25
N8570 X54.127
N8575 G3 X54.706 Y-15.63 Z-8.8 I-0.021 J0.6
N8580 X54.615 Y-15.332 I-0.6 J-0.02
N8585 G1 X53.989 Y-14.333
N8590 X53.897 Y-14.186 Z-8.837
N8595 X53.8 Y-14.031 Z-8.876
N8600 G3 X53.312 Y-13.75 Z-9. I-0.508 J-0.318
N8605 G1 X52.406
N8610 X52.256 Y-13.757
N8615 X52.109 Y-13.787
N8620 X51.967 Y-13.836
N8625 X51.833 Y-13.903
N8630 X51.708 Y-13.986
N8635 X51.592 Y-14.081
N8640 X51.488 Y-14.189
N8645 X51.395 Y-14.307
N8650 X51.313 Y-14.433
N8655 X51.244 Y-14.566
N8660 X51.186 Y-14.704
N8665 X51.133 Y-14.977
N8670 X51.145 Y-15.255
N8675 X51.222 Y-15.522
N8680 X51.358 Y-15.764
N8685 X51.547 Y-15.967
N8690 X51.778 Y-16.121
N8695 X52.039 Y-16.217
N8700 X52.315 Y-16.25
N8705 X53.261
N8710 G3 X53.84 Y-15.63 Z-8.8 I-0.021 J0.6
N8715 X53.741 Y-15.321 I-0.6 J-0.02
N8720 G1 X53.089 Y-14.329
N8725 X52.994 Y-14.184 Z-8.837
N8730 X52.886 Y-14.02 Z-8.878
N8735 G3 X52.406 Y-13.75 Z-9. I-0.501 J-0.33
N8740 G1 X51.501
N8745 X51.351 Y-13.757
N8750 X51.204 Y-13.786
N8755 X51.062 Y-13.835
N8760 X50.927 Y-13.901
N8765 X50.801 Y-13.983
N8770 X50.685 Y-14.078
N8775 X50.579 Y-14.184
N8780 X50.485 Y-14.301
N8785 X50.402 Y-14.425
N8790 X50.33 Y-14.557
N8795 X50.248 Y-14.845
N8800 X50.238 Y-15.144
N8805 X50.301 Y-15.436
N8810 X50.434 Y-15.704
N8815 X50.629 Y-15.932
N8820 X50.873 Y-16.105
N8825 X51.152 Y-16.213
N8830 X51.449 Y-16.25
N8835 X52.315
N8840 G3 X52.894 Y-15.63 Z-8.8 I-0.021 J0.6
N8845 X52.803 Y-15.332 I-0.6 J-0.02
N8850 G1 X52.177 Y-14.333
N8855 X52.085 Y-14.186 Z-8.837
N8860 X51.989 Y-14.031 Z-8.876
N8865 G3 X51.501 Y-13.75 Z-9. I-0.509 J-0.318
N8870 G1 X50.594
N8875 X50.444 Y-13.757
N8880 X50.297 Y-13.787
N8885 X50.155 Y-13.836
N8890 X50.021 Y-13.902
N8895 X49.896 Y-13.985
N8900 X49.781 Y-14.081
N8905 X49.676 Y-14.189
N8910 X49.583 Y-14.306
N8915 X49.501 Y-14.432
N8920 X49.432 Y-14.565
N8925 X49.374 Y-14.704
N8930 X49.321 Y-14.976
N8935 X49.333 Y-15.254
N8940 X49.409 Y-15.521
N8945 X49.546 Y-15.764
N8950 X49.735 Y-15.967
N8955 X49.966 Y-16.121
N8960 X50.227 Y-16.217
N8965 X50.503 Y-16.25
N8970 X51.449
N8975 G3 X52.028 Y-15.63 Z-8.8 I-0.021 J0.6
N8980 X51.929 Y-15.321 I-0.6 J-0.02
N8985 G1 X51.277 Y-14.329
N8990 X51.182 Y-14.184 Z-8.837
N8995 X51.075 Y-14.02 Z-8.878
N9000 G3 X50.594 Y-13.75 Z-9. I-0.501 J-0.329
N9005 G1 X49.689
N9010 X49.54 Y-13.757
N9015 X49.392 Y-13.786
N9020 X49.251 Y-13.835
N9025 X49.116 Y-13.901
N9030 X48.99 Y-13.982
N9035 X48.874 Y-14.077
N9040 X48.768 Y-14.184
N9045 X48.673 Y-14.3
N9050 X48.59 Y-14.425
N9055 X48.519 Y-14.557
N9060 X48.436 Y-14.844
N9065 X48.426 Y-15.144
N9070 X48.489 Y-15.436
N9075 X48.622 Y-15.704
N9080 X48.817 Y-15.932
N9085 X49.061 Y-16.105
N9090 X49.34 Y-16.213
N9095 X49.637 Y-16.25
N9100 X50.503
N9105 G3 X51.082 Y-15.63 Z-8.8 I-0.021 J0.6
N9110 X50.991 Y-15.332 I-0.6 J-0.02
N9115 G1 X50.366 Y-14.333
N9120 X50.274 Y-14.186 Z-8.837
N9125 X50.177 Y-14.031 Z-8.876
N9130 G3 X49.689 Y-13.75 Z-9. I-0.509 J-0.318
N9135 G1 X48.783
N9140 X48.633 Y-13.757
N9145 X48.486 Y-13.786
N9150 X48.344 Y-13.835
N9155 X48.21 Y-13.902
N9160 X48.085 Y-13.985
N9165 X47.969 Y-14.081
N9170 X47.865 Y-14.188
N9175 X47.771 Y-14.306
N9180 X47.689 Y-14.432
N9185 X47.62 Y-14.565
N9190 X47.563 Y-14.703
N9195 X47.509 Y-14.976
N9200 X47.521 Y-15.254
N9205 X47.597 Y-15.521
N9210 X47.734 Y-15.763
N9215 X47.923 Y-15.967
N9220 X48.154 Y-16.121
N9225 X48.415 Y-16.217
N9230 X48.691 Y-16.25
N9235 X49.637
N9240 G3 X50.216 Y-15.63 Z-8.8 I-0.021 J0.6
N9245 X50.118 Y-15.321 I-0.6 J-0.02
N9250 G1 X49.466 Y-14.329
N9255 X49.37 Y-14.184 Z-8.837
N9260 X49.263 Y-14.02 Z-8.878
N9265 G3 X48.783 Y-13.75 Z-9. I-0.501 J-0.329
N9270 G1 X47.878
N9275 X47.728 Y-13.757
N9280 X47.581 Y-13.786
N9285 X47.439 Y-13.835
N9290 X47.304 Y-13.901
N9295 X47.178 Y-13.982
N9300 X47.062 Y-14.077
N9305 X46.956 Y-14.183
N9310 X46.862 Y-14.3
N9315 X46.779 Y-14.425
N9320 X46.707 Y-14.557
N9325 X46.624 Y-14.844
N9330 X46.614 Y-15.143
N9335 X46.678 Y-15.436
N9340 X46.811 Y-15.704
N9345 X47.005 Y-15.932
N9350 X47.249 Y-16.105
N9355 X47.528 Y-16.213
N9360 X47.825 Y-16.25
N9365 X48.691
N9370 G3 X49.27 Y-15.63 Z-8.8 I-0.021 J0.6
N9375 X49.179 Y-15.332 I-0.6 J-0.02
N9380 G1 X48.554 Y-14.333
N9385 X48.462 Y-14.186 Z-8.837
N9390 X48.366 Y-14.032 Z-8.876
N9395 G3 X47.878 Y-13.75 Z-9. I-0.509 J-0.318
N9400 G1 X46.971
N9405 X46.821 Y-13.757
N9410 X46.674 Y-13.786
N9415 X46.532 Y-13.835
N9420 X46.398 Y-13.902
N9425 X46.273 Y-13.985
N9430 X46.157 Y-14.081
N9435 X46.053 Y-14.188
N9440 X45.96 Y-14.306
N9445 X45.878 Y-14.431
N9450 X45.808 Y-14.564
N9455 X45.751 Y-14.703
N9460 X45.698 Y-14.976
N9465 X45.709 Y-15.254
N9470 X45.786 Y-15.521
N9475 X45.922 Y-15.763
N9480 X46.111 Y-15.967
N9485 X46.343 Y-16.121
N9490 X46.603 Y-16.217
N9495 X46.88 Y-16.25
N9500 X47.825
N9505 G3 X48.404 Y-15.63 Z-8.8 I-0.021 J0.6
N9510 X48.306 Y-15.321 I-0.6 J-0.02
N9515 G1 X47.654 Y-14.329
N9520 X47.559 Y-14.184 Z-8.837
N9525 X47.452 Y-14.02 Z-8.878
N9530 G3 X46.971 Y-13.75 Z-9. I-0.502 J-0.329
N9535 G1 X46.066
N9540 X45.917 Y-13.757
N9545 X45.769 Y-13.786
N9550 X45.627 Y-13.835
N9555 X45.493 Y-13.901
N9560 X45.367 Y-13.982
N9565 X45.251 Y-14.077
N9570 X45.145 Y-14.183
N9575 X45.05 Y-14.3
N9580 X44.967 Y-14.425
N9585 X44.895 Y-14.556
N9590 X44.813 Y-14.844
N9595 X44.803 Y-15.143
N9600 X44.866 Y-15.436
N9605 X44.999 Y-15.704
N9610 X45.193 Y-15.932
N9615 X45.437 Y-16.105
N9620 X45.717 Y-16.213
N9625 X46.014 Y-16.25
N9630 X46.88
N9635 G3 X47.458 Y-15.63 Z-8.8 I-0.021 J0.6
N9640 X47.367 Y-15.332 I-0.6 J-0.02
N9645 G1 X46.743 Y-14.333
N9650 X46.651 Y-14.186 Z-8.837
N9655 X46.554 Y-14.032 Z-8.876
N9660 G3 X46.066 Y-13.75 Z-9. I-0.509 J-0.318
N9665 G1 X45.11
N9670 X44.96 Y-13.757
N9675 X44.815 Y-13.794
N9680 X44.675 Y-13.849
N9685 X44.544 Y-13.922
N9690 X44.422 Y-14.009
N9695 X44.31 Y-14.109
N9700 X44.209 Y-14.22
N9705 X44.119 Y-14.34
N9710 X44.041 Y-14.468
N9715 X43.976 Y-14.603
N9720 X43.904 Y-14.887
N9725 X43.903 Y-15.18
N9730 X43.972 Y-15.465
N9735 X44.108 Y-15.724
N9740 X44.301 Y-15.944
N9745 X44.542 Y-16.111
N9750 X44.816 Y-16.215
N9755 X45.106 Y-16.25
N9760 X46.014
N9765 G3 X46.592 Y-15.63 Z-8.8 I-0.021 J0.6
N9770 X46.485 Y-15.308 I-0.6 J-0.02
N9775 G1 X45.801 Y-14.323
N9780 X45.702 Y-14.181 Z-8.837
N9785 X45.582 Y-14.007 Z-8.882
N9790 G3 X45.11 Y-13.75 Z-9. I-0.493 J-0.342
N9795 G1 X44.214
N9800 X44.064 Y-13.757
N9805 X43.919 Y-13.793
N9810 X43.779 Y-13.848
N9815 X43.647 Y-13.919
N9820 X43.525 Y-14.006
N9825 X43.412 Y-14.105
N9830 X43.31 Y-14.215
N9835 X43.22 Y-14.335
N9840 X43.141 Y-14.463
N9845 X43.075 Y-14.597
N9850 X43.003 Y-14.882
N9855 X43.001 Y-15.176
N9860 X43.07 Y-15.461
N9865 X43.205 Y-15.722
N9870 X43.399 Y-15.942
N9875 X43.64 Y-16.11
N9880 X43.915 Y-16.214
N9885 X44.207 Y-16.25
N9890 X45.106
N9895 G3 X45.685 Y-15.63 Z-8.8 I-0.021 J0.6
N9900 X45.58 Y-15.311 I-0.6 J-0.02
N9905 G1 X44.904 Y-14.325
N9910 X44.805 Y-14.181 Z-8.837
N9915 X44.688 Y-14.01 Z-8.881
N9920 G3 X44.214 Y-13.75 Z-9. I-0.495 J-0.339
N9925 G1 X43.348
N9930 X43.198 Y-13.757
N9935 X43.051 Y-13.787
N9940 X42.91 Y-13.837
N9945 X42.776 Y-13.904
N9950 X42.651 Y-13.988
N9955 X42.536 Y-14.084
N9960 X42.432 Y-14.192
N9965 X42.339 Y-14.31
N9970 X42.258 Y-14.436
N9975 X42.189 Y-14.569
N9980 X42.132 Y-14.708
N9985 X42.08 Y-14.98
N9990 X42.092 Y-15.257
N9995 X42.169 Y-15.524
N10000 X42.305 Y-15.765
N10005 X42.494 Y-15.968
N10010 X42.725 Y-16.122
N10015 X42.985 Y-16.218
N10020 X43.261 Y-16.25
N10025 X44.207
N10030 G3 X44.785 Y-15.63 Z-8.8 I-0.021 J0.6
N10035 X44.686 Y-15.32 I-0.6 J-0.02
N10040 G1 X44.032 Y-14.328
N10045 X43.936 Y-14.183 Z-8.837
N10050 X43.828 Y-14.019 Z-8.879
N10055 G3 X43.348 Y-13.75 Z-9. I-0.501 J-0.33
N10060 G1 X42.443
N10065 X42.294 Y-13.757
N10070 X42.146 Y-13.786
N10075 X42.005 Y-13.836
N10080 X41.87 Y-13.903
N10085 X41.745 Y-13.985
N10090 X41.629 Y-14.08
N10095 X41.523 Y-14.186
N10100 X41.429 Y-14.303
N10105 X41.346 Y-14.428
N10110 X41.275 Y-14.56
N10115 X41.193 Y-14.848
N10120 X41.184 Y-15.146
N10125 X41.248 Y-15.438
N10130 X41.381 Y-15.706
N10135 X41.575 Y-15.933
N10140 X41.819 Y-16.105
N10145 X42.097 Y-16.213
N10150 X42.394 Y-16.25
N10155 X43.261
N10160 G3 X43.839 Y-15.63 Z-8.8 I-0.021 J0.6
N10165 X43.748 Y-15.331 I-0.6 J-0.02
N10170 G1 X43.12 Y-14.333
N10175 X43.028 Y-14.186 Z-8.837
N10180 X42.93 Y-14.03 Z-8.876
N10185 G3 X42.443 Y-13.75 Z-9. I-0.508 J-0.319
N10190 G1 X41.537
N10195 X41.387 Y-13.757
N10200 X41.24 Y-13.787
N10205 X41.098 Y-13.836
N10210 X40.964 Y-13.904
N10215 X40.839 Y-13.987
N10220 X40.724 Y-14.083
N10225 X40.62 Y-14.191
N10230 X40.527 Y-14.309
N10235 X40.445 Y-14.434
N10240 X40.376 Y-14.568
N10245 X40.319 Y-14.706
N10250 X40.266 Y-14.979
N10255 X40.278 Y-15.256
N10260 X40.355 Y-15.523
N10265 X40.491 Y-15.765
N10270 X40.68 Y-15.968
N10275 X40.911 Y-16.122
N10280 X41.172 Y-16.217
N10285 X41.447 Y-16.25
N10290 X42.394
N10295 G3 X42.973 Y-15.63 Z-8.8 I-0.021 J0.6
N10300 X42.874 Y-15.32 I-0.6 J-0.02
N10305 G1 X42.22 Y-14.328
N10310 X42.125 Y-14.183 Z-8.837
N10315 X42.017 Y-14.019 Z-8.879
N10320 G3 X41.537 Y-13.75 Z-9. I-0.501 J-0.33
N10325 G1 X40.632
N10330 X40.482 Y-13.757
N10335 X40.335 Y-13.786
N10340 X40.193 Y-13.836
N10345 X40.059 Y-13.902
N10350 X39.933 Y-13.984
N10355 X39.817 Y-14.079
N10360 X39.711 Y-14.185
N10365 X39.617 Y-14.302
N10370 X39.534 Y-14.427
N10375 X39.463 Y-14.559
N10380 X39.38 Y-14.846
N10385 X39.371 Y-15.145
N10390 X39.434 Y-15.437
N10395 X39.567 Y-15.705
N10400 X39.762 Y-15.932
N10405 X40.006 Y-16.105
N10410 X40.284 Y-16.213
N10415 X40.581 Y-16.25
N10420 X41.447
N10425 G3 X42.026 Y-15.63 Z-8.8 I-0.021 J0.6
N10430 X41.935 Y-15.332 I-0.6 J-0.02
N10435 G1 X41.309 Y-14.333
N10440 X41.216 Y-14.186 Z-8.837
N10445 X41.119 Y-14.031 Z-8.876
N10450 G3 X40.632 Y-13.75 Z-9. I-0.508 J-0.319
N10455 G1 X39.725
N10460 X39.575 Y-13.757
N10465 X39.428 Y-13.787
N10470 X39.286 Y-13.836
N10475 X39.152 Y-13.903
N10480 X39.027 Y-13.986
N10485 X38.912 Y-14.082
N10490 X38.808 Y-14.19
N10495 X38.715 Y-14.307
N10500 X38.633 Y-14.433
N10505 X38.564 Y-14.566
N10510 X38.506 Y-14.705
N10515 X38.453 Y-14.978
N10520 X38.465 Y-15.255
N10525 X38.542 Y-15.522
N10530 X38.678 Y-15.764
N10535 X38.867 Y-15.968
N10540 X39.098 Y-16.122
N10545 X39.359 Y-16.217
N10550 X39.635 Y-16.25
N10555 X40.581
N10560 G3 X41.16 Y-15.63 Z-8.8 I-0.021 J0.6
N10565 X41.061 Y-15.321 I-0.6 J-0.02
N10570 G1 X40.409 Y-14.329
N10575 X40.313 Y-14.183 Z-8.837
N10580 X40.205 Y-14.02 Z-8.878
N10585 G3 X39.725 Y-13.75 Z-9. I-0.501 J-0.33
N10590 G1 X38.82
N10595 X38.67 Y-13.757
N10600 X38.523 Y-13.786
N10605 X38.382 Y-13.835
N10610 X38.247 Y-13.901
N10615 X38.121 Y-13.983
N10620 X38.005 Y-14.078
N10625 X37.899 Y-14.184
N10630 X37.805 Y-14.301
N10635 X37.722 Y-14.426
N10640 X37.65 Y-14.558
N10645 X37.568 Y-14.845
N10650 X37.558 Y-15.144
N10655 X37.622 Y-15.437
N10660 X37.755 Y-15.705
N10665 X37.949 Y-15.932
N10670 X38.193 Y-16.105
N10675 X38.472 Y-16.213
N10680 X38.769 Y-16.25
N10685 X39.635
N10690 G3 X40.214 Y-15.63 Z-8.8 I-0.021 J0.6
N10695 X40.122 Y-15.332 I-0.6 J-0.02
N10700 G1 X39.497 Y-14.333
N10705 X39.405 Y-14.186 Z-8.837
N10710 X39.308 Y-14.031 Z-8.876
N10715 G3 X38.82 Y-13.75 Z-9. I-0.509 J-0.318
N10720 G1 X37.914
N10725 X37.764 Y-13.757
N10730 X37.617 Y-13.787
N10735 X37.475 Y-13.836
N10740 X37.341 Y-13.903
N10745 X37.216 Y-13.986
N10750 X37.1 Y-14.081
N10755 X36.996 Y-14.189
N10760 X36.903 Y-14.307
N10765 X36.821 Y-14.432
N10770 X36.751 Y-14.565
N10775 X36.694 Y-14.704
N10780 X36.641 Y-14.977
N10785 X36.653 Y-15.254
N10790 X36.729 Y-15.522
N10795 X36.866 Y-15.764
N10800 X37.055 Y-15.967
N10805 X37.286 Y-16.121
N10810 X37.547 Y-16.217
N10815 X37.823 Y-16.25
N10820 X38.769
N10825 G3 X39.347 Y-15.63 Z-8.8 I-0.021 J0.6
N10830 X39.249 Y-15.321 I-0.6 J-0.02
N10835 G1 X38.597 Y-14.329
N10840 X38.501 Y-14.184 Z-8.837
N10845 X38.394 Y-14.02 Z-8.878
N10850 G3 X37.914 Y-13.75 Z-9. I-0.501 J-0.33
N10855 G1 X37.009
N10860 X36.859 Y-13.757
N10865 X36.712 Y-13.786
N10870 X36.57 Y-13.835
N10875 X36.435 Y-13.901
N10880 X36.309 Y-13.983
N10885 X36.193 Y-14.078
N10890 X36.087 Y-14.184
N10895 X35.993 Y-14.3
N10900 X35.91 Y-14.425
N10905 X35.838 Y-14.557
N10910 X35.756 Y-14.845
N10915 X35.746 Y-15.144
N10920 X35.809 Y-15.436
N10925 X35.942 Y-15.704
N10930 X36.137 Y-15.932
N10935 X36.381 Y-16.105
N10940 X36.66 Y-16.213
N10945 X36.957 Y-16.25
N10950 X37.823
N10955 G3 X38.401 Y-15.63 Z-8.8 I-0.021 J0.6
N10960 X38.31 Y-15.332 I-0.6 J-0.02
N10965 G1 X37.685 Y-14.333
N10970 X37.593 Y-14.186 Z-8.837
N10975 X37.496 Y-14.031 Z-8.876
N10980 G3 X37.009 Y-13.75 Z-9. I-0.509 J-0.318
N10985 G1 X36.102
N10990 X35.952 Y-13.757
N10995 X35.805 Y-13.787
N11000 X35.663 Y-13.835
N11005 X35.529 Y-13.902
N11010 X35.404 Y-13.985
N11015 X35.288 Y-14.081
N11020 X35.184 Y-14.189
N11025 X35.091 Y-14.306
N11030 X35.009 Y-14.432
N11035 X34.94 Y-14.565
N11040 X34.882 Y-14.704
N11045 X34.829 Y-14.976
N11050 X34.841 Y-15.254
N11055 X34.917 Y-15.521
N11060 X35.054 Y-15.764
N11065 X35.243 Y-15.967
N11070 X35.474 Y-16.121
N11075 X35.735 Y-16.217
N11080 X36.011 Y-16.25
N11085 X36.957
N11090 G3 X37.535 Y-15.63 Z-8.8 I-0.021 J0.6
N11095 X37.437 Y-15.321 I-0.6 J-0.02
N11100 G1 X36.785 Y-14.329
N11105 X36.69 Y-14.184 Z-8.837
N11110 X36.583 Y-14.02 Z-8.878
N11115 G3 X36.102 Y-13.75 Z-9. I-0.501 J-0.329
N11120 G1 X35.197
N11125 X35.047 Y-13.757
N11130 X34.9 Y-13.786
N11135 X34.758 Y-13.835
N11140 X34.624 Y-13.901
N11145 X34.498 Y-13.982
N11150 X34.382 Y-14.077
N11155 X34.276 Y-14.183
N11160 X34.181 Y-14.3
N11165 X34.098 Y-14.425
N11170 X34.027 Y-14.557
N11175 X33.944 Y-14.844
N11180 X33.934 Y-15.144
N11185 X33.997 Y-15.436
N11190 X34.13 Y-15.704
N11195 X34.325 Y-15.932
N11200 X34.569 Y-16.105
N11205 X34.848 Y-16.213
N11210 X35.145 Y-16.25
N11215 X36.011
N11220 G3 X36.59 Y-15.63 Z-8.8 I-0.021 J0.6
N11225 X36.499 Y-15.332 I-0.6 J-0.02
N11230 G1 X35.874 Y-14.333
N11235 X35.782 Y-14.186 Z-8.837
N11240 X35.685 Y-14.031 Z-8.876
N11245 G3 X35.197 Y-13.75 Z-9. I-0.509 J-0.318
N11250 G1 X34.291
N11255 X34.141 Y-13.757
N11260 X33.994 Y-13.786
N11265 X33.852 Y-13.835
N11270 X33.717 Y-13.902
N11275 X33.592 Y-13.985
N11280 X33.477 Y-14.081
N11285 X33.372 Y-14.188
N11290 X33.279 Y-14.306
N11295 X33.197 Y-14.432
N11300 X33.128 Y-14.565
N11305 X33.071 Y-14.703
N11310 X33.017 Y-14.976
N11315 X33.029 Y-15.254
N11320 X33.105 Y-15.521
N11325 X33.242 Y-15.763
N11330 X33.431 Y-15.967
N11335 X33.662 Y-16.121
N11340 X33.923 Y-16.217
N11345 X34.199 Y-16.25
N11350 X35.145
N11355 G3 X35.724 Y-15.63 Z-8.8 I-0.021 J0.6
N11360 X35.625 Y-15.321 I-0.6 J-0.02
N11365 G1 X34.974 Y-14.329
N11370 X34.878 Y-14.184 Z-8.837
N11375 X34.771 Y-14.02 Z-8.878
N11380 G3 X34.291 Y-13.75 Z-9. I-0.501 J-0.329
N11385 G1 X33.386
N11390 X33.236 Y-13.757
N11395 X33.089 Y-13.786
N11400 X32.947 Y-13.835
N11405 X32.812 Y-13.901
N11410 X32.686 Y-13.982
N11415 X32.57 Y-14.077
N11420 X32.464 Y-14.183
N11425 X32.37 Y-14.3
N11430 X32.287 Y-14.425
N11435 X32.215 Y-14.556
N11440 X32.132 Y-14.844
N11445 X32.122 Y-15.143
N11450 X32.186 Y-15.436
N11455 X32.318 Y-15.704
N11460 X32.513 Y-15.932
N11465 X32.757 Y-16.105
N11470 X33.036 Y-16.213
N11475 X33.333 Y-16.25
N11480 X34.199
N11485 G3 X34.778 Y-15.63 Z-8.8 I-0.021 J0.6
N11490 X34.687 Y-15.332 I-0.6 J-0.02
N11495 G1 X34.062 Y-14.333
N11500 X33.97 Y-14.186 Z-8.837
N11505 X33.874 Y-14.032 Z-8.876
N11510 G3 X33.386 Y-13.75 Z-9. I-0.509 J-0.318
N11515 G1 X32.479
N11520 X32.329 Y-13.757
N11525 X32.182 Y-13.786
N11530 X32.04 Y-13.835
N11535 X31.906 Y-13.902
N11540 X31.781 Y-13.985
N11545 X31.665 Y-14.081
N11550 X31.561 Y-14.188
N11555 X31.468 Y-14.306
N11560 X31.386 Y-14.431
N11565 X31.316 Y-14.564
N11570 X31.259 Y-14.703
N11575 X31.206 Y-14.976
N11580 X31.217 Y-15.254
N11585 X31.294 Y-15.521
N11590 X31.43 Y-15.763
N11595 X31.619 Y-15.967
N11600 X31.85 Y-16.121
N11605 X32.111 Y-16.217
N11610 X32.387 Y-16.25
N11615 X33.333
N11620 G3 X33.912 Y-15.63 Z-8.8 I-0.021 J0.6
N11625 X33.814 Y-15.321 I-0.6 J-0.02
N11630 G1 X33.162 Y-14.329
N11635 X33.067 Y-14.184 Z-8.837
N11640 X32.96 Y-14.02 Z-8.878
N11645 G3 X32.479 Y-13.75 Z-9. I-0.502 J-0.329
N11650 G1 X31.574
N11655 X31.424 Y-13.757
N11660 X31.277 Y-13.786
N11665 X31.135 Y-13.835
N11670 X31.001 Y-13.901
N11675 X30.875 Y-13.982
N11680 X30.759 Y-14.077
N11685 X30.652 Y-14.183
N11690 X30.558 Y-14.3
N11695 X30.475 Y-14.425
N11700 X30.403 Y-14.556
N11705 X30.32 Y-14.844
N11710 X30.31 Y-15.143
N11715 X30.374 Y-15.436
N11720 X30.507 Y-15.704
N11725 X30.701 Y-15.932
N11730 X30.945 Y-16.105
N11735 X31.224 Y-16.213
N11740 X31.522 Y-16.25
N11745 X32.387
N11750 G3 X32.966 Y-15.63 Z-8.8 I-0.021 J0.6
N11755 X32.875 Y-15.332 I-0.6 J-0.02
N11760 G1 X32.251 Y-14.333
N11765 X32.159 Y-14.186 Z-8.837
N11770 X32.062 Y-14.032 Z-8.876
N11775 G3 X31.574 Y-13.75 Z-9. I-0.509 J-0.318
N11780 G1 X30.618
N11785 X30.468 Y-13.757
N11790 X30.322 Y-13.794
N11795 X30.183 Y-13.849
N11800 X30.052 Y-13.922
N11805 X29.93 Y-14.009
N11810 X29.818 Y-14.109
N11815 X29.717 Y-14.22
N11820 X29.627 Y-14.34
N11825 X29.549 Y-14.468
N11830 X29.484 Y-14.603
N11835 X29.412 Y-14.887
N11840 X29.411 Y-15.18
N11845 X29.48 Y-15.465
N11850 X29.616 Y-15.724
N11855 X29.809 Y-15.944
N11860 X30.05 Y-16.111
N11865 X30.324 Y-16.215
N11870 X30.614 Y-16.25
N11875 X31.522
N11880 G3 X32.1 Y-15.63 Z-8.8 I-0.021 J0.6
N11885 X31.993 Y-15.308 I-0.6 J-0.02
N11890 G1 X31.309 Y-14.323
N11895 X31.21 Y-14.181 Z-8.837
N11900 X31.089 Y-14.007 Z-8.882
N11905 G3 X30.618 Y-13.75 Z-9. I-0.493 J-0.342
N11910 G1 X29.722
N11915 X29.572 Y-13.757
N11920 X29.426 Y-13.793
N11925 X29.287 Y-13.848
N11930 X29.155 Y-13.919
N11935 X29.033 Y-14.006
N11940 X28.92 Y-14.105
N11945 X28.818 Y-14.215
N11950 X28.728 Y-14.335
N11955 X28.649 Y-14.463
N11960 X28.583 Y-14.597
N11965 X28.511 Y-14.882
N11970 X28.509 Y-15.176
N11975 X28.578 Y-15.461
N11980 X28.713 Y-15.722
N11985 X28.907 Y-15.942
N11990 X29.148 Y-16.11
N11995 X29.423 Y-16.214
N12000 X29.714 Y-16.25
N12005 X30.614
N12010 G3 X31.193 Y-15.63 Z-8.8 I-0.021 J0.6
N12015 X31.088 Y-15.311 I-0.6 J-0.02
N12020 G1 X30.412 Y-14.325
N12025 X30.313 Y-14.181 Z-8.837
N12030 X30.196 Y-14.01 Z-8.881
N12035 G3 X29.722 Y-13.75 Z-9. I-0.495 J-0.339
N12040 G1 X28.856
N12045 X28.706 Y-13.757
N12050 X28.559 Y-13.787
N12055 X28.418 Y-13.837
N12060 X28.284 Y-13.904
N12065 X28.159 Y-13.988
N12070 X28.044 Y-14.084
N12075 X27.94 Y-14.192
N12080 X27.847 Y-14.31
N12085 X27.766 Y-14.436
N12090 X27.697 Y-14.569
N12095 X27.64 Y-14.708
N12100 X27.588 Y-14.98
N12105 X27.6 Y-15.257
N12110 X27.677 Y-15.524
N12115 X27.813 Y-15.765
N12120 X28.002 Y-15.968
N12125 X28.233 Y-16.122
N12130 X28.493 Y-16.218
N12135 X28.769 Y-16.25
N12140 X29.714
N12145 G3 X30.293 Y-15.63 Z-8.8 I-0.021 J0.6
N12150 X30.194 Y-15.32 I-0.6 J-0.02
N12155 G1 X29.54 Y-14.328
N12160 X29.444 Y-14.183 Z-8.837
N12165 X29.336 Y-14.019 Z-8.879
N12170 G3 X28.856 Y-13.75 Z-9. I-0.501 J-0.33
N12175 G1 X27.951
N12180 X27.801 Y-13.757
N12185 X27.654 Y-13.786
N12190 X27.513 Y-13.836
N12195 X27.378 Y-13.903
N12200 X27.253 Y-13.985
N12205 X27.137 Y-14.08
N12210 X27.031 Y-14.186
N12215 X26.937 Y-14.303
N12220 X26.854 Y-14.428
N12225 X26.783 Y-14.56
N12230 X26.701 Y-14.848
N12235 X26.692 Y-15.146
N12240 X26.756 Y-15.438
N12245 X26.889 Y-15.706
N12250 X27.083 Y-15.933
N12255 X27.327 Y-16.105
N12260 X27.605 Y-16.213
N12265 X27.902 Y-16.25
N12270 X28.769
N12275 G3 X29.347 Y-15.63 Z-8.8 I-0.021 J0.6
N12280 X29.256 Y-15.331 I-0.6 J-0.02
N12285 G1 X28.628 Y-14.333
N12290 X28.536 Y-14.186 Z-8.837
N12295 X28.438 Y-14.03 Z-8.876
N12300 G3 X27.951 Y-13.75 Z-9. I-0.508 J-0.319
N12305 G1 X27.709
N12310 X27.508 Y-13.755
N12315 X26.964 Y-13.794
N12320 X26.815 Y-13.812
N12325 X26.671 Y-13.851
N12330 X26.532 Y-13.91
N12335 X26.403 Y-13.986
N12340 X26.284 Y-14.076
N12345 X26.175 Y-14.179
N12350 X26.014 Y-14.417
N12355 X25.91 Y-14.683
N12360 X25.867 Y-14.966
N12365 X25.887 Y-15.252
N12370 X25.968 Y-15.526
N12375 X26.108 Y-15.776
N12380 X26.299 Y-15.988
N12385 G3 X26.549 Y-15.913 I0.1 J0.12
N12390 G1 X26.685 Y-15.456
N12395 X26.98 Y-14.463
N12400 X27.119 Y-13.994
N12405 G3 X26.964 Y-13.794 I-0.149 J0.044
N12410 G1 X26.904 Y-13.798
N12415 X26.703 Y-13.825
N12420 X26.653 Y-13.838
N12425 X26.602 Y-13.856
N12430 X26.502 Y-13.901
N12435 X26.412 Y-13.942
N12440 X26.322 Y-13.995
N12445 X26.3 Y-14.011
N12450 X26.099 Y-14.19
N12455 X26.052 Y-14.246
N12460 X26.018 Y-14.296
N12465 X25.953 Y-14.397
N12470 X25.898 Y-14.496
N12475 X25.86 Y-14.598
N12480 X25.805 Y-14.799
N12485 X25.794 Y-14.899
N12490 Y-15.101
N12495 X25.805 Y-15.201
N12500 X25.86 Y-15.402
N12505 X25.898 Y-15.504
N12510 X25.953 Y-15.603
N12515 X26.018 Y-15.704
N12520 X26.052 Y-15.754
N12525 X26.099 Y-15.81
N12530 X26.3 Y-15.989
N12535 X26.322 Y-16.005
N12540 X26.412 Y-16.058
N12545 X26.502 Y-16.099
N12550 X26.602 Y-16.144
N12555 X26.653 Y-16.162
N12560 X26.703 Y-16.175
N12565 X26.904 Y-16.202
N12570 X27.508 Y-16.245
N12575 X27.709 Y-16.25
N12580 X27.902
N12585 X27.994 Y-16.24
N12590 X28.083 Y-16.215
N12595 X28.147 Y-16.178 Z-8.995
N12600 X28.21 Y-16.142 Z-8.982
N12605 X28.271 Y-16.106 Z-8.959
N12610 X28.321 Y-16.045 Z-8.921
N12615 X28.367 Y-15.988 Z-8.871
N12620 X28.408 Y-15.938 Z-8.812
N12625 X28.428 Y-15.885 Z-8.741
N12630 X28.444 Y-15.842 Z-8.663
N12635 X28.456 Y-15.811 Z-8.579
N12640 X28.463 Y-15.792 Z-8.491
N12645 X28.465 Y-15.785 Z-8.4
N12650 G0 Z5.
N12655 X63.582 Y-15.062
N12660 Z-6.5
N12665 S13000
N12670 G3 X62.456 Y-14.193 Z-6.618 I-0.851 J0.062 F400.
N12675 X62.098 Y-15.566 Z-6.735 I0.275 J-0.805
N12680 X63.498 Y-15.359 Z-6.853 I0.632 J0.567
N12685 X62.762 Y-14.154 Z-6.971 I-0.767 J0.359
N12690 X61.943 Y-15.3 Z-7.088 I-0.031 J-0.844
N12695 X63.315 Y-15.605 Z-7.206 I0.787 J0.301
N12700 X63.059 Y-14.227 Z-7.324 I-0.584 J0.605
N12705 X61.893 Y-14.999 Z-7.441 I-0.328 J-0.772
N12710 X63.057 Y-15.768 Z-7.559 I0.836 J0.
N12715 X63.309 Y-14.4 Z-7.676 I-0.327 J0.768
N12720 X61.954 Y-14.702 Z-7.794 I-0.578 J-0.599
N12725 X62.761 Y-15.828 Z-7.912 I0.776 J-0.296
N12730 X63.48 Y-14.648 Z-8.029 I-0.031 J0.828
N12735 X62.116 Y-14.448 Z-8.147 I-0.748 J-0.351
N12740 X62.465 Y-15.778 Z-8.265 I0.614 J-0.55
N12745 X63.55 Y-14.94 Z-8.382 I0.265 J0.778
N12750 X62.357 Y-14.271 Z-8.5 I-0.818 J-0.06
N12755 X62.208 Y-15.627 Z-8.618 I0.374 J-0.727
N12760 X63.511 Y-15.234 Z-8.735 I0.522 J0.627
N12765 X62.642 Y-14.191 Z-8.853 I-0.779 J0.234
N12770 X62.023 Y-15.396 Z-8.971 I0.089 J-0.807
N12775 X63.371 Y-15.494 Z-9.088 I0.706 J0.397
N12780 X62.935 Y-14.219 Z-9.206 I-0.639 J0.493
N12785 X61.935 Y-15.116 Z-9.324 I-0.204 J-0.78
N12790 X63.148 Y-15.685 Z-9.441 I0.795 J0.117
N12795 X63.197 Y-14.348 Z-9.559 I-0.418 J0.684
N12800 X61.951 Y-14.825 Z-9.676 I-0.465 J-0.65
N12805 X62.875 Y-15.783 Z-9.794 I0.778 J-0.173
N12810 X63.394 Y-14.561 Z-9.912 I-0.145 J0.782
N12815 X62.07 Y-14.562 Z-10.029 I-0.662 J-0.438
N12820 X62.587 Y-15.776 Z-10.147 I0.66 J-0.436
N12825 X63.5 Y-14.828 Z-10.265 I0.143 J0.776
N12830 X62.274 Y-14.36 Z-10.382 I-0.768 J-0.171
N12835 X62.322 Y-15.668 Z-10.5 I0.457 J-0.638
N12840 X63.504 Y-15.114 Z-10.618 I0.408 J0.668
N12845 X62.534 Y-14.244 Z-10.735 I-0.773 J0.114
N12850 X62.115 Y-15.474 Z-10.853 I0.197 J-0.754
N12855 X63.407 Y-15.38 Z-10.971 I0.615 J0.475
N12860 X62.816 Y-14.23 Z-11.088 I-0.676 J0.379
N12865 X61.991 Y-15.221 Z-11.206 I-0.084 J-0.768
N12870 X63.223 Y-15.591 Z-11.324 I0.738 J0.222
N12875 X63.082 Y-14.317 Z-11.441 I-0.492 J0.591
N12880 X61.967 Y-14.943 Z-11.559 I-0.35 J-0.682
N12885 X62.977 Y-15.722 Z-11.676 I0.763 J-0.056
N12890 X63.298 Y-14.492 Z-11.794 I-0.246 J0.722
N12895 X62.043 Y-14.676 Z-11.912 I-0.566 J-0.508
N12900 X62.702 Y-15.756 Z-12.029 I0.687 J-0.322
N12905 X63.436 Y-14.73 Z-12.147 I0.028 J0.756
N12910 X62.208 Y-14.456 Z-12.265 I-0.705 J-0.269
N12915 X62.436 Y-15.69 Z-12.382 I0.522 J-0.542
N12920 X63.48 Y-15. Z-12.5 I0.293 J0.69
N12925 X61.979 I-0.75 J0.
N12930 X63.48 I0.75 J0.
N12935 S15000
N12940 G1 X63.52 Y-14.453 F900.
N12945 X63.519 Y-14.303
N12950 X63.447 Y-14.123
N12955 X63.331 Y-13.969
N12960 X63.179 Y-13.85
N12965 X63. Y-13.775
N12970 X62.809 Y-13.75
N12975 X62.329
N12980 X62.179 Y-13.757
N12985 X62.033 Y-13.789
N12990 X61.891 Y-13.84
N12995 X61.758 Y-13.907
N13000 X61.633 Y-13.991
N13005 X61.519 Y-14.088
N13010 X61.416 Y-14.197
N13015 X61.326 Y-14.317
N13020 X61.249 Y-14.446
N13025 X61.187 Y-14.583
N13030 X61.139 Y-14.725
N13035 X61.107 Y-15.002
N13040 X61.138 Y-15.28
N13045 X61.229 Y-15.543
N13050 X61.378 Y-15.78
N13055 X61.575 Y-15.978
N13060 X61.811 Y-16.126
N13065 X62.075 Y-16.219
N13070 X62.353 Y-16.25
N13075 X63.134
N13080 X63.284 Y-16.241
N13085 X63.43 Y-16.209
N13090 X63.572 Y-16.158
N13095 X63.705 Y-16.09
N13100 X63.83 Y-16.007
N13105 X63.954 Y-15.911
N13110 X64.075 Y-15.798
N13115 X64.182 Y-15.683
N13120 X64.274 Y-15.565
N13125 X64.357 Y-15.44
N13130 X64.462 Y-15.166
N13135 X64.495 Y-14.874
N13140 X64.452 Y-14.584
N13145 X64.337 Y-14.314
N13150 X64.156 Y-14.082
N13155 X63.923 Y-13.904
N13160 X63.652 Y-13.792
N13165 X63.361 Y-13.752
N13170 X63.134 Y-13.75
N13175 X62.809
N13180 G3 X62.23 Y-14.37 Z-12.3 I0.021 J-0.6
N13185 G1 X62.236 Y-14.433
N13190 X62.248 Y-14.495
N13195 X62.532 Y-15.634
N13200 X62.573 Y-15.796 Z-12.335
N13205 G3 X63.134 Y-16.25 Z-12.5 I0.582 J0.145
N13210 G1 X63.738 Y-16.245
N13215 X63.939 Y-16.228
N13220 X64.141 Y-16.199
N13225 X64.342 Y-16.163
N13230 X64.543 Y-16.079
N13235 X64.61 Y-16.046
N13240 X64.678 Y-16.005
N13245 X64.744 Y-15.952
N13250 X64.907 Y-15.804
N13255 X64.946 Y-15.757
N13260 X65.047 Y-15.603
N13265 X65.103 Y-15.503
N13270 X65.14 Y-15.402
N13275 X65.195 Y-15.201
N13280 X65.206 Y-15.101
N13285 Y-14.899
N13290 X65.195 Y-14.799
N13295 X65.14 Y-14.598
N13300 X65.103 Y-14.497
N13305 X65.047 Y-14.397
N13310 X64.946 Y-14.243
N13315 X64.907 Y-14.196
N13320 X64.744 Y-14.048
N13325 X64.678 Y-13.995
N13330 X64.61 Y-13.954
N13335 X64.543 Y-13.921
N13340 X64.342 Y-13.837
N13345 X64.141 Y-13.801
N13350 X63.939 Y-13.772
N13355 X63.738 Y-13.755
N13360 X63.361 Y-13.752
N13365 G3 X62.757 Y-14.347 Z-12.3 I-0.005 J-0.6
N13370 X63.957 Y-14.357 I0.6 J-0.005
N13375 X63.295 Y-13.755 I-0.6 J0.005
N13380 G1 X62.526 Y-13.835
N13385 G3 X62.65 Y-15.029 I0.062 J-0.597
N13390 X63.126 Y-14.167 I-0.062 J0.597
N13395 X62.894 Y-13.916 Z-12.374 I-0.539 J-0.264
N13400 X62.329 Y-13.75 Z-12.5 I-0.607 J-1.02
N13405 G1 X61.413
N13410 X61.263 Y-13.757
N13415 X61.118 Y-13.793
N13420 X60.978 Y-13.848
N13425 X60.847 Y-13.921
N13430 X60.725 Y-14.009
N13435 X60.615 Y-14.11
N13440 X60.514 Y-14.221
N13445 X60.426 Y-14.342
N13450 X60.349 Y-14.471
N13455 X60.284 Y-14.606
N13460 X60.216 Y-14.891
N13465 X60.217 Y-15.184
N13470 X60.289 Y-15.468
N13475 X60.426 Y-15.727
N13480 X60.62 Y-15.945
N13485 X60.862 Y-16.111
N13490 X61.136 Y-16.215
N13495 X61.427 Y-16.25
N13500 X62.353
N13505 G3 X62.931 Y-15.63 Z-12.3 I-0.021 J0.6
N13510 X62.818 Y-15.299 I-0.6 J-0.02
N13515 G1 X62.11 Y-14.319
N13520 X62.009 Y-14.178 Z-12.337
N13525 X61.879 Y-13.998 Z-12.384
N13530 G3 X61.413 Y-13.75 Z-12.5 I-0.486 J-0.351
N13535 G1 X60.558
N13540 X60.409 Y-13.757
N13545 X60.262 Y-13.787
N13550 X60.12 Y-13.838
N13555 X59.987 Y-13.906
N13560 X59.862 Y-13.99
N13565 X59.748 Y-14.086
N13570 X59.644 Y-14.195
N13575 X59.552 Y-14.313
N13580 X59.471 Y-14.439
N13585 X59.402 Y-14.572
N13590 X59.396 Y-14.587
N13595 X59.32 Y-14.871
N13600 X59.314 Y-15.166
N13605 X59.381 Y-15.454
N13610 X59.515 Y-15.717
N13615 X59.708 Y-15.939
N13620 X59.95 Y-16.108
N13625 X60.225 Y-16.214
N13630 X60.518 Y-16.25
N13635 X61.427
N13640 G3 X62.005 Y-15.63 Z-12.3 I-0.021 J0.6
N13645 X61.905 Y-15.317 I-0.6 J-0.02
N13650 G1 X61.244 Y-14.327
N13655 X61.147 Y-14.183 Z-12.337
N13660 X61.036 Y-14.017 Z-12.379
N13665 G3 X60.558 Y-13.75 Z-12.5 I-0.499 J-0.333
N13670 G1 X59.652
N13675 X59.502 Y-13.757
N13680 X59.355 Y-13.789
N13685 X59.214 Y-13.841
N13690 X59.081 Y-13.91
N13695 X58.957 Y-13.994
N13700 X58.843 Y-14.091
N13705 X58.739 Y-14.2
N13710 X58.648 Y-14.319
N13715 X58.567 Y-14.445
N13720 X58.498 Y-14.578
N13725 X58.422 Y-14.865
N13730 X58.417 Y-15.161
N13735 X58.484 Y-15.45
N13740 X58.618 Y-15.714
N13745 X58.813 Y-15.938
N13750 X59.056 Y-16.108
N13755 X59.332 Y-16.214
N13760 X59.626 Y-16.25
N13765 X60.518
N13770 G3 X61.096 Y-15.63 Z-12.3 I-0.021 J0.6
N13775 X60.996 Y-15.318 I-0.6 J-0.02
N13780 G1 X60.337 Y-14.328
N13785 X60.24 Y-14.183 Z-12.337
N13790 X60.13 Y-14.017 Z-12.379
N13795 G3 X59.652 Y-13.75 Z-12.5 I-0.499 J-0.333
N13800 G1 X58.797
N13805 X58.647 Y-13.757
N13810 X58.499 Y-13.782
N13815 X58.356 Y-13.828
N13820 X58.22 Y-13.892
N13825 X58.094 Y-13.972
N13830 X57.977 Y-14.066
N13835 X57.87 Y-14.171
N13840 X57.775 Y-14.288
N13845 X57.691 Y-14.412
N13850 X57.62 Y-14.544
N13855 X57.604 Y-14.58
N13860 X57.522 Y-14.863
N13865 X57.512 Y-15.158
N13870 X57.575 Y-15.447
N13875 X57.706 Y-15.711
N13880 X57.897 Y-15.936
N13885 X58.138 Y-16.107
N13890 X58.413 Y-16.214
N13895 X58.706 Y-16.25
N13900 X59.626
N13905 G3 X60.205 Y-15.63 Z-12.3 I-0.021 J0.6
N13910 X60.111 Y-15.328 I-0.6 J-0.02
N13915 G1 X59.476 Y-14.331
N13920 X59.382 Y-14.185 Z-12.337
N13925 X59.282 Y-14.027 Z-12.377
N13930 G3 X58.797 Y-13.75 Z-12.5 I-0.506 J-0.323
N13935 G1 X57.901
N13940 X57.751 Y-13.757
N13945 X57.603 Y-13.782
N13950 X57.46 Y-13.828
N13955 X57.324 Y-13.891
N13960 X57.197 Y-13.971
N13965 X57.08 Y-14.064
N13970 X56.972 Y-14.169
N13975 X56.877 Y-14.284
N13980 X56.792 Y-14.408
N13985 X56.719 Y-14.539
N13990 X56.659 Y-14.677
N13995 X56.6 Y-14.952
N14000 X56.607 Y-15.233
N14005 X56.681 Y-15.505
N14010 X56.816 Y-15.752
N14015 X57.006 Y-15.961
N14020 X57.239 Y-16.118
N14025 X57.503 Y-16.217
N14030 X57.783 Y-16.25
N14035 X58.706
N14040 G3 X59.285 Y-15.63 Z-12.3 I-0.021 J0.6
N14045 X59.195 Y-15.335 I-0.6 J-0.02
N14050 G1 X58.576 Y-14.334
N14055 X58.485 Y-14.186 Z-12.337
N14060 X58.39 Y-14.034 Z-12.375
N14065 G3 X57.901 Y-13.75 Z-12.5 I-0.51 J-0.316
N14070 G1 X56.985
N14075 X56.835 Y-13.757
N14080 X56.687 Y-13.783
N14085 X56.545 Y-13.83
N14090 X56.409 Y-13.893
N14095 X56.282 Y-13.973
N14100 X56.165 Y-14.066
N14105 X56.057 Y-14.171
N14110 X55.962 Y-14.287
N14115 X55.877 Y-14.411
N14120 X55.804 Y-14.542
N14125 X55.794 Y-14.566
N14130 X55.709 Y-14.851
N14135 X55.697 Y-15.148
N14140 X55.758 Y-15.439
N14145 X55.889 Y-15.706
N14150 X56.081 Y-15.932
N14155 X56.323 Y-16.105
N14160 X56.6 Y-16.213
N14165 X56.895 Y-16.25
N14170 X57.783
N14175 G3 X58.361 Y-15.63 Z-12.3 I-0.021 J0.6
N14180 X58.273 Y-15.337 I-0.6 J-0.02
N14185 G1 X57.659 Y-14.335
N14190 X57.568 Y-14.187 Z-12.337
N14195 X57.476 Y-14.036 Z-12.374
N14200 G3 X56.985 Y-13.75 Z-12.5 I-0.512 J-0.314
N14205 G1 X56.029
N14210 X55.879 Y-13.757
N14215 X55.733 Y-13.792
N14220 X55.592 Y-13.844
N14225 X55.46 Y-13.914
N14230 X55.336 Y-13.999
N14235 X55.222 Y-14.097
N14240 X55.119 Y-14.206
N14245 X55.028 Y-14.325
N14250 X54.947 Y-14.451
N14255 X54.88 Y-14.585
N14260 X54.804 Y-14.871
N14265 X54.799 Y-15.166
N14270 X54.866 Y-15.453
N14275 X55. Y-15.716
N14280 X55.194 Y-15.939
N14285 X55.436 Y-16.108
N14290 X55.711 Y-16.214
N14295 X56.005 Y-16.25
N14300 X56.895
N14305 G3 X57.473 Y-15.63 Z-12.3 I-0.021 J0.6
N14310 X57.373 Y-15.318 I-0.6 J-0.02
N14315 G1 X56.714 Y-14.328
N14320 X56.617 Y-14.183 Z-12.337
N14325 X56.507 Y-14.017 Z-12.379
N14330 G3 X56.029 Y-13.75 Z-12.5 I-0.499 J-0.333
N14335 G1 X55.174
N14340 X55.024 Y-13.757
N14345 X54.876 Y-13.783
N14350 X54.734 Y-13.83
N14355 X54.598 Y-13.894
N14360 X54.472 Y-13.975
N14365 X54.355 Y-14.069
N14370 X54.249 Y-14.175
N14375 X54.154 Y-14.292
N14380 X54.071 Y-14.416
N14385 X53.999 Y-14.548
N14390 X53.983 Y-14.586
N14395 X53.902 Y-14.869
N14400 X53.893 Y-15.163
N14405 X53.955 Y-15.45
N14410 X54.086 Y-15.714
N14415 X54.277 Y-15.937
N14420 X54.517 Y-16.107
N14425 X54.791 Y-16.214
N14430 X55.083 Y-16.25
N14435 X56.005
N14440 G3 X56.583 Y-15.63 Z-12.3 I-0.021 J0.6
N14445 X56.489 Y-15.327 I-0.6 J-0.02
N14450 G1 X55.853 Y-14.331
N14455 X55.759 Y-14.185 Z-12.337
N14460 X55.658 Y-14.027 Z-12.377
N14465 G3 X55.174 Y-13.75 Z-12.5 I-0.506 J-0.323
N14470 G1 X54.278
N14475 X54.128 Y-13.757
N14480 X53.98 Y-13.783
N14485 X53.838 Y-13.829
N14490 X53.702 Y-13.892
N14495 X53.575 Y-13.973
N14500 X53.457 Y-14.066
N14505 X53.35 Y-14.171
N14510 X53.255 Y-14.287
N14515 X53.17 Y-14.41
N14520 X53.098 Y-14.542
N14525 X53.038 Y-14.679
N14530 X52.979 Y-14.954
N14535 X52.986 Y-15.235
N14540 X53.06 Y-15.507
N14545 X53.195 Y-15.753
N14550 X53.385 Y-15.961
N14555 X53.618 Y-16.119
N14560 X53.881 Y-16.217
N14565 X54.161 Y-16.25
N14570 X55.083
N14575 G3 X55.662 Y-15.63 Z-12.3 I-0.021 J0.6
N14580 X55.572 Y-15.335 I-0.6 J-0.02
N14585 G1 X54.953 Y-14.334
N14590 X54.862 Y-14.186 Z-12.337
N14595 X54.767 Y-14.034 Z-12.375
N14600 G3 X54.278 Y-13.75 Z-12.5 I-0.51 J-0.316
N14605 G1 X53.362
N14610 X53.212 Y-13.757
N14615 X53.065 Y-13.783
N14620 X52.922 Y-13.83
N14625 X52.786 Y-13.894
N14630 X52.66 Y-13.974
N14635 X52.542 Y-14.068
N14640 X52.435 Y-14.173
N14645 X52.34 Y-14.288
N14650 X52.255 Y-14.412
N14655 X52.182 Y-14.543
N14660 X52.171 Y-14.569
N14665 X52.087 Y-14.853
N14670 X52.075 Y-15.15
N14675 X52.136 Y-15.44
N14680 X52.267 Y-15.707
N14685 X52.459 Y-15.933
N14690 X52.7 Y-16.105
N14695 X52.977 Y-16.213
N14700 X53.272 Y-16.25
N14705 X54.161
N14710 G3 X54.739 Y-15.63 Z-12.3 I-0.021 J0.6
N14715 X54.651 Y-15.336 I-0.6 J-0.02
N14720 G1 X54.036 Y-14.335
N14725 X53.945 Y-14.187 Z-12.337
N14730 X53.853 Y-14.036 Z-12.374
N14735 G3 X53.362 Y-13.75 Z-12.5 I-0.511 J-0.314
N14740 G1 X52.406
N14745 X52.256 Y-13.757
N14750 X52.11 Y-13.792
N14755 X51.969 Y-13.844
N14760 X51.837 Y-13.915
N14765 X51.713 Y-14.
N14770 X51.599 Y-14.097
N14775 X51.497 Y-14.207
N14780 X51.405 Y-14.326
N14785 X51.325 Y-14.452
N14790 X51.257 Y-14.586
N14795 X51.181 Y-14.871
N14800 X51.177 Y-15.166
N14805 X51.244 Y-15.454
N14810 X51.378 Y-15.717
N14815 X51.572 Y-15.939
N14820 X51.814 Y-16.108
N14825 X52.089 Y-16.214
N14830 X52.382 Y-16.25
N14835 X53.272
N14840 G3 X53.85 Y-15.63 Z-12.3 I-0.021 J0.6
N14845 X53.75 Y-15.318 I-0.6 J-0.02
N14850 G1 X53.091 Y-14.328
N14855 X52.994 Y-14.183 Z-12.337
N14860 X52.884 Y-14.017 Z-12.379
N14865 G3 X52.406 Y-13.75 Z-12.5 I-0.499 J-0.333
N14870 G1 X51.551
N14875 X51.401 Y-13.757
N14880 X51.253 Y-13.783
N14885 X51.111 Y-13.83
N14890 X50.975 Y-13.894
N14895 X50.849 Y-13.976
N14900 X50.732 Y-14.07
N14905 X50.626 Y-14.176
N14910 X50.532 Y-14.292
N14915 X50.448 Y-14.417
N14920 X50.377 Y-14.549
N14925 X50.36 Y-14.587
N14930 X50.279 Y-14.87
N14935 X50.27 Y-15.164
N14940 X50.333 Y-15.451
N14945 X50.463 Y-15.714
N14950 X50.654 Y-15.938
N14955 X50.894 Y-16.108
N14960 X51.168 Y-16.214
N14965 X51.46 Y-16.25
N14970 X52.382
N14975 G3 X52.961 Y-15.63 Z-12.3 I-0.021 J0.6
N14980 X52.867 Y-15.327 I-0.6 J-0.02
N14985 G1 X52.23 Y-14.331
N14990 X52.137 Y-14.185 Z-12.337
N14995 X52.035 Y-14.027 Z-12.377
N15000 G3 X51.551 Y-13.75 Z-12.5 I-0.506 J-0.323
N15005 G1 X50.655
N15010 X50.505 Y-13.757
N15015 X50.357 Y-13.783
N15020 X50.215 Y-13.829
N15025 X50.079 Y-13.893
N15030 X49.952 Y-13.973
N15035 X49.834 Y-14.066
N15040 X49.728 Y-14.171
N15045 X49.632 Y-14.287
N15050 X49.547 Y-14.411
N15055 X49.475 Y-14.542
N15060 X49.415 Y-14.68
N15065 X49.356 Y-14.955
N15070 X49.364 Y-15.236
N15075 X49.437 Y-15.507
N15080 X49.573 Y-15.754
N15085 X49.762 Y-15.961
N15090 X49.995 Y-16.119
N15095 X50.259 Y-16.217
N15100 X50.538 Y-16.25
N15105 X51.46
N15110 G3 X52.039 Y-15.63 Z-12.3 I-0.021 J0.6
N15115 X51.949 Y-15.335 I-0.6 J-0.02
N15120 G1 X51.33 Y-14.334
N15125 X51.239 Y-14.186 Z-12.337
N15130 X51.144 Y-14.034 Z-12.375
N15135 G3 X50.655 Y-13.75 Z-12.5 I-0.51 J-0.316
N15140 G1 X49.739
N15145 X49.589 Y-13.757
N15150 X49.442 Y-13.783
N15155 X49.299 Y-13.83
N15160 X49.164 Y-13.894
N15165 X49.037 Y-13.974
N15170 X48.919 Y-14.068
N15175 X48.812 Y-14.173
N15180 X48.717 Y-14.289
N15185 X48.632 Y-14.413
N15190 X48.56 Y-14.544
N15195 X48.549 Y-14.569
N15200 X48.464 Y-14.853
N15205 X48.452 Y-15.15
N15210 X48.514 Y-15.44
N15215 X48.644 Y-15.707
N15220 X48.836 Y-15.933
N15225 X49.078 Y-16.106
N15230 X49.354 Y-16.213
N15235 X49.649 Y-16.25
N15240 X50.538
N15245 G3 X51.116 Y-15.63 Z-12.3 I-0.021 J0.6
N15250 X51.028 Y-15.336 I-0.6 J-0.02
N15255 G1 X50.413 Y-14.335
N15260 X50.322 Y-14.187 Z-12.337
N15265 X50.23 Y-14.036 Z-12.374
N15270 G3 X49.739 Y-13.75 Z-12.5 I-0.511 J-0.314
N15275 G1 X48.783
N15280 X48.633 Y-13.757
N15285 X48.487 Y-13.792
N15290 X48.346 Y-13.844
N15295 X48.214 Y-13.915
N15300 X48.09 Y-14.
N15305 X47.976 Y-14.097
N15310 X47.874 Y-14.207
N15315 X47.782 Y-14.326
N15320 X47.702 Y-14.452
N15325 X47.634 Y-14.586
N15330 X47.559 Y-14.872
N15335 X47.554 Y-15.167
N15340 X47.621 Y-15.454
N15345 X47.755 Y-15.717
N15350 X47.949 Y-15.939
N15355 X48.191 Y-16.108
N15360 X48.466 Y-16.214
N15365 X48.759 Y-16.25
N15370 X49.649
N15375 G3 X50.227 Y-15.63 Z-12.3 I-0.021 J0.6
N15380 X50.127 Y-15.318 I-0.6 J-0.02
N15385 G1 X49.468 Y-14.328
N15390 X49.371 Y-14.183 Z-12.337
N15395 X49.261 Y-14.017 Z-12.379
N15400 G3 X48.783 Y-13.75 Z-12.5 I-0.499 J-0.333
N15405 G1 X47.928
N15410 X47.778 Y-13.757
N15415 X47.63 Y-13.783
N15420 X47.488 Y-13.83
N15425 X47.352 Y-13.894
N15430 X47.226 Y-13.976
N15435 X47.109 Y-14.07
N15440 X47.003 Y-14.176
N15445 X46.909 Y-14.292
N15450 X46.825 Y-14.417
N15455 X46.754 Y-14.549
N15460 X46.737 Y-14.587
N15465 X46.657 Y-14.87
N15470 X46.647 Y-15.164
N15475 X46.71 Y-15.451
N15480 X46.84 Y-15.714
N15485 X47.032 Y-15.938
N15490 X47.271 Y-16.108
N15495 X47.545 Y-16.214
N15500 X47.837 Y-16.25
N15505 X48.759
N15510 G3 X49.338 Y-15.63 Z-12.3 I-0.021 J0.6
N15515 X49.244 Y-15.327 I-0.6 J-0.02
N15520 G1 X48.607 Y-14.331
N15525 X48.513 Y-14.185 Z-12.337
N15530 X48.412 Y-14.026 Z-12.377
N15535 G3 X47.928 Y-13.75 Z-12.5 I-0.506 J-0.323
N15540 G1 X47.032
N15545 X46.882 Y-13.757
N15550 X46.734 Y-13.783
N15555 X46.592 Y-13.829
N15560 X46.456 Y-13.893
N15565 X46.329 Y-13.973
N15570 X46.211 Y-14.066
N15575 X46.105 Y-14.171
N15580 X46.009 Y-14.287
N15585 X45.924 Y-14.411
N15590 X45.852 Y-14.542
N15595 X45.792 Y-14.68
N15600 X45.733 Y-14.955
N15605 X45.741 Y-15.236
N15610 X45.814 Y-15.507
N15615 X45.95 Y-15.754
N15620 X46.139 Y-15.961
N15625 X46.372 Y-16.119
N15630 X46.636 Y-16.217
N15635 X46.915 Y-16.25
N15640 X47.837
N15645 G3 X48.416 Y-15.63 Z-12.3 I-0.021 J0.6
N15650 X48.326 Y-15.335 I-0.6 J-0.02
N15655 G1 X47.707 Y-14.334
N15660 X47.616 Y-14.186 Z-12.337
N15665 X47.521 Y-14.034 Z-12.375
N15670 G3 X47.032 Y-13.75 Z-12.5 I-0.51 J-0.316
N15675 G1 X46.116
N15680 X45.966 Y-13.757
N15685 X45.819 Y-13.783
N15690 X45.676 Y-13.83
N15695 X45.541 Y-13.894
N15700 X45.414 Y-13.974
N15705 X45.296 Y-14.068
N15710 X45.189 Y-14.173
N15715 X45.094 Y-14.289
N15720 X45.009 Y-14.413
N15725 X44.937 Y-14.544
N15730 X44.926 Y-14.569
N15735 X44.841 Y-14.854
N15740 X44.829 Y-15.15
N15745 X44.891 Y-15.44
N15750 X45.021 Y-15.707
N15755 X45.213 Y-15.933
N15760 X45.455 Y-16.106
N15765 X45.731 Y-16.213
N15770 X46.026 Y-16.25
N15775 X46.915
N15780 G3 X47.494 Y-15.63 Z-12.3 I-0.021 J0.6
N15785 X47.405 Y-15.336 I-0.6 J-0.02
N15790 G1 X46.79 Y-14.335
N15795 X46.699 Y-14.187 Z-12.337
N15800 X46.607 Y-14.036 Z-12.374
N15805 G3 X46.116 Y-13.75 Z-12.5 I-0.511 J-0.314
N15810 G1 X45.16
N15815 X45.01 Y-13.757
N15820 X44.864 Y-13.792
N15825 X44.723 Y-13.844
N15830 X44.591 Y-13.915
N15835 X44.467 Y-14.
N15840 X44.353 Y-14.097
N15845 X44.251 Y-14.207
N15850 X44.159 Y-14.326
N15855 X44.079 Y-14.452
N15860 X44.011 Y-14.586
N15865 X43.936 Y-14.872
N15870 X43.931 Y-15.167
N15875 X43.998 Y-15.454
N15880 X44.132 Y-15.717
N15885 X44.326 Y-15.939
N15890 X44.568 Y-16.108
N15895 X44.843 Y-16.214
N15900 X45.136 Y-16.25
N15905 X46.026
N15910 G3 X46.604 Y-15.63 Z-12.3 I-0.021 J0.6
N15915 X46.504 Y-15.318 I-0.6 J-0.02
N15920 G1 X45.845 Y-14.328
N15925 X45.748 Y-14.183 Z-12.337
N15930 X45.638 Y-14.017 Z-12.379
N15935 G3 X45.16 Y-13.75 Z-12.5 I-0.499 J-0.333
N15940 G1 X44.305
N15945 X44.155 Y-13.757
N15950 X44.007 Y-13.783
N15955 X43.865 Y-13.83
N15960 X43.729 Y-13.894
N15965 X43.603 Y-13.976
N15970 X43.486 Y-14.07
N15975 X43.38 Y-14.176
N15980 X43.286 Y-14.292
N15985 X43.202 Y-14.417
N15990 X43.131 Y-14.549
N15995 X43.114 Y-14.588
N16000 X43.034 Y-14.87
N16005 X43.024 Y-15.164
N16010 X43.087 Y-15.451
N16015 X43.217 Y-15.714
N16020 X43.409 Y-15.938
N16025 X43.648 Y-16.108
N16030 X43.922 Y-16.214
N16035 X44.214 Y-16.25
N16040 X45.136
N16045 G3 X45.715 Y-15.63 Z-12.3 I-0.021 J0.6
N16050 X45.621 Y-15.327 I-0.6 J-0.02
N16055 G1 X44.984 Y-14.331
N16060 X44.89 Y-14.185 Z-12.337
N16065 X44.789 Y-14.026 Z-12.377
N16070 G3 X44.305 Y-13.75 Z-12.5 I-0.506 J-0.323
N16075 G1 X43.409
N16080 X43.259 Y-13.757
N16085 X43.111 Y-13.783
N16090 X42.969 Y-13.829
N16095 X42.833 Y-13.893
N16100 X42.706 Y-13.973
N16105 X42.588 Y-14.066
N16110 X42.482 Y-14.171
N16115 X42.386 Y-14.287
N16120 X42.301 Y-14.411
N16125 X42.229 Y-14.542
N16130 X42.169 Y-14.68
N16135 X42.11 Y-14.955
N16140 X42.118 Y-15.236
N16145 X42.191 Y-15.507
N16150 X42.327 Y-15.754
N16155 X42.516 Y-15.961
N16160 X42.749 Y-16.119
N16165 X43.013 Y-16.217
N16170 X43.292 Y-16.25
N16175 X44.214
N16180 G3 X44.793 Y-15.63 Z-12.3 I-0.021 J0.6
N16185 X44.703 Y-15.335 I-0.6 J-0.02
N16190 G1 X44.084 Y-14.334
N16195 X43.993 Y-14.186 Z-12.337
N16200 X43.898 Y-14.034 Z-12.375
N16205 G3 X43.409 Y-13.75 Z-12.5 I-0.51 J-0.316
N16210 G1 X42.493
N16215 X42.343 Y-13.757
N16220 X42.196 Y-13.783
N16225 X42.053 Y-13.83
N16230 X41.918 Y-13.894
N16235 X41.791 Y-13.974
N16240 X41.673 Y-14.068
N16245 X41.566 Y-14.173
N16250 X41.471 Y-14.289
N16255 X41.386 Y-14.413
N16260 X41.314 Y-14.544
N16265 X41.303 Y-14.569
N16270 X41.218 Y-14.854
N16275 X41.206 Y-15.15
N16280 X41.268 Y-15.44
N16285 X41.398 Y-15.707
N16290 X41.59 Y-15.933
N16295 X41.832 Y-16.106
N16300 X42.108 Y-16.213
N16305 X42.403 Y-16.25
N16310 X43.292
N16315 G3 X43.87 Y-15.63 Z-12.3 I-0.021 J0.6
N16320 X43.782 Y-15.336 I-0.6 J-0.02
N16325 G1 X43.167 Y-14.335
N16330 X43.076 Y-14.187 Z-12.337
N16335 X42.984 Y-14.036 Z-12.374
N16340 G3 X42.493 Y-13.75 Z-12.5 I-0.511 J-0.314
N16345 G1 X41.537
N16350 X41.387 Y-13.757
N16355 X41.241 Y-13.792
N16360 X41.1 Y-13.844
N16365 X40.968 Y-13.915
N16370 X40.844 Y-14.
N16375 X40.73 Y-14.097
N16380 X40.628 Y-14.207
N16385 X40.536 Y-14.326
N16390 X40.456 Y-14.452
N16395 X40.388 Y-14.586
N16400 X40.313 Y-14.872
N16405 X40.308 Y-15.167
N16410 X40.375 Y-15.454
N16415 X40.509 Y-15.717
N16420 X40.703 Y-15.939
N16425 X40.945 Y-16.108
N16430 X41.22 Y-16.214
N16435 X41.513 Y-16.25
N16440 X42.403
N16445 G3 X42.981 Y-15.63 Z-12.3 I-0.021 J0.6
N16450 X42.881 Y-15.318 I-0.6 J-0.02
N16455 G1 X42.222 Y-14.328
N16460 X42.125 Y-14.183 Z-12.337
N16465 X42.015 Y-14.017 Z-12.379
N16470 G3 X41.537 Y-13.75 Z-12.5 I-0.499 J-0.333
N16475 G1 X40.682
N16480 X40.532 Y-13.757
N16485 X40.384 Y-13.783
N16490 X40.242 Y-13.83
N16495 X40.106 Y-13.894
N16500 X39.98 Y-13.976
N16505 X39.863 Y-14.07
N16510 X39.757 Y-14.176
N16515 X39.663 Y-14.292
N16520 X39.579 Y-14.417
N16525 X39.508 Y-14.549
N16530 X39.491 Y-14.588
N16535 X39.411 Y-14.87
N16540 X39.401 Y-15.164
N16545 X39.464 Y-15.451
N16550 X39.594 Y-15.714
N16555 X39.785 Y-15.938
N16560 X40.025 Y-16.108
N16565 X40.299 Y-16.214
N16570 X40.591 Y-16.25
N16575 X41.513
N16580 G3 X42.092 Y-15.63 Z-12.3 I-0.021 J0.6
N16585 X41.998 Y-15.327 I-0.6 J-0.02
N16590 G1 X41.361 Y-14.331
N16595 X41.267 Y-14.185 Z-12.337
N16600 X41.166 Y-14.026 Z-12.377
N16605 G3 X40.682 Y-13.75 Z-12.5 I-0.506 J-0.323
N16610 G1 X39.786
N16615 X39.636 Y-13.757
N16620 X39.488 Y-13.783
N16625 X39.346 Y-13.829
N16630 X39.21 Y-13.893
N16635 X39.083 Y-13.973
N16640 X38.965 Y-14.066
N16645 X38.858 Y-14.171
N16650 X38.763 Y-14.287
N16655 X38.678 Y-14.411
N16660 X38.606 Y-14.542
N16665 X38.546 Y-14.68
N16670 X38.487 Y-14.955
N16675 X38.495 Y-15.236
N16680 X38.568 Y-15.507
N16685 X38.704 Y-15.754
N16690 X38.893 Y-15.961
N16695 X39.126 Y-16.119
N16700 X39.39 Y-16.217
N16705 X39.669 Y-16.25
N16710 X40.591
N16715 G3 X41.17 Y-15.63 Z-12.3 I-0.021 J0.6
N16720 X41.08 Y-15.335 I-0.6 J-0.02
N16725 G1 X40.461 Y-14.334
N16730 X40.37 Y-14.186 Z-12.337
N16735 X40.275 Y-14.034 Z-12.375
N16740 G3 X39.786 Y-13.75 Z-12.5 I-0.51 J-0.316
N16745 G1 X38.87
N16750 X38.72 Y-13.757
N16755 X38.573 Y-13.783
N16760 X38.43 Y-13.83
N16765 X38.294 Y-13.894
N16770 X38.168 Y-13.974
N16775 X38.05 Y-14.068
N16780 X37.943 Y-14.173
N16785 X37.848 Y-14.289
N16790 X37.763 Y-14.413
N16795 X37.691 Y-14.544
N16800 X37.68 Y-14.569
N16805 X37.595 Y-14.854
N16810 X37.583 Y-15.15
N16815 X37.645 Y-15.44
N16820 X37.775 Y-15.707
N16825 X37.967 Y-15.933
N16830 X38.209 Y-16.106
N16835 X38.485 Y-16.213
N16840 X38.78 Y-16.25
N16845 X39.669
N16850 G3 X40.247 Y-15.63 Z-12.3 I-0.021 J0.6
N16855 X40.159 Y-15.336 I-0.6 J-0.02
N16860 G1 X39.544 Y-14.335
N16865 X39.453 Y-14.187 Z-12.337
N16870 X39.36 Y-14.036 Z-12.374
N16875 G3 X38.87 Y-13.75 Z-12.5 I-0.511 J-0.314
N16880 G1 X37.914
N16885 X37.764 Y-13.757
N16890 X37.618 Y-13.792
N16895 X37.477 Y-13.844
N16900 X37.345 Y-13.915
N16905 X37.221 Y-14.
N16910 X37.107 Y-14.097
N16915 X37.005 Y-14.207
N16920 X36.913 Y-14.326
N16925 X36.833 Y-14.452
N16930 X36.765 Y-14.586
N16935 X36.69 Y-14.872
N16940 X36.685 Y-15.167
N16945 X36.752 Y-15.454
N16950 X36.886 Y-15.717
N16955 X37.08 Y-15.939
N16960 X37.322 Y-16.108
N16965 X37.597 Y-16.214
N16970 X37.89 Y-16.25
N16975 X38.78
N16980 G3 X39.358 Y-15.63 Z-12.3 I-0.021 J0.6
N16985 X39.258 Y-15.318 I-0.6 J-0.02
N16990 G1 X38.599 Y-14.328
N16995 X38.502 Y-14.183 Z-12.337
N17000 X38.392 Y-14.017 Z-12.379
N17005 G3 X37.914 Y-13.75 Z-12.5 I-0.499 J-0.333
N17010 G1 X37.059
N17015 X36.909 Y-13.757
N17020 X36.761 Y-13.783
N17025 X36.619 Y-13.83
N17030 X36.483 Y-13.894
N17035 X36.357 Y-13.976
N17040 X36.24 Y-14.07
N17045 X36.134 Y-14.176
N17050 X36.04 Y-14.292
N17055 X35.956 Y-14.417
N17060 X35.885 Y-14.549
N17065 X35.868 Y-14.588
N17070 X35.788 Y-14.87
N17075 X35.778 Y-15.164
N17080 X35.841 Y-15.451
N17085 X35.971 Y-15.714
N17090 X36.162 Y-15.938
N17095 X36.402 Y-16.108
N17100 X36.676 Y-16.214
N17105 X36.968 Y-16.25
N17110 X37.89
N17115 G3 X38.469 Y-15.63 Z-12.3 I-0.021 J0.6
N17120 X38.375 Y-15.327 I-0.6 J-0.02
N17125 G1 X37.738 Y-14.331
N17130 X37.644 Y-14.185 Z-12.337
N17135 X37.543 Y-14.026 Z-12.377
N17140 G3 X37.059 Y-13.75 Z-12.5 I-0.506 J-0.323
N17145 G1 X36.163
N17150 X36.013 Y-13.757
N17155 X35.865 Y-13.783
N17160 X35.723 Y-13.829
N17165 X35.587 Y-13.893
N17170 X35.46 Y-13.973
N17175 X35.342 Y-14.066
N17180 X35.235 Y-14.171
N17185 X35.14 Y-14.287
N17190 X35.055 Y-14.411
N17195 X34.983 Y-14.542
N17200 X34.923 Y-14.68
N17205 X34.864 Y-14.955
N17210 X34.872 Y-15.236
N17215 X34.945 Y-15.507
N17220 X35.081 Y-15.754
N17225 X35.27 Y-15.961
N17230 X35.503 Y-16.119
N17235 X35.767 Y-16.217
N17240 X36.046 Y-16.25
N17245 X36.968
N17250 G3 X37.547 Y-15.63 Z-12.3 I-0.021 J0.6
N17255 X37.457 Y-15.335 I-0.6 J-0.02
N17260 G1 X36.838 Y-14.334
N17265 X36.747 Y-14.186 Z-12.337
N17270 X36.652 Y-14.034 Z-12.375
N17275 G3 X36.163 Y-13.75 Z-12.5 I-0.51 J-0.316
N17280 G1 X35.247
N17285 X35.097 Y-13.757
N17290 X34.95 Y-13.783
N17295 X34.807 Y-13.83
N17300 X34.671 Y-13.894
N17305 X34.545 Y-13.974
N17310 X34.427 Y-14.068
N17315 X34.32 Y-14.173
N17320 X34.225 Y-14.289
N17325 X34.14 Y-14.413
N17330 X34.068 Y-14.544
N17335 X34.057 Y-14.569
N17340 X33.972 Y-14.854
N17345 X33.96 Y-15.15
N17350 X34.022 Y-15.44
N17355 X34.152 Y-15.707
N17360 X34.344 Y-15.933
N17365 X34.586 Y-16.106
N17370 X34.862 Y-16.213
N17375 X35.157 Y-16.25
N17380 X36.046
N17385 G3 X36.624 Y-15.63 Z-12.3 I-0.021 J0.6
N17390 X36.536 Y-15.336 I-0.6 J-0.02
N17395 G1 X35.921 Y-14.335
N17400 X35.83 Y-14.187 Z-12.337
N17405 X35.737 Y-14.036 Z-12.374
N17410 G3 X35.247 Y-13.75 Z-12.5 I-0.511 J-0.314
N17415 G1 X34.291
N17420 X34.141 Y-13.757
N17425 X33.995 Y-13.792
N17430 X33.854 Y-13.844
N17435 X33.722 Y-13.915
N17440 X33.598 Y-14.
N17445 X33.484 Y-14.097
N17450 X33.382 Y-14.207
N17455 X33.29 Y-14.326
N17460 X33.21 Y-14.452
N17465 X33.142 Y-14.586
N17470 X33.067 Y-14.872
N17475 X33.062 Y-15.167
N17480 X33.129 Y-15.454
N17485 X33.263 Y-15.717
N17490 X33.457 Y-15.939
N17495 X33.699 Y-16.108
N17500 X33.974 Y-16.214
N17505 X34.267 Y-16.25
N17510 X35.157
N17515 G3 X35.735 Y-15.63 Z-12.3 I-0.021 J0.6
N17520 X35.635 Y-15.318 I-0.6 J-0.02
N17525 G1 X34.976 Y-14.328
N17530 X34.879 Y-14.183 Z-12.337
N17535 X34.769 Y-14.017 Z-12.379
N17540 G3 X34.291 Y-13.75 Z-12.5 I-0.499 J-0.333
N17545 G1 X33.436
N17550 X33.286 Y-13.757
N17555 X33.138 Y-13.783
N17560 X32.996 Y-13.83
N17565 X32.86 Y-13.894
N17570 X32.734 Y-13.976
N17575 X32.617 Y-14.07
N17580 X32.511 Y-14.176
N17585 X32.417 Y-14.292
N17590 X32.333 Y-14.417
N17595 X32.262 Y-14.549
N17600 X32.245 Y-14.588
N17605 X32.165 Y-14.87
N17610 X32.155 Y-15.164
N17615 X32.218 Y-15.451
N17620 X32.348 Y-15.714
N17625 X32.539 Y-15.938
N17630 X32.779 Y-16.108
N17635 X33.053 Y-16.214
N17640 X33.345 Y-16.25
N17645 X34.267
N17650 G3 X34.846 Y-15.63 Z-12.3 I-0.021 J0.6
N17655 X34.752 Y-15.327 I-0.6 J-0.02
N17660 G1 X34.115 Y-14.331
N17665 X34.021 Y-14.185 Z-12.337
N17670 X33.92 Y-14.026 Z-12.377
N17675 G3 X33.436 Y-13.75 Z-12.5 I-0.506 J-0.323
N17680 G1 X32.54
N17685 X32.39 Y-13.757
N17690 X32.242 Y-13.783
N17695 X32.1 Y-13.829
N17700 X31.964 Y-13.893
N17705 X31.837 Y-13.973
N17710 X31.719 Y-14.066
N17715 X31.612 Y-14.171
N17720 X31.517 Y-14.287
N17725 X31.432 Y-14.411
N17730 X31.36 Y-14.542
N17735 X31.3 Y-14.68
N17740 X31.241 Y-14.955
N17745 X31.249 Y-15.236
N17750 X31.322 Y-15.507
N17755 X31.458 Y-15.754
N17760 X31.647 Y-15.961
N17765 X31.88 Y-16.119
N17770 X32.144 Y-16.217
N17775 X32.423 Y-16.25
N17780 X33.345
N17785 G3 X33.924 Y-15.63 Z-12.3 I-0.021 J0.6
N17790 X33.834 Y-15.335 I-0.6 J-0.02
N17795 G1 X33.215 Y-14.334
N17800 X33.124 Y-14.186 Z-12.337
N17805 X33.029 Y-14.034 Z-12.375
N17810 G3 X32.54 Y-13.75 Z-12.5 I-0.51 J-0.316
N17815 G1 X31.624
N17820 X31.474 Y-13.757
N17825 X31.326 Y-13.783
N17830 X31.184 Y-13.83
N17835 X31.048 Y-13.894
N17840 X30.922 Y-13.974
N17845 X30.804 Y-14.068
N17850 X30.697 Y-14.173
N17855 X30.602 Y-14.289
N17860 X30.517 Y-14.413
N17865 X30.445 Y-14.544
N17870 X30.434 Y-14.569
N17875 X30.349 Y-14.854
N17880 X30.337 Y-15.15
N17885 X30.399 Y-15.44
N17890 X30.529 Y-15.707
N17895 X30.721 Y-15.933
N17900 X30.963 Y-16.106
N17905 X31.239 Y-16.213
N17910 X31.534 Y-16.25
N17915 X32.423
N17920 G3 X33.001 Y-15.63 Z-12.3 I-0.021 J0.6
N17925 X32.913 Y-15.336 I-0.6 J-0.02
N17930 G1 X32.298 Y-14.335
N17935 X32.207 Y-14.187 Z-12.337
N17940 X32.114 Y-14.036 Z-12.374
N17945 G3 X31.624 Y-13.75 Z-12.5 I-0.511 J-0.314
N17950 G1 X30.668
N17955 X30.518 Y-13.757
N17960 X30.372 Y-13.792
N17965 X30.231 Y-13.844
N17970 X30.099 Y-13.915
N17975 X29.975 Y-14.
N17980 X29.861 Y-14.097
N17985 X29.759 Y-14.207
N17990 X29.667 Y-14.326
N17995 X29.587 Y-14.452
N18000 X29.519 Y-14.586
N18005 X29.444 Y-14.872
N18010 X29.439 Y-15.167
N18015 X29.506 Y-15.454
N18020 X29.64 Y-15.717
N18025 X29.834 Y-15.939
N18030 X30.076 Y-16.108
N18035 X30.351 Y-16.214
N18040 X30.644 Y-16.25
N18045 X31.534
N18050 G3 X32.112 Y-15.63 Z-12.3 I-0.021 J0.6
N18055 X32.012 Y-15.318 I-0.6 J-0.02
N18060 G1 X31.353 Y-14.328
N18065 X31.256 Y-14.183 Z-12.337
N18070 X31.146 Y-14.017 Z-12.379
N18075 G3 X30.668 Y-13.75 Z-12.5 I-0.499 J-0.333
N18080 G1 X29.813
N18085 X29.663 Y-13.757
N18090 X29.515 Y-13.783
N18095 X29.373 Y-13.83
N18100 X29.237 Y-13.894
N18105 X29.111 Y-13.976
N18110 X28.994 Y-14.07
N18115 X28.888 Y-14.176
N18120 X28.794 Y-14.292
N18125 X28.71 Y-14.417
N18130 X28.639 Y-14.549
N18135 X28.622 Y-14.588
N18140 X28.542 Y-14.87
N18145 X28.532 Y-15.164
N18150 X28.595 Y-15.451
N18155 X28.725 Y-15.714
N18160 X28.916 Y-15.938
N18165 X29.156 Y-16.108
N18170 X29.43 Y-16.214
N18175 X29.722 Y-16.25
N18180 X30.644
N18185 G3 X31.223 Y-15.63 Z-12.3 I-0.021 J0.6
N18190 X31.129 Y-15.327 I-0.6 J-0.02
N18195 G1 X30.492 Y-14.331
N18200 X30.398 Y-14.185 Z-12.337
N18205 X30.297 Y-14.026 Z-12.377
N18210 G3 X29.813 Y-13.75 Z-12.5 I-0.506 J-0.323
N18215 G1 X28.917
N18220 X28.767 Y-13.757
N18225 X28.619 Y-13.783
N18230 X28.477 Y-13.829
N18235 X28.341 Y-13.893
N18240 X28.214 Y-13.973
N18245 X28.096 Y-14.066
N18250 X27.989 Y-14.171
N18255 X27.894 Y-14.287
N18260 X27.809 Y-14.411
N18265 X27.737 Y-14.542
N18270 X27.677 Y-14.68
N18275 X27.618 Y-14.955
N18280 X27.626 Y-15.236
N18285 X27.699 Y-15.507
N18290 X27.835 Y-15.754
N18295 X28.024 Y-15.961
N18300 X28.257 Y-16.119
N18305 X28.521 Y-16.217
