%
(CLAMP_V3_S1)
(T1  D=6. CR=0. TAPER=45DEG - ZMIN=-2. - CHAMFER MILL)
(T16  D=6. CR=0.5 - ZMIN=-13.5 - BULLNOSE END MILL)
N10 G90 G94 G17 G91.1
N15 G21
N20 G53 G0 Z0.
(FACE2)
N25 T16 M6
N30 T1
N35 S15000 M3
N40 G54
N45 M8
N50 G0 X73.145 Y-33.449
N55 G43 Z15. H16
N60 G0 Z5.
N65 G1 Z0.1 F1000.
N70 G18 G3 X72.545 Z-0.5 I-0.6 K0.
N75 G1 X69.979
N80 X-4.979 F1200.
N85 X-5.
N90 G17 G2 Y-28.946 I0. J2.252
N95 G1 X70.
N100 G3 Y-24.442 I0. J2.252
N105 G1 X-5.
N110 G2 Y-19.939 I0. J2.252
N115 G1 X70.
N120 G3 Y-15.436 I0. J2.252
N125 G1 X-5.
N130 G2 Y-10.932 I0. J2.252
N135 G1 X70.
N140 G3 Y-6.429 I0. J2.252
N145 G1 X-5.
N150 G2 Y-1.926 I0. J2.252
N155 G1 X70.
N160 G3 Y2.578 I0. J2.252
N165 G1 X-5.
N170 G18 G3 X-5.6 Z0.1 I0. K0.6 F1000.
N175 G0 Z15.
N180 G17
(POCKET1)
N185 G0 X33.319 Y-14.7
N190 Z15.
N195 Z2.
N200 G1 Z1.05 F600.
N205 S13000
N210 X27.621 Z0.887
N215 G3 Y-15.3 I0. J-0.3
N220 G1 X44.188 Z0.414
N225 G3 Y-14.7 I0. J0.3
N230 G1 X27.621 Z-0.059
N235 G3 Y-15.3 I0. J-0.3
N240 G1 X44.188 Z-0.532
N245 G3 Y-14.7 I0. J0.3
N250 G1 X27.798 Z-1.
N255 X27.767
N260 G3 X27.69 Y-15.741 I-0.002 J-0.523
N265 S15000
N270 G1 X27.744 Y-15.749 F1000.
N275 X44.256
N280 X44.706 Y-15.683
N285 X44.886 Y-15.601
N290 X45.04 Y-15.467
N295 X45.146 Y-15.302
N300 X45.207 Y-15.089
N305 Y-14.911
N310 X45.146 Y-14.698
N315 X45.04 Y-14.533
N320 X44.886 Y-14.399
N325 X44.706 Y-14.317
N330 X44.256 Y-14.251
N335 X27.744
N340 X27.294 Y-14.317
N345 X27.114 Y-14.399
N350 X26.96 Y-14.533
N355 X26.854 Y-14.698
N360 X26.793 Y-14.911
N365 Y-15.089
N370 X26.854 Y-15.302
N375 X26.951 Y-15.454
N380 X26.96 Y-15.467
N385 X27.114 Y-15.601
N390 X27.294 Y-15.683
N395 X27.69 Y-15.741
N400 G3 X27.923 Y-15.647 I0.036 J0.247
N405 G1 X28.349 Y-15.097
N410 X28.389 Y-15.056
N415 X28.437 Y-15.025
N420 X28.49 Y-15.006
N425 X28.547 Y-15.
N430 X31.995
N435 X32.028 Y-15.006
N440 X32.057 Y-15.022
N445 X32.08 Y-15.047
N450 X32.211 Y-15.253
N455 X32.233 Y-15.278
N460 X32.262 Y-15.294
N465 X32.295 Y-15.3
N470 S13000
N475 X44.188 Z-1.415 F600.
N480 G3 Y-14.7 I0. J0.3
N485 G1 X27.621 Z-1.994
N490 G3 Y-15.3 I0. J-0.3
N495 G1 X27.798 Z-2.
N500 G3 Y-14.251 I0. J0.524
N505 S15000
N510 G1 X27.744 F1000.
N515 X27.294 Y-14.317
N520 X27.114 Y-14.399
N525 X26.96 Y-14.533
N530 X26.854 Y-14.698
N535 X26.793 Y-14.911
N540 Y-15.089
N545 X26.854 Y-15.302
N550 X26.951 Y-15.454
N555 X26.96 Y-15.467
N560 X27.114 Y-15.601
N565 X27.294 Y-15.683
N570 X27.744 Y-15.749
N575 X44.256
N580 X44.706 Y-15.683
N585 X44.886 Y-15.601
N590 X45.04 Y-15.467
N595 X45.146 Y-15.302
N600 X45.207 Y-15.089
N605 Y-14.911
N610 X45.146 Y-14.698
N615 X45.04 Y-14.533
N620 X44.886 Y-14.399
N625 X44.706 Y-14.317
N630 X44.256 Y-14.251
N635 X27.798
N640 G3 X27.719 Y-14.738 I0. J-0.25
N645 G1 X28.468 Y-14.987
N650 X28.507 Y-14.997
N655 X28.547 Y-15.
N660 X31.995
N665 X32.028 Y-15.006
N670 X32.057 Y-15.022
N675 X32.08 Y-15.047
N680 X32.211 Y-15.253
N685 X32.233 Y-15.278
N690 X32.262 Y-15.294
N695 X32.295 Y-15.3
N700 S13000
N705 X44.188 Z-2.415 F600.
N710 G3 Y-14.7 I0. J0.3
N715 G1 X27.621 Z-2.994
N720 G3 Y-15.3 I0. J-0.3
N725 G1 X27.798 Z-3.
N730 G3 Y-14.251 I0. J0.524
N735 S15000
N740 G1 X27.744 F1000.
N745 X27.294 Y-14.317
N750 X27.114 Y-14.399
N755 X26.96 Y-14.533
N760 X26.854 Y-14.698
N765 X26.793 Y-14.911
N770 Y-15.089
N775 X26.854 Y-15.302
N780 X26.951 Y-15.454
N785 X26.96 Y-15.467
N790 X27.114 Y-15.601
N795 X27.294 Y-15.683
N800 X27.744 Y-15.749
N805 X44.256
N810 X44.706 Y-15.683
N815 X44.886 Y-15.601
N820 X45.04 Y-15.467
N825 X45.146 Y-15.302
N830 X45.207 Y-15.089
N835 Y-14.911
N840 X45.146 Y-14.698
N845 X45.04 Y-14.533
N850 X44.886 Y-14.399
N855 X44.706 Y-14.317
N860 X44.256 Y-14.251
N865 X27.798
N870 G3 X27.719 Y-14.738 I0. J-0.25
N875 G1 X28.468 Y-14.987
N880 X28.507 Y-14.997
N885 X28.547 Y-15.
N890 X31.995
N895 X32.028 Y-15.006
N900 X32.057 Y-15.022
N905 X32.08 Y-15.047
N910 X32.211 Y-15.253
N915 X32.233 Y-15.278
N920 X32.262 Y-15.294
N925 X32.295 Y-15.3
N930 S13000
N935 X44.188 Z-3.415 F600.
N940 G3 Y-14.7 I0. J0.3
N945 G1 X27.621 Z-3.994
N950 G3 Y-15.3 I0. J-0.3
N955 G1 X27.798 Z-4.
N960 G3 Y-14.251 I0. J0.524
N965 S15000
N970 G1 X27.744 F1000.
N975 X27.294 Y-14.317
N980 X27.114 Y-14.399
N985 X26.96 Y-14.533
N990 X26.854 Y-14.698
N995 X26.793 Y-14.911
N1000 Y-15.089
N1005 X26.854 Y-15.302
N1010 X26.951 Y-15.454
N1015 X26.96 Y-15.467
N1020 X27.114 Y-15.601
N1025 X27.294 Y-15.683
N1030 X27.744 Y-15.749
N1035 X44.256
N1040 X44.706 Y-15.683
N1045 X44.886 Y-15.601
N1050 X45.04 Y-15.467
N1055 X45.146 Y-15.302
N1060 X45.207 Y-15.089
N1065 Y-14.911
N1070 X45.146 Y-14.698
N1075 X45.04 Y-14.533
N1080 X44.886 Y-14.399
N1085 X44.706 Y-14.317
N1090 X44.256 Y-14.251
N1095 X27.798
N1100 G3 X27.719 Y-14.738 I0. J-0.25
N1105 G1 X28.468 Y-14.987
N1110 X28.507 Y-14.997
N1115 X28.547 Y-15.
N1120 X31.995
N1125 X32.028 Y-15.006
N1130 X32.057 Y-15.022
N1135 X32.08 Y-15.047
N1140 X32.211 Y-15.253
N1145 X32.233 Y-15.278
N1150 X32.262 Y-15.294
N1155 X32.295 Y-15.3
N1160 S13000
N1165 X44.188 Z-4.415 F600.
N1170 G3 Y-14.7 I0. J0.3
N1175 G1 X27.621 Z-4.994
N1180 G3 Y-15.3 I0. J-0.3
N1185 G1 X27.798 Z-5.
N1190 G3 Y-14.251 I0. J0.524
N1195 S15000
N1200 G1 X27.744 F1000.
N1205 X27.294 Y-14.317
N1210 X27.114 Y-14.399
N1215 X26.96 Y-14.533
N1220 X26.854 Y-14.698
N1225 X26.793 Y-14.911
N1230 Y-15.089
N1235 X26.854 Y-15.302
N1240 X26.951 Y-15.454
N1245 X26.96 Y-15.467
N1250 X27.114 Y-15.601
N1255 X27.294 Y-15.683
N1260 X27.744 Y-15.749
N1265 X44.256
N1270 X44.706 Y-15.683
N1275 X44.886 Y-15.601
N1280 X45.04 Y-15.467
N1285 X45.146 Y-15.302
N1290 X45.207 Y-15.089
N1295 Y-14.911
N1300 X45.146 Y-14.698
N1305 X45.04 Y-14.533
N1310 X44.886 Y-14.399
N1315 X44.706 Y-14.317
N1320 X44.256 Y-14.251
N1325 X27.798
N1330 G3 X27.719 Y-14.738 I0. J-0.25
N1335 G1 X28.468 Y-14.987
N1340 X28.507 Y-14.997
N1345 X28.547 Y-15.
N1350 X31.995
N1355 X32.028 Y-15.006
N1360 X32.057 Y-15.022
N1365 X32.08 Y-15.047
N1370 X32.211 Y-15.253
N1375 X32.233 Y-15.278
N1380 X32.262 Y-15.294
N1385 X32.295 Y-15.3
N1390 S13000
N1395 X44.188 Z-5.415 F600.
N1400 G3 Y-14.7 I0. J0.3
N1405 G1 X27.621 Z-5.994
N1410 G3 Y-15.3 I0. J-0.3
N1415 G1 X27.798 Z-6.
N1420 G3 Y-14.251 I0. J0.524
N1425 S15000
N1430 G1 X27.744 F1000.
N1435 X27.294 Y-14.317
N1440 X27.114 Y-14.399
N1445 X26.96 Y-14.533
N1450 X26.854 Y-14.698
N1455 X26.793 Y-14.911
N1460 Y-15.089
N1465 X26.854 Y-15.302
N1470 X26.951 Y-15.454
N1475 X26.96 Y-15.467
N1480 X27.114 Y-15.601
N1485 X27.294 Y-15.683
N1490 X27.744 Y-15.749
N1495 X44.256
N1500 X44.706 Y-15.683
N1505 X44.886 Y-15.601
N1510 X45.04 Y-15.467
N1515 X45.146 Y-15.302
N1520 X45.207 Y-15.089
N1525 Y-14.911
N1530 X45.146 Y-14.698
N1535 X45.04 Y-14.533
N1540 X44.886 Y-14.399
N1545 X44.706 Y-14.317
N1550 X44.256 Y-14.251
N1555 X27.798
N1560 G3 X27.719 Y-14.738 I0. J-0.25
N1565 G1 X28.468 Y-14.987
N1570 X28.507 Y-14.997
N1575 X28.547 Y-15.
N1580 X31.995
N1585 X32.028 Y-15.006
N1590 X32.057 Y-15.022
N1595 X32.08 Y-15.047
N1600 X32.211 Y-15.253
N1605 X32.233 Y-15.278
N1610 X32.262 Y-15.294
N1615 X32.295 Y-15.3
N1620 S13000
N1625 X44.188 Z-6.415 F600.
N1630 G3 Y-14.7 I0. J0.3
N1635 G1 X27.621 Z-6.994
N1640 G3 Y-15.3 I0. J-0.3
N1645 G1 X27.798 Z-7.
N1650 G3 Y-14.251 I0. J0.524
N1655 S15000
N1660 G1 X27.744 F1000.
N1665 X27.294 Y-14.317
N1670 X27.114 Y-14.399
N1675 X26.96 Y-14.533
N1680 X26.854 Y-14.698
N1685 X26.793 Y-14.911
N1690 Y-15.089
N1695 X26.854 Y-15.302
N1700 X26.951 Y-15.454
N1705 X26.96 Y-15.467
N1710 X27.114 Y-15.601
N1715 X27.294 Y-15.683
N1720 X27.744 Y-15.749
N1725 X44.256
N1730 X44.706 Y-15.683
N1735 X44.886 Y-15.601
N1740 X45.04 Y-15.467
N1745 X45.146 Y-15.302
N1750 X45.207 Y-15.089
N1755 Y-14.911
N1760 X45.146 Y-14.698
N1765 X45.04 Y-14.533
N1770 X44.886 Y-14.399
N1775 X44.706 Y-14.317
N1780 X44.256 Y-14.251
N1785 X27.798
N1790 G3 X27.719 Y-14.738 I0. J-0.25
N1795 G1 X28.468 Y-14.987
N1800 X28.507 Y-14.997
N1805 X28.547 Y-15.
N1810 X31.995
N1815 X32.028 Y-15.006
N1820 X32.057 Y-15.022
N1825 X32.08 Y-15.047
N1830 X32.211 Y-15.253
N1835 X32.233 Y-15.278
N1840 X32.262 Y-15.294
N1845 X32.295 Y-15.3
N1850 S13000
N1855 X44.188 Z-7.415 F600.
N1860 G3 Y-14.7 I0. J0.3
N1865 G1 X27.621 Z-7.994
N1870 G3 Y-15.3 I0. J-0.3
N1875 G1 X27.798 Z-8.
N1880 G3 Y-14.251 I0. J0.524
N1885 S15000
N1890 G1 X27.744 F1000.
N1895 X27.294 Y-14.317
N1900 X27.114 Y-14.399
N1905 X26.96 Y-14.533
N1910 X26.854 Y-14.698
N1915 X26.793 Y-14.911
N1920 Y-15.089
N1925 X26.854 Y-15.302
N1930 X26.951 Y-15.454
N1935 X26.96 Y-15.467
N1940 X27.114 Y-15.601
N1945 X27.294 Y-15.683
N1950 X27.744 Y-15.749
N1955 X44.256
N1960 X44.706 Y-15.683
N1965 X44.886 Y-15.601
N1970 X45.04 Y-15.467
N1975 X45.146 Y-15.302
N1980 X45.207 Y-15.089
N1985 Y-14.911
N1990 X45.146 Y-14.698
N1995 X45.04 Y-14.533
N2000 X44.886 Y-14.399
N2005 X44.706 Y-14.317
N2010 X44.256 Y-14.251
N2015 X27.798
N2020 G3 X27.719 Y-14.738 I0. J-0.25
N2025 G1 X28.468 Y-14.987
N2030 X28.507 Y-14.997
N2035 X28.547 Y-15.
N2040 X31.995
N2045 X32.028 Y-15.006
N2050 X32.057 Y-15.022
N2055 X32.08 Y-15.047
N2060 X32.211 Y-15.253
N2065 X32.233 Y-15.278
N2070 X32.262 Y-15.294
N2075 X32.295 Y-15.3
N2080 S13000
N2085 X44.188 Z-8.415 F600.
N2090 G3 Y-14.7 I0. J0.3
N2095 G1 X27.621 Z-8.994
N2100 G3 Y-15.3 I0. J-0.3
N2105 G1 X27.798 Z-9.
N2110 G3 Y-14.251 I0. J0.524
N2115 S15000
N2120 G1 X27.744 F1000.
N2125 X27.294 Y-14.317
N2130 X27.114 Y-14.399
N2135 X26.96 Y-14.533
N2140 X26.854 Y-14.698
N2145 X26.793 Y-14.911
N2150 Y-15.089
N2155 X26.854 Y-15.302
N2160 X26.951 Y-15.454
N2165 X26.96 Y-15.467
N2170 X27.114 Y-15.601
N2175 X27.294 Y-15.683
N2180 X27.744 Y-15.749
N2185 X44.256
N2190 X44.706 Y-15.683
N2195 X44.886 Y-15.601
N2200 X45.04 Y-15.467
N2205 X45.146 Y-15.302
N2210 X45.207 Y-15.089
N2215 Y-14.911
N2220 X45.146 Y-14.698
N2225 X45.04 Y-14.533
N2230 X44.886 Y-14.399
N2235 X44.706 Y-14.317
N2240 X44.256 Y-14.251
N2245 X27.798
N2250 G3 X27.719 Y-14.738 I0. J-0.25
N2255 G1 X28.468 Y-14.987
N2260 X28.507 Y-14.997
N2265 X28.547 Y-15.
N2270 X31.995
N2275 X32.028 Y-15.006
N2280 X32.057 Y-15.022
N2285 X32.08 Y-15.047
N2290 X32.211 Y-15.253
N2295 X32.233 Y-15.278
N2300 X32.262 Y-15.294
N2305 X32.295 Y-15.3
N2310 S13000
N2315 X44.188 Z-9.415 F600.
N2320 G3 Y-14.7 I0. J0.3
N2325 G1 X27.621 Z-9.994
N2330 G3 Y-15.3 I0. J-0.3
N2335 G1 X27.798 Z-10.
N2340 G3 Y-14.251 I0. J0.524
N2345 S15000
N2350 G1 X27.744 F1000.
N2355 X27.294 Y-14.317
N2360 X27.114 Y-14.399
N2365 X26.96 Y-14.533
N2370 X26.854 Y-14.698
N2375 X26.793 Y-14.911
N2380 Y-15.089
N2385 X26.854 Y-15.302
N2390 X26.951 Y-15.454
N2395 X26.96 Y-15.467
N2400 X27.114 Y-15.601
N2405 X27.294 Y-15.683
N2410 X27.744 Y-15.749
N2415 X44.256
N2420 X44.706 Y-15.683
N2425 X44.886 Y-15.601
N2430 X45.04 Y-15.467
N2435 X45.146 Y-15.302
N2440 X45.207 Y-15.089
N2445 Y-14.911
N2450 X45.146 Y-14.698
N2455 X45.04 Y-14.533
N2460 X44.886 Y-14.399
N2465 X44.706 Y-14.317
N2470 X44.256 Y-14.251
N2475 X27.798
N2480 G3 X27.766 Y-14.85 I0. J-0.3
N2485 G1 X31.909 Y-15.298
N2490 X31.942 Y-15.3
N2495 S13000
N2500 X44.188 Z-10.428 F600.
N2505 G3 Y-14.7 I0. J0.3
N2510 G1 X27.798 Z-11.
N2515 X27.767
N2520 G3 X27.69 Y-15.741 I-0.002 J-0.523
N2525 S15000
N2530 G1 X27.744 Y-15.749 F1000.
N2535 X44.256
N2540 X44.706 Y-15.683
N2545 X44.886 Y-15.601
N2550 X45.04 Y-15.467
N2555 X45.146 Y-15.302
N2560 X45.207 Y-15.089
N2565 Y-14.911
N2570 X45.146 Y-14.698
N2575 X45.04 Y-14.533
N2580 X44.886 Y-14.399
N2585 X44.706 Y-14.317
N2590 X44.256 Y-14.251
N2595 X27.744
N2600 X27.294 Y-14.317
N2605 X27.114 Y-14.399
N2610 X26.96 Y-14.533
N2615 X26.854 Y-14.698
N2620 X26.793 Y-14.911
N2625 Y-15.089
N2630 X26.854 Y-15.302
N2635 X26.951 Y-15.454
N2640 X26.96 Y-15.467
N2645 X27.114 Y-15.601
N2650 X27.294 Y-15.683
N2655 X27.69 Y-15.741
N2660 X27.727 Y-15.744
N2665 X27.765 Y-15.742
N2670 X31.91 Y-15.302
N2675 X31.942 Y-15.3
N2680 S13000
N2685 X44.188 Z-11.428 F600.
N2690 G3 Y-14.7 I0. J0.3
N2695 G1 X27.798 Z-12.
N2700 X27.767
N2705 G3 X27.69 Y-15.741 I-0.002 J-0.523
N2710 S15000
N2715 G1 X27.744 Y-15.749 F1000.
N2720 X44.256
N2725 X44.706 Y-15.683
N2730 X44.886 Y-15.601
N2735 X45.04 Y-15.467
N2740 X45.146 Y-15.302
N2745 X45.207 Y-15.089
N2750 Y-14.911
N2755 X45.146 Y-14.698
N2760 X45.04 Y-14.533
N2765 X44.886 Y-14.399
N2770 X44.706 Y-14.317
N2775 X44.256 Y-14.251
N2780 X27.744
N2785 X27.294 Y-14.317
N2790 X27.114 Y-14.399
N2795 X26.96 Y-14.533
N2800 X26.854 Y-14.698
N2805 X26.793 Y-14.911
N2810 Y-15.089
N2815 X26.854 Y-15.302
N2820 X26.951 Y-15.454
N2825 X26.96 Y-15.467
N2830 X27.114 Y-15.601
N2835 X27.294 Y-15.683
N2840 X27.69 Y-15.741
N2845 X27.727 Y-15.744
N2850 X27.765 Y-15.742
N2855 X31.942 Y-15.3
N2860 S13000
N2865 X44.188 Z-12.428 F600.
N2870 G3 Y-14.7 I0. J0.3
N2875 G1 X27.798 Z-13.
N2880 X27.767
N2885 G3 X27.69 Y-15.741 I-0.002 J-0.523
N2890 S15000
N2895 G1 X27.744 Y-15.749 F1000.
N2900 X44.256
N2905 X44.706 Y-15.683
N2910 X44.886 Y-15.601
N2915 X45.04 Y-15.467
N2920 X45.146 Y-15.302
N2925 X45.207 Y-15.089
N2930 Y-14.911
N2935 X45.146 Y-14.698
N2940 X45.04 Y-14.533
N2945 X44.886 Y-14.399
N2950 X44.706 Y-14.317
N2955 X44.256 Y-14.251
N2960 X27.744
N2965 X27.294 Y-14.317
N2970 X27.114 Y-14.399
N2975 X26.96 Y-14.533
N2980 X26.854 Y-14.698
N2985 X26.793 Y-14.911
N2990 Y-15.089
N2995 X26.854 Y-15.302
N3000 X26.951 Y-15.454
N3005 X26.96 Y-15.467
N3010 X27.114 Y-15.601
N3015 X27.294 Y-15.683
N3020 X27.69 Y-15.741
N3025 X27.756 Y-15.747 Z-12.992
N3030 X27.823 Y-15.745 Z-12.985
N3035 X27.886 Y-15.737 Z-12.963
N3040 X27.947 Y-15.722 Z-12.941
N3045 X28.001 Y-15.704 Z-12.905
N3050 X28.053 Y-15.68 Z-12.869
N3055 X28.133 Y-15.63 Z-12.774
N3060 X28.188 Y-15.584 Z-12.66
N3065 X28.219 Y-15.552 Z-12.534
N3070 X28.229 Y-15.541 Z-12.4
N3075 G0 Z15.
(2D CONTOUR1)
N3080 G0 X43.95 Y-15.6
N3085 Z15.
N3090 Z5.
N3095 G1 Z1. F400.
N3100 Z-12.9
N3105 G18 G2 X44.55 Z-13.5 I0.6 K0. F800.
N3110 G1 X45.15
N3115 G17 G3 X45.75 Y-15. I0. J0.6
N3120 X44.5 Y-13.75 I-1.25 J0.
N3125 G1 X27.5
N3130 G3 Y-16.25 I0. J-1.25
N3135 G1 X44.5
N3140 G3 X45.75 Y-15. I0. J1.25
N3145 X45.15 Y-14.4 I-0.6 J0.
N3150 G1 X44.55
N3155 G18 G3 X43.95 Z-12.9 I0. K0.6
N3160 G0 Z15.
N3165 G17
(ADAPTIVE2)
N3170 G0 X48.658 Y-37.811
N3175 Z15.
N3180 Z5.
N3185 Z-7.
N3190 G1 Z-8.5 F1000.
N3195 X48.66 Y-37.804 Z-8.647
N3200 X48.665 Y-37.784 Z-8.793
N3205 X48.674 Y-37.749 Z-8.935
N3210 X48.686 Y-37.701 Z-9.074
N3215 X48.702 Y-37.64 Z-9.207
N3220 X48.721 Y-37.567 Z-9.333
N3225 X48.743 Y-37.482 Z-9.452
N3230 X48.767 Y-37.386 Z-9.561
N3235 X48.794 Y-37.28 Z-9.66
N3240 X48.823 Y-37.166 Z-9.747
N3245 X48.855 Y-37.043 Z-9.823
N3250 X48.888 Y-36.914 Z-9.886
N3255 X48.922 Y-36.78 Z-9.935
N3260 X48.958 Y-36.642 Z-9.971
N3265 X48.994 Y-36.501 Z-9.993
N3270 X49.03 Y-36.358 Z-10.
N3275 G3 X49.5 Y-33.092 I-14.839 J3.801
N3280 G1 Y-32.972
N3285 X49.38 Y-32.883
N3290 X49.245 Y-32.816
N3295 X49.107 Y-32.759
N3300 X48.965 Y-32.71
N3305 X48.807 Y-32.662
N3310 X48.611 Y-32.611
N3315 X48.365 Y-32.556
N3320 X48.049 Y-32.497
N3325 X47.63 Y-32.436
N3330 X47.037 Y-32.371
N3335 X46.1 Y-32.302
N3340 X45.143 Y-32.268
N3345 X44.185 Y-32.25
N3350 X43.228 Y-32.241
N3355 X42.27 Y-32.237
N3360 X41.312 Y-32.234
N3365 X38.439 Y-32.232
N3370 X1.568 Y-32.226
N3375 X0.625 Y-32.056
N3380 X-0.207 Y-31.582
N3385 X-0.877 Y-30.898
N3390 X-1.375 Y-30.079
N3395 X-1.718 Y-29.186
N3400 X-1.939 Y-28.254
N3405 X-2.072 Y-27.305
N3410 X-2.149 Y-26.351
N3415 X-2.19 Y-25.394
N3420 X-2.213 Y-24.436
N3425 X-2.225 Y-23.479
N3430 X-2.231 Y-22.521
N3435 X-2.234 Y-21.563
N3440 X-2.237 Y-19.648
N3445 X-2.24 Y-11.029
N3450 X-2.241 Y-1.452
N3455 X-2.021 Y-0.52
N3460 X-1.51 Y0.291
N3465 X-0.802 Y0.935
N3470 X0.03 Y1.409
N3475 X0.932 Y1.732
N3480 X1.867 Y1.938
N3485 X2.817 Y2.061
N3490 X3.772 Y2.131
N3495 X4.729 Y2.169
N3500 X5.687 Y2.189
N3505 X6.644 Y2.2
N3510 X7.602 Y2.206
N3515 X8.56 Y2.209
N3520 X10.475 Y2.212
N3525 X16.221 Y2.214
N3530 X63.148 Y2.225
N3535 X63.626 Y2.193
N3540 X64.553 Y1.952
N3545 X65.354 Y1.427
N3550 X65.987 Y0.708
N3555 X66.451 Y-0.13
N3560 X66.766 Y-1.034
N3565 X66.966 Y-1.971
N3570 X67.084 Y-2.921
N3575 X67.151 Y-3.876
N3580 X67.188 Y-4.833
N3585 X67.208 Y-5.791
N3590 X67.218 Y-6.748
N3595 X67.223 Y-7.706
N3600 X67.226 Y-8.664
N3605 X67.228 Y-10.579
N3610 X67.229 Y-22.072
N3615 Y-28.775
N3620 X66.939 Y-29.688
N3625 X66.379 Y-30.466
N3630 X65.639 Y-31.073
N3635 X64.788 Y-31.513
N3640 X63.877 Y-31.808
N3645 X62.938 Y-31.993
N3650 X61.986 Y-32.103
N3655 X61.031 Y-32.164
N3660 X60.073 Y-32.197
N3665 X59.116 Y-32.215
N3670 X58.158 Y-32.224
N3675 X57.201 Y-32.229
N3680 X56.243 Y-32.231
N3685 X54.327 Y-32.233
N3690 X51.454
N3695 X50.501 Y-32.139
N3700 X48.61 Y-31.837
N3705 X47.66 Y-31.716
N3710 X46.706 Y-31.628
N3715 X45.75 Y-31.57
N3720 X44.793 Y-31.534
N3725 X43.836 Y-31.512
N3730 X42.878 Y-31.499
N3735 X41.921 Y-31.492
N3740 X40.963 Y-31.487
N3745 X40.005 Y-31.485
N3750 X38.09 Y-31.482
N3755 X29.47 Y-31.48
N3760 X2.655 Y-31.476
N3765 X1.712 Y-31.31
N3770 X0.85 Y-30.892
N3775 X0.131 Y-30.259
N3780 X-0.425 Y-29.48
N3785 X-0.822 Y-28.608
N3790 X-1.088 Y-27.688
N3795 X-1.256 Y-26.745
N3800 X-1.357 Y-25.793
N3805 X-1.415 Y-24.837
N3810 X-1.448 Y-23.88
N3815 X-1.467 Y-22.922
N3820 X-1.477 Y-21.965
N3825 X-1.482 Y-21.007
N3830 X-1.485 Y-20.049
N3835 X-1.488 Y-18.134
N3840 X-1.49 Y-8.557
N3845 X-1.491 Y-2.811
N3850 X-1.363 Y-1.862
N3855 X-0.975 Y-0.986
N3860 X-0.367 Y-0.246
N3865 X0.398 Y0.331
N3870 X1.26 Y0.748
N3875 X2.175 Y1.031
N3880 X3.115 Y1.211
N3885 X4.067 Y1.32
N3890 X5.022 Y1.384
N3895 X5.979 Y1.419
N3900 X6.937 Y1.439
N3905 X7.894 Y1.45
N3910 X8.852 Y1.456
N3915 X9.81 Y1.459
N3920 X11.725 Y1.462
N3925 X20.344 Y1.465
N3930 X22.26
N3935 X61.525 Y1.475
N3940 X62.483 Y1.461
N3945 X63.417 Y1.251
N3950 X64.259 Y0.794
N3955 X64.955 Y0.135
N3960 X65.484 Y-0.663
N3965 X65.859 Y-1.544
N3970 X66.109 Y-2.468
N3975 X66.265 Y-3.413
N3980 X66.359 Y-4.366
N3985 X66.413 Y-5.322
N3990 X66.443 Y-6.28
N3995 X66.46 Y-7.237
N4000 X66.469 Y-8.195
N4005 X66.473 Y-9.153
N4010 X66.476 Y-10.11
N4015 X66.478 Y-12.026
N4020 X66.479 Y-24.476
N4025 Y-27.349
N4030 X66.317 Y-28.293
N4035 X65.896 Y-29.153
N4040 X65.262 Y-29.871
N4045 X64.48 Y-30.424
N4050 X63.609 Y-30.82
N4055 X62.689 Y-31.086
N4060 X61.746 Y-31.254
N4065 X60.793 Y-31.355
N4070 X59.837 Y-31.413
N4075 X58.88 Y-31.446
N4080 X57.923 Y-31.463
N4085 X56.965 Y-31.473
N4090 X56.007 Y-31.478
N4095 X55.05 Y-31.481
N4100 X53.134 Y-31.483
N4105 X52.177 Y-31.472
N4110 X51.221 Y-31.409
N4115 X50.269 Y-31.301
N4120 X49.32 Y-31.176
N4125 X48.369 Y-31.059
N4130 X47.902 Y-31.011
N4135 X47.833 Y-31.005
N4140 X47.765 Y-31.001
N4145 X47.697 Y-31.
N4150 X4.003
N4155 X3.552 Y-30.995
N4160 X3.35 Y-30.992
N4165 X3.132 Y-30.977
N4170 X2.915 Y-30.949
N4175 X2.697 Y-30.904
N4180 X2.48 Y-30.843
N4185 X2.279 Y-30.777
N4190 X2.045 Y-30.681
N4195 X1.809 Y-30.559
N4200 X1.61 Y-30.44
N4205 X1.463 Y-30.342
N4210 X1.392 Y-30.291
N4215 X1.175 Y-30.108
N4220 X0.957 Y-29.906
N4225 X0.522 Y-29.471
N4230 X0.086 Y-29.036
N4235 X-0.131 Y-28.798
N4240 X-0.295 Y-28.601
N4245 X-0.348 Y-28.527
N4250 X-0.448 Y-28.383
N4255 X-0.576 Y-28.166
N4260 X-0.682 Y-27.948
N4265 X-0.775 Y-27.73
N4270 X-0.847 Y-27.513
N4275 X-0.904 Y-27.295
N4280 X-0.949 Y-27.078
N4285 X-0.979 Y-26.86
N4290 X-0.988 Y-26.642
N4295 X-0.999 Y-26.207
N4300 X-1. Y-25.99
N4305 Y-4.01
N4310 X-0.999 Y-3.793
N4315 X-0.988 Y-3.358
N4320 X-0.979 Y-3.14
N4325 X-0.949 Y-2.922
N4330 X-0.904 Y-2.705
N4335 X-0.847 Y-2.487
N4340 X-0.775 Y-2.27
N4345 X-0.682 Y-2.052
N4350 X-0.576 Y-1.834
N4355 X-0.448 Y-1.617
N4360 X-0.348 Y-1.473
N4365 X-0.295 Y-1.399
N4370 X-0.131 Y-1.202
N4375 X0.087 Y-0.963
N4380 X0.74 Y-0.311
N4385 X0.958 Y-0.093
N4390 X1.175 Y0.108
N4395 X1.392 Y0.291
N4400 X1.463 Y0.342
N4405 X1.61 Y0.44
N4410 X1.809 Y0.559
N4415 X2.045 Y0.681
N4420 X2.279 Y0.777
N4425 X2.48 Y0.843
N4430 X2.697 Y0.904
N4435 X2.915 Y0.949
N4440 X3.132 Y0.977
N4445 X3.35 Y0.992
N4450 X3.785 Y0.998
N4455 X4.003 Y1.
N4460 X49.468
N4465 X49.685 Y0.991
N4470 X49.903 Y0.973
N4475 X50.12 Y0.943
N4480 X50.343 Y0.913
N4485 X50.981 Y0.848
N4490 X51.937 Y0.785
N4495 X52.894 Y0.754
N4500 X53.851 Y0.739
N4505 X54.809 Y0.731
N4510 X55.767 Y0.728
N4515 X56.724 Y0.726
N4520 X59.598 Y0.724
N4525 X60.555
N4530 X61.513 Y0.705
N4535 X62.451 Y0.512
N4540 X63.309 Y0.086
N4545 X64.03 Y-0.544
N4550 X64.594 Y-1.318
N4555 X65.003 Y-2.184
N4560 X65.283 Y-3.1
N4565 X65.463 Y-4.041
N4570 X65.575 Y-4.992
N4575 X65.642 Y-5.947
N4580 X65.68 Y-6.904
N4585 X65.702 Y-7.862
N4590 X65.714 Y-8.783
N4595 X65.729 Y-9.004
N4600 X65.768 Y-9.221
N4605 X65.831 Y-9.433
N4610 X65.837 Y-9.451
N4615 X65.897 Y-9.668
N4620 X65.942 Y-9.886
N4625 X65.975 Y-10.104
N4630 X65.994 Y-10.321
N4635 X65.997 Y-10.539
N4640 X66. Y-10.974
N4645 Y-19.026
N4650 X65.997 Y-19.461
N4655 X65.994 Y-19.679
N4660 X65.975 Y-19.896
N4665 X65.942 Y-20.114
N4670 X65.928 Y-20.204
N4675 X65.863 Y-20.811
N4680 X65.795 Y-21.767
N4685 X65.763 Y-22.724
N4690 X65.746 Y-23.681
N4695 X65.738 Y-24.639
N4700 X65.733 Y-25.597
N4705 X65.712 Y-26.554
N4710 X65.514 Y-27.491
N4715 X65.079 Y-28.344
N4720 X64.442 Y-29.059
N4725 X63.663 Y-29.617
N4730 X62.796 Y-30.022
N4735 X61.879 Y-30.299
N4740 X60.938 Y-30.477
N4745 X59.986 Y-30.586
N4750 X59.031 Y-30.65
N4755 X58.074 Y-30.687
N4760 X57.116 Y-30.708
N4765 X56.159 Y-30.72
N4770 X55.201 Y-30.726
N4775 X54.243 Y-30.729
N4780 X53.286 Y-30.727
N4785 X52.328 Y-30.699
N4790 X51.52 Y-30.643
N4795 X51.25 Y-30.646
N4800 X50.984 Y-30.691
N4805 X50.727 Y-30.777
N4810 X50.556 Y-30.832
N4815 X50.338 Y-30.895
N4820 X50.12 Y-30.943
N4825 X49.903 Y-30.973
N4830 X49.685 Y-30.991
N4835 X49.468 Y-31.
N4840 X47.697
N4845 G3 X46.954 Y-31.227 I0.052 J-1.499
N4850 G1 X46.83 Y-31.305 Z-9.993
N4855 X46.706 Y-31.382 Z-9.971
N4860 X46.585 Y-31.458 Z-9.935
N4865 X46.467 Y-31.531 Z-9.886
N4870 X46.355 Y-31.602 Z-9.823
N4875 X46.248 Y-31.669 Z-9.747
N4880 X46.147 Y-31.731 Z-9.66
N4885 X46.055 Y-31.789 Z-9.561
N4890 X45.971 Y-31.841 Z-9.452
N4895 X45.897 Y-31.888 Z-9.333
N4900 X45.832 Y-31.928 Z-9.207
N4905 X45.779 Y-31.961 Z-9.074
N4910 X45.737 Y-31.988 Z-8.935
N4915 X45.707 Y-32.007 Z-8.793
N4920 X45.688 Y-32.018 Z-8.647
N4925 X45.682 Y-32.022 Z-8.5
N4930 G0 Z5.
N4935 X67.322 Y-18.313
N4940 Z-7.
N4945 G1 Z-8.5 F1000.
N4950 X67.317 Y-18.318 Z-8.647
N4955 X67.303 Y-18.334 Z-8.793
N4960 X67.279 Y-18.361 Z-8.935
N4965 X67.245 Y-18.397 Z-9.074
N4970 X67.203 Y-18.444 Z-9.207
N4975 X67.152 Y-18.5 Z-9.333
N4980 X67.093 Y-18.564 Z-9.452
N4985 X67.026 Y-18.637 Z-9.561
N4990 X66.952 Y-18.718 Z-9.66
N4995 X66.873 Y-18.805 Z-9.747
N5000 X66.788 Y-18.899 Z-9.823
N5005 X66.698 Y-18.997 Z-9.886
N5010 X66.604 Y-19.099 Z-9.935
N5015 X66.508 Y-19.205 Z-9.971
N5020 X66.41 Y-19.312 Z-9.993
N5025 X66.311 Y-19.421 Z-10.
N5030 G3 X65.942 Y-20.114 I1.169 J-1.067
N5035 G1 X65.897 Y-20.332
N5040 X65.837 Y-20.549
N5045 X65.783 Y-20.7
N5050 X65.758 Y-20.767
N5055 X65.666 Y-20.984
N5060 X65.649 Y-21.018
N5065 X65.602 Y-21.125
N5070 X65.547 Y-21.265
N5075 X65.495 Y-21.415
N5080 X65.443 Y-21.585
N5085 X65.387 Y-21.797
N5090 X65.326 Y-22.064
N5095 X65.264 Y-22.393
N5100 X65.198 Y-22.83
N5105 X65.13 Y-23.429
N5110 X65.057 Y-24.384
N5115 X65.01 Y-25.341
N5120 X64.876 Y-26.289
N5125 X64.525 Y-27.18
N5130 X63.965 Y-27.957
N5135 X63.243 Y-28.586
N5140 X62.412 Y-29.062
N5145 X61.516 Y-29.4
N5150 X60.585 Y-29.626
N5155 X59.639 Y-29.771
N5160 X58.685 Y-29.86
N5165 X57.729 Y-29.913
N5170 X56.772 Y-29.944
N5175 X55.814 Y-29.962
N5180 X54.856 Y-29.971
N5185 X53.899 Y-29.97
N5190 X52.843 Y-29.947
N5195 X52.481 Y-29.972
N5200 X52.13 Y-30.062
N5205 X51.8 Y-30.214
N5210 X51.426 Y-30.43
N5215 X51.19 Y-30.559
N5220 X50.991 Y-30.665
N5225 X50.727 Y-30.777
N5230 G3 X50.133 Y-31.277 I0.636 J-1.358
N5235 G1 X50.049 Y-31.398 Z-9.993
N5240 X49.966 Y-31.517 Z-9.971
N5245 X49.884 Y-31.634 Z-9.935
N5250 X49.805 Y-31.748 Z-9.886
N5255 X49.729 Y-31.857 Z-9.823
N5260 X49.656 Y-31.961 Z-9.747
N5265 X49.589 Y-32.058 Z-9.66
N5270 X49.526 Y-32.147 Z-9.561
N5275 X49.47 Y-32.228 Z-9.452
N5280 X49.42 Y-32.3 Z-9.333
N5285 X49.376 Y-32.362 Z-9.207
N5290 X49.34 Y-32.414 Z-9.074
N5295 X49.312 Y-32.454 Z-8.935
N5300 X49.291 Y-32.484 Z-8.793
N5305 X49.279 Y-32.501 Z-8.647
N5310 X49.275 Y-32.507 Z-8.5
N5315 G0 Z5.
N5320 X67.444 Y-19.63
N5325 Z-7.
N5330 G1 Z-8.5 F1000.
N5335 X67.438 Y-19.634 Z-8.647
N5340 X67.42 Y-19.645 Z-8.793
N5345 X67.39 Y-19.665 Z-8.935
N5350 X67.348 Y-19.692 Z-9.074
N5355 X67.295 Y-19.726 Z-9.207
N5360 X67.232 Y-19.767 Z-9.333
N5365 X67.158 Y-19.814 Z-9.452
N5370 X67.075 Y-19.868 Z-9.561
N5375 X66.983 Y-19.927 Z-9.66
N5380 X66.884 Y-19.991 Z-9.747
N5385 X66.778 Y-20.059 Z-9.823
N5390 X66.666 Y-20.131 Z-9.886
N5395 X66.549 Y-20.206 Z-9.935
N5400 X66.429 Y-20.284 Z-9.971
N5405 X66.307 Y-20.362 Z-9.993
N5410 X66.183 Y-20.442 Z-10.
N5415 G3 X65.649 Y-21.018 I0.857 J-1.33
N5420 G1 X65.566 Y-21.186
N5425 X65.348 Y-21.566
N5430 X65.176 Y-21.855
N5435 X65.093 Y-22.012
N5440 X65.024 Y-22.146
N5445 X64.963 Y-22.283
N5450 X64.905 Y-22.424
N5455 X64.842 Y-22.599
N5460 X64.772 Y-22.818
N5465 X64.703 Y-23.061
N5470 X64.631 Y-23.36
N5475 X64.44 Y-24.299
N5480 X64.271 Y-25.241
N5485 X63.949 Y-26.143
N5490 X63.43 Y-26.949
N5495 X62.746 Y-27.619
N5500 X61.943 Y-28.141
N5505 X61.065 Y-28.522
N5510 X60.144 Y-28.786
N5515 X59.203 Y-28.961
N5520 X58.251 Y-29.071
N5525 X57.296 Y-29.139
N5530 X56.339 Y-29.179
N5535 X55.382 Y-29.201
N5540 X54.066 Y-29.209
N5545 X53.723 Y-29.241
N5550 X53.39 Y-29.331
N5555 X53.078 Y-29.477
N5560 X51.8 Y-30.214
N5565 G3 X51.27 Y-30.781 I0.794 J-1.272
N5570 G1 X51.201 Y-30.911 Z-9.993
N5575 X51.133 Y-31.04 Z-9.971
N5580 X51.066 Y-31.166 Z-9.935
N5585 X51.001 Y-31.288 Z-9.886
N5590 X50.938 Y-31.406 Z-9.823
N5595 X50.879 Y-31.517 Z-9.747
N5600 X50.823 Y-31.622 Z-9.66
N5605 X50.772 Y-31.718 Z-9.561
N5610 X50.726 Y-31.805 Z-9.452
N5615 X50.684 Y-31.883 Z-9.333
N5620 X50.649 Y-31.949 Z-9.207
N5625 X50.619 Y-32.005 Z-9.074
N5630 X50.596 Y-32.049 Z-8.935
N5635 X50.579 Y-32.08 Z-8.793
N5640 X50.569 Y-32.099 Z-8.647
N5645 X50.566 Y-32.106 Z-8.5
N5650 G0 Z5.
N5655 X67.07 Y-20.605
N5660 Z-7.
N5665 G1 Z-8.5 F1000.
N5670 X67.064 Y-20.609 Z-8.647
N5675 X67.045 Y-20.619 Z-8.793
N5680 X67.013 Y-20.636 Z-8.935
N5685 X66.97 Y-20.66 Z-9.074
N5690 X66.914 Y-20.69 Z-9.207
N5695 X66.848 Y-20.726 Z-9.333
N5700 X66.771 Y-20.768 Z-9.452
N5705 X66.684 Y-20.815 Z-9.561
N5710 X66.588 Y-20.867 Z-9.66
N5715 X66.484 Y-20.923 Z-9.747
N5720 X66.373 Y-20.983 Z-9.823
N5725 X66.256 Y-21.047 Z-9.886
N5730 X66.134 Y-21.113 Z-9.935
N5735 X66.009 Y-21.181 Z-9.971
N5740 X65.881 Y-21.251 Z-9.993
N5745 X65.752 Y-21.321 Z-10.
N5750 G3 X65.176 Y-21.855 I0.755 J-1.391
N5755 G1 X65.046 Y-22.072
N5760 X64.913 Y-22.286
N5765 X64.695 Y-22.559
N5770 X64.649 Y-22.618
N5775 X64.561 Y-22.74
N5780 X64.48 Y-22.867
N5785 X64.406 Y-22.997
N5790 X64.333 Y-23.139
N5795 X64.251 Y-23.313
N5800 X63.873 Y-24.193
N5805 X63.516 Y-25.082
N5810 X63.023 Y-25.903
N5815 X62.374 Y-26.607
N5820 X61.602 Y-27.175
N5825 X60.747 Y-27.606
N5830 X59.841 Y-27.915
N5835 X58.907 Y-28.127
N5840 X57.959 Y-28.265
N5845 X57.005 Y-28.353
N5850 X56.049 Y-28.405
N5855 X55.571 Y-28.419
N5860 X55.356 Y-28.427
N5865 X55.036 Y-28.466
N5870 X54.726 Y-28.555
N5875 X54.435 Y-28.694
N5880 X53.078 Y-29.477
N5885 G3 X52.548 Y-30.044 I0.794 J-1.272
N5890 G1 X52.479 Y-30.174 Z-9.993
N5895 X52.41 Y-30.303 Z-9.971
N5900 X52.343 Y-30.429 Z-9.935
N5905 X52.278 Y-30.551 Z-9.886
N5910 X52.216 Y-30.669 Z-9.823
N5915 X52.156 Y-30.78 Z-9.747
N5920 X52.101 Y-30.884 Z-9.66
N5925 X52.05 Y-30.981 Z-9.561
N5930 X52.003 Y-31.068 Z-9.452
N5935 X51.962 Y-31.145 Z-9.333
N5940 X51.926 Y-31.212 Z-9.207
N5945 X51.897 Y-31.268 Z-9.074
N5950 X51.874 Y-31.312 Z-8.935
N5955 X51.857 Y-31.343 Z-8.793
N5960 X51.847 Y-31.362 Z-8.647
N5965 X51.843 Y-31.369 Z-8.5
N5970 G0 Z5.
N5975 X66.831 Y-21.792
N5980 Z-7.
N5985 G1 Z-8.5 F1000.
N5990 X66.824 Y-21.794 Z-8.647
N5995 X66.803 Y-21.8 Z-8.793
N6000 X66.769 Y-21.809 Z-8.935
N6005 X66.721 Y-21.822 Z-9.074
N6010 X66.66 Y-21.838 Z-9.207
N6015 X66.587 Y-21.857 Z-9.333
N6020 X66.502 Y-21.88 Z-9.452
N6025 X66.406 Y-21.905 Z-9.561
N6030 X66.301 Y-21.933 Z-9.66
N6035 X66.187 Y-21.963 Z-9.747
N6040 X66.065 Y-21.995 Z-9.823
N6045 X65.936 Y-22.029 Z-9.886
N6050 X65.802 Y-22.065 Z-9.935
N6055 X65.664 Y-22.101 Z-9.971
N6060 X65.523 Y-22.139 Z-9.993
N6065 X65.381 Y-22.176 Z-10.
N6070 G3 X64.695 Y-22.559 I0.405 J-1.53
N6075 G1 X64.478 Y-22.781
N6080 X64.388 Y-22.868
N6085 X64.299 Y-22.943
N6090 X64.241 Y-22.992
N6095 X64.131 Y-23.093
N6100 X64.027 Y-23.202
N6105 X63.929 Y-23.315
N6110 X63.825 Y-23.446
N6115 X63.256 Y-24.216
N6120 X62.694 Y-24.992
N6125 X62.035 Y-25.687
N6130 X61.272 Y-26.265
N6135 X60.429 Y-26.72
N6140 X59.533 Y-27.058
N6145 X58.606 Y-27.297
N6150 X57.662 Y-27.459
N6155 X56.737 Y-27.56
N6160 X56.466 Y-27.609
N6165 X56.204 Y-27.695
N6170 X55.956 Y-27.816
N6175 X54.435 Y-28.694
N6180 G3 X53.905 Y-29.261 I0.794 J-1.272
N6185 G1 X53.836 Y-29.391 Z-9.993
N6190 X53.768 Y-29.52 Z-9.971
N6195 X53.701 Y-29.646 Z-9.935
N6200 X53.636 Y-29.768 Z-9.886
N6205 X53.573 Y-29.885 Z-9.823
N6210 X53.514 Y-29.997 Z-9.747
N6215 X53.458 Y-30.101 Z-9.66
N6220 X53.407 Y-30.198 Z-9.561
N6225 X53.361 Y-30.285 Z-9.452
N6230 X53.32 Y-30.362 Z-9.333
N6235 X53.284 Y-30.429 Z-9.207
N6240 X53.254 Y-30.485 Z-9.074
N6245 X53.231 Y-30.528 Z-8.935
N6250 X53.214 Y-30.56 Z-8.793
N6255 X53.204 Y-30.579 Z-8.647
N6260 X53.201 Y-30.585 Z-8.5
N6265 G0 Z5.
N6270 X66.547 Y-22.631
N6275 Z-7.
N6280 G1 Z-8.5 F1000.
N6285 X66.539 Z-8.647
N6290 X66.518 Y-22.632 Z-8.793
N6295 X66.482 Y-22.634 Z-8.935
N6300 X66.433 Y-22.637 Z-9.074
N6305 X66.37 Y-22.64 Z-9.207
N6310 X66.294 Y-22.644 Z-9.333
N6315 X66.207 Y-22.649 Z-9.452
N6320 X66.108 Y-22.654 Z-9.561
N6325 X65.999 Y-22.659 Z-9.66
N6330 X65.881 Y-22.666 Z-9.747
N6335 X65.755 Y-22.672 Z-9.823
N6340 X65.622 Y-22.679 Z-9.886
N6345 X65.484 Y-22.686 Z-9.935
N6350 X65.341 Y-22.694 Z-9.971
N6355 X65.196 Y-22.701 Z-9.993
N6360 X65.049 Y-22.709 Z-10.
N6365 G3 X64.299 Y-22.943 I0.082 J-1.58
N6370 G1 X63.647 Y-23.378
N6375 X63.608 Y-23.402
N6380 X63.523 Y-23.456
N6385 X63.4 Y-23.543
N6390 X63.179 Y-23.713
N6395 X62.441 Y-24.324
N6400 X61.707 Y-24.94
N6405 X60.915 Y-25.477
N6410 X60.063 Y-25.915
N6415 X59.166 Y-26.251
N6420 X58.503 Y-26.427
N6425 X58.335 Y-26.479
N6430 X58.172 Y-26.546
N6435 X58.016 Y-26.627
N6440 G3 X59.56 Y-29.199 I0.794 J-1.272
N6445 G1 X65.061 Y-26.026
N6450 G3 X63.608 Y-23.402 I-0.75 J1.299
N6455 G1 X55.956 Y-27.816
N6460 G3 X55.426 Y-28.384 I0.794 J-1.272
N6465 G1 X55.357 Y-28.513 Z-9.993
N6470 X55.289 Y-28.642 Z-9.971
N6475 X55.222 Y-28.768 Z-9.935
N6480 X55.157 Y-28.89 Z-9.886
N6485 X55.094 Y-29.008 Z-9.823
N6490 X55.035 Y-29.119 Z-9.747
N6495 X54.979 Y-29.224 Z-9.66
N6500 X54.928 Y-29.32 Z-9.561
N6505 X54.882 Y-29.407 Z-9.452
N6510 X54.841 Y-29.485 Z-9.333
N6515 X54.805 Y-29.552 Z-9.207
N6520 X54.775 Y-29.607 Z-9.074
N6525 X54.752 Y-29.651 Z-8.935
N6530 X54.735 Y-29.682 Z-8.793
N6535 X54.725 Y-29.702 Z-8.647
N6540 X54.722 Y-29.708 Z-8.5
N6545 G0 Z5.
N6550 X48.343 Y2.354
N6555 Z-7.
N6560 G1 Z-8.5 F1000.
N6565 X48.348 Y2.349 Z-8.647
N6570 X48.364 Y2.334 Z-8.793
N6575 X48.39 Y2.31 Z-8.935
N6580 X48.426 Y2.276 Z-9.074
N6585 X48.472 Y2.232 Z-9.207
N6590 X48.527 Y2.18 Z-9.333
N6595 X48.59 Y2.12 Z-9.452
N6600 X48.662 Y2.052 Z-9.561
N6605 X48.742 Y1.977 Z-9.66
N6610 X48.828 Y1.896 Z-9.747
N6615 X48.919 Y1.81 Z-9.823
N6620 X49.016 Y1.718 Z-9.886
N6625 X49.117 Y1.623 Z-9.935
N6630 X49.221 Y1.525 Z-9.971
N6635 X49.327 Y1.425 Z-9.993
N6640 X49.434 Y1.324 Z-10.
N6645 G3 X50.12 Y0.943 I1.087 J1.151
N6650 G1 X50.338 Y0.895
N6655 X50.556 Y0.832
N6660 X50.727 Y0.777
N6665 X50.991 Y0.665
N6670 X51.024 Y0.647
N6675 X51.097 Y0.613
N6680 X51.235 Y0.556
N6685 X51.377 Y0.506
N6690 X51.549 Y0.452
N6695 X51.747 Y0.397
N6700 X51.996 Y0.338
N6705 X52.313 Y0.275
N6710 X52.714 Y0.21
N6715 X53.265 Y0.143
N6720 X54.08 Y0.072
N6725 X55.037 Y0.025
N6730 X55.994 Y0.001
N6735 X56.952 Y-0.012
N6740 X57.909 Y-0.019
N6745 X59.825 Y-0.025
N6750 X60.781 Y-0.067
N6755 X61.713 Y-0.291
N6760 X62.559 Y-0.74
N6765 X63.269 Y-1.382
N6770 X63.825 Y-2.161
N6775 X64.233 Y-3.028
N6780 X64.516 Y-3.943
N6785 X64.7 Y-4.883
N6790 X64.815 Y-5.834
N6795 X64.884 Y-6.789
N6800 X64.902 Y-7.217
N6805 X64.943 Y-7.544
N6810 X65.038 Y-7.86
N6815 X65.182 Y-8.156
N6820 X65.348 Y-8.434
N6825 X65.566 Y-8.814
N6830 X65.666 Y-9.016
N6835 X65.758 Y-9.233
N6840 X65.798 Y-9.34
N6845 X65.831 Y-9.433
N6850 G3 X66.295 Y-10.055 I1.393 J0.555
N6855 G1 X66.411 Y-10.146 Z-9.993
N6860 X66.525 Y-10.237 Z-9.971
N6865 X66.637 Y-10.325 Z-9.935
N6870 X66.746 Y-10.411 Z-9.886
N6875 X66.85 Y-10.493 Z-9.823
N6880 X66.949 Y-10.572 Z-9.747
N6885 X67.042 Y-10.645 Z-9.66
N6890 X67.128 Y-10.712 Z-9.561
N6895 X67.205 Y-10.774 Z-9.452
N6900 X67.274 Y-10.828 Z-9.333
N6905 X67.334 Y-10.875 Z-9.207
N6910 X67.383 Y-10.914 Z-9.074
N6915 X67.422 Y-10.944 Z-8.935
N6920 X67.45 Y-10.967 Z-8.793
N6925 X67.467 Y-10.98 Z-8.647
N6930 X67.473 Y-10.984 Z-8.5
N6935 G0 Z5.
N6940 X49.679 Y2.475
N6945 Z-7.
N6950 G1 Z-8.5 F1000.
N6955 X49.683 Y2.469 Z-8.647
N6960 X49.694 Y2.45 Z-8.793
N6965 X49.713 Y2.42 Z-8.935
N6970 X49.738 Y2.378 Z-9.074
N6975 X49.771 Y2.324 Z-9.207
N6980 X49.811 Y2.259 Z-9.333
N6985 X49.856 Y2.184 Z-9.452
N6990 X49.908 Y2.1 Z-9.561
N6995 X49.965 Y2.007 Z-9.66
N7000 X50.026 Y1.906 Z-9.747
N7005 X50.092 Y1.798 Z-9.823
N7010 X50.162 Y1.685 Z-9.886
N7015 X50.234 Y1.567 Z-9.935
N7020 X50.308 Y1.445 Z-9.971
N7025 X50.384 Y1.32 Z-9.993
N7030 X50.461 Y1.195 Z-10.
N7035 G3 X51.024 Y0.647 I1.351 J0.825
N7040 G1 X51.208 Y0.55
N7045 X51.426 Y0.43
N7050 X51.955 Y0.124
N7055 X52.093 Y0.054
N7060 X52.228 Y-0.012
N7065 X52.366 Y-0.071
N7070 X52.532 Y-0.134
N7075 X52.724 Y-0.2
N7080 X52.934 Y-0.263
N7085 X53.198 Y-0.332
N7090 X53.523 Y-0.404
N7095 X53.905 Y-0.475
N7100 X54.413 Y-0.549
N7105 X55.102 Y-0.624
N7110 X56.057 Y-0.694
N7115 X57.014 Y-0.731
N7120 X57.971 Y-0.751
N7125 X58.929 Y-0.764
N7130 X59.885 Y-0.812
N7135 X60.819 Y-1.024
N7140 X61.675 Y-1.454
N7145 X62.404 Y-2.075
N7150 X62.983 Y-2.838
N7155 X63.412 Y-3.694
N7160 X63.712 Y-4.604
N7165 X63.911 Y-5.54
N7170 X63.977 Y-6.015
N7175 X64.003 Y-6.188
N7180 X64.073 Y-6.494
N7185 X64.19 Y-6.785
N7190 X64.352 Y-7.055
N7195 X64.553 Y-7.296
N7200 X64.695 Y-7.441
N7205 X64.913 Y-7.714
N7210 X65.046 Y-7.928
N7215 X65.182 Y-8.156
N7220 G3 X65.757 Y-8.677 I1.261 J0.812
N7225 G1 X65.888 Y-8.745 Z-9.993
N7230 X66.017 Y-8.811 Z-9.971
N7235 X66.144 Y-8.877 Z-9.935
N7240 X66.268 Y-8.94 Z-9.886
N7245 X66.386 Y-9.001 Z-9.823
N7250 X66.498 Y-9.059 Z-9.747
N7255 X66.603 Y-9.113 Z-9.66
N7260 X66.7 Y-9.163 Z-9.561
N7265 X66.788 Y-9.208 Z-9.452
N7270 X66.866 Y-9.248 Z-9.333
N7275 X66.934 Y-9.282 Z-9.207
N7280 X66.99 Y-9.311 Z-9.074
N7285 X67.034 Y-9.334 Z-8.935
N7290 X67.065 Y-9.35 Z-8.793
N7295 X67.085 Y-9.36 Z-8.647
N7300 X67.091 Y-9.363 Z-8.5
N7305 G0 Z5.
N7310 X50.679 Y2.001
N7315 Z-7.
N7320 G1 Z-8.5 F1000.
N7325 X50.683 Y1.995 Z-8.647
N7330 X50.693 Y1.976 Z-8.793
N7335 X50.711 Y1.945 Z-8.935
N7340 X50.735 Y1.901 Z-9.074
N7345 X50.766 Y1.846 Z-9.207
N7350 X50.803 Y1.78 Z-9.333
N7355 X50.846 Y1.704 Z-9.452
N7360 X50.894 Y1.618 Z-9.561
N7365 X50.948 Y1.523 Z-9.66
N7370 X51.005 Y1.419 Z-9.747
N7375 X51.067 Y1.309 Z-9.823
N7380 X51.132 Y1.193 Z-9.886
N7385 X51.2 Y1.072 Z-9.935
N7390 X51.27 Y0.948 Z-9.971
N7395 X51.341 Y0.821 Z-9.993
N7400 X51.413 Y0.693 Z-10.
N7405 G3 X51.955 Y0.124 I1.38 J0.774
N7410 G1 X53.166 Y-0.574
N7415 X53.307 Y-0.646
N7420 X53.442 Y-0.711
N7425 X53.59 Y-0.775
N7430 X53.764 Y-0.843
N7435 X53.95 Y-0.907
N7440 X54.184 Y-0.979
N7445 X54.479 Y-1.057
N7450 X54.789 Y-1.127
N7455 X55.2 Y-1.205
N7460 X55.702 Y-1.281
N7465 X56.399 Y-1.36
N7470 X57.354 Y-1.433
N7475 X58.311 Y-1.482
N7480 X59.265 Y-1.569
N7485 X60.186 Y-1.83
N7490 X61.021 Y-2.3
N7495 X61.724 Y-2.95
N7500 X62.278 Y-3.731
N7505 X62.689 Y-4.596
N7510 X62.99 Y-5.505
N7515 X63.092 Y-5.807
N7520 X63.224 Y-6.086
N7525 X63.398 Y-6.342
N7530 X63.608 Y-6.568
N7535 X63.851 Y-6.758
N7540 X64.299 Y-7.057
N7545 X64.388 Y-7.132
N7550 X64.478 Y-7.219
N7555 X64.553 Y-7.296
N7560 G3 X65.235 Y-7.667 I1.034 J1.087
N7565 G1 X65.378 Y-7.701 Z-9.993
N7570 X65.52 Y-7.735 Z-9.971
N7575 X65.659 Y-7.769 Z-9.935
N7580 X65.793 Y-7.801 Z-9.886
N7585 X65.923 Y-7.833 Z-9.823
N7590 X66.045 Y-7.862 Z-9.747
N7595 X66.16 Y-7.89 Z-9.66
N7600 X66.266 Y-7.916 Z-9.561
N7605 X66.362 Y-7.939 Z-9.452
N7610 X66.448 Y-7.959 Z-9.333
N7615 X66.521 Y-7.977 Z-9.207
N7620 X66.582 Y-7.992 Z-9.074
N7625 X66.631 Y-8.003 Z-8.935
N7630 X66.665 Y-8.012 Z-8.793
N7635 X66.686 Y-8.017 Z-8.647
N7640 X66.693 Y-8.019 Z-8.5
N7645 G0 Z5.
N7650 X51.89 Y1.302
N7655 Z-7.
N7660 G1 Z-8.5 F1000.
N7665 X51.894 Y1.296 Z-8.647
N7670 X51.904 Y1.277 Z-8.793
N7675 X51.922 Y1.246 Z-8.935
N7680 X51.946 Y1.203 Z-9.074
N7685 X51.977 Y1.148 Z-9.207
N7690 X52.014 Y1.082 Z-9.333
N7695 X52.057 Y1.005 Z-9.452
N7700 X52.105 Y0.919 Z-9.561
N7705 X52.158 Y0.824 Z-9.66
N7710 X52.216 Y0.721 Z-9.747
N7715 X52.278 Y0.611 Z-9.823
N7720 X52.343 Y0.495 Z-9.886
N7725 X52.411 Y0.374 Z-9.935
N7730 X52.481 Y0.249 Z-9.971
N7735 X52.552 Y0.122 Z-9.993
N7740 X52.624 Y-0.006 Z-10.
N7745 G3 X53.166 Y-0.574 I1.38 J0.774
N7750 G1 X54.373 Y-1.271
N7755 X54.547 Y-1.36
N7760 X54.682 Y-1.426
N7765 X54.825 Y-1.49
N7770 X55. Y-1.56
N7775 X55.182 Y-1.625
N7780 X55.407 Y-1.696
N7785 X55.695 Y-1.775
N7790 X56.019 Y-1.852
N7795 X56.44 Y-1.936
N7800 X57.386 Y-2.088
N7805 X58.334 Y-2.22
N7810 X59.257 Y-2.475
N7815 X60.103 Y-2.924
N7820 X60.828 Y-3.55
N7825 X61.412 Y-4.309
N7830 X61.883 Y-5.143
N7835 X61.989 Y-5.334
N7840 X62.191 Y-5.632
N7845 X62.444 Y-5.89
N7850 X62.739 Y-6.097
N7855 X63.608 Y-6.598
N7860 X63.647 Y-6.622
N7865 X63.851 Y-6.758
N7870 G3 X64.595 Y-6.982 I0.788 J1.276
N7875 G1 X64.742 Y-6.986 Z-9.993
N7880 X64.887 Y-6.99 Z-9.971
N7885 X65.03 Y-6.994 Z-9.935
N7890 X65.169 Y-6.999 Z-9.886
N7895 X65.302 Y-7.003 Z-9.823
N7900 X65.428 Y-7.006 Z-9.747
N7905 X65.546 Y-7.01 Z-9.66
N7910 X65.655 Y-7.013 Z-9.561
N7915 X65.754 Y-7.016 Z-9.452
N7920 X65.841 Y-7.019 Z-9.333
N7925 X65.917 Y-7.021 Z-9.207
N7930 X65.98 Y-7.023 Z-9.074
N7935 X66.03 Y-7.024 Z-8.935
N7940 X66.065 Y-7.025 Z-8.793
N7945 X66.087 Y-7.026 Z-8.647
N7950 X66.094 Z-8.5
N7955 G0 Z5.
N7960 X53.098 Y0.606
N7965 Z-7.
N7970 G1 Z-8.5 F1000.
N7975 X53.101 Y0.599 Z-8.647
N7980 X53.112 Y0.581 Z-8.793
N7985 X53.129 Y0.549 Z-8.935
N7990 X53.153 Y0.506 Z-9.074
N7995 X53.184 Y0.451 Z-9.207
N8000 X53.221 Y0.385 Z-9.333
N8005 X53.264 Y0.309 Z-9.452
N8010 X53.312 Y0.223 Z-9.561
N8015 X53.366 Y0.127 Z-9.66
N8020 X53.424 Y0.024 Z-9.747
N8025 X53.485 Y-0.086 Z-9.823
N8030 X53.55 Y-0.202 Z-9.886
N8035 X53.618 Y-0.323 Z-9.935
N8040 X53.688 Y-0.447 Z-9.971
N8045 X53.759 Y-0.574 Z-9.993
N8050 X53.831 Y-0.703 Z-10.
N8055 G3 X54.373 Y-1.271 I1.38 J0.774
N8060 G1 X55.727 Y-2.052
N8065 X55.879 Y-2.13
N8070 X56.032 Y-2.203
N8075 X56.203 Y-2.277
N8080 X56.418 Y-2.361
N8085 X57.322 Y-2.677
N8090 X58.233 Y-2.973
N8095 X59.089 Y-3.401
N8100 X59.846 Y-3.988
N8105 X60.495 Y-4.692
N8110 X60.647 Y-4.841
N8115 X60.814 Y-4.974
N8120 X60.993 Y-5.09
N8125 G3 X62.446 Y-2.466 I0.704 J1.325
N8130 G1 X57.271 Y0.52
N8135 G3 X55.727 Y-2.052 I-0.75 J-1.299
N8140 G1 X62.739 Y-6.097
N8145 X62.822 Y-6.13 Z-9.995
N8150 X62.904 Y-6.162 Z-9.98
N8155 X62.984 Y-6.193 Z-9.954
N8160 X63.06 Y-6.223 Z-9.92
N8165 X63.144 Y-6.235 Z-9.871
N8170 X63.221 Y-6.246 Z-9.813
N8175 X63.291 Y-6.256 Z-9.745
N8180 X63.351 Y-6.265 Z-9.669
N8185 X63.402 Y-6.272 Z-9.587
N8190 X63.443 Y-6.273 Z-9.498
N8195 X63.472 Y-6.272 Z-9.406
N8200 X63.49 Z-9.311
N8205 X63.496 Z-9.215
N8210 G0 Z5.
N8215 X52.358 Y0.918
N8220 Z-1.99
N8225 G1 Z-3.49 F1000.
N8230 X52.363 Y0.913 Z-3.637
N8235 X52.378 Y0.898 Z-3.783
N8240 X52.403 Y0.873 Z-3.925
N8245 X52.439 Y0.838 Z-4.064
N8250 X52.483 Y0.793 Z-4.197
N8255 X52.537 Y0.74 Z-4.323
N8260 X52.599 Y0.678 Z-4.442
N8265 X52.669 Y0.608 Z-4.551
N8270 X52.746 Y0.531 Z-4.65
N8275 X52.83 Y0.447 Z-4.737
N8280 X52.919 Y0.358 Z-4.813
N8285 X53.013 Y0.264 Z-4.876
N8290 X53.112 Y0.166 Z-4.925
N8295 X53.213 Y0.066 Z-4.961
N8300 X53.316 Y-0.037 Z-4.983
N8305 X53.42 Y-0.141 Z-4.99
N8310 G3 X55.994 Y-2.206 I10.816 J10.846
N8315 G1 X56.212 Y-2.334
N8320 X56.429 Y-2.467
N8325 X56.647 Y-2.621
N8330 X56.864 Y-2.807
N8335 X56.986 Y-2.922
N8340 X57.082 Y-3.028
N8345 X57.181 Y-3.14
N8350 X57.2 Y-3.165
N8355 X57.279 Y-3.255
N8360 X57.389 Y-3.373
N8365 X57.528 Y-3.512
N8370 X57.707 Y-3.678
N8375 X57.941 Y-3.88
N8380 X58.259 Y-4.133
N8385 X58.712 Y-4.47
N8390 X59.431 Y-4.962
N8395 X60.24 Y-5.475
N8400 X61.06 Y-5.97
N8405 X61.884 Y-6.458
N8410 X62.704 Y-6.953
N8415 X63.434 Y-7.572
N8420 X64.052 Y-8.304
N8425 X64.503 Y-9.149
N8430 X64.807 Y-10.057
N8435 X64.999 Y-10.995
N8440 X65.112 Y-11.946
N8445 X65.176 Y-12.902
N8450 X65.211 Y-13.859
N8455 X65.23 Y-14.816
N8460 X65.239 Y-15.774
N8465 X65.245 Y-16.732
N8470 X65.247 Y-17.689
N8475 X65.236 Y-18.647
N8480 X65.066 Y-19.59
N8485 X64.739 Y-20.49
N8490 X64.235 Y-21.304
N8495 X63.602 Y-22.023
N8500 X62.886 Y-22.659
N8505 X62.12 Y-23.234
N8510 X61.325 Y-23.767
N8515 X60.513 Y-24.276
N8520 X59.693 Y-24.77
N8525 X58.869 Y-25.258
N8530 X58.261 Y-25.613
N8535 X57.979 Y-25.812
N8540 X57.735 Y-26.057
N8545 X57.537 Y-26.339
N8550 X57.488 Y-26.425
N8555 X57.349 Y-26.642
N8560 X57.299 Y-26.71
N8565 X57.181 Y-26.86
N8570 X57.082 Y-26.972
N8575 X56.986 Y-27.078
N8580 X56.864 Y-27.193
N8585 X56.647 Y-27.379
N8590 X56.429 Y-27.533
N8595 X56.212 Y-27.666
N8600 X56.102 Y-27.73
N8605 G3 X55.578 Y-28.303 I0.807 J-1.264
N8610 G1 X55.51 Y-28.434 Z-4.983
N8615 X55.443 Y-28.563 Z-4.961
N8620 X55.377 Y-28.69 Z-4.925
N8625 X55.313 Y-28.813 Z-4.876
N8630 X55.252 Y-28.931 Z-4.813
N8635 X55.194 Y-29.043 Z-4.737
N8640 X55.139 Y-29.148 Z-4.65
N8645 X55.089 Y-29.245 Z-4.551
N8650 X55.043 Y-29.332 Z-4.442
N8655 X55.003 Y-29.41 Z-4.323
N8660 X54.968 Y-29.477 Z-4.197
N8665 X54.939 Y-29.533 Z-4.064
N8670 X54.916 Y-29.577 Z-3.925
N8675 X54.9 Y-29.609 Z-3.783
N8680 X54.89 Y-29.628 Z-3.637
N8685 X54.886 Y-29.635 Z-3.49
N8690 G0 Z5.
N8695 X56.707 Y-0.95
N8700 Z-1.99
N8705 G1 Z-3.49 F1000.
N8710 X56.708 Y-0.957 Z-3.637
N8715 X56.711 Y-0.978 Z-3.783
N8720 X56.716 Y-1.014 Z-3.925
N8725 X56.722 Y-1.063 Z-4.064
N8730 X56.731 Y-1.125 Z-4.197
N8735 X56.741 Y-1.2 Z-4.323
N8740 X56.752 Y-1.287 Z-4.442
N8745 X56.766 Y-1.385 Z-4.551
N8750 X56.78 Y-1.493 Z-4.65
N8755 X56.796 Y-1.611 Z-4.737
N8760 X56.813 Y-1.736 Z-4.813
N8765 X56.83 Y-1.868 Z-4.876
N8770 X56.849 Y-2.005 Z-4.925
N8775 X56.867 Y-2.147 Z-4.961
N8780 X56.887 Y-2.291 Z-4.983
N8785 X56.906 Y-2.437 Z-4.99
N8790 G3 X57.2 Y-3.165 I1.569 J0.21
N8795 G1 X57.299 Y-3.29
N8800 X57.349 Y-3.358
N8805 X57.488 Y-3.575
N8810 X57.614 Y-3.793
N8815 X57.631 Y-3.829
N8820 X57.702 Y-3.961
N8825 X57.783 Y-4.088
N8830 X57.87 Y-4.209
N8835 X57.968 Y-4.333
N8840 X58.091 Y-4.478
N8845 X58.223 Y-4.622
N8850 X58.39 Y-4.792
N8855 X58.609 Y-4.999
N8860 X58.867 Y-5.225
N8865 X59.215 Y-5.508
N8870 X59.682 Y-5.86
N8875 X60.467 Y-6.408
N8880 X61.271 Y-6.928
N8885 X62.049 Y-7.488
N8890 X62.737 Y-8.153
N8895 X63.297 Y-8.93
N8900 X63.718 Y-9.79
N8905 X64.014 Y-10.701
N8910 X64.209 Y-11.639
N8915 X64.331 Y-12.589
N8920 X64.405 Y-13.544
N8925 X64.447 Y-14.5
N8930 X64.471 Y-15.458
N8935 X64.484 Y-16.415
N8940 X64.488 Y-17.373
N8945 X64.417 Y-18.328
N8950 X64.2 Y-19.261
N8955 X63.816 Y-20.138
N8960 X63.287 Y-20.937
N8965 X62.65 Y-21.652
N8970 X61.937 Y-22.292
N8975 X61.177 Y-22.874
N8980 X60.387 Y-23.416
N8985 X59.58 Y-23.931
N8990 X59.172 Y-24.181
N8995 X58.764 Y-24.436
N9000 X58.648 Y-24.515
N9005 X58.39 Y-24.724
N9010 X58.17 Y-24.972
N9015 X57.994 Y-25.253
N9020 X57.867 Y-25.559
N9025 X57.799 Y-25.772
N9030 X57.734 Y-25.95
N9035 X57.716 Y-25.99
N9040 X57.614 Y-26.207
N9045 X57.537 Y-26.339
N9050 G3 X57.363 Y-27.096 I1.324 J-0.704
N9055 G1 X57.368 Y-27.243 Z-4.983
N9060 X57.373 Y-27.388 Z-4.961
N9065 X57.378 Y-27.531 Z-4.925
N9070 X57.383 Y-27.67 Z-4.876
N9075 X57.387 Y-27.803 Z-4.813
N9080 X57.392 Y-27.929 Z-4.737
N9085 X57.396 Y-28.047 Z-4.65
N9090 X57.4 Y-28.156 Z-4.551
N9095 X57.403 Y-28.255 Z-4.442
N9100 X57.406 Y-28.342 Z-4.323
N9105 X57.409 Y-28.418 Z-4.197
N9110 X57.411 Y-28.481 Z-4.064
N9115 X57.413 Y-28.53 Z-3.925
N9120 X57.414 Y-28.566 Z-3.783
N9125 X57.415 Y-28.588 Z-3.637
N9130 Y-28.595 Z-3.49
N9135 G0 Z5.
N9140 X57.654 Y-1.56
N9145 Z-1.99
N9150 G1 Z-3.49 F1000.
N9155 X57.653 Y-1.567 Z-3.637
N9160 X57.651 Y-1.589 Z-3.783
N9165 X57.647 Y-1.624 Z-3.925
N9170 X57.643 Y-1.674 Z-4.064
N9175 X57.637 Y-1.736 Z-4.197
N9180 X57.629 Y-1.812 Z-4.323
N9185 X57.621 Y-1.899 Z-4.442
N9190 X57.611 Y-1.997 Z-4.551
N9195 X57.601 Y-2.106 Z-4.65
N9200 X57.59 Y-2.224 Z-4.737
N9205 X57.578 Y-2.349 Z-4.813
N9210 X57.565 Y-2.482 Z-4.876
N9215 X57.552 Y-2.62 Z-4.925
N9220 X57.538 Y-2.762 Z-4.961
N9225 X57.524 Y-2.907 Z-4.983
N9230 X57.51 Y-3.053 Z-4.99
N9235 G3 X57.631 Y-3.829 I1.575 J-0.152
N9240 G1 X57.716 Y-4.01
N9245 X57.734 Y-4.05
N9250 X57.799 Y-4.228
N9255 X57.854 Y-4.402
N9260 X57.891 Y-4.5
N9265 X57.948 Y-4.639
N9270 X58.015 Y-4.773
N9275 X58.089 Y-4.903
N9280 X58.17 Y-5.03
N9285 X58.256 Y-5.153
N9290 X58.365 Y-5.297
N9295 X58.484 Y-5.442
N9300 X58.631 Y-5.609
N9305 X58.823 Y-5.812
N9310 X59.044 Y-6.029
N9315 X59.313 Y-6.274
N9320 X59.85 Y-6.729
N9325 X60.603 Y-7.321
N9330 X61.337 Y-7.935
N9335 X61.983 Y-8.642
N9340 X62.513 Y-9.44
N9345 X62.921 Y-10.307
N9350 X63.215 Y-11.218
N9355 X63.417 Y-12.154
N9360 X63.549 Y-13.103
N9365 X63.632 Y-14.057
N9370 X63.682 Y-15.013
N9375 X63.71 Y-15.971
N9380 X63.707 Y-16.928
N9385 X63.612 Y-17.881
N9390 X63.368 Y-18.807
N9395 X62.971 Y-19.679
N9400 X62.441 Y-20.477
N9405 X61.81 Y-21.197
N9410 X61.106 Y-21.847
N9415 X60.354 Y-22.44
N9420 X59.571 Y-22.991
N9425 X59.139 Y-23.289
N9430 X58.913 Y-23.457
N9435 X58.708 Y-23.622
N9440 X58.657 Y-23.666
N9445 X58.4 Y-23.934
N9450 X58.197 Y-24.245
N9455 X58.055 Y-24.588
N9460 X57.979 Y-24.951
N9465 X57.96 Y-25.119
N9470 X57.923 Y-25.337
N9475 X57.867 Y-25.559
N9480 G3 X57.856 Y-26.336 I1.444 J-0.408
N9485 G1 X57.892 Y-26.478 Z-4.983
N9490 X57.928 Y-26.619 Z-4.961
N9495 X57.963 Y-26.758 Z-4.925
N9500 X57.997 Y-26.892 Z-4.876
N9505 X58.03 Y-27.021 Z-4.813
N9510 X58.061 Y-27.144 Z-4.737
N9515 X58.09 Y-27.258 Z-4.65
N9520 X58.117 Y-27.364 Z-4.551
N9525 X58.141 Y-27.46 Z-4.442
N9530 X58.163 Y-27.545 Z-4.323
N9535 X58.181 Y-27.618 Z-4.197
N9540 X58.197 Y-27.679 Z-4.064
N9545 X58.209 Y-27.727 Z-3.925
N9550 X58.218 Y-27.762 Z-3.783
N9555 X58.223 Y-27.783 Z-3.637
N9560 X58.225 Y-27.79 Z-3.49
N9565 G0 Z5.
N9570 X58.171 Y-2.155
N9575 Z-1.99
N9580 G1 Z-3.49 F1000.
N9585 X58.17 Y-2.162 Z-3.637
N9590 X58.165 Y-2.183 Z-3.783
N9595 X58.157 Y-2.218 Z-3.925
N9600 X58.146 Y-2.266 Z-4.064
N9605 X58.132 Y-2.327 Z-4.197
N9610 X58.115 Y-2.401 Z-4.323
N9615 X58.095 Y-2.486 Z-4.442
N9620 X58.073 Y-2.583 Z-4.551
N9625 X58.048 Y-2.689 Z-4.65
N9630 X58.022 Y-2.804 Z-4.737
N9635 X57.994 Y-2.927 Z-4.813
N9640 X57.964 Y-3.057 Z-4.876
N9645 X57.933 Y-3.192 Z-4.925
N9650 X57.901 Y-3.331 Z-4.961
N9655 X57.868 Y-3.473 Z-4.983
N9660 X57.835 Y-3.616 Z-4.99
N9665 G3 X57.854 Y-4.402 I1.542 J-0.355
N9670 G1 X57.868 Y-4.446
N9675 X57.923 Y-4.663
N9680 X57.96 Y-4.881
N9685 X57.964 Y-4.917
N9690 X57.988 Y-5.065
N9695 X58.031 Y-5.209
N9700 X58.084 Y-5.349
N9705 X58.146 Y-5.486
N9710 X58.215 Y-5.619
N9715 X58.291 Y-5.749
N9720 X58.374 Y-5.88
N9725 X58.482 Y-6.038
N9730 X58.606 Y-6.205
N9735 X58.753 Y-6.389
N9740 X58.948 Y-6.615
N9745 X59.279 Y-6.972
N9750 X59.956 Y-7.649
N9755 X60.631 Y-8.329
N9760 X61.235 Y-9.072
N9765 X61.738 Y-9.887
N9770 X62.132 Y-10.76
N9775 X62.424 Y-11.672
N9780 X62.63 Y-12.607
N9785 X62.769 Y-13.555
N9790 X62.859 Y-14.508
N9795 X62.911 Y-15.465
N9800 X62.912 Y-16.422
N9805 X62.811 Y-17.375
N9810 X62.562 Y-18.299
N9815 X62.167 Y-19.172
N9820 X61.646 Y-19.975
N9825 X61.025 Y-20.705
N9830 X60.332 Y-21.365
N9835 X59.592 Y-21.973
N9840 X59.187 Y-22.295
N9845 X58.934 Y-22.512
N9850 X58.771 Y-22.662
N9855 X58.598 Y-22.834
N9860 X58.54 Y-22.896
N9865 X58.31 Y-23.193
N9870 X58.14 Y-23.527
N9875 X58.035 Y-23.887
N9880 X58. Y-24.26
N9885 X57.999 Y-24.684
N9890 X57.985 Y-24.901
N9895 X57.979 Y-24.951
N9900 G3 X58.12 Y-25.715 I1.495 J-0.118
N9905 G1 X58.184 Y-25.847 Z-4.983
N9910 X58.246 Y-25.979 Z-4.961
N9915 X58.308 Y-26.108 Z-4.925
N9920 X58.367 Y-26.233 Z-4.876
N9925 X58.425 Y-26.353 Z-4.813
N9930 X58.479 Y-26.467 Z-4.737
N9935 X58.53 Y-26.574 Z-4.65
N9940 X58.577 Y-26.672 Z-4.551
N9945 X58.619 Y-26.761 Z-4.442
N9950 X58.657 Y-26.84 Z-4.323
N9955 X58.69 Y-26.909 Z-4.197
N9960 X58.717 Y-26.966 Z-4.064
N9965 X58.738 Y-27.01 Z-3.925
N9970 X58.753 Y-27.043 Z-3.783
N9975 X58.763 Y-27.062 Z-3.637
N9980 X58.766 Y-27.069 Z-3.49
N9985 G0 Z5.
N9990 X58.714 Y-2.775
N9995 Z-1.99
N10000 G1 Z-3.49 F1000.
N10005 X58.711 Y-2.782 Z-3.637
N10010 X58.702 Y-2.802 Z-3.783
N10015 X58.687 Y-2.834 Z-3.925
N10020 X58.667 Y-2.879 Z-4.064
N10025 X58.641 Y-2.937 Z-4.197
N10030 X58.61 Y-3.006 Z-4.323
N10035 X58.574 Y-3.086 Z-4.442
N10040 X58.533 Y-3.176 Z-4.551
N10045 X58.489 Y-3.275 Z-4.65
N10050 X58.44 Y-3.383 Z-4.737
N10055 X58.388 Y-3.498 Z-4.813
N10060 X58.334 Y-3.62 Z-4.876
N10065 X58.277 Y-3.746 Z-4.925
N10070 X58.218 Y-3.876 Z-4.961
N10075 X58.159 Y-4.009 Z-4.983
N10080 X58.098 Y-4.143 Z-4.99
N10085 G3 X57.964 Y-4.917 I1.443 J-0.649
N10090 G1 X57.985 Y-5.099
N10095 X57.999 Y-5.316
N10100 Y-5.382
N10105 X58.007 Y-5.532
N10110 X58.029 Y-5.68
N10115 X58.064 Y-5.826
N10120 X58.11 Y-5.969
N10125 X58.164 Y-6.109
N10130 X58.225 Y-6.246
N10135 X58.292 Y-6.38
N10140 X58.373 Y-6.53
N10145 X58.48 Y-6.71
N10150 X58.622 Y-6.931
N10155 X58.816 Y-7.21
N10160 X59.392 Y-7.976
N10165 X59.991 Y-8.723
N10170 X60.541 Y-9.507
N10175 X61.005 Y-10.344
N10180 X61.376 Y-11.227
N10185 X61.657 Y-12.143
N10190 X61.86 Y-13.079
N10195 X61.999 Y-14.026
N10200 X62.083 Y-14.98
N10205 X62.096 Y-15.938
N10210 X61.995 Y-16.89
N10215 X61.747 Y-17.815
N10220 X61.357 Y-18.69
N10225 X60.842 Y-19.498
N10230 X60.231 Y-20.235
N10235 X59.553 Y-20.912
N10240 X59.055 Y-21.377
N10245 X58.771 Y-21.663
N10250 X58.616 Y-21.831
N10255 X58.47 Y-22.001
N10260 X58.435 Y-22.044
N10265 X58.249 Y-22.324
N10270 X58.112 Y-22.63
N10275 X58.028 Y-22.956
N10280 X58. Y-23.29
N10285 Y-24.26
N10290 G3 X58.225 Y-25.003 I1.499 J0.05
N10295 G1 X58.303 Y-25.127 Z-4.983
N10300 X58.38 Y-25.251 Z-4.961
N10305 X58.455 Y-25.372 Z-4.925
N10310 X58.529 Y-25.49 Z-4.876
N10315 X58.599 Y-25.603 Z-4.813
N10320 X58.666 Y-25.71 Z-4.737
N10325 X58.728 Y-25.81 Z-4.65
N10330 X58.786 Y-25.903 Z-4.551
N10335 X58.838 Y-25.987 Z-4.442
N10340 X58.884 Y-26.061 Z-4.323
N10345 X58.924 Y-26.126 Z-4.197
N10350 X58.958 Y-26.179 Z-4.064
N10355 X58.984 Y-26.221 Z-3.925
N10360 X59.003 Y-26.252 Z-3.783
N10365 X59.014 Y-26.27 Z-3.637
N10370 X59.018 Y-26.276 Z-3.49
N10375 G0 Z5.
N10380 X58.983 Y-3.337
N10385 Z-1.99
N10390 G1 Z-3.49 F1000.
N10395 X58.98 Y-3.344 Z-3.637
N10400 X58.969 Y-3.362 Z-3.783
N10405 X58.95 Y-3.393 Z-3.925
N10410 X58.925 Y-3.436 Z-4.064
N10415 X58.893 Y-3.49 Z-4.197
N10420 X58.854 Y-3.555 Z-4.323
N10425 X58.81 Y-3.63 Z-4.442
N10430 X58.759 Y-3.715 Z-4.551
N10435 X58.704 Y-3.809 Z-4.65
N10440 X58.644 Y-3.911 Z-4.737
N10445 X58.579 Y-4.02 Z-4.813
N10450 X58.511 Y-4.134 Z-4.876
N10455 X58.441 Y-4.253 Z-4.925
N10460 X58.368 Y-4.376 Z-4.961
N10465 X58.294 Y-4.501 Z-4.983
N10470 X58.219 Y-4.628 Z-4.99
N10475 G3 X57.999 Y-5.382 I1.362 J-0.806
N10480 G1 X58. Y-6.035
N10485 X58.004 Y-6.12
N10490 X58.017 Y-6.269
N10495 X58.042 Y-6.417
N10500 X58.077 Y-6.563
N10505 X58.12 Y-6.707
N10510 X58.17 Y-6.85
N10515 X58.238 Y-7.023
N10520 X58.318 Y-7.209
N10525 X58.42 Y-7.422
N10530 X58.56 Y-7.688
N10535 X59.035 Y-8.519
N10540 X59.539 Y-9.333
N10545 X60.006 Y-10.169
N10550 X60.405 Y-11.04
N10555 X60.725 Y-11.943
N10560 X60.968 Y-12.869
N10565 X61.141 Y-13.811
N10570 X61.244 Y-14.763
N10575 X61.246 Y-15.721
N10580 X61.112 Y-16.669
N10585 X60.833 Y-17.585
N10590 X60.415 Y-18.447
N10595 X59.884 Y-19.244
N10600 X59.274 Y-19.982
N10605 X58.791 Y-20.518
N10610 X58.552 Y-20.805
N10615 X58.409 Y-20.989
N10620 X58.375 Y-21.038
N10625 X58.214 Y-21.304
N10630 X58.096 Y-21.591
N10635 X58.024 Y-21.894
N10640 X58. Y-22.203
N10645 Y-23.29
N10650 G3 X58.227 Y-24.033 I1.499 J0.052
N10655 G1 X58.305 Y-24.157 Z-4.983
N10660 X58.382 Y-24.281 Z-4.961
N10665 X58.458 Y-24.402 Z-4.925
N10670 X58.531 Y-24.519 Z-4.876
N10675 X58.602 Y-24.632 Z-4.813
N10680 X58.669 Y-24.739 Z-4.737
N10685 X58.731 Y-24.84 Z-4.65
N10690 X58.789 Y-24.932 Z-4.551
N10695 X58.841 Y-25.016 Z-4.442
N10700 X58.888 Y-25.09 Z-4.323
N10705 X58.928 Y-25.155 Z-4.197
N10710 X58.961 Y-25.208 Z-4.064
N10715 X58.988 Y-25.25 Z-3.925
N10720 X59.007 Y-25.28 Z-3.783
N10725 X59.018 Y-25.299 Z-3.637
N10730 X59.022 Y-25.305 Z-3.49
N10735 G0 Z5.
N10740 X58.987 Y-3.992
N10745 Z-1.99
N10750 G1 Z-3.49 F1000.
N10755 X58.984 Y-3.998 Z-3.637
N10760 X58.973 Y-4.016 Z-3.783
N10765 X58.954 Y-4.047 Z-3.925
N10770 X58.929 Y-4.09 Z-4.064
N10775 X58.897 Y-4.144 Z-4.197
N10780 X58.858 Y-4.209 Z-4.323
N10785 X58.813 Y-4.284 Z-4.442
N10790 X58.763 Y-4.369 Z-4.551
N10795 X58.707 Y-4.463 Z-4.65
N10800 X58.647 Y-4.565 Z-4.737
N10805 X58.582 Y-4.673 Z-4.813
N10810 X58.514 Y-4.788 Z-4.876
N10815 X58.444 Y-4.907 Z-4.925
N10820 X58.371 Y-5.03 Z-4.961
N10825 X58.296 Y-5.155 Z-4.983
N10830 X58.221 Y-5.281 Z-4.99
N10835 G3 X58. Y-6.035 I1.361 J-0.808
N10840 G1 Y-6.839
N10845 X58.006 Y-6.951
N10850 X58.017 Y-7.101
N10855 X58.039 Y-7.249
N10860 X58.068 Y-7.397
N10865 X58.107 Y-7.561
N10870 X58.154 Y-7.729
N10875 X58.219 Y-7.933
N10880 X58.31 Y-8.189
N10885 X58.495 Y-8.648
N10890 X58.883 Y-9.523
N10895 X59.283 Y-10.394
N10900 X59.646 Y-11.28
N10905 X59.947 Y-12.189
N10910 X60.18 Y-13.118
N10915 X60.337 Y-14.063
N10920 X60.391 Y-15.019
N10925 X60.313 Y-15.973
N10930 X60.083 Y-16.903
N10935 X59.711 Y-17.786
N10940 X59.226 Y-18.612
N10945 X58.669 Y-19.391
N10950 X58.416 Y-19.743
N10955 X58.334 Y-19.867
N10960 X58.19 Y-20.122
N10965 X58.085 Y-20.395
N10970 X58.021 Y-20.681
N10975 X58. Y-20.973
N10980 Y-22.203
N10985 G3 X58.227 Y-22.946 I1.499 J0.052
N10990 G1 X58.305 Y-23.071 Z-4.983
N10995 X58.382 Y-23.194 Z-4.961
N11000 X58.458 Y-23.315 Z-4.925
N11005 X58.531 Y-23.433 Z-4.876
N11010 X58.602 Y-23.546 Z-4.813
N11015 X58.669 Y-23.653 Z-4.737
N11020 X58.731 Y-23.753 Z-4.65
N11025 X58.789 Y-23.845 Z-4.551
N11030 X58.841 Y-23.929 Z-4.442
N11035 X58.888 Y-24.004 Z-4.323
N11040 X58.928 Y-24.068 Z-4.197
N11045 X58.961 Y-24.121 Z-4.064
N11050 X58.988 Y-24.163 Z-3.925
N11055 X59.007 Y-24.194 Z-3.783
N11060 X59.018 Y-24.212 Z-3.637
N11065 X59.022 Y-24.218 Z-3.49
N11070 G0 Z5.
N11075 X58.988 Y-4.797
N11080 Z-1.99
N11085 G1 Z-3.49 F1000.
N11090 X58.984 Y-4.803 Z-3.637
N11095 X58.973 Y-4.821 Z-3.783
N11100 X58.955 Y-4.852 Z-3.925
N11105 X58.93 Y-4.895 Z-4.064
N11110 X58.897 Y-4.949 Z-4.197
N11115 X58.859 Y-5.014 Z-4.323
N11120 X58.814 Y-5.089 Z-4.442
N11125 X58.763 Y-5.174 Z-4.551
N11130 X58.708 Y-5.268 Z-4.65
N11135 X58.647 Y-5.37 Z-4.737
N11140 X58.583 Y-5.478 Z-4.813
N11145 X58.515 Y-5.592 Z-4.876
N11150 X58.444 Y-5.712 Z-4.925
N11155 X58.371 Y-5.834 Z-4.961
N11160 X58.296 Y-5.959 Z-4.983
N11165 X58.221 Y-6.086 Z-4.99
N11170 G3 X58. Y-6.839 I1.36 J-0.809
N11175 G1 Y-7.928
N11180 X58.008 Y-8.08
N11185 X58.019 Y-8.229
N11190 X58.038 Y-8.388
N11195 X58.066 Y-8.57
N11200 X58.109 Y-8.79
N11205 X58.173 Y-9.065
N11210 X58.306 Y-9.555
N11215 X58.591 Y-10.469
N11220 X58.89 Y-11.379
N11225 X59.163 Y-12.297
N11230 X59.376 Y-13.231
N11235 X59.497 Y-14.181
N11240 X59.494 Y-15.138
N11245 X59.344 Y-16.084
N11250 X59.049 Y-16.995
N11255 X58.635 Y-17.859
N11260 X58.394 Y-18.273
N11265 X58.262 Y-18.506
N11270 X58.118 Y-18.819
N11275 X58.03 Y-19.152
N11280 X58. Y-19.495
N11285 Y-20.973
N11290 G3 X58.227 Y-21.716 I1.499 J0.052
N11295 G1 X58.305 Y-21.84 Z-4.983
N11300 X58.382 Y-21.964 Z-4.961
N11305 X58.458 Y-22.085 Z-4.925
N11310 X58.531 Y-22.202 Z-4.876
N11315 X58.602 Y-22.315 Z-4.813
N11320 X58.669 Y-22.422 Z-4.737
N11325 X58.731 Y-22.523 Z-4.65
N11330 X58.789 Y-22.615 Z-4.551
N11335 X58.841 Y-22.699 Z-4.442
N11340 X58.888 Y-22.773 Z-4.323
N11345 X58.928 Y-22.837 Z-4.197
N11350 X58.961 Y-22.891 Z-4.064
N11355 X58.988 Y-22.933 Z-3.925
N11360 X59.007 Y-22.963 Z-3.783
N11365 X59.018 Y-22.981 Z-3.637
N11370 X59.022 Y-22.988 Z-3.49
N11375 G0 Z5.
N11380 X58.988 Y-5.885
N11385 Z-1.99
N11390 G1 Z-3.49 F1000.
N11395 X58.984 Y-5.891 Z-3.637
N11400 X58.973 Y-5.909 Z-3.783
N11405 X58.955 Y-5.94 Z-3.925
N11410 X58.93 Y-5.983 Z-4.064
N11415 X58.897 Y-6.037 Z-4.197
N11420 X58.859 Y-6.102 Z-4.323
N11425 X58.814 Y-6.177 Z-4.442
N11430 X58.763 Y-6.262 Z-4.551
N11435 X58.708 Y-6.356 Z-4.65
N11440 X58.647 Y-6.458 Z-4.737
N11445 X58.583 Y-6.566 Z-4.813
N11450 X58.515 Y-6.681 Z-4.876
N11455 X58.444 Y-6.8 Z-4.925
N11460 X58.371 Y-6.922 Z-4.961
N11465 X58.296 Y-7.048 Z-4.983
N11470 X58.221 Y-7.174 Z-4.99
N11475 G3 X58. Y-7.928 I1.36 J-0.809
N11480 G1 Y-9.451
N11485 X58.014 Y-9.734
N11490 X58.026 Y-9.933
N11495 X58.053 Y-10.208
N11500 X58.105 Y-10.597
N11505 X58.267 Y-11.541
N11510 X58.456 Y-12.48
N11515 X58.601 Y-13.427
N11520 X58.646 Y-14.383
N11525 X58.56 Y-15.337
N11530 X58.334 Y-16.268
N11535 X58.13 Y-16.803
N11540 X58.058 Y-17.034
N11545 X58.015 Y-17.272
N11550 X58. Y-17.514
N11555 G3 X60.999 Y-17.461 I1.499 J0.052
N11560 G1 Y-9.503
N11565 G3 X58. Y-9.451 I-1.5 J0.
N11570 G1 Y-19.495
N11575 X58.013 Y-19.583 Z-4.985
N11580 X58.026 Y-19.67 Z-4.97
N11585 X58.039 Y-19.755 Z-4.944
N11590 X58.052 Y-19.836 Z-4.91
N11595 X58.083 Y-19.915 Z-4.861
N11600 X58.112 Y-19.987 Z-4.803
N11605 X58.138 Y-20.052 Z-4.735
N11610 X58.161 Y-20.109 Z-4.659
N11615 X58.18 Y-20.157 Z-4.577
N11620 X58.2 Y-20.192 Z-4.489
N11625 X58.215 Y-20.217 Z-4.396
N11630 X58.224 Y-20.233 Z-4.301
N11635 X58.227 Y-20.238 Z-4.205
N11640 G0 Z5.
N11645 X48.658 Y-37.811
N11650 Z-9.4
N11655 G1 Z-10.9 F1000.
N11660 X48.66 Y-37.804 Z-11.047
N11665 X48.665 Y-37.784 Z-11.193
N11670 X48.674 Y-37.749 Z-11.335
N11675 X48.686 Y-37.701 Z-11.474
N11680 X48.702 Y-37.64 Z-11.607
N11685 X48.721 Y-37.567 Z-11.733
N11690 X48.743 Y-37.482 Z-11.852
N11695 X48.767 Y-37.386 Z-11.961
N11700 X48.794 Y-37.28 Z-12.06
N11705 X48.823 Y-37.166 Z-12.147
N11710 X48.855 Y-37.043 Z-12.223
N11715 X48.888 Y-36.914 Z-12.286
N11720 X48.922 Y-36.78 Z-12.335
N11725 X48.958 Y-36.642 Z-12.371
N11730 X48.994 Y-36.501 Z-12.393
N11735 X49.03 Y-36.358 Z-12.4
N11740 G3 X49.5 Y-33.092 I-14.839 J3.801
N11745 G1 Y-32.972
N11750 X49.38 Y-32.883
N11755 X49.245 Y-32.816
N11760 X49.107 Y-32.759
N11765 X48.965 Y-32.71
N11770 X48.807 Y-32.662
N11775 X48.611 Y-32.611
N11780 X48.365 Y-32.556
N11785 X48.049 Y-32.497
N11790 X47.63 Y-32.436
N11795 X47.037 Y-32.371
N11800 X46.1 Y-32.302
N11805 X45.143 Y-32.268
N11810 X44.185 Y-32.25
N11815 X43.228 Y-32.241
N11820 X42.27 Y-32.237
N11825 X41.312 Y-32.234
N11830 X38.439 Y-32.232
N11835 X1.568 Y-32.226
N11840 X0.625 Y-32.056
N11845 X-0.207 Y-31.582
N11850 X-0.877 Y-30.898
N11855 X-1.375 Y-30.079
N11860 X-1.718 Y-29.186
N11865 X-1.939 Y-28.254
N11870 X-2.072 Y-27.305
N11875 X-2.149 Y-26.351
N11880 X-2.19 Y-25.394
N11885 X-2.213 Y-24.436
N11890 X-2.225 Y-23.479
N11895 X-2.231 Y-22.521
N11900 X-2.234 Y-21.563
N11905 X-2.237 Y-19.648
N11910 X-2.24 Y-11.029
N11915 X-2.241 Y-1.452
N11920 X-2.021 Y-0.52
N11925 X-1.51 Y0.291
N11930 X-0.802 Y0.935
N11935 X0.03 Y1.409
N11940 X0.932 Y1.732
N11945 X1.867 Y1.938
N11950 X2.817 Y2.061
N11955 X3.772 Y2.131
N11960 X4.729 Y2.169
N11965 X5.687 Y2.189
N11970 X6.644 Y2.2
N11975 X7.602 Y2.206
N11980 X8.56 Y2.209
N11985 X10.475 Y2.212
N11990 X16.221 Y2.214
N11995 X63.148 Y2.225
N12000 X63.626 Y2.193
N12005 X64.553 Y1.952
N12010 X65.354 Y1.427
N12015 X65.987 Y0.708
N12020 X66.451 Y-0.13
N12025 X66.766 Y-1.034
N12030 X66.966 Y-1.971
N12035 X67.084 Y-2.921
N12040 X67.151 Y-3.876
N12045 X67.188 Y-4.833
N12050 X67.208 Y-5.791
N12055 X67.218 Y-6.748
N12060 X67.223 Y-7.706
N12065 X67.226 Y-8.664
N12070 X67.228 Y-10.579
N12075 X67.229 Y-22.072
N12080 Y-28.775
N12085 X66.939 Y-29.688
N12090 X66.379 Y-30.466
N12095 X65.639 Y-31.073
N12100 X64.788 Y-31.513
N12105 X63.877 Y-31.808
N12110 X62.938 Y-31.993
N12115 X61.986 Y-32.103
N12120 X61.031 Y-32.164
N12125 X60.073 Y-32.197
N12130 X59.116 Y-32.215
N12135 X58.158 Y-32.224
N12140 X57.201 Y-32.229
N12145 X56.243 Y-32.231
N12150 X54.327 Y-32.233
N12155 X51.454
N12160 X50.501 Y-32.139
N12165 X48.61 Y-31.837
N12170 X47.66 Y-31.716
N12175 X46.706 Y-31.628
N12180 X45.75 Y-31.57
N12185 X44.793 Y-31.534
N12190 X43.836 Y-31.512
N12195 X42.878 Y-31.499
N12200 X41.921 Y-31.492
N12205 X40.963 Y-31.487
N12210 X40.005 Y-31.485
N12215 X38.09 Y-31.482
N12220 X29.47 Y-31.48
N12225 X2.655 Y-31.476
N12230 X1.712 Y-31.31
N12235 X0.85 Y-30.892
N12240 X0.131 Y-30.259
N12245 X-0.425 Y-29.48
N12250 X-0.822 Y-28.608
N12255 X-1.088 Y-27.688
N12260 X-1.256 Y-26.745
N12265 X-1.357 Y-25.793
N12270 X-1.415 Y-24.837
N12275 X-1.448 Y-23.88
N12280 X-1.467 Y-22.922
N12285 X-1.477 Y-21.965
N12290 X-1.482 Y-21.007
N12295 X-1.485 Y-20.049
N12300 X-1.488 Y-18.134
N12305 X-1.49 Y-8.557
N12310 X-1.491 Y-2.811
N12315 X-1.363 Y-1.862
N12320 X-0.975 Y-0.986
N12325 X-0.367 Y-0.246
N12330 X0.398 Y0.331
N12335 X1.26 Y0.748
N12340 X2.175 Y1.031
N12345 X3.115 Y1.211
N12350 X4.067 Y1.32
N12355 X5.022 Y1.384
N12360 X5.979 Y1.419
N12365 X6.937 Y1.439
N12370 X7.894 Y1.45
N12375 X8.852 Y1.456
N12380 X9.81 Y1.459
N12385 X11.725 Y1.462
N12390 X20.344 Y1.465
N12395 X22.26
N12400 X61.525 Y1.475
N12405 X62.483 Y1.461
N12410 X63.417 Y1.251
N12415 X64.259 Y0.794
N12420 X64.955 Y0.135
N12425 X65.484 Y-0.663
N12430 X65.859 Y-1.544
N12435 X66.109 Y-2.468
N12440 X66.265 Y-3.413
N12445 X66.359 Y-4.366
N12450 X66.413 Y-5.322
N12455 X66.443 Y-6.28
N12460 X66.46 Y-7.237
N12465 X66.469 Y-8.195
N12470 X66.473 Y-9.153
N12475 X66.476 Y-10.11
N12480 X66.478 Y-12.026
N12485 X66.479 Y-24.476
N12490 Y-27.349
N12495 X66.317 Y-28.293
N12500 X65.896 Y-29.153
N12505 X65.262 Y-29.871
N12510 X64.48 Y-30.424
N12515 X63.609 Y-30.82
N12520 X62.689 Y-31.086
N12525 X61.746 Y-31.254
N12530 X60.793 Y-31.355
N12535 X59.837 Y-31.413
N12540 X58.88 Y-31.446
N12545 X57.923 Y-31.463
N12550 X56.965 Y-31.473
N12555 X56.007 Y-31.478
N12560 X55.05 Y-31.481
N12565 X53.134 Y-31.483
N12570 X52.177 Y-31.472
N12575 X51.221 Y-31.409
N12580 X50.269 Y-31.301
N12585 X49.32 Y-31.176
N12590 X48.369 Y-31.059
N12595 X47.902 Y-31.011
N12600 X47.833 Y-31.005
N12605 X47.765 Y-31.001
N12610 X47.697 Y-31.
N12615 X4.003
N12620 X3.552 Y-30.995
N12625 X3.35 Y-30.992
N12630 X3.132 Y-30.977
N12635 X2.915 Y-30.949
N12640 X2.697 Y-30.904
N12645 X2.48 Y-30.843
N12650 X2.279 Y-30.777
N12655 X2.045 Y-30.681
N12660 X1.809 Y-30.559
N12665 X1.61 Y-30.44
N12670 X1.463 Y-30.342
N12675 X1.392 Y-30.291
N12680 X1.175 Y-30.108
N12685 X0.957 Y-29.906
N12690 X0.522 Y-29.471
N12695 X0.086 Y-29.036
N12700 X-0.131 Y-28.798
N12705 X-0.295 Y-28.601
N12710 X-0.348 Y-28.527
N12715 X-0.448 Y-28.383
N12720 X-0.576 Y-28.166
N12725 X-0.682 Y-27.948
N12730 X-0.775 Y-27.73
N12735 X-0.847 Y-27.513
N12740 X-0.904 Y-27.295
N12745 X-0.949 Y-27.078
N12750 X-0.979 Y-26.86
N12755 X-0.988 Y-26.642
N12760 X-0.999 Y-26.207
N12765 X-1. Y-25.99
N12770 Y-4.01
N12775 X-0.999 Y-3.793
N12780 X-0.988 Y-3.358
N12785 X-0.979 Y-3.14
N12790 X-0.949 Y-2.922
N12795 X-0.904 Y-2.705
N12800 X-0.847 Y-2.487
N12805 X-0.775 Y-2.27
N12810 X-0.682 Y-2.052
N12815 X-0.576 Y-1.834
N12820 X-0.448 Y-1.617
N12825 X-0.348 Y-1.473
N12830 X-0.295 Y-1.399
N12835 X-0.131 Y-1.202
N12840 X0.087 Y-0.963
N12845 X0.74 Y-0.311
N12850 X0.958 Y-0.093
N12855 X1.175 Y0.108
N12860 X1.392 Y0.291
N12865 X1.463 Y0.342
N12870 X1.61 Y0.44
N12875 X1.809 Y0.559
N12880 X2.045 Y0.681
N12885 X2.279 Y0.777
N12890 X2.48 Y0.843
N12895 X2.697 Y0.904
N12900 X2.915 Y0.949
N12905 X3.132 Y0.977
N12910 X3.35 Y0.992
N12915 X3.785 Y0.998
N12920 X4.003 Y1.
N12925 X49.468
N12930 X49.685 Y0.991
N12935 X49.903 Y0.973
N12940 X50.12 Y0.943
N12945 X50.343 Y0.913
N12950 X50.981 Y0.848
N12955 X51.937 Y0.785
N12960 X52.894 Y0.754
N12965 X53.851 Y0.739
N12970 X54.809 Y0.731
N12975 X55.767 Y0.728
N12980 X56.724 Y0.726
N12985 X59.598 Y0.724
N12990 X60.555
N12995 X61.513 Y0.705
N13000 X62.451 Y0.512
N13005 X63.309 Y0.086
N13010 X64.03 Y-0.544
N13015 X64.594 Y-1.318
N13020 X65.003 Y-2.184
N13025 X65.283 Y-3.1
N13030 X65.463 Y-4.041
N13035 X65.575 Y-4.992
N13040 X65.642 Y-5.947
N13045 X65.68 Y-6.904
N13050 X65.702 Y-7.862
N13055 X65.714 Y-8.783
N13060 X65.729 Y-9.004
N13065 X65.768 Y-9.221
N13070 X65.831 Y-9.433
N13075 X65.837 Y-9.451
N13080 X65.897 Y-9.668
N13085 X65.942 Y-9.886
N13090 X65.975 Y-10.104
N13095 X65.994 Y-10.321
N13100 X65.997 Y-10.539
N13105 X66. Y-10.974
N13110 Y-19.026
N13115 X65.997 Y-19.461
N13120 X65.994 Y-19.679
N13125 X65.975 Y-19.896
N13130 X65.942 Y-20.114
N13135 X65.928 Y-20.204
N13140 X65.863 Y-20.811
N13145 X65.795 Y-21.767
N13150 X65.763 Y-22.724
N13155 X65.746 Y-23.681
N13160 X65.738 Y-24.639
N13165 X65.733 Y-25.597
N13170 X65.712 Y-26.554
N13175 X65.514 Y-27.491
N13180 X65.079 Y-28.344
N13185 X64.442 Y-29.059
N13190 X63.663 Y-29.617
N13195 X62.796 Y-30.022
N13200 X61.879 Y-30.299
N13205 X60.938 Y-30.477
N13210 X59.986 Y-30.586
N13215 X59.031 Y-30.65
N13220 X58.074 Y-30.687
N13225 X57.116 Y-30.708
N13230 X56.159 Y-30.72
N13235 X55.201 Y-30.726
N13240 X54.243 Y-30.729
N13245 X53.286 Y-30.727
N13250 X52.328 Y-30.699
N13255 X51.52 Y-30.643
N13260 X51.25 Y-30.646
N13265 X50.984 Y-30.691
N13270 X50.727 Y-30.777
N13275 X50.556 Y-30.832
N13280 X50.338 Y-30.895
N13285 X50.12 Y-30.943
N13290 X49.903 Y-30.973
N13295 X49.685 Y-30.991
N13300 X49.468 Y-31.
N13305 X47.697
N13310 G3 X46.954 Y-31.227 I0.052 J-1.499
N13315 G1 X46.83 Y-31.305 Z-12.393
N13320 X46.706 Y-31.382 Z-12.371
N13325 X46.585 Y-31.458 Z-12.335
N13330 X46.467 Y-31.531 Z-12.286
N13335 X46.355 Y-31.602 Z-12.223
N13340 X46.248 Y-31.669 Z-12.147
N13345 X46.147 Y-31.731 Z-12.06
N13350 X46.055 Y-31.789 Z-11.961
N13355 X45.971 Y-31.841 Z-11.852
N13360 X45.897 Y-31.888 Z-11.733
N13365 X45.832 Y-31.928 Z-11.607
N13370 X45.779 Y-31.961 Z-11.474
N13375 X45.737 Y-31.988 Z-11.335
N13380 X45.707 Y-32.007 Z-11.193
N13385 X45.688 Y-32.018 Z-11.047
N13390 X45.682 Y-32.022 Z-10.9
N13395 G0 Z5.
N13400 X67.322 Y-18.313
N13405 Z-9.4
N13410 G1 Z-10.9 F1000.
N13415 X67.317 Y-18.318 Z-11.047
N13420 X67.303 Y-18.334 Z-11.193
N13425 X67.279 Y-18.361 Z-11.335
N13430 X67.245 Y-18.397 Z-11.474
N13435 X67.203 Y-18.444 Z-11.607
N13440 X67.152 Y-18.5 Z-11.733
N13445 X67.093 Y-18.564 Z-11.852
N13450 X67.026 Y-18.637 Z-11.961
N13455 X66.952 Y-18.718 Z-12.06
N13460 X66.873 Y-18.805 Z-12.147
N13465 X66.788 Y-18.899 Z-12.223
N13470 X66.698 Y-18.997 Z-12.286
N13475 X66.604 Y-19.099 Z-12.335
N13480 X66.508 Y-19.205 Z-12.371
N13485 X66.41 Y-19.312 Z-12.393
N13490 X66.311 Y-19.421 Z-12.4
N13495 G3 X65.942 Y-20.114 I1.169 J-1.067
N13500 G1 X65.897 Y-20.332
N13505 X65.837 Y-20.549
N13510 X65.783 Y-20.7
N13515 X65.758 Y-20.767
N13520 X65.666 Y-20.984
N13525 X65.649 Y-21.018
N13530 X65.602 Y-21.125
N13535 X65.547 Y-21.265
N13540 X65.495 Y-21.415
N13545 X65.443 Y-21.585
N13550 X65.387 Y-21.797
N13555 X65.326 Y-22.064
N13560 X65.264 Y-22.393
N13565 X65.198 Y-22.83
N13570 X65.13 Y-23.429
N13575 X65.057 Y-24.384
N13580 X65.01 Y-25.341
N13585 X64.876 Y-26.289
N13590 X64.525 Y-27.18
N13595 X63.965 Y-27.957
N13600 X63.243 Y-28.586
N13605 X62.412 Y-29.062
N13610 X61.516 Y-29.4
N13615 X60.585 Y-29.626
N13620 X59.639 Y-29.771
N13625 X58.685 Y-29.86
N13630 X57.729 Y-29.913
N13635 X56.772 Y-29.944
N13640 X55.814 Y-29.962
N13645 X54.856 Y-29.971
N13650 X53.899 Y-29.97
N13655 X52.843 Y-29.947
N13660 X52.481 Y-29.972
N13665 X52.13 Y-30.062
N13670 X51.8 Y-30.214
N13675 X51.426 Y-30.43
N13680 X51.19 Y-30.559
N13685 X50.991 Y-30.665
N13690 X50.727 Y-30.777
N13695 G3 X50.133 Y-31.277 I0.636 J-1.358
N13700 G1 X50.049 Y-31.398 Z-12.393
N13705 X49.966 Y-31.517 Z-12.371
N13710 X49.884 Y-31.634 Z-12.335
N13715 X49.805 Y-31.748 Z-12.286
N13720 X49.729 Y-31.857 Z-12.223
N13725 X49.656 Y-31.961 Z-12.147
N13730 X49.589 Y-32.058 Z-12.06
N13735 X49.526 Y-32.147 Z-11.961
N13740 X49.47 Y-32.228 Z-11.852
N13745 X49.42 Y-32.3 Z-11.733
N13750 X49.376 Y-32.362 Z-11.607
N13755 X49.34 Y-32.414 Z-11.474
N13760 X49.312 Y-32.454 Z-11.335
N13765 X49.291 Y-32.484 Z-11.193
N13770 X49.279 Y-32.501 Z-11.047
N13775 X49.275 Y-32.507 Z-10.9
N13780 G0 Z5.
N13785 X67.444 Y-19.63
N13790 Z-9.4
N13795 G1 Z-10.9 F1000.
N13800 X67.438 Y-19.634 Z-11.047
N13805 X67.42 Y-19.645 Z-11.193
N13810 X67.39 Y-19.665 Z-11.335
N13815 X67.348 Y-19.692 Z-11.474
N13820 X67.295 Y-19.726 Z-11.607
N13825 X67.232 Y-19.767 Z-11.733
N13830 X67.158 Y-19.814 Z-11.852
N13835 X67.075 Y-19.868 Z-11.961
N13840 X66.983 Y-19.927 Z-12.06
N13845 X66.884 Y-19.991 Z-12.147
N13850 X66.778 Y-20.059 Z-12.223
N13855 X66.666 Y-20.131 Z-12.286
N13860 X66.549 Y-20.206 Z-12.335
N13865 X66.429 Y-20.284 Z-12.371
N13870 X66.307 Y-20.362 Z-12.393
N13875 X66.183 Y-20.442 Z-12.4
N13880 G3 X65.649 Y-21.018 I0.857 J-1.33
N13885 G1 X65.566 Y-21.186
N13890 X65.348 Y-21.566
N13895 X65.176 Y-21.855
N13900 X65.093 Y-22.012
N13905 X65.024 Y-22.146
N13910 X64.963 Y-22.283
N13915 X64.905 Y-22.424
N13920 X64.842 Y-22.599
N13925 X64.772 Y-22.818
N13930 X64.703 Y-23.061
N13935 X64.631 Y-23.36
N13940 X64.44 Y-24.299
N13945 X64.271 Y-25.241
N13950 X63.949 Y-26.143
N13955 X63.43 Y-26.949
N13960 X62.746 Y-27.619
N13965 X61.943 Y-28.141
N13970 X61.065 Y-28.522
N13975 X60.144 Y-28.786
N13980 X59.203 Y-28.961
N13985 X58.251 Y-29.071
N13990 X57.296 Y-29.139
N13995 X56.339 Y-29.179
N14000 X55.382 Y-29.201
N14005 X54.066 Y-29.209
N14010 X53.723 Y-29.241
N14015 X53.39 Y-29.331
N14020 X53.078 Y-29.477
N14025 X51.8 Y-30.214
N14030 G3 X51.27 Y-30.781 I0.794 J-1.272
N14035 G1 X51.201 Y-30.911 Z-12.393
N14040 X51.133 Y-31.04 Z-12.371
N14045 X51.066 Y-31.166 Z-12.335
N14050 X51.001 Y-31.288 Z-12.286
N14055 X50.938 Y-31.406 Z-12.223
N14060 X50.879 Y-31.517 Z-12.147
N14065 X50.823 Y-31.622 Z-12.06
N14070 X50.772 Y-31.718 Z-11.961
N14075 X50.726 Y-31.805 Z-11.852
N14080 X50.684 Y-31.883 Z-11.733
N14085 X50.649 Y-31.949 Z-11.607
N14090 X50.619 Y-32.005 Z-11.474
N14095 X50.596 Y-32.049 Z-11.335
N14100 X50.579 Y-32.08 Z-11.193
N14105 X50.569 Y-32.099 Z-11.047
N14110 X50.566 Y-32.106 Z-10.9
N14115 G0 Z5.
N14120 X67.07 Y-20.605
N14125 Z-9.4
N14130 G1 Z-10.9 F1000.
N14135 X67.064 Y-20.609 Z-11.047
N14140 X67.045 Y-20.619 Z-11.193
N14145 X67.013 Y-20.636 Z-11.335
N14150 X66.97 Y-20.66 Z-11.474
N14155 X66.914 Y-20.69 Z-11.607
N14160 X66.848 Y-20.726 Z-11.733
N14165 X66.771 Y-20.768 Z-11.852
N14170 X66.684 Y-20.815 Z-11.961
N14175 X66.588 Y-20.867 Z-12.06
N14180 X66.484 Y-20.923 Z-12.147
N14185 X66.373 Y-20.983 Z-12.223
N14190 X66.256 Y-21.047 Z-12.286
N14195 X66.134 Y-21.113 Z-12.335
N14200 X66.009 Y-21.181 Z-12.371
N14205 X65.881 Y-21.251 Z-12.393
N14210 X65.752 Y-21.321 Z-12.4
N14215 G3 X65.176 Y-21.855 I0.755 J-1.391
N14220 G1 X65.046 Y-22.072
N14225 X64.913 Y-22.286
N14230 X64.695 Y-22.559
N14235 X64.649 Y-22.618
N14240 X64.561 Y-22.74
N14245 X64.48 Y-22.867
N14250 X64.406 Y-22.997
N14255 X64.333 Y-23.139
N14260 X64.251 Y-23.313
N14265 X63.873 Y-24.193
N14270 X63.516 Y-25.082
N14275 X63.023 Y-25.903
N14280 X62.374 Y-26.607
N14285 X61.602 Y-27.175
N14290 X60.747 Y-27.606
N14295 X59.841 Y-27.915
N14300 X58.907 Y-28.127
N14305 X57.959 Y-28.265
N14310 X57.005 Y-28.353
N14315 X56.049 Y-28.405
N14320 X55.571 Y-28.419
N14325 X55.356 Y-28.427
N14330 X55.036 Y-28.466
N14335 X54.726 Y-28.555
N14340 X54.435 Y-28.694
N14345 X53.078 Y-29.477
N14350 G3 X52.548 Y-30.044 I0.794 J-1.272
N14355 G1 X52.479 Y-30.174 Z-12.393
N14360 X52.41 Y-30.303 Z-12.371
N14365 X52.343 Y-30.429 Z-12.335
N14370 X52.278 Y-30.551 Z-12.286
N14375 X52.216 Y-30.669 Z-12.223
N14380 X52.156 Y-30.78 Z-12.147
N14385 X52.101 Y-30.884 Z-12.06
N14390 X52.05 Y-30.981 Z-11.961
N14395 X52.003 Y-31.068 Z-11.852
N14400 X51.962 Y-31.145 Z-11.733
N14405 X51.926 Y-31.212 Z-11.607
N14410 X51.897 Y-31.268 Z-11.474
N14415 X51.874 Y-31.312 Z-11.335
N14420 X51.857 Y-31.343 Z-11.193
N14425 X51.847 Y-31.362 Z-11.047
N14430 X51.843 Y-31.369 Z-10.9
N14435 G0 Z5.
N14440 X66.831 Y-21.792
N14445 Z-9.4
N14450 G1 Z-10.9 F1000.
N14455 X66.824 Y-21.794 Z-11.047
N14460 X66.803 Y-21.8 Z-11.193
N14465 X66.769 Y-21.809 Z-11.335
N14470 X66.721 Y-21.822 Z-11.474
N14475 X66.66 Y-21.838 Z-11.607
N14480 X66.587 Y-21.857 Z-11.733
N14485 X66.502 Y-21.88 Z-11.852
N14490 X66.406 Y-21.905 Z-11.961
N14495 X66.301 Y-21.933 Z-12.06
N14500 X66.187 Y-21.963 Z-12.147
N14505 X66.065 Y-21.995 Z-12.223
N14510 X65.936 Y-22.029 Z-12.286
N14515 X65.802 Y-22.065 Z-12.335
N14520 X65.664 Y-22.101 Z-12.371
N14525 X65.523 Y-22.139 Z-12.393
N14530 X65.381 Y-22.176 Z-12.4
N14535 G3 X64.695 Y-22.559 I0.405 J-1.53
N14540 G1 X64.478 Y-22.781
N14545 X64.388 Y-22.868
N14550 X64.299 Y-22.943
N14555 X64.241 Y-22.992
N14560 X64.131 Y-23.093
N14565 X64.027 Y-23.202
N14570 X63.929 Y-23.315
N14575 X63.825 Y-23.446
N14580 X63.256 Y-24.216
N14585 X62.694 Y-24.992
N14590 X62.035 Y-25.687
N14595 X61.272 Y-26.265
N14600 X60.429 Y-26.72
N14605 X59.533 Y-27.058
N14610 X58.606 Y-27.297
N14615 X57.662 Y-27.459
N14620 X56.737 Y-27.56
N14625 X56.466 Y-27.609
N14630 X56.204 Y-27.695
N14635 X55.956 Y-27.816
N14640 X54.435 Y-28.694
N14645 G3 X53.905 Y-29.261 I0.794 J-1.272
N14650 G1 X53.836 Y-29.391 Z-12.393
N14655 X53.768 Y-29.52 Z-12.371
N14660 X53.701 Y-29.646 Z-12.335
N14665 X53.636 Y-29.768 Z-12.286
N14670 X53.573 Y-29.885 Z-12.223
N14675 X53.514 Y-29.997 Z-12.147
N14680 X53.458 Y-30.101 Z-12.06
N14685 X53.407 Y-30.198 Z-11.961
N14690 X53.361 Y-30.285 Z-11.852
N14695 X53.32 Y-30.362 Z-11.733
N14700 X53.284 Y-30.429 Z-11.607
N14705 X53.254 Y-30.485 Z-11.474
N14710 X53.231 Y-30.528 Z-11.335
N14715 X53.214 Y-30.56 Z-11.193
N14720 X53.204 Y-30.579 Z-11.047
N14725 X53.201 Y-30.585 Z-10.9
N14730 G0 Z5.
N14735 X66.547 Y-22.631
N14740 Z-9.4
N14745 G1 Z-10.9 F1000.
N14750 X66.539 Z-11.047
N14755 X66.518 Y-22.632 Z-11.193
N14760 X66.482 Y-22.634 Z-11.335
N14765 X66.433 Y-22.637 Z-11.474
N14770 X66.37 Y-22.64 Z-11.607
N14775 X66.294 Y-22.644 Z-11.733
N14780 X66.207 Y-22.649 Z-11.852
N14785 X66.108 Y-22.654 Z-11.961
N14790 X65.999 Y-22.659 Z-12.06
N14795 X65.881 Y-22.666 Z-12.147
N14800 X65.755 Y-22.672 Z-12.223
N14805 X65.622 Y-22.679 Z-12.286
N14810 X65.484 Y-22.686 Z-12.335
N14815 X65.341 Y-22.694 Z-12.371
N14820 X65.196 Y-22.701 Z-12.393
N14825 X65.049 Y-22.709 Z-12.4
N14830 G3 X64.299 Y-22.943 I0.082 J-1.58
N14835 G1 X63.647 Y-23.378
N14840 X63.608 Y-23.402
N14845 X63.523 Y-23.456
N14850 X63.4 Y-23.543
N14855 X63.179 Y-23.713
N14860 X62.441 Y-24.324
N14865 X61.707 Y-24.94
N14870 X60.915 Y-25.477
N14875 X60.063 Y-25.915
N14880 X59.166 Y-26.251
N14885 X58.503 Y-26.427
N14890 X58.335 Y-26.479
N14895 X58.172 Y-26.546
N14900 X58.016 Y-26.627
N14905 G3 X59.56 Y-29.199 I0.794 J-1.272
N14910 G1 X65.061 Y-26.026
N14915 G3 X63.608 Y-23.402 I-0.75 J1.299
N14920 G1 X55.956 Y-27.816
N14925 G3 X55.426 Y-28.384 I0.794 J-1.272
N14930 G1 X55.357 Y-28.513 Z-12.393
N14935 X55.289 Y-28.642 Z-12.371
N14940 X55.222 Y-28.768 Z-12.335
N14945 X55.157 Y-28.89 Z-12.286
N14950 X55.094 Y-29.008 Z-12.223
N14955 X55.035 Y-29.119 Z-12.147
N14960 X54.979 Y-29.224 Z-12.06
N14965 X54.928 Y-29.32 Z-11.961
N14970 X54.882 Y-29.407 Z-11.852
N14975 X54.841 Y-29.485 Z-11.733
N14980 X54.805 Y-29.552 Z-11.607
N14985 X54.775 Y-29.607 Z-11.474
N14990 X54.752 Y-29.651 Z-11.335
N14995 X54.735 Y-29.682 Z-11.193
N15000 X54.725 Y-29.702 Z-11.047
N15005 X54.722 Y-29.708 Z-10.9
N15010 G0 Z5.
N15015 X48.343 Y2.354
N15020 Z-9.4
N15025 G1 Z-10.9 F1000.
N15030 X48.348 Y2.349 Z-11.047
N15035 X48.364 Y2.334 Z-11.193
N15040 X48.39 Y2.31 Z-11.335
N15045 X48.426 Y2.276 Z-11.474
N15050 X48.472 Y2.232 Z-11.607
N15055 X48.527 Y2.18 Z-11.733
N15060 X48.59 Y2.12 Z-11.852
N15065 X48.662 Y2.052 Z-11.961
N15070 X48.742 Y1.977 Z-12.06
N15075 X48.828 Y1.896 Z-12.147
N15080 X48.919 Y1.81 Z-12.223
N15085 X49.016 Y1.718 Z-12.286
N15090 X49.117 Y1.623 Z-12.335
N15095 X49.221 Y1.525 Z-12.371
N15100 X49.327 Y1.425 Z-12.393
N15105 X49.434 Y1.324 Z-12.4
N15110 G3 X50.12 Y0.943 I1.087 J1.151
N15115 G1 X50.338 Y0.895
N15120 X50.556 Y0.832
N15125 X50.727 Y0.777
N15130 X50.991 Y0.665
N15135 X51.024 Y0.647
N15140 X51.097 Y0.613
N15145 X51.235 Y0.556
N15150 X51.377 Y0.506
N15155 X51.549 Y0.452
N15160 X51.747 Y0.397
N15165 X51.996 Y0.338
N15170 X52.313 Y0.275
N15175 X52.714 Y0.21
N15180 X53.265 Y0.143
N15185 X54.08 Y0.072
N15190 X55.037 Y0.025
N15195 X55.994 Y0.001
N15200 X56.952 Y-0.012
N15205 X57.909 Y-0.019
N15210 X59.825 Y-0.025
N15215 X60.781 Y-0.067
N15220 X61.713 Y-0.291
N15225 X62.559 Y-0.74
N15230 X63.269 Y-1.382
N15235 X63.825 Y-2.161
N15240 X64.233 Y-3.028
N15245 X64.516 Y-3.943
N15250 X64.7 Y-4.883
N15255 X64.815 Y-5.834
N15260 X64.884 Y-6.789
N15265 X64.902 Y-7.217
N15270 X64.943 Y-7.544
N15275 X65.038 Y-7.86
N15280 X65.182 Y-8.156
N15285 X65.348 Y-8.434
N15290 X65.566 Y-8.814
N15295 X65.666 Y-9.016
N15300 X65.758 Y-9.233
N15305 X65.798 Y-9.34
N15310 X65.831 Y-9.433
N15315 G3 X66.295 Y-10.055 I1.393 J0.555
N15320 G1 X66.411 Y-10.146 Z-12.393
N15325 X66.525 Y-10.237 Z-12.371
N15330 X66.637 Y-10.325 Z-12.335
N15335 X66.746 Y-10.411 Z-12.286
N15340 X66.85 Y-10.493 Z-12.223
N15345 X66.949 Y-10.572 Z-12.147
N15350 X67.042 Y-10.645 Z-12.06
N15355 X67.128 Y-10.712 Z-11.961
N15360 X67.205 Y-10.774 Z-11.852
N15365 X67.274 Y-10.828 Z-11.733
N15370 X67.334 Y-10.875 Z-11.607
N15375 X67.383 Y-10.914 Z-11.474
N15380 X67.422 Y-10.944 Z-11.335
N15385 X67.45 Y-10.967 Z-11.193
N15390 X67.467 Y-10.98 Z-11.047
N15395 X67.473 Y-10.984 Z-10.9
N15400 G0 Z5.
N15405 X49.679 Y2.475
N15410 Z-9.4
N15415 G1 Z-10.9 F1000.
N15420 X49.683 Y2.469 Z-11.047
N15425 X49.694 Y2.45 Z-11.193
N15430 X49.713 Y2.42 Z-11.335
N15435 X49.738 Y2.378 Z-11.474
N15440 X49.771 Y2.324 Z-11.607
N15445 X49.811 Y2.259 Z-11.733
N15450 X49.856 Y2.184 Z-11.852
N15455 X49.908 Y2.1 Z-11.961
N15460 X49.965 Y2.007 Z-12.06
N15465 X50.026 Y1.906 Z-12.147
N15470 X50.092 Y1.798 Z-12.223
N15475 X50.162 Y1.685 Z-12.286
N15480 X50.234 Y1.567 Z-12.335
N15485 X50.308 Y1.445 Z-12.371
N15490 X50.384 Y1.32 Z-12.393
N15495 X50.461 Y1.195 Z-12.4
N15500 G3 X51.024 Y0.647 I1.351 J0.825
N15505 G1 X51.208 Y0.55
N15510 X51.426 Y0.43
N15515 X51.955 Y0.124
N15520 X52.093 Y0.054
N15525 X52.228 Y-0.012
N15530 X52.366 Y-0.071
N15535 X52.532 Y-0.134
N15540 X52.724 Y-0.2
N15545 X52.934 Y-0.263
N15550 X53.198 Y-0.332
N15555 X53.523 Y-0.404
N15560 X53.905 Y-0.475
N15565 X54.413 Y-0.549
N15570 X55.102 Y-0.624
N15575 X56.057 Y-0.694
N15580 X57.014 Y-0.731
N15585 X57.971 Y-0.751
N15590 X58.929 Y-0.764
N15595 X59.885 Y-0.812
N15600 X60.819 Y-1.024
N15605 X61.675 Y-1.454
N15610 X62.404 Y-2.075
N15615 X62.983 Y-2.838
N15620 X63.412 Y-3.694
N15625 X63.712 Y-4.604
N15630 X63.911 Y-5.54
N15635 X63.977 Y-6.015
N15640 X64.003 Y-6.188
N15645 X64.073 Y-6.494
N15650 X64.19 Y-6.785
N15655 X64.352 Y-7.055
N15660 X64.553 Y-7.296
N15665 X64.695 Y-7.441
N15670 X64.913 Y-7.714
N15675 X65.046 Y-7.928
N15680 X65.182 Y-8.156
N15685 G3 X65.757 Y-8.677 I1.261 J0.812
N15690 G1 X65.888 Y-8.745 Z-12.393
N15695 X66.017 Y-8.811 Z-12.371
N15700 X66.144 Y-8.877 Z-12.335
N15705 X66.268 Y-8.94 Z-12.286
N15710 X66.386 Y-9.001 Z-12.223
N15715 X66.498 Y-9.059 Z-12.147
N15720 X66.603 Y-9.113 Z-12.06
N15725 X66.7 Y-9.163 Z-11.961
N15730 X66.788 Y-9.208 Z-11.852
N15735 X66.866 Y-9.248 Z-11.733
N15740 X66.934 Y-9.282 Z-11.607
N15745 X66.99 Y-9.311 Z-11.474
N15750 X67.034 Y-9.334 Z-11.335
N15755 X67.065 Y-9.35 Z-11.193
N15760 X67.085 Y-9.36 Z-11.047
N15765 X67.091 Y-9.363 Z-10.9
N15770 G0 Z5.
N15775 X50.679 Y2.001
N15780 Z-9.4
N15785 G1 Z-10.9 F1000.
N15790 X50.683 Y1.995 Z-11.047
N15795 X50.693 Y1.976 Z-11.193
N15800 X50.711 Y1.945 Z-11.335
N15805 X50.735 Y1.901 Z-11.474
N15810 X50.766 Y1.846 Z-11.607
N15815 X50.803 Y1.78 Z-11.733
N15820 X50.846 Y1.704 Z-11.852
N15825 X50.894 Y1.618 Z-11.961
N15830 X50.948 Y1.523 Z-12.06
N15835 X51.005 Y1.419 Z-12.147
N15840 X51.067 Y1.309 Z-12.223
N15845 X51.132 Y1.193 Z-12.286
N15850 X51.2 Y1.072 Z-12.335
N15855 X51.27 Y0.948 Z-12.371
N15860 X51.341 Y0.821 Z-12.393
N15865 X51.413 Y0.693 Z-12.4
N15870 G3 X51.955 Y0.124 I1.38 J0.774
N15875 G1 X53.166 Y-0.574
N15880 X53.307 Y-0.646
N15885 X53.442 Y-0.711
N15890 X53.59 Y-0.775
N15895 X53.764 Y-0.843
N15900 X53.95 Y-0.907
N15905 X54.184 Y-0.979
N15910 X54.479 Y-1.057
N15915 X54.789 Y-1.127
N15920 X55.2 Y-1.205
N15925 X55.702 Y-1.281
N15930 X56.399 Y-1.36
N15935 X57.354 Y-1.433
N15940 X58.311 Y-1.482
N15945 X59.265 Y-1.569
N15950 X60.186 Y-1.83
N15955 X61.021 Y-2.3
N15960 X61.724 Y-2.95
N15965 X62.278 Y-3.731
N15970 X62.689 Y-4.596
N15975 X62.99 Y-5.505
N15980 X63.092 Y-5.807
N15985 X63.224 Y-6.086
N15990 X63.398 Y-6.342
N15995 X63.608 Y-6.568
N16000 X63.851 Y-6.758
N16005 X64.299 Y-7.057
N16010 X64.388 Y-7.132
N16015 X64.478 Y-7.219
N16020 X64.553 Y-7.296
N16025 G3 X65.235 Y-7.667 I1.034 J1.087
N16030 G1 X65.378 Y-7.701 Z-12.393
N16035 X65.52 Y-7.735 Z-12.371
N16040 X65.659 Y-7.769 Z-12.335
N16045 X65.793 Y-7.801 Z-12.286
N16050 X65.923 Y-7.833 Z-12.223
N16055 X66.045 Y-7.862 Z-12.147
N16060 X66.16 Y-7.89 Z-12.06
N16065 X66.266 Y-7.916 Z-11.961
N16070 X66.362 Y-7.939 Z-11.852
N16075 X66.448 Y-7.959 Z-11.733
N16080 X66.521 Y-7.977 Z-11.607
N16085 X66.582 Y-7.992 Z-11.474
N16090 X66.631 Y-8.003 Z-11.335
N16095 X66.665 Y-8.012 Z-11.193
N16100 X66.686 Y-8.017 Z-11.047
N16105 X66.693 Y-8.019 Z-10.9
N16110 G0 Z5.
N16115 X51.89 Y1.302
N16120 Z-9.4
N16125 G1 Z-10.9 F1000.
N16130 X51.894 Y1.296 Z-11.047
N16135 X51.904 Y1.277 Z-11.193
N16140 X51.922 Y1.246 Z-11.335
N16145 X51.946 Y1.203 Z-11.474
N16150 X51.977 Y1.148 Z-11.607
N16155 X52.014 Y1.082 Z-11.733
N16160 X52.057 Y1.005 Z-11.852
N16165 X52.105 Y0.919 Z-11.961
N16170 X52.158 Y0.824 Z-12.06
N16175 X52.216 Y0.721 Z-12.147
N16180 X52.278 Y0.611 Z-12.223
N16185 X52.343 Y0.495 Z-12.286
N16190 X52.411 Y0.374 Z-12.335
N16195 X52.481 Y0.249 Z-12.371
N16200 X52.552 Y0.122 Z-12.393
N16205 X52.624 Y-0.006 Z-12.4
N16210 G3 X53.166 Y-0.574 I1.38 J0.774
N16215 G1 X54.373 Y-1.271
N16220 X54.547 Y-1.36
N16225 X54.682 Y-1.426
N16230 X54.825 Y-1.49
N16235 X55. Y-1.56
N16240 X55.182 Y-1.625
N16245 X55.407 Y-1.696
N16250 X55.695 Y-1.775
N16255 X56.019 Y-1.852
N16260 X56.44 Y-1.936
N16265 X57.386 Y-2.088
N16270 X58.334 Y-2.22
N16275 X59.257 Y-2.475
N16280 X60.103 Y-2.924
N16285 X60.828 Y-3.55
N16290 X61.412 Y-4.309
N16295 X61.883 Y-5.143
N16300 X61.989 Y-5.334
N16305 X62.191 Y-5.632
N16310 X62.444 Y-5.89
N16315 X62.739 Y-6.097
N16320 X63.608 Y-6.598
N16325 X63.647 Y-6.622
N16330 X63.851 Y-6.758
N16335 G3 X64.595 Y-6.982 I0.788 J1.276
N16340 G1 X64.742 Y-6.986 Z-12.393
N16345 X64.887 Y-6.99 Z-12.371
N16350 X65.03 Y-6.994 Z-12.335
N16355 X65.169 Y-6.999 Z-12.286
N16360 X65.302 Y-7.003 Z-12.223
N16365 X65.428 Y-7.006 Z-12.147
N16370 X65.546 Y-7.01 Z-12.06
N16375 X65.655 Y-7.013 Z-11.961
N16380 X65.754 Y-7.016 Z-11.852
N16385 X65.841 Y-7.019 Z-11.733
N16390 X65.917 Y-7.021 Z-11.607
N16395 X65.98 Y-7.023 Z-11.474
N16400 X66.03 Y-7.024 Z-11.335
N16405 X66.065 Y-7.025 Z-11.193
N16410 X66.087 Y-7.026 Z-11.047
N16415 X66.094 Z-10.9
N16420 G0 Z5.
N16425 X53.098 Y0.606
N16430 Z-9.4
N16435 G1 Z-10.9 F1000.
N16440 X53.101 Y0.599 Z-11.047
N16445 X53.112 Y0.581 Z-11.193
N16450 X53.129 Y0.549 Z-11.335
N16455 X53.153 Y0.506 Z-11.474
N16460 X53.184 Y0.451 Z-11.607
N16465 X53.221 Y0.385 Z-11.733
N16470 X53.264 Y0.309 Z-11.852
N16475 X53.312 Y0.223 Z-11.961
N16480 X53.366 Y0.127 Z-12.06
N16485 X53.424 Y0.024 Z-12.147
N16490 X53.485 Y-0.086 Z-12.223
N16495 X53.55 Y-0.202 Z-12.286
N16500 X53.618 Y-0.323 Z-12.335
N16505 X53.688 Y-0.447 Z-12.371
N16510 X53.759 Y-0.574 Z-12.393
N16515 X53.831 Y-0.703 Z-12.4
N16520 G3 X54.373 Y-1.271 I1.38 J0.774
N16525 G1 X55.727 Y-2.052
N16530 X55.879 Y-2.13
N16535 X56.032 Y-2.203
N16540 X56.203 Y-2.277
N16545 X56.418 Y-2.361
N16550 X57.322 Y-2.677
N16555 X58.233 Y-2.973
N16560 X59.089 Y-3.401
N16565 X59.846 Y-3.988
N16570 X60.495 Y-4.692
N16575 X60.647 Y-4.841
N16580 X60.814 Y-4.974
N16585 X60.993 Y-5.09
N16590 G3 X62.446 Y-2.466 I0.704 J1.325
N16595 G1 X57.271 Y0.52
N16600 G3 X55.727 Y-2.052 I-0.75 J-1.299
N16605 G1 X62.739 Y-6.097
N16610 G3 X63.496 Y-6.272 I0.704 J1.325
N16615 G1 X63.643 Y-6.267 Z-12.393
N16620 X63.788 Y-6.261 Z-12.371
N16625 X63.931 Y-6.256 Z-12.335
N16630 X64.069 Y-6.251 Z-12.286
N16635 X64.202 Y-6.247 Z-12.223
N16640 X64.329 Y-6.242 Z-12.147
N16645 X64.447 Y-6.238 Z-12.06
N16650 X64.556 Y-6.234 Z-11.961
N16655 X64.655 Y-6.231 Z-11.852
N16660 X64.742 Y-6.228 Z-11.733
N16665 X64.818 Y-6.225 Z-11.607
N16670 X64.881 Y-6.223 Z-11.474
N16675 X64.93 Y-6.221 Z-11.335
N16680 X64.966 Y-6.22 Z-11.193
N16685 X64.988 Y-6.219 Z-11.047
N16690 X64.995 Z-10.9
N16695 G0 Z15.
(2D CONTOUR2)
N16700 G0 X-2.3 Y-15.6
N16705 Z15.
N16710 Z5.
N16715 G1 Z1. F400.
N16720 Z-12.3
N16725 G18 G2 X-1.7 Z-12.9 I0.6 K0. F500.
N16730 G1 X-1.1
N16735 G17 G3 X-0.5 Y-15. I0. J0.6
N16740 G1 Y-3.5 F1000.
N16745 G2 X0.379 Y-1.379 I3. J0.
N16750 G1 X1.379 Y-0.379
N16755 G2 X3.5 Y0.5 I2.121 J-2.121
N16760 G1 X49.5
N16765 G2 X50.999 Y0.099 I0. J-3.
N16770 G1 X63.566 Y-7.152
N16775 G2 X64.665 Y-8.25 I-1.499 J-2.599
N16780 G1 X65.098 Y-9.
N16785 G2 X65.5 Y-10.5 I-2.598 J-1.5
N16790 G1 Y-19.5
N16795 G2 X65.098 Y-21. I-3. J0.
N16800 G1 X64.665 Y-21.75
N16805 G2 X63.566 Y-22.848 I-2.598 J1.5
N16810 G1 X50.999 Y-30.099
N16815 G2 X49.5 Y-30.5 I-1.499 J2.599
N16820 G1 X3.5
N16825 G2 X1.379 Y-29.621 I0. J3.
N16830 G1 X0.379 Y-28.621
N16835 G2 X-0.5 Y-26.5 I2.121 J2.121
N16840 G1 Y-15.
N16845 G3 X-1.1 Y-14.4 I-0.6 J0. F500.
N16850 G1 X-1.7
N16855 G18 G3 X-2.3 Z-12.3 I0. K0.6
N16860 G0 Z15.
N16865 G17
(2D POCKET1)
N16870 G0 X62.173 Y-5.314
N16875 Z15.
N16880 Z5.
N16885 G1 Z-4.9 F1000.
N16890 G19 G2 Y-5.914 Z-5.5 J-0.6 K0.
N16895 G1 Y-6.466
N16900 Y-23.533
N16905 G17 G3 X64.257 Y-23.534 I1.042 J0.
N16910 G1 X64.264 Y-15.127
N16915 X64.257 Y-15.
N16920 X63.215 Y-6.466
N16925 G3 X62.834 Y-5.781 I-1.034 J-0.126
N16930 G1 X59.696 Y-3.251
N16935 G3 X58. Y-4.063 I-0.654 J-0.811
N16940 G1 Y-24.615
N16945 Y-25.936
N16950 X58.007 Y-26.029
N16955 X58.059 Y-26.354
N16960 X58.073 Y-26.446 Z-5.493
N16965 X58.088 Y-26.537 Z-5.471
N16970 X58.101 Y-26.623 Z-5.435
N16975 X58.114 Y-26.702 Z-5.385
N16980 X58.125 Y-26.773 Z-5.324
N16985 X58.135 Y-26.833 Z-5.253
N16990 X58.142 Y-26.882 Z-5.172
N16995 X58.148 Y-26.917 Z-5.085
N17000 X58.151 Y-26.939 Z-4.994
N17005 X58.153 Y-26.946 Z-4.9
N17010 G0 Z15.
(2D CONTOUR7)
N17015 G0 X59.3 Y-4.785
N17020 Z15.
N17025 Z5.
N17030 G1 Z1. F400.
N17035 Z-4.9
N17040 G18 G3 X58.7 Z-5.5 I-0.6 K0. F1000.
N17045 G1 X58.1
N17050 G17 G3 X57.5 Y-5.385 I0. J-0.6
N17055 G1 Y-24.615
N17060 G3 X58.1 Y-25.215 I0.6 J0.
N17065 G1 X58.7
N17070 G18 G2 X59.3 Z-4.9 I0. K0.6
N17075 G0 Z15.
N17080 G17
(BORE3)
N17085 G0 X10.395 Y-15.195
N17090 Z15.
N17095 Z3.9
N17100 G1 Z2.5 F600.
N17105 X10.695
N17110 G3 X10.89 Y-15. I0. J0.195
N17115 X10.11 Z2.382 I-0.39 J0. F900.
N17120 X10.89 Z2.263 I0.39 J0.
N17125 X10.11 Z2.145 I-0.39 J0.
N17130 X10.89 Z2.027 I0.39 J0.
N17135 X10.11 Z1.908 I-0.39 J0.
N17140 X10.89 Z1.79 I0.39 J0.
N17145 X10.11 Z1.671 I-0.39 J0.
N17150 X10.89 Z1.553 I0.39 J0.
N17155 X10.11 Z1.435 I-0.39 J0.
N17160 X10.89 Z1.316 I0.39 J0.
N17165 X10.11 Z1.198 I-0.39 J0.
N17170 X10.89 Z1.08 I0.39 J0.
N17175 X10.11 Z0.961 I-0.39 J0.
N17180 X10.89 Z0.843 I0.39 J0.
N17185 X10.11 Z0.724 I-0.39 J0.
N17190 X10.89 Z0.606 I0.39 J0.
N17195 X10.11 Z0.488 I-0.39 J0.
N17200 X10.89 Z0.369 I0.39 J0.
N17205 X10.11 Z0.251 I-0.39 J0.
N17210 X10.89 Z0.133 I0.39 J0.
N17215 X10.11 Z0.014 I-0.39 J0.
N17220 X10.89 Z-0.104 I0.39 J0.
N17225 X10.11 Z-0.223 I-0.39 J0.
N17230 X10.89 Z-0.341 I0.39 J0.
N17235 X10.11 Z-0.459 I-0.39 J0.
N17240 X10.89 Z-0.578 I0.39 J0.
N17245 X10.11 Z-0.696 I-0.39 J0.
N17250 X10.89 Z-0.814 I0.39 J0.
N17255 X10.11 Z-0.933 I-0.39 J0.
N17260 X10.89 Z-1.051 I0.39 J0.
N17265 X10.11 Z-1.17 I-0.39 J0.
N17270 X10.89 Z-1.288 I0.39 J0.
N17275 X10.11 Z-1.406 I-0.39 J0.
N17280 X10.89 Z-1.525 I0.39 J0.
N17285 X10.11 Z-1.643 I-0.39 J0.
N17290 X10.89 Z-1.761 I0.39 J0.
N17295 X10.11 Z-1.88 I-0.39 J0.
N17300 X10.89 Z-1.998 I0.39 J0.
N17305 X10.11 Z-2.117 I-0.39 J0.
N17310 X10.89 Z-2.235 I0.39 J0.
N17315 X10.11 Z-2.353 I-0.39 J0.
N17320 X10.89 Z-2.472 I0.39 J0.
N17325 X10.11 Z-2.59 I-0.39 J0.
N17330 X10.89 Z-2.708 I0.39 J0.
N17335 X10.11 Z-2.827 I-0.39 J0.
N17340 X10.89 Z-2.945 I0.39 J0.
N17345 X10.11 Z-3.064 I-0.39 J0.
N17350 X10.89 Z-3.182 I0.39 J0.
N17355 X10.11 Z-3.3 I-0.39 J0.
N17360 X10.89 Z-3.419 I0.39 J0.
N17365 X10.11 Z-3.537 I-0.39 J0.
N17370 X10.89 Z-3.655 I0.39 J0.
N17375 X10.11 Z-3.774 I-0.39 J0.
N17380 X10.89 Z-3.892 I0.39 J0.
N17385 X10.11 Z-4.01 I-0.39 J0.
N17390 X10.89 Z-4.129 I0.39 J0.
N17395 X10.11 Z-4.247 I-0.39 J0.
N17400 X10.89 Z-4.366 I0.39 J0.
N17405 X10.11 Z-4.484 I-0.39 J0.
N17410 X10.89 Z-4.602 I0.39 J0.
N17415 X10.11 Z-4.721 I-0.39 J0.
N17420 X10.89 Z-4.839 I0.39 J0.
N17425 X10.11 Z-4.957 I-0.39 J0.
N17430 X10.89 Z-5.076 I0.39 J0.
N17435 X10.11 Z-5.194 I-0.39 J0.
N17440 X10.89 Z-5.313 I0.39 J0.
N17445 X10.11 Z-5.431 I-0.39 J0.
N17450 X10.89 Z-5.549 I0.39 J0.
N17455 X10.11 Z-5.668 I-0.39 J0.
N17460 X10.89 Z-5.786 I0.39 J0.
N17465 X10.11 Z-5.904 I-0.39 J0.
N17470 X10.89 Z-6.023 I0.39 J0.
N17475 X10.11 Z-6.141 I-0.39 J0.
N17480 X10.89 Z-6.26 I0.39 J0.
N17485 X10.11 Z-6.378 I-0.39 J0.
N17490 X10.89 Z-6.496 I0.39 J0.
N17495 X10.11 Z-6.615 I-0.39 J0.
N17500 X10.89 Z-6.733 I0.39 J0.
N17505 X10.11 Z-6.851 I-0.39 J0.
N17510 X10.89 Z-6.97 I0.39 J0.
N17515 X10.11 Z-7.088 I-0.39 J0.
N17520 X10.89 Z-7.207 I0.39 J0.
N17525 X10.11 Z-7.325 I-0.39 J0.
N17530 X10.89 Z-7.443 I0.39 J0.
N17535 X10.11 Z-7.562 I-0.39 J0.
N17540 X10.89 Z-7.68 I0.39 J0.
N17545 X10.11 Z-7.798 I-0.39 J0.
N17550 X10.89 Z-7.917 I0.39 J0.
N17555 X10.11 Z-8.035 I-0.39 J0.
N17560 X10.89 Z-8.154 I0.39 J0.
N17565 X10.11 Z-8.272 I-0.39 J0.
N17570 X10.89 Z-8.39 I0.39 J0.
N17575 X10.11 Z-8.509 I-0.39 J0.
N17580 X10.89 Z-8.627 I0.39 J0.
N17585 X10.11 Z-8.745 I-0.39 J0.
N17590 X10.89 Z-8.864 I0.39 J0.
N17595 X10.11 Z-8.982 I-0.39 J0.
N17600 X10.89 Z-9.101 I0.39 J0.
N17605 X10.11 Z-9.219 I-0.39 J0.
N17610 X10.89 Z-9.337 I0.39 J0.
N17615 X10.11 Z-9.456 I-0.39 J0.
N17620 X10.89 Z-9.574 I0.39 J0.
N17625 X10.11 Z-9.692 I-0.39 J0.
N17630 X10.89 Z-9.811 I0.39 J0.
N17635 X10.11 Z-9.929 I-0.39 J0.
N17640 X10.89 Z-10.048 I0.39 J0.
N17645 X10.11 Z-10.166 I-0.39 J0.
N17650 X10.89 Z-10.284 I0.39 J0.
N17655 X10.11 Z-10.403 I-0.39 J0.
N17660 X10.89 Z-10.521 I0.39 J0.
N17665 X10.11 Z-10.639 I-0.39 J0.
N17670 X10.89 Z-10.758 I0.39 J0.
N17675 X10.11 Z-10.876 I-0.39 J0.
N17680 X10.89 Z-10.994 I0.39 J0.
N17685 X10.11 Z-11.113 I-0.39 J0.
N17690 X10.89 Z-11.231 I0.39 J0.
N17695 X10.11 Z-11.35 I-0.39 J0.
N17700 X10.89 Z-11.468 I0.39 J0.
N17705 X10.11 Z-11.586 I-0.39 J0.
N17710 X10.89 Z-11.705 I0.39 J0.
N17715 X10.11 Z-11.823 I-0.39 J0.
N17720 X10.89 Z-11.941 I0.39 J0.
N17725 X10.11 Z-12.06 I-0.39 J0.
N17730 X10.89 Z-12.178 I0.39 J0.
N17735 X10.11 Z-12.297 I-0.39 J0.
N17740 X10.89 Z-12.415 I0.39 J0.
N17745 X10.253 Y-14.698 Z-12.5 I-0.39 J0.
N17750 X10.747 Y-15.302 I0.247 J-0.302
N17755 X10.253 Y-14.698 I-0.247 J0.302
N17760 X10.226 Y-14.973 I0.123 J-0.151 F600.
N17765 G1 X10.416 Y-15.205
N17770 G0 Z15.
N17775 M5
N17780 G53 Z0.
(2D CHAMFER1)
N17785 M9
N17790 M1
N17795 T1 M6
N17800 T16
N17805 S5000 M3
N17810 G54
N17815 M8
N17820 G0 X27.5 Y-12.4
N17825 G43 Z15. H1
N17830 G0 Z5.
N17835 G1 Z2. F333.33
N17840 Z-2.
N17845 Y-11.8 F1000.
N17850 G3 Y-18.2 I0. J-3.2
N17855 G1 X44.5
N17860 G3 Y-11.8 I0. J3.2
N17865 G1 X27.5
N17870 Y-12.4
N17875 G0 Z5.
N17880 X0.85 Y-15.
N17885 G1 Z2. F333.33
N17890 Z-2.
N17895 X1.45 F1000.
N17900 Y-3.5
N17905 G2 X1.758 Y-2.758 I1.05 J0.
N17910 G1 X2.758 Y-1.758
N17915 G2 X3.5 Y-1.45 I0.742 J-0.742
N17920 G1 X49.5
N17925 G2 X50.025 Y-1.591 I0. J-1.05
N17930 G1 X55.025 Y-4.475
N17935 G2 X55.55 Y-5.385 I-0.525 J-0.909
N17940 G1 Y-24.615
N17945 G2 X55.025 Y-25.525 I-1.05 J0.
N17950 G1 X50.025 Y-28.409
N17955 G2 X49.5 Y-28.55 I-0.525 J0.909
N17960 G1 X3.5
N17965 G2 X2.758 Y-28.242 I0. J1.05
N17970 G1 X1.758 Y-27.242
N17975 G2 X1.45 Y-26.5 I0.742 J0.742
N17980 G1 Y-15.
N17985 X0.85
N17990 G0 Z5.
N17995 X10.535 Y-13.261
N18000 G1 Z2. F333.33
N18005 Z-2.
N18010 X10.547 Y-12.661 F1000.
N18015 G3 X8.16 Y-15. I-0.047 J-2.339
N18020 X12.84 I2.34 J0.
N18025 X10.547 Y-12.661 I-2.34 J0.
N18030 G1 X10.535 Y-13.261
N18035 G0 Z15.
N18040 M9
N18045 G53 Z0.
N18050 M30
%
