%
(1001)
(T17  D=6. CR=0. - ZMIN=-5.5 - BULLNOSE END MILL)
N10 G90 G94 G17 G91.1
N15 G21
N20 G53 G0 Z0.
(FACE1)
N25 T17 M6
N30 S15000 M3
N35 G54
N40 M8
N45 G0 X25.61 Y-20.947
N50 G43 Z15. H17
N55 G0 Z5.
N60 G1 Z0.1 F400.
N65 G18 G3 X25.01 Z-0.5 I-0.6 K0. F900.
N70 G1 X-5.01
N75 G17 G2 Y-16.936 I0. J2.006
N80 G1 X25.01
N85 G3 Y-12.925 I0. J2.006
N90 G1 X-5.01
N95 G2 Y-8.914 I0. J2.005
N100 G1 X25.01
N105 G3 Y-4.903 I0. J2.005
N110 G1 X-5.01
N115 G2 Y-0.892 I0. J2.005
N120 G1 X25.01
N125 G18 G2 X25.61 Z0.1 I0. K0.6
N130 G0 Z15.
N135 G17
(2D CONTOUR1)
N140 G0 X-17.2 Y-20.
N145 Z15.
N150 Z5.
N155 G1 Z1. F400.
N160 Z-0.5
N165 G18 G2 X-12.2 Z-5.5 I5. K0. F900.
N170 G1 X-11.6
N175 G17 G3 X-1.6 Y-10. I0. J10.
N180 G1 Y-2.
N185 G2 X2. Y1.6 I3.6 J0.
N190 G1 X18.
N195 G2 X21.6 Y-2. I0. J-3.6
N200 G1 Y-18.
N205 G2 X18. Y-21.6 I-3.6 J0.
N210 G1 X2.
N215 G2 X-1.6 Y-18. I0. J3.6
N220 G1 Y-10.
N225 G3 X-11.6 Y0. I-10. J0.
N230 G1 X-12.2
N235 G18 G3 X-17.2 Z-0.5 I0. K5.
N240 G0 Z5.
N245 X-16.9 Y-20.
N250 G1 Z1. F400.
N255 Z-0.5
N260 G2 X-11.9 Z-5.5 I5. K0. F900.
N265 G17
N270 G1 G41 X-11.3 Y-23.3 D17
N275 G3 X2. Y-10. I0. J13.3
N280 G1 Y-2.
N285 X18.
N290 Y-18.
N295 X2.
N300 Y-10.
N305 G3 X-11.3 Y3.3 I-13.3 J0.
N310 G1 G40 X-11.9 Y0.
N315 G18 G3 X-16.9 Z-0.5 I0. K5.
N320 G0 Z15.
N325 G17
N330 M9
N335 G53 G0 Z0.
N340 M30
%
