%
(FOX_TOOL_ENDCODE_V2)
(T1  D=6. CR=0. TAPER=45DEG - ZMIN=-3.5 - CHAMFER MILL)
(T19  D=3. CR=0. - ZMIN=-10. - FLAT END MILL)
N10 G90 G94 G17 G91.1
N15 G21
N20 G53 G0 Z0.
(2D CONTOUR1)
N25 T19 M6
N30 T1
N35 S15926 M3
N40 G54
N45 M8
N50 G0 X4.515 Y-1.909
N55 G43 Z15. H19
N60 G0 Z5.
N65 G1 Z1. F402.
N70 Z-9.7
N75 X4.52 Y-1.904 Z-9.767 F1206.
N80 X4.536 Y-1.888 Z-9.83
N85 X4.561 Y-1.863 Z-9.887
N90 X4.595 Y-1.829 Z-9.935
N95 X4.635 Y-1.789 Z-9.97
N100 X4.68 Y-1.744 Z-9.992
N105 X4.727 Y-1.697 Z-10.
N110 X4.939 Y-1.485
N115 G3 Y-1.061 I-0.212 J0.212
N120 G1 X-0.061 Y3.939
N125 G2 X-0.5 Y5. I1.061 J1.061
N130 G1 Y11.526
N135 G2 X1.363 Y13.944 I2.5 J0.
N140 G3 X1.669 Y14.177 I-0.127 J0.484
N145 G1 X3.035 Y16.545
N150 G2 X5.084 Y17.094 I1.299 J-0.75
N155 G1 X8.116 Y15.344
N160 G2 X8.665 Y13.295 I-0.75 J-1.299
N165 G1 X7.298 Y10.927
N170 G3 X7.869 Y10.197 I0.433 J-0.25
N175 G1 X11.415 Y11.22
N180 G2 X12.102 Y11.255 I0.416 J-1.441
N185 G3 X36.348 Y25.253 I3.898 J21.245
N190 G2 X36.721 Y25.831 I1.413 J-0.503
N195 G1 X39.38 Y28.39
N200 G3 X39.034 Y29.25 I-0.347 J0.36
N205 G1 X36.3
N210 G2 X34.8 Y30.75 I0. J1.5
N215 G1 Y34.25
N220 G2 X36.3 Y35.75 I1.5 J0.
N225 G1 X39.034
N230 G3 X39.38 Y36.61 I0. J0.5
N235 G1 X36.721 Y39.169
N240 G2 X36.348 Y39.747 I1.04 J1.081
N245 G3 X12.102 Y53.745 I-20.348 J-7.247
N250 G2 X11.415 Y53.78 I-0.271 J1.475
N255 G1 X7.869 Y54.803
N260 G3 X7.298 Y54.073 I-0.139 J-0.48
N265 G1 X8.665 Y51.705
N270 G2 X8.116 Y49.656 I-1.299 J-0.75
N275 G1 X5.084 Y47.906
N280 G2 X3.035 Y48.455 I-0.75 J1.299
N285 G1 X1.669 Y50.823
N290 G3 X1.363 Y51.056 I-0.433 J-0.25
N295 G2 X-0.5 Y53.474 I0.637 J2.417
N300 G1 Y60.
N305 G2 X-0.061 Y61.061 I1.5 J0.
N310 G1 X4.939 Y66.061
N315 G3 Y66.485 I-0.212 J0.212
N320 G1 X4.727 Y66.697
N325 X4.68 Y66.744 Z-9.992
N330 X4.635 Y66.789 Z-9.97
N335 X4.595 Y66.829 Z-9.935
N340 X4.561 Y66.863 Z-9.887
N345 X4.536 Y66.888 Z-9.83
N350 X4.52 Y66.904 Z-9.767
N355 X4.515 Y66.909 Z-9.7
N360 G0 Z15.
(2D ADAPTIVE7)
N365 G0 X67.217 Y33.425
N370 Z15.
N375 Z5.
N380 Z2.5
N385 G3 X64.648 Y33.211 Z2.393 I-1.217 J-0.925 F1206.
N390 X65.928 Y30.977 Z2.286 I1.351 J-0.71
N395 X67.408 Y33.08 Z2.179 I0.071 J1.523
N400 X64.879 Y33.53 Z2.071 I-1.408 J-0.58
N405 X65.541 Y31.051 Z1.964 I1.12 J-1.029
N410 X67.504 Y32.698 Z1.857 I0.457 J1.448
N415 X65.183 Y33.778 Z1.75 I-1.504 J-0.199
N420 X65.188 Y31.222 Z1.643 I0.816 J-1.277
N425 X67.499 Y32.307 Z1.536 I0.81 J1.278
N430 X65.54 Y33.939 Z1.429 I-1.499 J0.193
N435 X64.892 Y31.476 Z1.321 I0.46 J-1.438
N440 X67.394 Y31.931 Z1.214 I1.106 J1.024
N445 X65.924 Y34.003 Z1.107 I-1.394 J0.568
N450 X64.671 Y31.797 Z1. I0.075 J-1.502
N455 X67.197 Y31.596 Z0.893 I1.327 J0.703
N460 X66.311 Y33.966 Z0.786 I-1.198 J0.903
N465 X64.541 Y32.162 Z0.679 I-0.311 J-1.465
N470 X66.922 Y31.323 Z0.571 I1.457 J0.338
N475 X66.674 Y33.833 Z0.464 I-0.923 J1.176
N480 X64.508 Y32.547 Z0.357 I-0.674 J-1.332
N485 X66.587 Y31.131 Z0.25 I1.49 J-0.046
N490 X66.989 Y33.611 Z0.143 I-0.588 J1.368
N495 X64.576 Y32.926 Z0.036 I-0.989 J-1.111
N500 X66.216 Y31.032 Z-0.071 I1.423 J-0.425
N505 X67.236 Y33.317 Z-0.179 I-0.217 J1.467
N510 X64.737 Y33.274 Z-0.286 I-1.236 J-0.817
N515 X65.833 Y31.031 Z-0.393 I1.262 J-0.773
N520 X67.399 Y32.971 Z-0.5 I0.166 J1.468
N525 X64.981 Y33.567 Z-0.607 I-1.398 J-0.471
N530 X65.464 Y31.128 Z-0.714 I1.018 J-1.066
N535 X67.467 Y32.596 Z-0.821 I0.534 J1.371
N540 X65.292 Y33.788 Z-0.929 I-1.467 J-0.097
N545 X65.134 Y31.316 Z-1.036 I0.708 J-1.286
N550 X67.437 Y32.218 Z-1.143 I0.865 J1.184
N555 X65.647 Y33.92 Z-1.25 I-1.437 J0.282
N560 X64.863 Y31.581 Z-1.357 I0.353 J-1.419
N565 X67.312 Y31.861 Z-1.464 I1.135 J0.919
N570 X66.022 Y33.958 Z-1.571 I-1.312 J0.638
N575 X64.671 Y31.905 Z-1.679 I-0.023 J-1.457
N580 X67.1 Y31.55 Z-1.786 I1.328 J0.596
N585 X66.394 Y33.898 Z-1.893 I-1.1 J0.949
N590 X64.568 Y32.266 Z-2. I-0.394 J-1.397
N595 X66.816 Y31.304 Z-2.107 I1.43 J0.234
N600 X66.736 Y33.745 Z-2.214 I-0.817 J1.195
N605 X64.561 Y32.64 Z-2.321 I-0.736 J-1.244
N610 X66.48 Y31.14 Z-2.429 I1.437 J-0.139
N615 X67.026 Y33.511 Z-2.536 I-0.481 J1.359
N620 X64.65 Y33.002 Z-2.643 I-1.026 J-1.01
N625 X66.115 Y31.068 Z-2.75 I1.348 J-0.501
N630 X67.246 Y33.211 Z-2.857 I-0.117 J1.432
N635 X64.829 Y33.328 Z-2.964 I-1.246 J-0.711
N640 X65.745 Y31.091 Z-3.071 I1.17 J-0.827
N645 X67.381 Y32.866 Z-3.179 I0.253 J1.408
N650 X65.084 Y33.596 Z-3.286 I-1.381 J-0.366
N655 X65.395 Y31.208 Z-3.393 I0.915 J-1.095
N660 X67.423 Y32.5 Z-3.5 I0.603 J1.291
N665 X64.573 I-1.425 J0.
N670 X67.423 I1.425 J0.
N675 G1 X67.436 Y32.765 F527.33
N680 X67.44 Y32.915
N685 X67.409 Y33.062
N690 X67.357 Y33.203
N695 X67.287 Y33.336
N700 X67.203 Y33.46
N705 X67.106 Y33.574
N710 X66.997 Y33.678
N715 X66.879 Y33.77
N720 X66.752 Y33.85
N725 X66.618 Y33.917
N730 X66.478 Y33.971
N735 X66.334 Y34.011
N740 X66.186 Y34.036
N745 X66.036 Y34.047
N750 X65.886 Y34.044
N755 X65.737 Y34.026
N760 X65.591 Y33.993
N765 X65.448 Y33.947
N770 X65.311 Y33.887
N775 X65.18 Y33.814
N780 X65.056 Y33.728
N785 X64.942 Y33.632
N790 X64.837 Y33.524
N795 X64.744 Y33.407
N800 X64.662 Y33.281
N805 X64.592 Y33.148
N810 X64.536 Y33.009
N815 X64.494 Y32.865
N820 X64.465 Y32.718
N825 X64.451 Y32.569
N830 X64.452 Y32.419
N835 X64.467 Y32.269
N840 X64.497 Y32.122
N845 X64.54 Y31.979
N850 X64.597 Y31.84
N855 X64.668 Y31.708
N860 X64.751 Y31.583
N865 X64.845 Y31.466
N870 X64.951 Y31.359
N875 X65.066 Y31.263
N880 X65.19 Y31.179
N885 X65.321 Y31.107
N890 X65.459 Y31.048
N895 X65.602 Y31.003
N900 X65.749 Y30.971
N905 X65.898 Y30.954
N910 X66.048 Y30.952
N915 X66.197 Y30.964
N920 X66.345 Y30.99
N925 X66.49 Y31.031
N930 X66.629 Y31.086
N935 X66.763 Y31.153
N940 X66.89 Y31.234
N945 X67.008 Y31.326
N950 X67.117 Y31.429
N955 X67.215 Y31.542
N960 X67.302 Y31.664
N965 X67.377 Y31.795
N970 X67.439 Y31.931
N975 X67.487 Y32.073
N980 X67.522 Y32.219
N985 X67.549 Y32.367
N990 X67.57 Y32.515
N995 X67.58 Y32.665
N1000 X67.575 Y32.815
N1005 X67.554 Y32.963
N1010 X67.517 Y33.109
N1015 X67.463 Y33.249
N1020 X67.395 Y33.383
N1025 X67.314 Y33.509
N1030 X67.221 Y33.626
N1035 X67.116 Y33.734
N1040 X67.002 Y33.831
N1045 X66.879 Y33.917
N1050 X66.749 Y33.992
N1055 X66.613 Y34.054
N1060 X66.471 Y34.104
N1065 X66.326 Y34.14
N1070 X66.178 Y34.164
N1075 X66.028 Y34.173
N1080 X65.878 Y34.169
N1085 X65.729 Y34.152
N1090 X65.582 Y34.121
N1095 X65.439 Y34.077
N1100 X65.3 Y34.02
N1105 X65.167 Y33.951
N1110 X65.04 Y33.871
N1115 X64.921 Y33.78
N1120 X64.81 Y33.678
N1125 X64.709 Y33.567
N1130 X64.619 Y33.448
N1135 X64.539 Y33.321
N1140 X64.471 Y33.187
N1145 X64.416 Y33.048
N1150 X64.373 Y32.904
N1155 X64.344 Y32.757
N1160 X64.328 Y32.607
N1165 X64.325 Y32.458
N1170 X64.336 Y32.308
N1175 X64.36 Y32.16
N1180 X64.397 Y32.014
N1185 X64.447 Y31.873
N1190 X64.509 Y31.736
N1195 X64.583 Y31.606
N1200 X64.668 Y31.483
N1205 X64.764 Y31.368
N1210 X64.871 Y31.262
N1215 X64.986 Y31.166
N1220 X65.11 Y31.081
N1225 X65.24 Y31.007
N1230 X65.377 Y30.945
N1235 X65.519 Y30.896
N1240 X65.664 Y30.86
N1245 X65.812 Y30.837
N1250 X65.962 Y30.827
N1255 X66.112 Y30.83
N1260 X66.261 Y30.846
N1265 X66.408 Y30.876
N1270 X66.552 Y30.919
N1275 X66.691 Y30.975
N1280 X66.825 Y31.043
N1285 X66.952 Y31.123
N1290 X67.071 Y31.214
N1295 X67.181 Y31.316
N1300 X67.282 Y31.426
N1305 X67.373 Y31.546
N1310 X67.453 Y31.673
N1315 X67.521 Y31.806
N1320 X67.578 Y31.945
N1325 X67.625 Y32.088
N1330 X67.663 Y32.233
N1335 X67.69 Y32.38
N1340 X67.707 Y32.529
N1345 X67.712 Y32.679
N1350 X67.702 Y32.829
N1355 X67.679 Y32.977
N1360 X67.641 Y33.122
N1365 X67.59 Y33.263
N1370 X67.526 Y33.399
N1375 X67.45 Y33.528
N1380 X67.362 Y33.65
N1385 X67.263 Y33.763
N1390 X67.155 Y33.867
N1395 X67.039 Y33.961
N1400 X66.914 Y34.045
N1405 X66.783 Y34.117
N1410 X66.646 Y34.178
N1415 X66.504 Y34.228
N1420 X66.359 Y34.264
N1425 X66.211 Y34.289
N1430 X66.061 Y34.3
N1435 X65.911 Y34.299
N1440 X65.762 Y34.286
N1445 X65.614 Y34.26
N1450 X65.469 Y34.221
N1455 X65.328 Y34.171
N1460 X65.191 Y34.11
N1465 X65.06 Y34.037
N1470 X64.935 Y33.954
N1475 X64.817 Y33.861
N1480 X64.708 Y33.758
N1485 X64.607 Y33.647
N1490 X64.517 Y33.527
N1495 X64.436 Y33.401
N1500 X64.367 Y33.268
N1505 X64.309 Y33.129
N1510 X64.263 Y32.986
N1515 X64.229 Y32.84
N1520 X64.207 Y32.692
N1525 X64.197 Y32.542
N1530 X64.2 Y32.392
N1535 X64.215 Y32.243
N1540 X64.242 Y32.096
N1545 X64.282 Y31.951
N1550 X64.333 Y31.81
N1555 X64.396 Y31.674
N1560 X64.47 Y31.543
N1565 X64.554 Y31.419
N1570 X64.649 Y31.303
N1575 X64.754 Y31.195
N1580 X64.867 Y31.097
N1585 X64.987 Y31.008
N1590 X65.115 Y30.929
N1595 X65.249 Y30.861
N1600 X65.388 Y30.805
N1605 X65.531 Y30.76
N1610 X65.677 Y30.727
N1615 X65.826 Y30.706
N1620 X65.975 Y30.697
N1625 X66.125 Y30.701
N1630 X66.274 Y30.718
N1635 X66.422 Y30.747
N1640 X66.566 Y30.788
N1645 X66.706 Y30.841
N1650 X66.841 Y30.906
N1655 X66.971 Y30.982
N1660 X67.093 Y31.069
N1665 X67.208 Y31.165
N1670 X67.315 Y31.27
N1675 X67.413 Y31.384
N1680 X67.501 Y31.505
N1685 X67.579 Y31.633
N1690 X67.647 Y31.767
N1695 X67.705 Y31.905
N1700 X67.754 Y32.047
N1705 X67.793 Y32.192
N1710 X67.822 Y32.339
N1715 X67.839 Y32.488
N1720 X67.844 Y32.638
N1725 X67.837 Y32.788
N1730 X67.817 Y32.937
N1735 X67.785 Y33.083
N1740 X67.741 Y33.226
N1745 X67.684 Y33.365
N1750 X67.616 Y33.499
N1755 X67.537 Y33.627
N1760 X67.448 Y33.747
N1765 X67.349 Y33.86
N1770 X67.241 Y33.964
N1775 X67.125 Y34.059
N1780 X67.001 Y34.144
N1785 X66.871 Y34.218
N1790 X66.735 Y34.282
N1795 X66.595 Y34.335
N1800 X66.451 Y34.377
N1805 X66.304 Y34.406
N1810 X66.155 Y34.425
N1815 X66.005 Y34.431
N1820 X65.855 Y34.426
N1825 X65.706 Y34.409
N1830 X65.559 Y34.381
N1835 X65.414 Y34.342
N1840 X65.273 Y34.291
N1845 X65.136 Y34.23
N1850 X65.004 Y34.158
N1855 X64.878 Y34.076
N1860 X64.76 Y33.985
N1865 X64.648 Y33.884
N1870 X64.545 Y33.775
N1875 X64.45 Y33.659
N1880 X64.365 Y33.535
N1885 X64.29 Y33.405
N1890 X64.225 Y33.27
N1895 X64.171 Y33.13
N1900 X64.128 Y32.987
N1905 X64.095 Y32.84
N1910 X64.075 Y32.692
N1915 X64.065 Y32.542
N1920 X64.068 Y32.392
N1925 X64.082 Y32.243
N1930 X64.107 Y32.095
N1935 X64.144 Y31.95
N1940 X64.192 Y31.807
N1945 X64.252 Y31.67
N1950 X64.321 Y31.537
N1955 X64.401 Y31.41
N1960 X64.49 Y31.289
N1965 X64.589 Y31.176
N1970 X64.696 Y31.071
N1975 X64.81 Y30.974
N1980 X64.932 Y30.887
N1985 X65.06 Y30.809
N1990 X65.194 Y30.741
N1995 X65.333 Y30.684
N2000 X65.476 Y30.638
N2005 X65.621 Y30.603
N2010 X65.77 Y30.579
N2015 X65.919 Y30.567
N2020 X66.069
N2025 X66.219 Y30.578
N2030 X66.367 Y30.601
N2035 X66.513 Y30.636
N2040 X66.656 Y30.681
N2045 X66.795 Y30.738
N2050 X66.929 Y30.805
N2055 X67.058 Y30.882
N2060 X67.18 Y30.969
N2065 X67.295 Y31.065
N2070 X67.402 Y31.17
N2075 X67.501 Y31.283
N2080 X67.591 Y31.403
N2085 X67.673 Y31.529
N2090 X67.745 Y31.66
N2095 X67.808 Y31.796
N2100 X67.862 Y31.936
N2105 X67.906 Y32.08
N2110 X67.939 Y32.226
N2115 X67.963 Y32.374
N2120 X67.975 Y32.524
N2125 X67.976 Y32.674
N2130 X67.967 Y32.823
N2135 X67.945 Y32.972
N2140 X67.912 Y33.118
N2145 X67.868 Y33.261
N2150 X67.813 Y33.401
N2155 X67.746 Y33.535
N2160 X67.67 Y33.664
N2165 X67.583 Y33.787
N2170 X67.488 Y33.902
N2175 X67.384 Y34.01
N2180 X67.271 Y34.11
N2185 X67.152 Y34.201
N2190 X67.026 Y34.282
N2195 X66.894 Y34.354
N2200 X66.758 Y34.416
N2205 X66.617 Y34.467
N2210 X66.472 Y34.508
N2215 X66.325 Y34.538
N2220 X66.177 Y34.557
N2225 X66.027 Y34.565
N2230 X65.877 Y34.562
N2235 X65.728 Y34.548
N2240 X65.58 Y34.523
N2245 X65.434 Y34.487
N2250 X65.291 Y34.441
N2255 X65.152 Y34.385
N2260 X65.018 Y34.319
N2265 X64.888 Y34.243
N2270 X64.765 Y34.158
N2275 X64.647 Y34.064
N2280 X64.537 Y33.962
N2285 X64.435 Y33.853
N2290 X64.341 Y33.736
N2295 X64.256 Y33.613
N2300 X64.179 Y33.483
N2305 X64.113 Y33.349
N2310 X64.056 Y33.21
N2315 X64.01 Y33.067
N2320 X63.974 Y32.922
N2325 X63.949 Y32.774
N2330 X63.935 Y32.624
N2335 X63.931 Y32.474
N2340 X63.939 Y32.325
N2345 X63.957 Y32.176
N2350 X63.985 Y32.028
N2355 X64.025 Y31.884
N2360 X64.074 Y31.742
N2365 X64.134 Y31.605
N2370 X64.204 Y31.472
N2375 X64.283 Y31.344
N2380 X64.371 Y31.223
N2385 X64.468 Y31.108
N2390 X64.573 Y31.001
N2395 X64.686 Y30.902
N2400 X64.805 Y30.811
N2405 X64.931 Y30.729
N2410 X65.062 Y30.657
N2415 X65.198 Y30.594
N2420 X65.338 Y30.541
N2425 X65.482 Y30.498
N2430 X65.629 Y30.466
N2435 X65.777 Y30.444
N2440 X65.927 Y30.433
N2445 X66.077
N2450 X66.226 Y30.444
N2455 X66.375 Y30.466
N2460 X66.521 Y30.499
N2465 X66.665 Y30.542
N2470 X66.805 Y30.595
N2475 X66.941 Y30.659
N2480 X67.071 Y30.732
N2485 X67.197 Y30.815
N2490 X67.316 Y30.906
N2495 X67.428 Y31.006
N2500 X67.532 Y31.114
N2505 X67.629 Y31.228
N2510 X67.718 Y31.349
N2515 X67.799 Y31.475
N2520 X67.871 Y31.607
N2525 X67.934 Y31.743
N2530 X67.989 Y31.882
N2535 X68.034 Y32.026
N2540 X68.069 Y32.171
N2545 X68.094 Y32.319
N2550 X68.109 Y32.469
N2555 X68.114 Y32.618
N2560 X68.108 Y32.768
N2565 X68.091 Y32.917
N2570 X68.063 Y33.065
N2575 X68.025 Y33.21
N2580 X67.977 Y33.352
N2585 X67.918 Y33.49
N2590 X67.85 Y33.624
N2595 X67.772 Y33.752
N2600 X67.685 Y33.874
N2605 X67.59 Y33.99
N2610 X67.486 Y34.098
N2615 X67.375 Y34.199
N2620 X67.257 Y34.292
N2625 X67.133 Y34.375
N2630 X67.003 Y34.45
N2635 X66.868 Y34.516
N2640 X66.729 Y34.572
N2645 X66.586 Y34.618
N2650 X66.44 Y34.654
N2655 X66.293 Y34.68
N2660 X66.143 Y34.695
N2665 X65.993 Y34.701
N2670 X65.844 Y34.696
N2675 X65.694 Y34.68
N2680 X65.546 Y34.655
N2685 X65.401 Y34.62
N2690 X65.258 Y34.574
N2695 X65.118 Y34.519
N2700 X64.983 Y34.455
N2705 X64.852 Y34.382
N2710 X64.726 Y34.299
N2715 X64.607 Y34.209
N2720 X64.494 Y34.11
N2725 X64.388 Y34.004
N2730 X64.289 Y33.891
N2735 X64.199 Y33.771
N2740 X64.116 Y33.646
N2745 X64.043 Y33.515
N2750 X63.978 Y33.38
N2755 X63.923 Y33.24
N2760 X63.877 Y33.098
N2765 X63.841 Y32.952
N2770 X63.815 Y32.804
N2775 X63.8 Y32.655
N2780 X63.794 Y32.505
N2785 X63.799 Y32.355
N2790 X63.814 Y32.206
N2795 X63.839 Y32.058
N2800 X63.874 Y31.912
N2805 X63.919 Y31.769
N2810 X63.973 Y31.629
N2815 X64.037 Y31.494
N2820 X64.11 Y31.363
N2825 X64.192 Y31.237
N2830 X64.282 Y31.117
N2835 X64.38 Y31.003
N2840 X64.486 Y30.897
N2845 X64.598 Y30.797
N2850 X64.717 Y30.706
N2855 X64.842 Y30.623
N2860 X64.972 Y30.549
N2865 X65.107 Y30.483
N2870 X65.247 Y30.428
N2875 X65.389 Y30.381
N2880 X65.535 Y30.345
N2885 X65.682 Y30.318
N2890 X65.831 Y30.302
N2895 X65.981 Y30.296
N2900 X66.131 Y30.3
N2905 X66.281 Y30.314
N2910 X66.429 Y30.338
N2915 X66.575 Y30.372
N2920 X66.718 Y30.416
N2925 X66.858 Y30.47
N2930 X66.994 Y30.533
N2935 X67.126 Y30.605
N2940 X67.252 Y30.686
N2945 X67.372 Y30.776
N2950 X67.486 Y30.873
N2955 X67.594 Y30.978
N2960 X67.694 Y31.089
N2965 X67.787 Y31.207
N2970 X67.873 Y31.33
N2975 X67.95 Y31.459
N2980 X68.019 Y31.592
N2985 X68.08 Y31.729
N2990 X68.132 Y31.87
N2995 X68.174 Y32.014
N3000 X68.208 Y32.16
N3005 X68.232 Y32.308
N3010 X68.247 Y32.457
N3015 X68.252 Y32.607
N3020 X68.247 Y32.757
N3025 X68.232 Y32.906
N3030 X68.206 Y33.054
N3035 X68.171 Y33.2
N3040 X68.126 Y33.343
N3045 X68.072 Y33.483
N3050 X68.008 Y33.618
N3055 X67.935 Y33.75
N3060 X67.853 Y33.875
N3065 X67.763 Y33.995
N3070 X67.666 Y34.109
N3075 X67.56 Y34.216
N3080 X67.448 Y34.316
N3085 X67.33 Y34.408
N3090 X67.205 Y34.492
N3095 X67.076 Y34.567
N3100 X66.941 Y34.634
N3105 X66.803 Y34.691
N3110 X66.661 Y34.74
N3115 X66.516 Y34.779
N3120 X66.369 Y34.808
N3125 X66.22 Y34.828
N3130 X66.071 Y34.838
N3135 X65.921
N3140 X65.771 Y34.828
N3145 X65.622 Y34.809
N3150 X65.475 Y34.781
N3155 X65.33 Y34.743
N3160 X65.187 Y34.696
N3165 X65.048 Y34.64
N3170 X64.913 Y34.575
N3175 X64.782 Y34.501
N3180 X64.656 Y34.42
N3185 X64.536 Y34.33
N3190 X64.422 Y34.233
N3195 X64.314 Y34.128
N3200 X64.213 Y34.017
N3205 X64.12 Y33.9
N3210 X64.034 Y33.777
N3215 X63.957 Y33.648
N3220 X63.887 Y33.515
N3225 X63.827 Y33.378
N3230 X63.775 Y33.237
N3235 X63.733 Y33.093
N3240 X63.699 Y32.947
N3245 X63.675 Y32.799
N3250 X63.661 Y32.65
N3255 X63.656 Y32.5
N3260 X63.66 Y32.35
N3265 X63.674 Y32.201
N3270 X63.698 Y32.053
N3275 X63.731 Y31.906
N3280 X63.774 Y31.762
N3285 X63.826 Y31.622
N3290 X63.886 Y31.484
N3295 X63.956 Y31.351
N3300 X64.034 Y31.223
N3305 X64.119 Y31.1
N3310 X64.213 Y30.983
N3315 X64.314 Y30.872
N3320 X64.421 Y30.767
N3325 X64.535 Y30.67
N3330 X64.656 Y30.58
N3335 X64.781 Y30.498
N3340 X64.912 Y30.424
N3345 X65.047 Y30.359
N3350 X65.186 Y30.302
N3355 X65.328 Y30.254
N3360 X65.473 Y30.216
N3365 X65.62 Y30.187
N3370 X65.769 Y30.168
N3375 X65.918 Y30.158
N3380 X66.068
N3385 X66.218 Y30.167
N3390 X66.367 Y30.186
N3395 X66.514 Y30.214
N3400 X66.659 Y30.252
N3405 X66.802 Y30.299
N3410 X66.941 Y30.355
N3415 X67.076 Y30.42
N3420 X67.207 Y30.493
N3425 X67.333 Y30.574
N3430 X67.454 Y30.663
N3435 X67.569 Y30.76
N3440 X67.677 Y30.863
N3445 X67.78 Y30.973
N3450 X67.875 Y31.089
N3455 X67.963 Y31.211
N3460 X68.043 Y31.337
N3465 X68.116 Y31.468
N3470 X68.18 Y31.604
N3475 X68.237 Y31.743
N3480 X68.285 Y31.885
N3485 X68.324 Y32.03
N3490 X68.355 Y32.177
N3495 X68.376 Y32.325
N3500 X68.389 Y32.474
N3505 X68.392 Y32.624
N3510 X68.386 Y32.774
N3515 X68.37 Y32.923
N3520 X68.345 Y33.071
N3525 X68.311 Y33.217
N3530 X68.268 Y33.361
N3535 X68.215 Y33.502
N3540 X68.154 Y33.638
N3545 X68.084 Y33.771
N3550 X68.006 Y33.899
N3555 X67.919 Y34.022
N3560 X67.825 Y34.139
N3565 X67.724 Y34.25
N3570 X67.616 Y34.354
N3575 X67.502 Y34.451
N3580 X67.382 Y34.541
N3585 X67.257 Y34.623
N3590 X67.127 Y34.698
N3595 X66.992 Y34.764
N3600 X66.853 Y34.821
N3605 X66.712 Y34.87
N3610 X66.567 Y34.91
N3615 X66.42 Y34.942
N3620 X66.272 Y34.963
N3625 X66.122 Y34.976
N3630 X65.973 Y34.98
N3635 X65.823 Y34.974
N3640 X65.673 Y34.959
N3645 X65.525 Y34.936
N3650 X65.379 Y34.903
N3655 X65.235 Y34.861
N3660 X65.093 Y34.811
N3665 X64.955 Y34.752
N3670 X64.821 Y34.685
N3675 X64.691 Y34.61
N3680 X64.566 Y34.528
N3685 X64.446 Y34.438
N3690 X64.332 Y34.341
N3695 X64.223 Y34.237
N3700 X64.122 Y34.127
N3705 X64.027 Y34.01
N3710 X63.939 Y33.889
N3715 X63.859 Y33.762
N3720 X63.787 Y33.63
N3725 X63.723 Y33.495
N3730 X63.667 Y33.356
N3735 X63.619 Y33.213
N3740 X63.581 Y33.068
N3745 X63.551 Y32.921
N3750 X63.53 Y32.773
N3755 X63.518 Y32.623
N3760 X63.515 Y32.473
N3765 X63.521 Y32.323
N3770 X63.536 Y32.174
N3775 X63.56 Y32.026
N3780 X63.593 Y31.88
N3785 X63.635 Y31.736
N3790 X63.685 Y31.594
N3795 X63.744 Y31.456
N3800 X63.811 Y31.322
N3805 X63.886 Y31.192
N3810 X63.969 Y31.067
N3815 X64.059 Y30.947
N3820 X64.156 Y30.833
N3825 X64.26 Y30.725
N3830 X64.371 Y30.624
N3835 X64.487 Y30.529
N3840 X64.609 Y30.441
N3845 X64.735 Y30.361
N3850 X64.867 Y30.289
N3855 X65.002 Y30.225
N3860 X65.141 Y30.168
N3865 X65.284 Y30.121
N3870 X65.429 Y30.082
N3875 X65.575 Y30.052
N3880 X65.724 Y30.03
N3885 X65.873 Y30.018
N3890 X66.023 Y30.015
N3895 X66.173 Y30.021
N3900 X66.323 Y30.037
N3905 X66.471 Y30.061
N3910 X66.617 Y30.094
N3915 X66.761 Y30.136
N3920 X66.902 Y30.186
N3925 X67.04 Y30.245
N3930 X67.174 Y30.312
N3935 X67.304 Y30.387
N3940 X67.43 Y30.469
N3945 X67.55 Y30.559
N3950 X67.665 Y30.656
N3955 X67.774 Y30.759
N3960 X67.876 Y30.868
N3965 X67.973 Y30.983
N3970 X68.062 Y31.104
N3975 X68.145 Y31.229
N3980 X68.22 Y31.359
N3985 X68.287 Y31.493
N3990 X68.347 Y31.63
N3995 X68.399 Y31.771
N4000 X68.443 Y31.914
N4005 X68.478 Y32.06
N4010 X68.505 Y32.208
N4015 X68.523 Y32.357
N4020 X68.533 Y32.506
N4025 Y32.656
N4030 X68.525 Y32.806
N4035 X68.509 Y32.955
N4040 X68.483 Y33.103
N4045 X68.449 Y33.249
N4050 X68.406 Y33.393
N4055 X68.355 Y33.534
N4060 X68.295 Y33.671
N4065 X68.227 Y33.805
N4070 X68.151 Y33.934
N4075 X68.068 Y34.059
N4080 X67.977 Y34.178
N4085 X67.879 Y34.292
N4090 X67.775 Y34.4
N4095 X67.664 Y34.501
N4100 X67.548 Y34.596
N4105 X67.426 Y34.683
N4110 X67.299 Y34.763
N4115 X67.168 Y34.836
N4120 X67.032 Y34.901
N4125 X66.894 Y34.958
N4130 X66.752 Y35.006
N4135 X66.607 Y35.047
N4140 X66.461 Y35.079
N4145 X66.313 Y35.102
N4150 X66.163 Y35.116
N4155 X66.013 Y35.122
N4160 X65.863 Y35.12
N4165 X65.714 Y35.108
N4170 X65.565 Y35.088
N4175 X65.418 Y35.059
N4180 X65.273 Y35.022
N4185 X65.13 Y34.977
N4190 X64.99 Y34.923
N4195 X64.853 Y34.862
N4200 X64.72 Y34.793
N4205 X64.591 Y34.716
N4210 X64.466 Y34.632
N4215 X64.347 Y34.541
N4220 X64.233 Y34.444
N4225 X64.125 Y34.34
N4230 X64.022 Y34.23
N4235 X63.927 Y34.115
N4240 X63.838 Y33.994
N4245 X63.756 Y33.868
N4250 X63.681 Y33.738
N4255 X63.614 Y33.604
N4260 X63.555 Y33.466
N4265 X63.504 Y33.325
N4270 X63.461 Y33.181
N4275 X63.427 Y33.035
N4280 X63.4 Y32.888
N4285 X63.383 Y32.739
N4290 X63.373 Y32.589
N4295 Y32.439
N4300 X63.38 Y32.289
N4305 X63.397 Y32.14
N4310 X63.421 Y31.992
N4315 X63.454 Y31.846
N4320 X63.496 Y31.702
N4325 X63.545 Y31.56
N4330 X63.602 Y31.421
N4335 X63.668 Y31.286
N4340 X63.741 Y31.155
N4345 X63.821 Y31.029
N4350 X63.909 Y30.907
N4355 X64.003 Y30.79
N4360 X64.104 Y30.679
N4365 X64.211 Y30.574
N4370 X64.324 Y30.475
N4375 X64.442 Y30.383
N4380 X64.566 Y30.298
N4385 X64.694 Y30.22
N4390 X64.826 Y30.149
N4395 X64.962 Y30.086
N4400 X65.102 Y30.031
N4405 X65.244 Y29.984
N4410 X65.389 Y29.944
N4415 X65.535 Y29.914
N4420 X65.684 Y29.891
N4425 X65.833 Y29.877
N4430 X65.983 Y29.872
N4435 X66.133 Y29.875
N4440 X66.283 Y29.887
N4445 X66.431 Y29.908
N4450 X66.578 Y29.937
N4455 X66.724 Y29.974
N4460 X66.866 Y30.02
N4465 X67.006 Y30.074
N4470 X67.143 Y30.135
N4475 X67.276 Y30.205
N4480 X67.405 Y30.281
N4485 X67.53 Y30.365
N4490 X67.65 Y30.455
N4495 X67.764 Y30.552
N4500 X67.873 Y30.655
N4505 X67.976 Y30.764
N4510 X68.073 Y30.878
N4515 X68.164 Y30.998
N4520 X68.248 Y31.122
N4525 X68.326 Y31.25
N4530 X68.396 Y31.383
N4535 X68.458 Y31.519
N4540 X68.514 Y31.659
N4545 X68.561 Y31.801
N4550 X68.601 Y31.946
N4555 X68.632 Y32.092
N4560 X68.656 Y32.24
N4565 X68.671 Y32.39
N4570 X68.678 Y32.54
N4575 X68.677 Y32.69
N4580 X68.667 Y32.839
N4585 X68.649 Y32.988
N4590 X68.623 Y33.136
N4595 X68.589 Y33.282
N4600 X68.546 Y33.426
N4605 X68.496 Y33.567
N4610 X68.437 Y33.705
N4615 X68.371 Y33.84
N4620 X68.298 Y33.97
N4625 X68.217 Y34.097
N4630 X68.129 Y34.218
N4635 X68.034 Y34.334
N4640 X67.933 Y34.445
N4645 X67.825 Y34.55
N4650 X67.712 Y34.649
N4655 X67.594 Y34.741
N4660 X67.471 Y34.826
N4665 X67.343 Y34.904
N4670 X67.211 Y34.976
N4675 X67.075 Y35.039
N4680 X66.936 Y35.096
N4685 X66.794 Y35.144
N4690 X66.649 Y35.185
N4695 X66.503 Y35.217
N4700 X66.355 Y35.242
N4705 X66.206 Y35.258
N4710 X66.056 Y35.266
N4715 X65.906
N4720 X65.756 Y35.258
N4725 X65.607 Y35.241
N4730 X65.459 Y35.216
N4735 X65.313 Y35.183
N4740 X65.169 Y35.143
N4745 X65.027 Y35.094
N4750 X64.888 Y35.038
N4755 X64.752 Y34.974
N4760 X64.62 Y34.903
N4765 X64.492 Y34.825
N4770 X64.368 Y34.74
N4775 X64.249 Y34.648
N4780 X64.135 Y34.551
N4785 X64.027 Y34.447
N4790 X63.924 Y34.338
N4795 X63.828 Y34.223
N4800 X63.737 Y34.103
N4805 X63.654 Y33.979
N4810 X63.577 Y33.85
N4815 X63.507 Y33.717
N4820 X63.445 Y33.58
N4825 X63.39 Y33.441
N4830 X63.343 Y33.298
N4835 X63.304 Y33.154
N4840 X63.273 Y33.007
N4845 X63.25 Y32.859
N4850 X63.235 Y32.709
N4855 X63.227 Y32.56
N4860 X63.228 Y32.41
N4865 X63.237 Y32.26
N4870 X63.254 Y32.111
N4875 X63.279 Y31.963
N4880 X63.312 Y31.817
N4885 X63.353 Y31.672
N4890 X63.401 Y31.53
N4895 X63.457 Y31.391
N4900 X63.521 Y31.255
N4905 X63.592 Y31.123
N4910 X63.669 Y30.995
N4915 X63.754 Y30.871
N4920 X63.845 Y30.752
N4925 X63.943 Y30.638
N4930 X64.047 Y30.53
N4935 X64.157 Y30.427
N4940 X64.271 Y30.331
N4945 X64.391 Y30.241
N4950 X64.516 Y30.158
N4955 X64.645 Y30.081
N4960 X64.778 Y30.011
N4965 X64.914 Y29.949
N4970 X65.054 Y29.894
N4975 X65.196 Y29.847
N4980 X65.341 Y29.807
N4985 X65.487 Y29.775
N4990 X65.636 Y29.751
N4995 X65.785 Y29.735
N5000 X65.934 Y29.728
N5005 X66.084
N5010 X66.234 Y29.737
N5015 X66.383 Y29.753
N5020 X66.531 Y29.778
N5025 X66.678 Y29.811
N5030 X66.822 Y29.852
N5035 X66.964 Y29.901
N5040 X67.103 Y29.957
N5045 X67.239 Y30.02
N5050 X67.371 Y30.091
N5055 X67.499 Y30.169
N5060 X67.624 Y30.253
N5065 X67.743 Y30.344
N5070 X67.858 Y30.44
N5075 X67.967 Y30.543
N5080 X68.071 Y30.651
N5085 X68.169 Y30.764
N5090 X68.262 Y30.883
N5095 X68.348 Y31.006
N5100 X68.427 Y31.133
N5105 X68.5 Y31.264
N5110 X68.566 Y31.399
N5115 X68.625 Y31.537
N5120 X68.676 Y31.678
N5125 X68.72 Y31.821
N5130 X68.756 Y31.966
N5135 X68.785 Y32.114
N5140 X68.806 Y32.262
N5145 X68.819 Y32.412
N5150 X68.825 Y32.562
N5155 X68.822 Y32.712
N5160 X68.812 Y32.861
N5165 X68.793 Y33.01
N5170 X68.767 Y33.158
N5175 X68.734 Y33.304
N5180 X68.692 Y33.448
N5185 X68.643 Y33.59
N5190 X68.586 Y33.729
N5195 X68.522 Y33.864
N5200 X68.451 Y33.997
N5205 X68.373 Y34.125
N5210 X68.288 Y34.248
N5215 X68.197 Y34.367
N5220 X68.099 Y34.481
N5225 X67.995 Y34.589
N5230 X67.886 Y34.692
N5235 X67.771 Y34.788
N5240 X67.651 Y34.879
N5245 X67.527 Y34.963
N5250 X67.399 Y35.04
N5255 X67.266 Y35.111
N5260 X67.13 Y35.174
N5265 X66.991 Y35.23
N5270 X66.85 Y35.279
N5275 X66.705 Y35.321
N5280 X66.559 Y35.355
N5285 X66.412 Y35.381
N5290 X66.263 Y35.4
N5295 X66.113 Y35.411
N5300 X65.963 Y35.414
N5305 X65.813 Y35.409
N5310 X65.664 Y35.396
N5315 X65.515 Y35.376
N5320 X65.368 Y35.347
N5325 X65.222 Y35.311
N5330 X65.079 Y35.268
N5335 X64.938 Y35.217
N5340 X64.799 Y35.159
N5345 X64.664 Y35.094
N5350 X64.533 Y35.022
N5355 X64.405 Y34.943
N5360 X64.281 Y34.858
N5365 X64.162 Y34.767
N5370 X64.048 Y34.67
N5375 X63.939 Y34.567
N5380 X63.835 Y34.458
N5385 X63.737 Y34.345
N5390 X63.645 Y34.226
N5395 X63.559 Y34.103
N5400 X63.48 Y33.976
N5405 X63.407 Y33.845
N5410 X63.341 Y33.71
N5415 X63.283 Y33.572
N5420 X63.231 Y33.431
N5425 X63.187 Y33.288
N5430 X63.151 Y33.142
N5435 X63.122 Y32.995
N5440 X63.1 Y32.847
N5445 X63.086 Y32.697
N5450 X63.08 Y32.547
N5455 X63.082 Y32.397
N5460 X63.091 Y32.248
N5465 X63.108 Y32.099
N5470 X63.132 Y31.951
N5475 X63.164 Y31.804
N5480 X63.203 Y31.659
N5485 X63.25 Y31.517
N5490 X63.304 Y31.377
N5495 X63.365 Y31.24
N5500 X63.433 Y31.106
N5505 X63.507 Y30.976
N5510 X63.589 Y30.85
N5515 X63.677 Y30.728
N5520 X63.771 Y30.612
N5525 X63.871 Y30.5
N5530 X63.977 Y30.393
N5535 X64.088 Y30.293
N5540 X64.204 Y30.198
N5545 X64.324 Y30.109
N5550 X64.45 Y30.026
N5555 X64.579 Y29.95
N5560 X64.712 Y29.88
N5565 X64.848 Y29.818
N5570 X64.987 Y29.762
N5575 X65.129 Y29.713
N5580 X65.273 Y29.672
N5585 X65.42 Y29.639
N5590 X65.567 Y29.612
N5595 X65.716 Y29.594
N5600 X65.866 Y29.583
N5605 X66.016 Y29.58
N5610 X66.166 Y29.584
N5615 X66.315 Y29.597
N5620 X66.464 Y29.617
N5625 X66.611 Y29.645
N5630 X66.757 Y29.68
N5635 X66.901 Y29.723
N5640 X67.042 Y29.773
N5645 X67.181 Y29.831
N5650 X67.316 Y29.895
N5655 X67.448 Y29.966
N5660 X67.577 Y30.043
N5665 X67.701 Y30.127
N5670 X67.821 Y30.217
N5675 X67.937 Y30.313
N5680 X68.047 Y30.414
N5685 X68.153 Y30.521
N5690 X68.253 Y30.633
N5695 X68.347 Y30.749
N5700 X68.436 Y30.87
N5705 X68.518 Y30.996
N5710 X68.594 Y31.125
N5715 X68.664 Y31.258
N5720 X68.726 Y31.394
N5725 X68.782 Y31.533
N5730 X68.831 Y31.675
N5735 X68.873 Y31.819
N5740 X68.908 Y31.965
N5745 X68.935 Y32.113
N5750 X68.955 Y32.261
N5755 X68.967 Y32.411
N5760 X68.972 Y32.561
N5765 X68.97 Y32.711
N5770 X68.96 Y32.86
N5775 X68.943 Y33.009
N5780 X68.918 Y33.157
N5785 X68.886 Y33.304
N5790 X68.847 Y33.448
N5795 X68.8 Y33.591
N5800 X68.746 Y33.731
N5805 X68.685 Y33.868
N5810 X68.617 Y34.002
N5815 X68.543 Y34.132
N5820 X68.462 Y34.258
N5825 X68.374 Y34.38
N5830 X68.28 Y34.497
N5835 X68.181 Y34.609
N5840 X68.076 Y34.716
N5845 X67.965 Y34.818
N5850 X67.85 Y34.914
N5855 X67.73 Y35.004
N5860 X67.606 Y35.088
N5865 X67.477 Y35.165
N5870 X67.345 Y35.236
N5875 X67.21 Y35.301
N5880 X67.071 Y35.358
N5885 X66.93 Y35.409
N5890 X66.786 Y35.453
N5895 X66.641 Y35.489
N5900 X66.494 Y35.518
N5905 X66.345 Y35.54
N5910 X66.196 Y35.555
N5915 X66.046 Y35.562
N5920 X65.896 Y35.561
N5925 X65.747 Y35.553
N5930 X65.597 Y35.538
N5935 X65.449 Y35.515
N5940 X65.302 Y35.484
N5945 X65.157 Y35.447
N5950 X65.014 Y35.402
N5955 X64.873 Y35.351
N5960 X64.735 Y35.292
N5965 X64.6 Y35.227
N5970 X64.468 Y35.156
N5975 X64.34 Y35.078
N5980 X64.215 Y34.994
N5985 X64.095 Y34.904
N5990 X63.98 Y34.808
N5995 X63.869 Y34.707
N6000 X63.764 Y34.6
N6005 X63.663 Y34.489
N6010 X63.569 Y34.372
N6015 X63.48 Y34.252
N6020 X63.397 Y34.126
N6025 X63.32 Y33.997
N6030 X63.25 Y33.865
N6035 X63.187 Y33.729
N6040 X63.13 Y33.59
N6045 X63.081 Y33.448
N6050 X63.038 Y33.305
N6055 X63.002 Y33.159
N6060 X62.974 Y33.012
N6065 X62.953 Y32.863
N6070 X62.939 Y32.714
N6075 X62.932 Y32.564
N6080 X62.933 Y32.414
N6085 X62.94 Y32.264
N6090 X62.956 Y32.115
N6095 X62.978 Y31.967
N6100 X63.007 Y31.819
N6105 X63.044 Y31.674
N6110 X63.087 Y31.53
N6115 X63.138 Y31.389
N6120 X63.195 Y31.251
N6125 X63.26 Y31.115
N6130 X63.33 Y30.983
N6135 X63.408 Y30.854
N6140 X63.491 Y30.73
N6145 X63.581 Y30.609
N6150 X63.676 Y30.494
N6155 X63.777 Y30.383
N6160 X63.884 Y30.277
N6165 X63.995 Y30.176
N6170 X64.111 Y30.082
N6175 X64.232 Y29.992
N6180 X64.356 Y29.909
N6185 X64.485 Y29.832
N6190 X64.617 Y29.761
N6195 X64.753 Y29.697
N6200 X64.891 Y29.639
N6205 X65.032 Y29.588
N6210 X65.176 Y29.544
N6215 X65.321 Y29.507
N6220 X65.468 Y29.477
N6225 X65.616 Y29.455
N6230 X65.766 Y29.44
N6235 X65.915 Y29.432
N6240 X66.065 Y29.431
N6245 X66.215 Y29.438
N6250 X66.365 Y29.453
N6255 X66.513 Y29.475
N6260 X66.66 Y29.503
N6265 X66.806 Y29.54
N6270 X66.949 Y29.583
N6275 X67.091 Y29.633
N6280 X67.23 Y29.69
N6285 X67.366 Y29.753
N6290 X67.498 Y29.823
N6295 X67.628 Y29.899
N6300 X67.753 Y29.981
N6305 X67.874 Y30.069
N6310 X67.992 Y30.163
N6315 X68.104 Y30.262
N6320 X68.212 Y30.366
N6325 X68.315 Y30.476
N6330 X68.412 Y30.59
N6335 X68.504 Y30.708
N6340 X68.59 Y30.831
N6345 X68.671 Y30.958
N6350 X68.745 Y31.088
N6355 X68.813 Y31.222
N6360 X68.874 Y31.359
N6365 X68.929 Y31.498
N6370 X68.977 Y31.64
N6375 X69.019 Y31.784
N6380 X69.053 Y31.93
N6385 X69.081 Y32.078
N6390 X69.101 Y32.226
N6395 X69.115 Y32.376
N6400 X69.121 Y32.526
N6405 Y32.676
N6410 X69.113 Y32.825
N6415 X69.098 Y32.975
N6420 X69.077 Y33.123
N6425 X69.048 Y33.27
N6430 X69.012 Y33.416
N6435 X68.969 Y33.56
N6440 X68.919 Y33.701
N6445 X68.862 Y33.84
N6450 X68.799 Y33.976
N6455 X68.729 Y34.109
N6460 X68.653 Y34.238
N6465 X68.57 Y34.363
N6470 X68.482 Y34.484
N6475 X68.388 Y34.601
N6480 X68.288 Y34.713
N6485 X68.183 Y34.82
N6490 X68.073 Y34.922
N6495 X67.958 Y35.018
N6500 X67.839 Y35.109
N6505 X67.715 Y35.195
N6510 X67.588 Y35.274
N6515 X67.457 Y35.347
N6520 X67.323 Y35.414
N6525 X67.185 Y35.474
N6530 X67.045 Y35.528
N6535 X66.903 Y35.575
N6540 X66.758 Y35.616
N6545 X66.612 Y35.649
N6550 X66.465 Y35.675
N6555 X66.316 Y35.695
N6560 X66.166 Y35.707
N6565 X66.016 Y35.712
N6570 X65.866 Y35.71
N6575 X65.717 Y35.701
N6580 X65.568 Y35.685
N6585 X65.419 Y35.661
N6590 X65.272 Y35.631
N6595 X65.127 Y35.594
N6600 X64.984 Y35.55
N6605 X64.842 Y35.5
N6610 X64.704 Y35.443
N6615 X64.568 Y35.379
N6620 X64.435 Y35.31
N6625 X64.305 Y35.234
N6630 X64.18 Y35.152
N6635 X64.058 Y35.065
N6640 X63.94 Y34.972
N6645 X63.827 Y34.873
N6650 X63.718 Y34.77
N6655 X63.615 Y34.661
N6660 X63.516 Y34.548
N6665 X63.423 Y34.43
N6670 X63.336 Y34.308
N6675 X63.255 Y34.182
N6680 X63.179 Y34.053
N6685 X63.11 Y33.92
N6690 X63.047 Y33.784
N6695 X62.991 Y33.645
N6700 X62.941 Y33.503
N6705 X62.897 Y33.36
N6710 X62.861 Y33.214
N6715 X62.831 Y33.067
N6720 X62.808 Y32.919
N6725 X62.792 Y32.77
N6730 X62.783 Y32.62
N6735 X62.781 Y32.47
N6740 X62.786 Y32.32
N6745 X62.797 Y32.17
N6750 X62.816 Y32.022
N6755 X62.841 Y31.874
N6760 X62.874 Y31.727
N6765 X62.913 Y31.583
N6770 X62.959 Y31.44
N6775 X63.011 Y31.299
N6780 X63.071 Y31.161
N6785 X63.136 Y31.026
N6790 X63.208 Y30.895
N6795 X63.286 Y30.767
N6800 X63.37 Y30.642
N6805 X63.459 Y30.522
N6810 X63.554 Y30.406
N6815 X63.654 Y30.294
N6820 X63.76 Y30.188
N6825 X63.87 Y30.086
N6830 X63.985 Y29.989
N6835 X64.104 Y29.898
N6840 X64.228 Y29.813
N6845 X64.355 Y29.733
N6850 X64.485 Y29.66
N6855 X64.619 Y29.592
N6860 X64.756 Y29.531
N6865 X64.896 Y29.476
N6870 X65.038 Y29.428
N6875 X65.182 Y29.386
N6880 X65.328 Y29.351
N6885 X65.475 Y29.323
N6890 X65.624 Y29.302
N6895 X65.773 Y29.288
N6900 X65.923 Y29.281
N6905 X66.073
N6910 X66.223 Y29.289
N6915 X66.372 Y29.303
N6920 X66.521 Y29.324
N6925 X66.668 Y29.352
N6930 X66.814 Y29.386
N6935 X66.958 Y29.428
N6940 X67.1 Y29.476
N6945 X67.24 Y29.53
N6950 X67.377 Y29.591
N6955 X67.511 Y29.658
N6960 X67.642 Y29.731
N6965 X67.77 Y29.81
N6970 X67.894 Y29.895
N6975 X68.013 Y29.985
N6980 X68.129 Y30.081
N6985 X68.24 Y30.181
N6990 X68.347 Y30.287
N6995 X68.448 Y30.397
N7000 X68.545 Y30.512
N7005 X68.636 Y30.631
N7010 X68.721 Y30.754
N7015 X68.801 Y30.881
N7020 X68.876 Y31.012
N7025 X68.944 Y31.145
N7030 X69.006 Y31.282
N7035 X69.062 Y31.421
N7040 X69.111 Y31.563
N7045 X69.154 Y31.706
N7050 X69.191 Y31.852
N7055 X69.221 Y31.999
N7060 X69.244 Y32.147
N7065 X69.261 Y32.296
N7070 X69.271 Y32.446
N7075 X69.274 Y32.596
N7080 X69.27 Y32.746
N7085 X69.26 Y32.895
N7090 X69.242 Y33.044
N7095 X69.218 Y33.192
N7100 X69.187 Y33.339
N7105 X69.15 Y33.484
N7110 X69.105 Y33.628
N7115 X69.055 Y33.769
N7120 X68.997 Y33.907
N7125 X68.934 Y34.043
N7130 X68.864 Y34.176
N7135 X68.788 Y34.305
N7140 X68.706 Y34.431
N7145 X68.619 Y34.553
N7150 X68.526 Y34.671
N7155 X68.427 Y34.784
N7160 X68.324 Y34.893
N7165 X68.216 Y34.996
N7170 X68.103 Y35.095
N7175 X67.986 Y35.189
N7180 X67.864 Y35.277
N7185 X67.739 Y35.359
N7190 X67.61 Y35.436
N7195 X67.478 Y35.507
N7200 X67.342 Y35.572
N7205 X67.204 Y35.63
N7210 X67.064 Y35.682
N7215 X66.978 Y35.71
N7220 X66.841 Y35.746
N7225 X66.702 Y35.768
N7230 X66.561 Y35.775
N7235 X65.593
N7240 X65.443 Y35.768
N7245 X65.294 Y35.754
N7250 X65.146 Y35.73
N7255 X65. Y35.695
N7260 X64.856 Y35.653
N7265 X64.715 Y35.602
N7270 X64.576 Y35.544
N7275 X64.441 Y35.48
N7280 X64.309 Y35.409
N7285 X64.18 Y35.332
N7290 X64.055 Y35.249
N7295 X63.934 Y35.16
N7300 X63.817 Y35.066
N7305 X63.705 Y34.967
N7310 X63.597 Y34.863
N7315 X63.494 Y34.754
N7320 X63.396 Y34.64
N7325 X63.303 Y34.522
N7330 X63.216 Y34.4
N7335 X63.134 Y34.275
N7340 X63.058 Y34.146
N7345 X62.987 Y34.013
N7350 X62.923 Y33.878
N7355 X62.865 Y33.739
N7360 X62.813 Y33.599
N7365 X62.79 Y33.528
N7370 X62.754 Y33.391
N7375 X62.732 Y33.252
N7380 X62.725 Y33.111
N7385 G3 X63.035 Y32.822 Z-3.3 I0.3 J0.01
N7390 G1 X63.088 Y32.828
N7395 X63.139 Y32.844
N7400 X63.186 Y32.868
N7405 X63.228 Y32.901
N7410 X63.273 Y32.942
N7415 X65.759 Y35.23
N7420 X65.786 Y35.254
N7425 X65.825 Y35.299
N7430 X65.855 Y35.35
N7435 X65.874 Y35.406
N7440 X65.882 Y35.465
N7445 G3 X65.593 Y35.775 Z-3.5 I-0.3 J0.01
N7450 G1 X65.125
N7455 X64.975 Y35.768
N7460 X64.826 Y35.747
N7465 X64.681 Y35.711
N7470 X64.538 Y35.664
N7475 X64.4 Y35.607
N7480 X64.264 Y35.542
N7485 X64.133 Y35.47
N7490 X64.006 Y35.39
N7495 X63.882 Y35.305
N7500 X63.763 Y35.214
N7505 X63.648 Y35.118
N7510 X63.538 Y35.016
N7515 X63.432 Y34.91
N7520 X63.331 Y34.799
N7525 X63.235 Y34.684
N7530 X63.144 Y34.564
N7535 X63.058 Y34.441
N7540 X62.978 Y34.314
N7545 X62.904 Y34.184
N7550 X62.878 Y34.134
N7555 X62.794 Y33.934
N7560 X62.742 Y33.723
N7565 X62.725 Y33.506
N7570 G3 X63.035 Y33.217 Z-3.3 I0.3 J0.01
N7575 G1 X63.088 Y33.224
N7580 X63.14 Y33.24
N7585 X63.188 Y33.265
N7590 X63.23 Y33.298
N7595 X63.272 Y33.338
N7600 X65.291 Y35.23
N7605 X65.319 Y35.256
N7610 X65.358 Y35.3
N7615 X65.387 Y35.351
N7620 X65.406 Y35.407
N7625 X65.414 Y35.465
N7630 G3 X65.125 Y35.775 Z-3.5 I-0.3 J0.01
N7635 G1 X64.771
N7640 X64.621 Y35.768
N7645 X64.474 Y35.741
N7650 X64.33 Y35.697
N7655 X64.191 Y35.641
N7660 X64.056 Y35.575
N7665 X63.926 Y35.5
N7670 X63.8 Y35.419
N7675 X63.679 Y35.33
N7680 X63.562 Y35.236
N7685 X63.45 Y35.137
N7690 X63.342 Y35.032
N7695 X63.24 Y34.923
N7700 X63.142 Y34.809
N7705 X63.049 Y34.692
N7710 X62.961 Y34.57
N7715 X62.94 Y34.536
N7720 X62.822 Y34.306
N7725 X62.749 Y34.058
N7730 X62.725 Y33.801
N7735 G3 X63.035 Y33.512 Z-3.3 I0.3 J0.01
N7740 G1 X63.089 Y33.518
N7745 X63.141 Y33.535
N7750 X63.19 Y33.561
N7755 X63.232 Y33.595
N7760 X63.272 Y33.633
N7765 X64.938 Y35.23
N7770 X64.968 Y35.259
N7775 X65.006 Y35.302
N7780 X65.034 Y35.353
N7785 X65.053 Y35.408
N7790 X65.06 Y35.465
N7795 G3 X64.771 Y35.775 Z-3.5 I-0.3 J0.01
N7800 G1 X64.459
N7805 X64.309 Y35.768
N7810 X64.163 Y35.733
N7815 X64.022 Y35.681
N7820 X63.886 Y35.617
N7825 X63.756 Y35.544
N7830 X63.63 Y35.462
N7835 X63.509 Y35.374
N7840 X63.393 Y35.279
N7845 X63.282 Y35.178
N7850 X63.175 Y35.072
N7855 X63.074 Y34.962
N7860 X62.979 Y34.844
N7865 X62.84 Y34.599
N7870 X62.754 Y34.331
N7875 X62.725 Y34.051
N7880 G3 X63.035 Y33.761 Z-3.3 I0.3 J0.01
N7885 G1 X63.091 Y33.768
N7890 X63.144 Y33.786
N7895 X63.193 Y33.813
N7900 X63.236 Y33.848
N7905 X63.271 Y33.883
N7910 X64.626 Y35.229
N7915 X64.66 Y35.262
N7920 X64.696 Y35.306
N7925 X64.723 Y35.355
N7930 X64.741 Y35.409
N7935 X64.748 Y35.465
N7940 G3 X64.459 Y35.775 Z-3.5 I-0.3 J0.01
N7945 G1 X64.204
N7950 X64.054 Y35.768
N7955 X63.909 Y35.731
N7960 X63.769 Y35.676
N7965 X63.635 Y35.609
N7970 X63.507 Y35.531
N7975 X63.384 Y35.445
N7980 X63.266 Y35.352
N7985 X63.154 Y35.252
N7990 X63.049 Y35.145
N7995 X63.042 Y35.137
N8000 X62.869 Y34.872
N8005 X62.761 Y34.575
N8010 X62.725 Y34.262
N8015 G3 X63.035 Y33.972 Z-3.3 I0.3 J0.01
N8020 G1 X63.092 Y33.98
N8025 X63.146 Y33.998
N8030 X63.196 Y34.026
N8035 X63.24 Y34.063
N8040 X63.271 Y34.095
N8045 X64.372 Y35.228
N8050 X64.409 Y35.266
N8055 X64.443 Y35.309
N8060 X64.47 Y35.358
N8065 X64.486 Y35.41
N8070 X64.493 Y35.465
N8075 G3 X64.204 Y35.775 Z-3.5 I-0.3 J0.01
N8080 G1 X63.961
N8085 X63.811 Y35.768
N8090 X63.666 Y35.728
N8095 X63.528 Y35.67
N8100 X63.396 Y35.598
N8105 X63.271 Y35.516
N8110 X63.152 Y35.425
N8115 X63.144 Y35.417
N8120 X62.966 Y35.208
N8125 X62.834 Y34.968
N8130 X62.753 Y34.706
N8135 X62.725 Y34.433
N8140 G3 X63.035 Y34.143 Z-3.3 I0.3 J0.01
N8145 G1 X63.095 Y34.152
N8150 X63.152 Y34.171
N8155 X63.204 Y34.202
N8160 X63.248 Y34.243
N8165 X63.27 Y34.267
N8170 X64.13 Y35.227
N8175 X64.174 Y35.275
N8180 X64.205 Y35.317
N8185 X64.229 Y35.363
N8190 X64.244 Y35.413
N8195 X64.25 Y35.465
N8200 G3 X63.961 Y35.775 Z-3.5 I-0.3 J0.01
N8205 G1 X63.707
N8210 X63.557 Y35.768
N8215 X63.415 Y35.72
N8220 X63.28 Y35.654
N8225 X63.048 Y35.45
N8230 X62.872 Y35.195
N8235 X62.762 Y34.906
N8240 X62.725 Y34.6
N8245 G3 X63.035 Y34.31 Z-3.3 I0.3 J0.01
N8250 X63.262 Y34.426 I-0.01 J0.3
N8255 G1 X63.268 Y34.434
N8260 X63.881 Y35.223
N8265 X63.934 Y35.291
N8270 X63.967 Y35.344
N8275 X63.988 Y35.403
N8280 X63.996 Y35.465
N8285 G3 X63.707 Y35.775 Z-3.5 I-0.3 J0.01
N8290 G1 X63.495
N8295 X63.345 Y35.768
N8300 X63.209 Y35.704
N8305 X63.084 Y35.621
N8310 X62.932 Y35.449
N8315 X62.819 Y35.249
N8320 X62.749 Y35.03
N8325 X62.725 Y34.801
N8330 G3 X63.035 Y34.511 Z-3.3 I0.3 J0.01
N8335 X63.271 Y34.64 I-0.01 J0.3
N8340 G1 X63.673 Y35.22
N8345 X63.731 Y35.304
N8350 X63.759 Y35.354
N8355 X63.777 Y35.408
N8360 X63.785 Y35.465
N8365 G3 X63.495 Y35.775 Z-3.5 I-0.3 J0.01
N8370 G1 X63.325
N8375 X63.175 Y35.768
N8380 X63.045 Y35.693
N8385 X62.91 Y35.55
N8390 X62.809 Y35.381
N8395 X62.746 Y35.195
N8400 X62.725 Y35.
N8405 G3 X62.912 Y34.58 Z-3.3 I0.613 J0.021
N8410 X63.646 Y34.49 I0.427 J0.441
N8415 X63.754 Y35.605 I-0.346 J0.596
N8420 X63.325 Y35.775 Z-3.5 I-0.454 J-0.519
N8425 G1 X63.183
N8430 X63.108 Y35.771
N8435 X62.97 Y35.713
N8440 X62.837 Y35.56
N8445 X62.754 Y35.375
N8450 X62.725 Y35.175
N8455 G3 X62.955 Y34.786 Z-3.3 I0.471 J0.016
N8460 X63.437 Y34.787 I0.24 J0.405
N8465 X63.588 Y35.565 I-0.273 J0.456
N8470 X63.183 Y35.775 Z-3.5 I-0.423 J-0.322
N8475 G1 X63.086
N8480 X63.041
N8485 X63.006 Y35.773
N8490 X62.953 Y35.761
N8495 X62.926 Y35.752
N8500 X62.899 Y35.741
N8505 X62.861 Y35.708
N8510 X62.832 Y35.666
N8515 X62.815 Y35.619
N8520 X62.81 Y35.568
N8525 X62.818 Y35.518
N8530 G3 X63.198 Y35.632 I0.19 J0.057
N8535 X63.006 Y35.773 I-0.19 J-0.057
N8540 G1 X62.97 Y35.767
N8545 X62.935 Y35.757
N8550 X62.899 Y35.741
N8555 X62.864 Y35.72
N8560 X62.829 Y35.691
N8565 X62.806 Y35.666
N8570 X62.765 Y35.604
N8575 X62.758 Y35.592
N8580 G3 X62.841 Y35.339 I0.199 J-0.074
N8585 X63.072 Y35.694 I0.116 J0.178
N8590 X62.806 Y35.666 I-0.116 J-0.178
N8595 G1 X62.788 Y35.641
N8600 X62.758 Y35.592
N8605 X62.74 Y35.549
N8610 X62.731 Y35.513
N8615 X62.726 Y35.478
N8620 X62.725 Y35.407
N8625 Y32.068
N8630 X62.732 Y31.918
N8635 X62.747 Y31.768
N8640 X62.772 Y31.621
N8645 X62.807 Y31.475
N8650 X62.851 Y31.331
N8655 X62.903 Y31.19
N8660 X62.962 Y31.053
N8665 X63.028 Y30.918
N8670 X63.1 Y30.786
N8675 X63.178 Y30.658
N8680 X63.262 Y30.534
N8685 X63.352 Y30.414
N8690 X63.448 Y30.298
N8695 X63.548 Y30.187
N8700 X63.653 Y30.08
N8705 X63.763 Y29.978
N8710 X63.878 Y29.881
N8715 X63.997 Y29.789
N8720 X64.119 Y29.703
N8725 X64.245 Y29.622
N8730 X64.375 Y29.547
N8735 X64.508 Y29.477
N8740 X64.644 Y29.414
N8745 X64.782 Y29.356
N8750 X64.923 Y29.305
N8755 X64.978 Y29.288
N8760 X65.113 Y29.253
N8765 X65.249 Y29.232
N8770 X65.388 Y29.225
N8775 G3 X65.677 Y29.535 Z-3.3 I-0.01 J0.3
N8780 G1 X65.67 Y29.588
N8785 X65.654 Y29.639
N8790 X65.63 Y29.687
N8795 X65.597 Y29.729
N8800 X65.557 Y29.772
N8805 X63.27 Y32.234
N8810 X63.245 Y32.261
N8815 X63.2 Y32.3
N8820 X63.149 Y32.33
N8825 X63.094 Y32.349
N8830 X63.035 Y32.357
N8835 G3 X62.725 Y32.068 Z-3.5 I-0.01 J-0.3
N8840 G1 Y31.607
N8845 X62.732 Y31.457
N8850 X62.754 Y31.309
N8855 X62.791 Y31.163
N8860 X62.839 Y31.021
N8865 X62.897 Y30.883
N8870 X62.963 Y30.748
N8875 X63.036 Y30.617
N8880 X63.116 Y30.491
N8885 X63.203 Y30.368
N8890 X63.295 Y30.249
N8895 X63.392 Y30.135
N8900 X63.494 Y30.025
N8905 X63.601 Y29.92
N8910 X63.713 Y29.82
N8915 X63.829 Y29.725
N8920 X63.949 Y29.635
N8925 X64.072 Y29.55
N8930 X64.199 Y29.47
N8935 X64.33 Y29.396
N8940 X64.371 Y29.375
N8945 X64.57 Y29.293
N8950 X64.779 Y29.242
N8955 X64.994 Y29.225
N8960 G3 X65.283 Y29.535 Z-3.3 I-0.01 J0.3
N8965 G1 X65.276 Y29.589
N8970 X65.26 Y29.64
N8975 X65.235 Y29.688
N8980 X65.201 Y29.731
N8985 X65.162 Y29.772
N8990 X63.27 Y31.774
N8995 X63.243 Y31.803
N9000 X63.199 Y31.841
N9005 X63.148 Y31.87
N9010 X63.093 Y31.889
N9015 X63.035 Y31.896
N9020 G3 X62.725 Y31.607 Z-3.5 I-0.01 J-0.3
N9025 G1 Y31.252
N9030 X62.732 Y31.102
N9035 X62.762 Y30.955
N9040 X62.807 Y30.812
N9045 X62.864 Y30.673
N9050 X62.932 Y30.539
N9055 X63.007 Y30.41
N9060 X63.09 Y30.285
N9065 X63.179 Y30.164
N9070 X63.274 Y30.048
N9075 X63.375 Y29.936
N9080 X63.48 Y29.83
N9085 X63.59 Y29.728
N9090 X63.704 Y29.63
N9095 X63.822 Y29.538
N9100 X63.945 Y29.451
N9105 X63.971 Y29.435
N9110 X64.199 Y29.32
N9115 X64.444 Y29.249
N9120 X64.698 Y29.225
N9125 G3 X64.988 Y29.535 Z-3.3 I-0.01 J0.3
N9130 G1 X64.981 Y29.59
N9135 X64.964 Y29.642
N9140 X64.938 Y29.691
N9145 X64.903 Y29.734
N9150 X64.866 Y29.772
N9155 X63.271 Y31.419
N9160 X63.24 Y31.45
N9165 X63.197 Y31.487
N9170 X63.147 Y31.516
N9175 X63.092 Y31.534
N9180 X63.035 Y31.541
N9185 G3 X62.725 Y31.252 Z-3.5 I-0.01 J-0.3
N9190 G1 Y30.968
N9195 X62.732 Y30.818
N9200 X62.764 Y30.672
N9205 X62.814 Y30.53
N9210 X62.877 Y30.394
N9215 X62.95 Y30.263
N9220 X63.031 Y30.137
N9225 X63.12 Y30.016
N9230 X63.214 Y29.899
N9235 X63.315 Y29.788
N9240 X63.42 Y29.681
N9245 X63.531 Y29.58
N9250 X63.647 Y29.485
N9255 X63.654 Y29.48
N9260 X63.899 Y29.34
N9265 X64.168 Y29.254
N9270 X64.449 Y29.225
N9275 G3 X64.738 Y29.535 Z-3.3 I-0.01 J0.3
N9280 G1 X64.731 Y29.59
N9285 X64.714 Y29.643
N9290 X64.687 Y29.692
N9295 X64.652 Y29.735
N9300 X64.616 Y29.771
N9305 X63.271 Y31.135
N9310 X63.238 Y31.168
N9315 X63.195 Y31.205
N9320 X63.145 Y31.232
N9325 X63.091 Y31.25
N9330 X63.035 Y31.258
N9335 G3 X62.725 Y30.968 Z-3.5 I-0.01 J-0.3
N9340 G1 Y30.685
N9345 X62.732 Y30.535
N9350 X62.772 Y30.39
N9355 X62.83 Y30.252
N9360 X62.899 Y30.119
N9365 X62.978 Y29.991
N9370 X63.065 Y29.869
N9375 X63.159 Y29.752
N9380 X63.259 Y29.641
N9385 X63.369 Y29.535
N9390 X63.632 Y29.366
N9395 X63.926 Y29.261
N9400 X64.236 Y29.225
N9405 G3 X64.525 Y29.535 Z-3.3 I-0.01 J0.3
N9410 G1 X64.518 Y29.592
N9415 X64.499 Y29.647
N9420 X64.471 Y29.698
N9425 X64.433 Y29.742
N9430 X64.403 Y29.77
N9435 X63.272 Y30.853
N9440 X63.232 Y30.891
N9445 X63.19 Y30.925
N9450 X63.141 Y30.951
N9455 X63.089 Y30.967
N9460 X63.035 Y30.974
N9465 G3 X62.725 Y30.685 Z-3.5 I-0.01 J-0.3
N9470 G1 Y30.444
N9475 X62.732 Y30.294
N9480 X62.775 Y30.15
N9485 X62.835 Y30.013
N9490 X62.908 Y29.882
N9495 X62.992 Y29.757
N9500 X63.084 Y29.639
N9505 X63.089 Y29.634
N9510 X63.297 Y29.46
N9515 X63.535 Y29.331
N9520 X63.794 Y29.252
N9525 X64.064 Y29.225
N9530 G3 X64.353 Y29.535 Z-3.3 I-0.01 J0.3
N9535 G1 X64.345 Y29.595
N9540 X64.325 Y29.653
N9545 X64.293 Y29.705
N9550 X64.252 Y29.75
N9555 X64.23 Y29.769
N9560 X63.274 Y30.614
N9565 X63.223 Y30.658
N9570 X63.167 Y30.698
N9575 X63.103 Y30.723
N9580 X63.035 Y30.733
N9585 G3 X62.725 Y30.444 Z-3.5 I-0.01 J-0.3
N9590 G1 Y30.229
N9595 X62.732 Y30.079
N9600 X62.775 Y29.936
N9605 X62.837 Y29.799
N9610 X62.991 Y29.604
N9615 X63.181 Y29.443
N9620 X63.399 Y29.324
N9625 X63.637 Y29.25
N9630 X63.884 Y29.225
N9635 G3 X64.174 Y29.535 Z-3.3 I-0.01 J0.3
N9640 G1 X64.165 Y29.598
N9645 X64.143 Y29.658
N9650 X64.109 Y29.712
N9655 X64.064 Y29.757
N9660 X64.05 Y29.769
N9665 X63.275 Y30.402
N9670 X63.215 Y30.451
N9675 X63.16 Y30.487
N9680 X63.099 Y30.509
N9685 X63.035 Y30.519
N9690 G3 X62.725 Y30.229 Z-3.5 I-0.01 J-0.3
N9695 G1 Y30.018
N9700 X62.732 Y29.869
N9705 X62.787 Y29.729
N9710 X62.961 Y29.519
N9715 X63.181 Y29.359
N9720 X63.435 Y29.259
N9725 X63.705 Y29.225
N9730 G3 X63.994 Y29.535 Z-3.3 I-0.01 J0.3
N9735 X63.87 Y29.768 I-0.3 J-0.01
N9740 G1 X63.279 Y30.195
N9745 X63.2 Y30.251
N9750 X63.149 Y30.281
N9755 X63.094 Y30.3
N9760 X63.035 Y30.308
N9765 G3 X62.725 Y30.018 Z-3.5 I-0.01 J-0.3
N9770 G1 Y29.834
N9775 X62.732 Y29.684
N9780 X62.807 Y29.554
N9785 X62.955 Y29.415
N9790 X63.129 Y29.311
N9795 X63.322 Y29.247
N9800 X63.524 Y29.225
N9805 G3 X63.945 Y29.409 Z-3.3 I-0.022 J0.626
N9810 X64.039 Y30.173 I-0.444 J0.442
N9815 X62.891 Y30.265 I-0.607 J-0.364
N9820 X62.725 Y29.834 Z-3.5 I0.541 J-0.456
N9825 G1 Y29.692
N9830 X62.729 Y29.617
N9835 X62.786 Y29.479
N9840 X62.945 Y29.342
N9845 X63.136 Y29.255
N9850 X63.344 Y29.225
N9855 G3 X63.736 Y29.451 Z-3.3 I-0.017 J0.482
N9860 X63.738 Y29.959 I-0.409 J0.256
N9865 X62.93 Y30.1 I-0.466 J-0.286
N9870 X62.725 Y29.692 Z-3.5 I0.342 J-0.427
N9875 G1 Y29.593
N9880 Y29.554
N9885 X62.726 Y29.522
N9890 X62.736 Y29.472
N9895 X62.746 Y29.44
N9900 X62.758 Y29.408
N9905 X62.79 Y29.37
N9910 X62.832 Y29.341
N9915 X62.879 Y29.323
N9920 X62.929 Y29.318
N9925 X62.979 Y29.325
N9930 G3 X62.872 Y29.71 I-0.054 J0.193
N9935 X62.726 Y29.522 I0.054 J-0.193
N9940 G1 X62.731 Y29.487
N9945 X62.74 Y29.451
N9950 X62.758 Y29.408
N9955 X62.774 Y29.381
N9960 X62.788 Y29.359
N9965 X62.806 Y29.334
N9970 X62.829 Y29.309
N9975 X62.864 Y29.28
N9980 X62.899 Y29.259
N9985 X62.935 Y29.243
N9990 X62.97 Y29.233
N9995 X63.006 Y29.227
N10000 X63.041 Y29.225
N10005 X66.444
N10010 X66.593 Y29.233
N10015 X66.743 Y29.248
N10020 X66.89 Y29.275
N10025 X67.036 Y29.312
N10030 X67.179 Y29.357
N10035 X67.319 Y29.409
N10040 X67.457 Y29.468
N10045 X67.592 Y29.534
N10050 X67.723 Y29.606
N10055 X67.851 Y29.685
N10060 X67.976 Y29.768
N10065 X68.096 Y29.858
N10070 X68.212 Y29.953
N10075 X68.325 Y30.052
N10080 X68.432 Y30.157
N10085 X68.535 Y30.266
N10090 X68.633 Y30.379
N10095 X68.726 Y30.497
N10100 X68.814 Y30.619
N10105 X68.896 Y30.744
N10110 X68.973 Y30.873
N10115 X69.045 Y31.005
N10120 X69.11 Y31.14
N10125 X69.17 Y31.277
N10130 X69.185 Y31.315
N10135 X69.235 Y31.474
N10140 X69.265 Y31.638
N10145 X69.275 Y31.804
N10150 G3 X68.965 Y32.093 Z-3.3 I-0.3 J-0.01
N10155 G1 X68.913 Y32.087
N10160 X68.863 Y32.072
N10165 X68.816 Y32.048
N10170 X68.775 Y32.017
N10175 X68.727 Y31.974
N10180 X66.278 Y29.77
N10185 X66.253 Y29.748
N10190 X66.213 Y29.703
N10195 X66.182 Y29.652
N10200 X66.162 Y29.595
N10205 X66.154 Y29.535
N10210 G3 X66.444 Y29.225 Z-3.5 I0.3 J-0.01
N10215 G1 X66.912
N10220 X67.062 Y29.233
N10225 X67.209 Y29.258
N10230 X67.354 Y29.296
N10235 X67.496 Y29.346
N10240 X67.634 Y29.405
N10245 X67.768 Y29.472
N10250 X67.899 Y29.545
N10255 X68.026 Y29.626
N10260 X68.148 Y29.712
N10265 X68.267 Y29.803
N10270 X68.382 Y29.9
N10275 X68.492 Y30.002
N10280 X68.597 Y30.109
N10285 X68.698 Y30.22
N10290 X68.794 Y30.335
N10295 X68.886 Y30.454
N10300 X68.972 Y30.577
N10305 X69.053 Y30.703
N10310 X69.089 Y30.766
N10315 X69.191 Y30.983
N10320 X69.254 Y31.215
N10325 X69.275 Y31.454
N10330 G3 X68.965 Y31.743 Z-3.3 I-0.3 J-0.01
N10335 G1 X68.912 Y31.737
N10340 X68.86 Y31.721
N10345 X68.813 Y31.696
N10350 X68.77 Y31.663
N10355 X68.728 Y31.623
N10360 X66.745 Y29.77
N10365 X66.717 Y29.744
N10370 X66.679 Y29.7
N10375 X66.649 Y29.649
N10380 X66.63 Y29.593
N10385 X66.622 Y29.535
N10390 G3 X66.912 Y29.225 Z-3.5 I0.3 J-0.01
N10395 G1 X67.23
N10400 X67.38 Y29.233
N10405 X67.528 Y29.259
N10410 X67.672 Y29.302
N10415 X67.811 Y29.357
N10420 X67.946 Y29.423
N10425 X68.076 Y29.497
N10430 X68.203 Y29.578
N10435 X68.325 Y29.665
N10440 X68.442 Y29.758
N10445 X68.555 Y29.857
N10450 X68.663 Y29.961
N10455 X68.767 Y30.069
N10460 X68.866 Y30.182
N10465 X68.961 Y30.298
N10470 X69.049 Y30.42
N10475 X69.055 Y30.429
N10480 X69.176 Y30.662
N10485 X69.25 Y30.912
N10490 X69.275 Y31.173
N10495 G3 X68.965 Y31.462 Z-3.3 I-0.3 J-0.01
N10500 G1 X68.911 Y31.455
N10505 X68.86 Y31.439
N10510 X68.812 Y31.414
N10515 X68.769 Y31.38
N10520 X68.728 Y31.341
N10525 X67.064 Y29.77
N10530 X67.035 Y29.743
N10535 X66.997 Y29.699
N10540 X66.967 Y29.648
N10545 X66.949 Y29.593
N10550 X66.941 Y29.535
N10555 G3 X67.23 Y29.225 Z-3.5 I0.3 J-0.01
N10560 G1 X67.549
N10565 X67.699 Y29.233
N10570 X67.845 Y29.267
N10575 X67.986 Y29.319
N10580 X68.122 Y29.382
N10585 X68.253 Y29.455
N10590 X68.379 Y29.536
N10595 X68.5 Y29.625
N10600 X68.617 Y29.719
N10605 X68.728 Y29.819
N10610 X68.836 Y29.924
N10615 X68.938 Y30.034
N10620 X68.973 Y30.078
N10625 X69.138 Y30.338
N10630 X69.24 Y30.629
N10635 X69.275 Y30.935
N10640 G3 X68.965 Y31.224 Z-3.3 I-0.3 J-0.01
N10645 G1 X68.91 Y31.217
N10650 X68.856 Y31.2
N10655 X68.807 Y31.173
N10660 X68.764 Y31.138
N10665 X68.729 Y31.103
N10670 X67.382 Y29.771
N10675 X67.349 Y29.738
N10680 X67.312 Y29.695
N10685 X67.285 Y29.645
N10690 X67.267 Y29.591
N10695 X67.26 Y29.535
N10700 G3 X67.549 Y29.225 Z-3.5 I0.3 J-0.01
N10705 G1 X67.797
N10710 X67.947 Y29.233
N10715 X68.093 Y29.267
N10720 X68.233 Y29.321
N10725 X68.368 Y29.388
N10730 X68.496 Y29.464
N10735 X68.62 Y29.549
N10740 X68.738 Y29.642
N10745 X68.851 Y29.741
N10750 X68.895 Y29.787
N10755 X69.057 Y29.991
N10760 X69.176 Y30.223
N10765 X69.25 Y30.473
N10770 X69.275 Y30.732
N10775 G3 X68.965 Y31.022 Z-3.3 I-0.3 J-0.01
N10780 G1 X68.908 Y31.014
N10785 X68.854 Y30.996
N10790 X68.804 Y30.968
N10795 X68.76 Y30.931
N10800 X68.729 Y30.899
N10805 X67.63 Y29.772
N10810 X67.593 Y29.734
N10815 X67.558 Y29.691
N10820 X67.532 Y29.643
N10825 X67.515 Y29.59
N10830 X67.508 Y29.535
N10835 G3 X67.797 Y29.225 Z-3.5 I0.3 J-0.01
N10840 G1 X68.046
N10845 X68.196 Y29.233
N10850 X68.341 Y29.271
N10855 X68.479 Y29.329
N10860 X68.611 Y29.4
N10865 X68.737 Y29.481
N10870 X68.764 Y29.503
N10875 X68.979 Y29.719
N10880 X69.141 Y29.977
N10885 X69.241 Y30.265
N10890 X69.275 Y30.568
N10895 G3 X68.965 Y30.858 Z-3.3 I-0.3 J-0.01
N10900 G1 X68.905 Y30.849
N10905 X68.848 Y30.829
N10910 X68.796 Y30.798
N10915 X68.751 Y30.757
N10920 X68.731 Y30.734
N10925 X67.876 Y29.773
N10930 X67.832 Y29.724
N10935 X67.793 Y29.668
N10940 X67.767 Y29.603
N10945 X67.757 Y29.535
N10950 G3 X68.046 Y29.225 Z-3.5 I0.3 J-0.01
N10955 G1 X68.287
N10960 X68.436 Y29.233
N10965 X68.58 Y29.277
N10970 X68.714 Y29.343
N10975 X68.948 Y29.545
N10980 X69.126 Y29.797
N10985 X69.237 Y30.085
N10990 X69.275 Y30.391
N10995 G3 X68.965 Y30.681 Z-3.3 I-0.3 J-0.01
N11000 X68.74 Y30.567 I0.01 J-0.3
N11005 G1 X68.732 Y30.556
N11010 X68.113 Y29.776
N11015 X68.062 Y29.711
N11020 X68.028 Y29.657
N11025 X68.006 Y29.598
N11030 X67.997 Y29.535
N11035 G3 X68.287 Y29.225 Z-3.5 I0.3 J-0.01
N11040 G1 X68.501
N11045 X68.651 Y29.233
N11050 X68.787 Y29.295
N11055 X68.913 Y29.377
N11060 X69.066 Y29.548
N11065 X69.18 Y29.747
N11070 X69.251 Y29.966
N11075 X69.275 Y30.194
N11080 G3 X68.965 Y30.483 Z-3.3 I-0.3 J-0.01
N11085 X68.73 Y30.356 I0.01 J-0.3
N11090 G1 X68.324 Y29.779
N11095 X68.266 Y29.697
N11100 X68.238 Y29.647
N11105 X68.219 Y29.592
N11110 X68.212 Y29.535
N11115 G3 X68.501 Y29.225 Z-3.5 I0.3 J-0.01
N11120 G1 X68.683
N11125 X68.833 Y29.233
N11130 X68.962 Y29.31
N11135 X69.131 Y29.507
N11140 X69.238 Y29.744
N11145 X69.275 Y30.002
N11150 G3 X69.087 Y30.421 Z-3.3 I-0.609 J-0.021
N11155 X68.353 Y30.503 I-0.421 J-0.44
N11160 X68.254 Y29.395 I0.354 J-0.59
N11165 X68.683 Y29.225 Z-3.5 I0.453 J0.518
N11170 G1 X68.825
N11175 X68.854
N11180 X68.897 Y29.226
N11185 X68.931 Y29.228
N11190 X69.06 Y29.305
N11195 X69.177 Y29.456
N11200 X69.25 Y29.632
N11205 X69.275 Y29.821
N11210 G3 X69.027 Y30.193 Z-3.3 I-0.425 J-0.015
N11215 X68.571 Y30.127 I-0.176 J-0.387
N11220 X68.493 Y29.436 I0.337 J-0.388
N11225 X68.897 Y29.226 Z-3.5 I0.415 J0.303
N11230 G1 X68.964
N11235 X68.995 Y29.227
N11240 X69.031 Y29.233
N11245 X69.082 Y29.252
N11250 X69.11 Y29.265
N11255 X69.137 Y29.28
N11260 X69.17 Y29.318
N11265 X69.193 Y29.363
N11270 X69.204 Y29.413
N11275 X69.201 Y29.463
N11280 X69.187 Y29.511
N11285 G3 X68.823 Y29.349 I-0.182 J-0.081
N11290 X69.031 Y29.233 I0.182 J0.081
N11295 G1 X69.066 Y29.243
N11300 X69.102 Y29.259
N11305 X69.137 Y29.28
N11310 X69.173 Y29.309
N11315 X69.204 Y29.345
N11320 X69.227 Y29.38
N11325 X69.246 Y29.416
N11330 X69.26 Y29.451
N11335 X69.269 Y29.487
N11340 X69.274 Y29.522
N11345 X69.275 Y29.593
N11350 Y33.216
N11355 X69.268 Y33.366
N11360 X69.25 Y33.515
N11365 X69.219 Y33.662
N11370 X69.178 Y33.806
N11375 X69.127 Y33.947
N11380 X69.069 Y34.085
N11385 X69.003 Y34.22
N11390 X68.931 Y34.351
N11395 X68.852 Y34.479
N11400 X68.767 Y34.603
N11405 X68.677 Y34.722
N11410 X68.581 Y34.838
N11415 X68.48 Y34.949
N11420 X68.374 Y35.055
N11425 X68.264 Y35.157
N11430 X68.15 Y35.254
N11435 X68.031 Y35.346
N11440 X67.908 Y35.432
N11445 X67.782 Y35.513
N11450 X67.652 Y35.588
N11455 X67.591 Y35.62
N11460 X67.39 Y35.705
N11465 X67.177 Y35.757
N11470 X66.958 Y35.775
N11475 G3 X66.669 Y35.465 Z-3.3 I0.01 J-0.3
N11480 G1 X66.675 Y35.413
N11485 X66.69 Y35.364
N11490 X66.714 Y35.317
N11495 X66.745 Y35.275
N11500 X66.789 Y35.227
N11505 X68.731 Y33.05
N11510 X68.751 Y33.027
N11515 X68.796 Y32.986
N11520 X68.848 Y32.955
N11525 X68.905 Y32.935
N11530 X68.965 Y32.927
N11535 G3 X69.275 Y33.216 Z-3.5 I0.01 J0.3
N11540 G1 Y33.606
N11545 X69.268 Y33.756
N11550 X69.245 Y33.905
N11555 X69.206 Y34.049
N11560 X69.155 Y34.19
N11565 X69.093 Y34.327
N11570 X69.024 Y34.46
N11575 X68.947 Y34.589
N11580 X68.864 Y34.714
N11585 X68.774 Y34.834
N11590 X68.679 Y34.95
N11595 X68.579 Y35.062
N11600 X68.474 Y35.169
N11605 X68.364 Y35.271
N11610 X68.25 Y35.368
N11615 X68.132 Y35.461
N11620 X68.01 Y35.548
N11625 X67.982 Y35.565
N11630 X67.754 Y35.68
N11635 X67.509 Y35.751
N11640 X67.254 Y35.775
N11645 G3 X66.965 Y35.465 Z-3.3 I0.01 J-0.3
N11650 G1 X66.971 Y35.412
N11655 X66.987 Y35.361
N11660 X67.011 Y35.314
N11665 X67.044 Y35.272
N11670 X67.085 Y35.227
N11675 X68.73 Y33.44
N11680 X68.754 Y33.414
N11685 X68.799 Y33.374
N11690 X68.85 Y33.344
N11695 X68.906 Y33.325
N11700 X68.965 Y33.317
N11705 G3 X69.275 Y33.606 Z-3.5 I0.01 J0.3
N11710 G1 Y33.925
N11715 X69.268 Y34.075
N11720 X69.24 Y34.222
N11725 X69.195 Y34.365
N11730 X69.137 Y34.504
N11735 X69.068 Y34.637
N11740 X68.991 Y34.766
N11745 X68.907 Y34.89
N11750 X68.816 Y35.01
N11755 X68.72 Y35.124
N11760 X68.618 Y35.234
N11765 X68.511 Y35.34
N11770 X68.4 Y35.44
N11775 X68.348 Y35.481
N11780 X68.09 Y35.641
N11785 X67.803 Y35.741
N11790 X67.501 Y35.775
N11795 G3 X67.212 Y35.465 Z-3.3 I0.01 J-0.3
N11800 G1 X67.218 Y35.411
N11805 X67.235 Y35.359
N11810 X67.26 Y35.311
N11815 X67.294 Y35.268
N11820 X67.333 Y35.228
N11825 X68.73 Y33.758
N11830 X68.758 Y33.729
N11835 X68.802 Y33.691
N11840 X68.852 Y33.662
N11845 X68.907 Y33.643
N11850 X68.965 Y33.636
N11855 G3 X69.275 Y33.925 Z-3.5 I0.01 J0.3
N11860 G1 Y34.209
N11865 X69.268 Y34.359
N11870 X69.236 Y34.505
N11875 X69.185 Y34.646
N11880 X69.121 Y34.782
N11885 X69.046 Y34.912
N11890 X68.964 Y35.037
N11895 X68.874 Y35.157
N11900 X68.778 Y35.273
N11905 X68.675 Y35.382
N11910 X68.629 Y35.423
N11915 X68.428 Y35.573
N11920 X68.204 Y35.684
N11925 X67.963 Y35.752
N11930 X67.713 Y35.775
N11935 G3 X67.424 Y35.465 Z-3.3 I0.01 J-0.3
N11940 G1 X67.431 Y35.409
N11945 X67.449 Y35.356
N11950 X67.476 Y35.307
N11955 X67.511 Y35.263
N11960 X67.546 Y35.229
N11965 X68.729 Y34.041
N11970 X68.763 Y34.007
N11975 X68.806 Y33.971
N11980 X68.855 Y33.944
N11985 X68.909 Y33.927
N11990 X68.965 Y33.919
N11995 G3 X69.275 Y34.209 Z-3.5 I0.01 J0.3
N12000 G1 Y34.487
N12005 X69.268 Y34.637
N12010 X69.227 Y34.781
N12015 X69.169 Y34.92
N12020 X69.099 Y35.052
N12025 X69.018 Y35.179
N12030 X68.928 Y35.299
N12035 X68.906 Y35.324
N12040 X68.693 Y35.515
N12045 X68.446 Y35.657
N12050 X68.175 Y35.745
N12055 X67.891 Y35.775
N12060 G3 X67.602 Y35.465 Z-3.3 I0.01 J-0.3
N12065 G1 X67.61 Y35.406
N12070 X67.629 Y35.349
N12075 X67.66 Y35.298
N12080 X67.7 Y35.253
N12085 X67.725 Y35.23
N12090 X68.727 Y34.318
N12095 X68.773 Y34.276
N12100 X68.815 Y34.244
N12105 X68.862 Y34.22
N12110 X68.913 Y34.204
N12115 X68.965 Y34.198
N12120 G3 X69.275 Y34.487 Z-3.5 I0.01 J0.3
N12125 G1 Y34.698
N12130 X69.268 Y34.848
N12135 X69.23 Y34.993
N12140 X69.171 Y35.131
N12145 X69.011 Y35.349
N12150 X68.809 Y35.529
N12155 X68.574 Y35.664
N12160 X68.316 Y35.747
N12165 X68.047 Y35.775
N12170 G3 X67.758 Y35.465 Z-3.3 I0.01 J-0.3
N12175 G1 X67.766 Y35.403
N12180 X67.788 Y35.344
N12185 X67.821 Y35.29
N12190 X67.865 Y35.245
N12195 X67.882 Y35.231
N12200 X68.725 Y34.526
N12205 X68.783 Y34.478
N12210 X68.838 Y34.442
N12215 X68.9 Y34.418
N12220 X68.965 Y34.409
N12225 G3 X69.275 Y34.698 Z-3.5 I0.01 J0.3
N12230 G1 Y34.918
N12235 X69.268 Y35.068
N12240 X69.217 Y35.209
N12245 X69.076 Y35.4
N12250 X68.899 Y35.559
N12255 X68.693 Y35.677
N12260 X68.467 Y35.75
N12265 X68.231 Y35.775
N12270 G3 X67.941 Y35.465 Z-3.3 I0.01 J-0.3
N12275 X68.062 Y35.235 I0.3 J0.01
N12280 G1 X68.066 Y35.232
N12285 X68.722 Y34.742
N12290 X68.796 Y34.688
N12295 X68.848 Y34.657
N12300 X68.905 Y34.636
N12305 X68.965 Y34.628
N12310 G3 X69.275 Y34.918 Z-3.5 I0.01 J0.3
N12315 G1 Y35.123
N12320 X69.268 Y35.273
N12325 X69.107 Y35.481
N12330 X68.898 Y35.641
N12335 X68.655 Y35.741
N12340 X68.395 Y35.775
N12345 G3 X68.105 Y35.465 Z-3.3 I0.01 J-0.3
N12350 X68.251 Y35.218 I0.3 J0.01
N12355 G1 X68.716 Y34.939
N12360 X68.821 Y34.876
N12365 X68.866 Y34.854
N12370 X68.915 Y34.84
N12375 X68.965 Y34.834
N12380 G3 X69.275 Y35.123 Z-3.5 I0.01 J0.3
N12385 G1 Y35.265
N12390 X69.271 Y35.34
N12395 X69.211 Y35.477
N12400 X69.035 Y35.638
N12405 X68.819 Y35.74
N12410 X68.583 Y35.775
N12415 G3 X68.178 Y35.565 Z-3.3 I0.019 J-0.531
N12420 X68.155 Y34.956 I0.423 J-0.321
N12425 X69.087 Y34.846 I0.511 J0.33
N12430 X69.275 Y35.265 Z-3.5 I-0.42 J0.44
N12435 G1 Y35.376
N12440 Y35.407
N12445 Y35.446
N12450 X69.273 Y35.473
N12455 X69.196 Y35.602
N12460 X69.064 Y35.696
N12465 X68.913 Y35.755
N12470 X68.752 Y35.775
N12475 G3 X68.406 Y35.502 Z-3.3 I0.013 J-0.371
N12480 X68.486 Y35.158 I0.358 J-0.098
N12485 X69.041 Y35.062 I0.338 J0.298
N12490 X69.275 Y35.446 Z-3.5 I-0.217 J0.395
N12495 G1 X69.274 Y35.478
N12500 X69.269 Y35.513
N12505 X69.26 Y35.549
N12510 X69.237 Y35.598
N12515 X69.221 Y35.627
N12520 X69.204 Y35.655
N12525 G3 X68.875 Y35.344 I-0.164 J-0.155
N12530 X69.217 Y35.359 I0.164 J0.155
N12535 G1 X69.243 Y35.401
N12540 X69.26 Y35.449
N12545 X69.266 Y35.499
N12550 X69.26 Y35.549
N12555 X69.246 Y35.584
N12560 X69.227 Y35.62
N12565 X69.204 Y35.655
N12570 X69.173 Y35.691
N12575 X69.137 Y35.72
N12580 X69.102 Y35.741
N12585 X69.066 Y35.757
N12590 X69.031 Y35.767
N12595 X68.995 Y35.773
N12600 X68.854 Y35.775
N12605 X66.561
N12610 G3 X66.271 Y35.476 I0.01 J-0.3
N12615 G1 Y35.475
N12620 X66.272 Y35.451
N12625 X66.29 Y35.401 Z-3.495
N12630 X66.307 Y35.352 Z-3.481
N12635 X66.323 Y35.307 Z-3.458
N12640 X66.359 Y35.274 Z-3.421
N12645 X66.39 Y35.247 Z-3.374
N12650 X66.412 Y35.227 Z-3.32
N12655 X66.426 Y35.215 Z-3.262
N12660 X66.431 Y35.21 Z-3.2
N12665 G0 Z5.
N12670 X67.217 Y33.425
N12675 Z-1.
N12680 G3 X64.648 Y33.211 Z-1.107 I-1.217 J-0.925 F1206.
N12685 X65.928 Y30.977 Z-1.214 I1.351 J-0.71
N12690 X67.408 Y33.08 Z-1.321 I0.071 J1.523
N12695 X64.879 Y33.53 Z-1.429 I-1.408 J-0.58
N12700 X65.541 Y31.051 Z-1.536 I1.12 J-1.029
N12705 X67.504 Y32.698 Z-1.643 I0.457 J1.448
N12710 X65.183 Y33.778 Z-1.75 I-1.504 J-0.199
N12715 X65.188 Y31.222 Z-1.857 I0.816 J-1.277
N12720 X67.499 Y32.307 Z-1.964 I0.81 J1.278
N12725 X65.54 Y33.939 Z-2.071 I-1.499 J0.193
N12730 X64.892 Y31.476 Z-2.179 I0.46 J-1.438
N12735 X67.394 Y31.931 Z-2.286 I1.106 J1.024
N12740 X65.924 Y34.003 Z-2.393 I-1.394 J0.568
N12745 X64.671 Y31.797 Z-2.5 I0.075 J-1.502
N12750 X67.197 Y31.596 Z-2.607 I1.327 J0.703
N12755 X66.311 Y33.966 Z-2.714 I-1.198 J0.903
N12760 X64.541 Y32.162 Z-2.821 I-0.311 J-1.465
N12765 X66.922 Y31.323 Z-2.929 I1.457 J0.338
N12770 X66.674 Y33.833 Z-3.036 I-0.923 J1.176
N12775 X64.508 Y32.547 Z-3.143 I-0.674 J-1.332
N12780 X66.587 Y31.131 Z-3.25 I1.49 J-0.046
N12785 X66.989 Y33.611 Z-3.357 I-0.588 J1.368
N12790 X64.576 Y32.926 Z-3.464 I-0.989 J-1.111
N12795 X66.216 Y31.032 Z-3.571 I1.423 J-0.425
N12800 X67.236 Y33.317 Z-3.679 I-0.217 J1.467
N12805 X64.737 Y33.274 Z-3.786 I-1.236 J-0.817
N12810 X65.833 Y31.031 Z-3.893 I1.262 J-0.773
N12815 X67.399 Y32.971 Z-4. I0.166 J1.468
N12820 X64.981 Y33.567 Z-4.107 I-1.398 J-0.471
N12825 X65.464 Y31.128 Z-4.214 I1.018 J-1.066
N12830 X67.467 Y32.596 Z-4.321 I0.534 J1.371
N12835 X65.292 Y33.788 Z-4.429 I-1.467 J-0.097
N12840 X65.134 Y31.316 Z-4.536 I0.708 J-1.286
N12845 X67.437 Y32.218 Z-4.643 I0.865 J1.184
N12850 X65.647 Y33.92 Z-4.75 I-1.437 J0.282
N12855 X64.863 Y31.581 Z-4.857 I0.353 J-1.419
N12860 X67.312 Y31.861 Z-4.964 I1.135 J0.919
N12865 X66.022 Y33.958 Z-5.071 I-1.312 J0.638
N12870 X64.671 Y31.905 Z-5.179 I-0.023 J-1.457
N12875 X67.1 Y31.55 Z-5.286 I1.328 J0.596
N12880 X66.394 Y33.898 Z-5.393 I-1.1 J0.949
N12885 X64.568 Y32.266 Z-5.5 I-0.394 J-1.397
N12890 X66.816 Y31.304 Z-5.607 I1.43 J0.234
N12895 X66.736 Y33.745 Z-5.714 I-0.817 J1.195
N12900 X64.561 Y32.64 Z-5.821 I-0.736 J-1.244
N12905 X66.48 Y31.14 Z-5.929 I1.437 J-0.139
N12910 X67.026 Y33.511 Z-6.036 I-0.481 J1.359
N12915 X64.65 Y33.002 Z-6.143 I-1.026 J-1.01
N12920 X66.115 Y31.068 Z-6.25 I1.348 J-0.501
N12925 X67.246 Y33.211 Z-6.357 I-0.117 J1.432
N12930 X64.829 Y33.328 Z-6.464 I-1.246 J-0.711
N12935 X65.745 Y31.091 Z-6.571 I1.17 J-0.827
N12940 X67.381 Y32.866 Z-6.679 I0.253 J1.408
N12945 X65.084 Y33.596 Z-6.786 I-1.381 J-0.366
N12950 X65.395 Y31.208 Z-6.893 I0.915 J-1.095
N12955 X67.423 Y32.5 Z-7. I0.603 J1.291
N12960 X64.573 I-1.425 J0.
N12965 X67.423 I1.425 J0.
N12970 G1 X67.436 Y32.765 F527.33
N12975 X67.44 Y32.915
N12980 X67.409 Y33.062
N12985 X67.357 Y33.203
N12990 X67.287 Y33.336
N12995 X67.203 Y33.46
N13000 X67.106 Y33.574
N13005 X66.997 Y33.678
N13010 X66.879 Y33.77
N13015 X66.752 Y33.85
N13020 X66.618 Y33.917
N13025 X66.478 Y33.971
N13030 X66.334 Y34.011
N13035 X66.186 Y34.036
N13040 X66.036 Y34.047
N13045 X65.886 Y34.044
N13050 X65.737 Y34.026
N13055 X65.591 Y33.993
N13060 X65.448 Y33.947
N13065 X65.311 Y33.887
N13070 X65.18 Y33.814
N13075 X65.056 Y33.728
N13080 X64.942 Y33.632
N13085 X64.837 Y33.524
N13090 X64.744 Y33.407
N13095 X64.662 Y33.281
N13100 X64.592 Y33.148
N13105 X64.536 Y33.009
N13110 X64.494 Y32.865
N13115 X64.465 Y32.718
N13120 X64.451 Y32.569
N13125 X64.452 Y32.419
N13130 X64.467 Y32.269
N13135 X64.497 Y32.122
N13140 X64.54 Y31.979
N13145 X64.597 Y31.84
N13150 X64.668 Y31.708
N13155 X64.751 Y31.583
N13160 X64.845 Y31.466
N13165 X64.951 Y31.359
N13170 X65.066 Y31.263
N13175 X65.19 Y31.179
N13180 X65.321 Y31.107
N13185 X65.459 Y31.048
N13190 X65.602 Y31.003
N13195 X65.749 Y30.971
N13200 X65.898 Y30.954
N13205 X66.048 Y30.952
N13210 X66.197 Y30.964
N13215 X66.345 Y30.99
N13220 X66.49 Y31.031
N13225 X66.629 Y31.086
N13230 X66.763 Y31.153
N13235 X66.89 Y31.234
N13240 X67.008 Y31.326
N13245 X67.117 Y31.429
N13250 X67.215 Y31.542
N13255 X67.302 Y31.664
N13260 X67.377 Y31.795
N13265 X67.439 Y31.931
N13270 X67.487 Y32.073
N13275 X67.522 Y32.219
N13280 X67.549 Y32.367
N13285 X67.57 Y32.515
N13290 X67.58 Y32.665
N13295 X67.575 Y32.815
N13300 X67.554 Y32.963
N13305 X67.517 Y33.109
N13310 X67.463 Y33.249
N13315 X67.395 Y33.383
N13320 X67.314 Y33.509
N13325 X67.221 Y33.626
N13330 X67.116 Y33.734
N13335 X67.002 Y33.831
N13340 X66.879 Y33.917
N13345 X66.749 Y33.992
N13350 X66.613 Y34.054
N13355 X66.471 Y34.104
N13360 X66.326 Y34.14
N13365 X66.178 Y34.164
N13370 X66.028 Y34.173
N13375 X65.878 Y34.169
N13380 X65.729 Y34.152
N13385 X65.582 Y34.121
N13390 X65.439 Y34.077
N13395 X65.3 Y34.02
N13400 X65.167 Y33.951
N13405 X65.04 Y33.871
N13410 X64.921 Y33.78
N13415 X64.81 Y33.678
N13420 X64.709 Y33.567
N13425 X64.619 Y33.448
N13430 X64.539 Y33.321
N13435 X64.471 Y33.187
N13440 X64.416 Y33.048
N13445 X64.373 Y32.904
N13450 X64.344 Y32.757
N13455 X64.328 Y32.607
N13460 X64.325 Y32.458
N13465 X64.336 Y32.308
N13470 X64.36 Y32.16
N13475 X64.397 Y32.014
N13480 X64.447 Y31.873
N13485 X64.509 Y31.736
N13490 X64.583 Y31.606
N13495 X64.668 Y31.483
N13500 X64.764 Y31.368
N13505 X64.871 Y31.262
N13510 X64.986 Y31.166
N13515 X65.11 Y31.081
N13520 X65.24 Y31.007
N13525 X65.377 Y30.945
N13530 X65.519 Y30.896
N13535 X65.664 Y30.86
N13540 X65.812 Y30.837
N13545 X65.962 Y30.827
N13550 X66.112 Y30.83
N13555 X66.261 Y30.846
N13560 X66.408 Y30.876
N13565 X66.552 Y30.919
N13570 X66.691 Y30.975
N13575 X66.825 Y31.043
N13580 X66.952 Y31.123
N13585 X67.071 Y31.214
N13590 X67.181 Y31.316
N13595 X67.282 Y31.426
N13600 X67.373 Y31.546
N13605 X67.453 Y31.673
N13610 X67.521 Y31.806
N13615 X67.578 Y31.945
N13620 X67.625 Y32.088
N13625 X67.663 Y32.233
N13630 X67.69 Y32.38
N13635 X67.707 Y32.529
N13640 X67.712 Y32.679
N13645 X67.702 Y32.829
N13650 X67.679 Y32.977
N13655 X67.641 Y33.122
N13660 X67.59 Y33.263
N13665 X67.526 Y33.399
N13670 X67.45 Y33.528
N13675 X67.362 Y33.65
N13680 X67.263 Y33.763
N13685 X67.155 Y33.867
N13690 X67.039 Y33.961
N13695 X66.914 Y34.045
N13700 X66.783 Y34.117
N13705 X66.646 Y34.178
N13710 X66.504 Y34.228
N13715 X66.359 Y34.264
N13720 X66.211 Y34.289
N13725 X66.061 Y34.3
N13730 X65.911 Y34.299
N13735 X65.762 Y34.286
N13740 X65.614 Y34.26
N13745 X65.469 Y34.221
N13750 X65.328 Y34.171
N13755 X65.191 Y34.11
N13760 X65.06 Y34.037
N13765 X64.935 Y33.954
N13770 X64.817 Y33.861
N13775 X64.708 Y33.758
N13780 X64.607 Y33.647
N13785 X64.517 Y33.527
N13790 X64.436 Y33.401
N13795 X64.367 Y33.268
N13800 X64.309 Y33.129
N13805 X64.263 Y32.986
N13810 X64.229 Y32.84
N13815 X64.207 Y32.692
N13820 X64.197 Y32.542
N13825 X64.2 Y32.392
N13830 X64.215 Y32.243
N13835 X64.242 Y32.096
N13840 X64.282 Y31.951
N13845 X64.333 Y31.81
N13850 X64.396 Y31.674
N13855 X64.47 Y31.543
N13860 X64.554 Y31.419
N13865 X64.649 Y31.303
N13870 X64.754 Y31.195
N13875 X64.867 Y31.097
N13880 X64.987 Y31.008
N13885 X65.115 Y30.929
N13890 X65.249 Y30.861
N13895 X65.388 Y30.805
N13900 X65.531 Y30.76
N13905 X65.677 Y30.727
N13910 X65.826 Y30.706
N13915 X65.975 Y30.697
N13920 X66.125 Y30.701
N13925 X66.274 Y30.718
N13930 X66.422 Y30.747
N13935 X66.566 Y30.788
N13940 X66.706 Y30.841
N13945 X66.841 Y30.906
N13950 X66.971 Y30.982
N13955 X67.093 Y31.069
N13960 X67.208 Y31.165
N13965 X67.315 Y31.27
N13970 X67.413 Y31.384
N13975 X67.501 Y31.505
N13980 X67.579 Y31.633
N13985 X67.647 Y31.767
N13990 X67.705 Y31.905
N13995 X67.754 Y32.047
N14000 X67.793 Y32.192
N14005 X67.822 Y32.339
N14010 X67.839 Y32.488
N14015 X67.844 Y32.638
N14020 X67.837 Y32.788
N14025 X67.817 Y32.937
N14030 X67.785 Y33.083
N14035 X67.741 Y33.226
N14040 X67.684 Y33.365
N14045 X67.616 Y33.499
N14050 X67.537 Y33.627
N14055 X67.448 Y33.747
N14060 X67.349 Y33.86
N14065 X67.241 Y33.964
N14070 X67.125 Y34.059
N14075 X67.001 Y34.144
N14080 X66.871 Y34.218
N14085 X66.735 Y34.282
N14090 X66.595 Y34.335
N14095 X66.451 Y34.377
N14100 X66.304 Y34.406
N14105 X66.155 Y34.425
N14110 X66.005 Y34.431
N14115 X65.855 Y34.426
N14120 X65.706 Y34.409
N14125 X65.559 Y34.381
N14130 X65.414 Y34.342
N14135 X65.273 Y34.291
N14140 X65.136 Y34.23
N14145 X65.004 Y34.158
N14150 X64.878 Y34.076
N14155 X64.76 Y33.985
N14160 X64.648 Y33.884
N14165 X64.545 Y33.775
N14170 X64.45 Y33.659
N14175 X64.365 Y33.535
N14180 X64.29 Y33.405
N14185 X64.225 Y33.27
N14190 X64.171 Y33.13
N14195 X64.128 Y32.987
N14200 X64.095 Y32.84
N14205 X64.075 Y32.692
N14210 X64.065 Y32.542
N14215 X64.068 Y32.392
N14220 X64.082 Y32.243
N14225 X64.107 Y32.095
N14230 X64.144 Y31.95
N14235 X64.192 Y31.807
N14240 X64.252 Y31.67
N14245 X64.321 Y31.537
N14250 X64.401 Y31.41
N14255 X64.49 Y31.289
N14260 X64.589 Y31.176
N14265 X64.696 Y31.071
N14270 X64.81 Y30.974
N14275 X64.932 Y30.887
N14280 X65.06 Y30.809
N14285 X65.194 Y30.741
N14290 X65.333 Y30.684
N14295 X65.476 Y30.638
N14300 X65.621 Y30.603
N14305 X65.77 Y30.579
N14310 X65.919 Y30.567
N14315 X66.069
N14320 X66.219 Y30.578
N14325 X66.367 Y30.601
N14330 X66.513 Y30.636
N14335 X66.656 Y30.681
N14340 X66.795 Y30.738
N14345 X66.929 Y30.805
N14350 X67.058 Y30.882
N14355 X67.18 Y30.969
N14360 X67.295 Y31.065
N14365 X67.402 Y31.17
N14370 X67.501 Y31.283
N14375 X67.591 Y31.403
N14380 X67.673 Y31.529
N14385 X67.745 Y31.66
N14390 X67.808 Y31.796
N14395 X67.862 Y31.936
N14400 X67.906 Y32.08
N14405 X67.939 Y32.226
N14410 X67.963 Y32.374
N14415 X67.975 Y32.524
N14420 X67.976 Y32.674
N14425 X67.967 Y32.823
N14430 X67.945 Y32.972
N14435 X67.912 Y33.118
N14440 X67.868 Y33.261
N14445 X67.813 Y33.401
N14450 X67.746 Y33.535
N14455 X67.67 Y33.664
N14460 X67.583 Y33.787
N14465 X67.488 Y33.902
N14470 X67.384 Y34.01
N14475 X67.271 Y34.11
N14480 X67.152 Y34.201
N14485 X67.026 Y34.282
N14490 X66.894 Y34.354
N14495 X66.758 Y34.416
N14500 X66.617 Y34.467
N14505 X66.472 Y34.508
N14510 X66.325 Y34.538
N14515 X66.177 Y34.557
N14520 X66.027 Y34.565
N14525 X65.877 Y34.562
N14530 X65.728 Y34.548
N14535 X65.58 Y34.523
N14540 X65.434 Y34.487
N14545 X65.291 Y34.441
N14550 X65.152 Y34.385
N14555 X65.018 Y34.319
N14560 X64.888 Y34.243
N14565 X64.765 Y34.158
N14570 X64.647 Y34.064
N14575 X64.537 Y33.962
N14580 X64.435 Y33.853
N14585 X64.341 Y33.736
N14590 X64.256 Y33.613
N14595 X64.179 Y33.483
N14600 X64.113 Y33.349
N14605 X64.056 Y33.21
N14610 X64.01 Y33.067
N14615 X63.974 Y32.922
N14620 X63.949 Y32.774
N14625 X63.935 Y32.624
N14630 X63.931 Y32.474
N14635 X63.939 Y32.325
N14640 X63.957 Y32.176
N14645 X63.985 Y32.028
N14650 X64.025 Y31.884
N14655 X64.074 Y31.742
N14660 X64.134 Y31.605
N14665 X64.204 Y31.472
N14670 X64.283 Y31.344
N14675 X64.371 Y31.223
N14680 X64.468 Y31.108
N14685 X64.573 Y31.001
N14690 X64.686 Y30.902
N14695 X64.805 Y30.811
N14700 X64.931 Y30.729
N14705 X65.062 Y30.657
N14710 X65.198 Y30.594
N14715 X65.338 Y30.541
N14720 X65.482 Y30.498
N14725 X65.629 Y30.466
N14730 X65.777 Y30.444
N14735 X65.927 Y30.433
N14740 X66.077
N14745 X66.226 Y30.444
N14750 X66.375 Y30.466
N14755 X66.521 Y30.499
N14760 X66.665 Y30.542
N14765 X66.805 Y30.595
N14770 X66.941 Y30.659
N14775 X67.071 Y30.732
N14780 X67.197 Y30.815
N14785 X67.316 Y30.906
N14790 X67.428 Y31.006
N14795 X67.532 Y31.114
N14800 X67.629 Y31.228
N14805 X67.718 Y31.349
N14810 X67.799 Y31.475
N14815 X67.871 Y31.607
N14820 X67.934 Y31.743
N14825 X67.989 Y31.882
N14830 X68.034 Y32.026
N14835 X68.069 Y32.171
N14840 X68.094 Y32.319
N14845 X68.109 Y32.469
N14850 X68.114 Y32.618
N14855 X68.108 Y32.768
N14860 X68.091 Y32.917
N14865 X68.063 Y33.065
N14870 X68.025 Y33.21
N14875 X67.977 Y33.352
N14880 X67.918 Y33.49
N14885 X67.85 Y33.624
N14890 X67.772 Y33.752
N14895 X67.685 Y33.874
N14900 X67.59 Y33.99
N14905 X67.486 Y34.098
N14910 X67.375 Y34.199
N14915 X67.257 Y34.292
N14920 X67.133 Y34.375
N14925 X67.003 Y34.45
N14930 X66.868 Y34.516
N14935 X66.729 Y34.572
N14940 X66.586 Y34.618
N14945 X66.44 Y34.654
N14950 X66.293 Y34.68
N14955 X66.143 Y34.695
N14960 X65.993 Y34.701
N14965 X65.844 Y34.696
N14970 X65.694 Y34.68
N14975 X65.546 Y34.655
N14980 X65.401 Y34.62
N14985 X65.258 Y34.574
N14990 X65.118 Y34.519
N14995 X64.983 Y34.455
N15000 X64.852 Y34.382
N15005 X64.726 Y34.299
N15010 X64.607 Y34.209
N15015 X64.494 Y34.11
N15020 X64.388 Y34.004
N15025 X64.289 Y33.891
N15030 X64.199 Y33.771
N15035 X64.116 Y33.646
N15040 X64.043 Y33.515
N15045 X63.978 Y33.38
N15050 X63.923 Y33.24
N15055 X63.877 Y33.098
N15060 X63.841 Y32.952
N15065 X63.815 Y32.804
N15070 X63.8 Y32.655
N15075 X63.794 Y32.505
N15080 X63.799 Y32.355
N15085 X63.814 Y32.206
N15090 X63.839 Y32.058
N15095 X63.874 Y31.912
N15100 X63.919 Y31.769
N15105 X63.973 Y31.629
N15110 X64.037 Y31.494
N15115 X64.11 Y31.363
N15120 X64.192 Y31.237
N15125 X64.282 Y31.117
N15130 X64.38 Y31.003
N15135 X64.486 Y30.897
N15140 X64.598 Y30.797
N15145 X64.717 Y30.706
N15150 X64.842 Y30.623
N15155 X64.972 Y30.549
N15160 X65.107 Y30.483
N15165 X65.247 Y30.428
N15170 X65.389 Y30.381
N15175 X65.535 Y30.345
N15180 X65.682 Y30.318
N15185 X65.831 Y30.302
N15190 X65.981 Y30.296
N15195 X66.131 Y30.3
N15200 X66.281 Y30.314
N15205 X66.429 Y30.338
N15210 X66.575 Y30.372
N15215 X66.718 Y30.416
N15220 X66.858 Y30.47
N15225 X66.994 Y30.533
N15230 X67.126 Y30.605
N15235 X67.252 Y30.686
N15240 X67.372 Y30.776
N15245 X67.486 Y30.873
N15250 X67.594 Y30.978
N15255 X67.694 Y31.089
N15260 X67.787 Y31.207
N15265 X67.873 Y31.33
N15270 X67.95 Y31.459
N15275 X68.019 Y31.592
N15280 X68.08 Y31.729
N15285 X68.132 Y31.87
N15290 X68.174 Y32.014
N15295 X68.208 Y32.16
N15300 X68.232 Y32.308
N15305 X68.247 Y32.457
N15310 X68.252 Y32.607
N15315 X68.247 Y32.757
N15320 X68.232 Y32.906
N15325 X68.206 Y33.054
N15330 X68.171 Y33.2
N15335 X68.126 Y33.343
N15340 X68.072 Y33.483
N15345 X68.008 Y33.618
N15350 X67.935 Y33.75
N15355 X67.853 Y33.875
N15360 X67.763 Y33.995
N15365 X67.666 Y34.109
N15370 X67.56 Y34.216
N15375 X67.448 Y34.316
N15380 X67.33 Y34.408
N15385 X67.205 Y34.492
N15390 X67.076 Y34.567
N15395 X66.941 Y34.634
N15400 X66.803 Y34.691
N15405 X66.661 Y34.74
N15410 X66.516 Y34.779
N15415 X66.369 Y34.808
N15420 X66.22 Y34.828
N15425 X66.071 Y34.838
N15430 X65.921
N15435 X65.771 Y34.828
N15440 X65.622 Y34.809
N15445 X65.475 Y34.781
N15450 X65.33 Y34.743
N15455 X65.187 Y34.696
N15460 X65.048 Y34.64
N15465 X64.913 Y34.575
N15470 X64.782 Y34.501
N15475 X64.656 Y34.42
N15480 X64.536 Y34.33
N15485 X64.422 Y34.233
N15490 X64.314 Y34.128
N15495 X64.213 Y34.017
N15500 X64.12 Y33.9
N15505 X64.034 Y33.777
N15510 X63.957 Y33.648
N15515 X63.887 Y33.515
N15520 X63.827 Y33.378
N15525 X63.775 Y33.237
N15530 X63.733 Y33.093
N15535 X63.699 Y32.947
N15540 X63.675 Y32.799
N15545 X63.661 Y32.65
N15550 X63.656 Y32.5
N15555 X63.66 Y32.35
N15560 X63.674 Y32.201
N15565 X63.698 Y32.053
N15570 X63.731 Y31.906
N15575 X63.774 Y31.762
N15580 X63.826 Y31.622
N15585 X63.886 Y31.484
N15590 X63.956 Y31.351
N15595 X64.034 Y31.223
N15600 X64.119 Y31.1
N15605 X64.213 Y30.983
N15610 X64.314 Y30.872
N15615 X64.421 Y30.767
N15620 X64.535 Y30.67
N15625 X64.656 Y30.58
N15630 X64.781 Y30.498
N15635 X64.912 Y30.424
N15640 X65.047 Y30.359
N15645 X65.186 Y30.302
N15650 X65.328 Y30.254
N15655 X65.473 Y30.216
N15660 X65.62 Y30.187
N15665 X65.769 Y30.168
N15670 X65.918 Y30.158
N15675 X66.068
N15680 X66.218 Y30.167
N15685 X66.367 Y30.186
N15690 X66.514 Y30.214
N15695 X66.659 Y30.252
N15700 X66.802 Y30.299
N15705 X66.941 Y30.355
N15710 X67.076 Y30.42
N15715 X67.207 Y30.493
N15720 X67.333 Y30.574
N15725 X67.454 Y30.663
N15730 X67.569 Y30.76
N15735 X67.677 Y30.863
N15740 X67.78 Y30.973
N15745 X67.875 Y31.089
N15750 X67.963 Y31.211
N15755 X68.043 Y31.337
N15760 X68.116 Y31.468
N15765 X68.18 Y31.604
N15770 X68.237 Y31.743
N15775 X68.285 Y31.885
N15780 X68.324 Y32.03
N15785 X68.355 Y32.177
N15790 X68.376 Y32.325
N15795 X68.389 Y32.474
N15800 X68.392 Y32.624
N15805 X68.386 Y32.774
N15810 X68.37 Y32.923
N15815 X68.345 Y33.071
N15820 X68.311 Y33.217
N15825 X68.268 Y33.361
N15830 X68.215 Y33.502
N15835 X68.154 Y33.638
N15840 X68.084 Y33.771
N15845 X68.006 Y33.899
N15850 X67.919 Y34.022
N15855 X67.825 Y34.139
N15860 X67.724 Y34.25
N15865 X67.616 Y34.354
N15870 X67.502 Y34.451
N15875 X67.382 Y34.541
N15880 X67.257 Y34.623
N15885 X67.127 Y34.698
N15890 X66.992 Y34.764
N15895 X66.853 Y34.821
N15900 X66.712 Y34.87
N15905 X66.567 Y34.91
N15910 X66.42 Y34.942
N15915 X66.272 Y34.963
N15920 X66.122 Y34.976
N15925 X65.973 Y34.98
N15930 X65.823 Y34.974
N15935 X65.673 Y34.959
N15940 X65.525 Y34.936
N15945 X65.379 Y34.903
N15950 X65.235 Y34.861
N15955 X65.093 Y34.811
N15960 X64.955 Y34.752
N15965 X64.821 Y34.685
N15970 X64.691 Y34.61
N15975 X64.566 Y34.528
N15980 X64.446 Y34.438
N15985 X64.332 Y34.341
N15990 X64.223 Y34.237
N15995 X64.122 Y34.127
N16000 X64.027 Y34.01
N16005 X63.939 Y33.889
N16010 X63.859 Y33.762
N16015 X63.787 Y33.63
N16020 X63.723 Y33.495
N16025 X63.667 Y33.356
N16030 X63.619 Y33.213
N16035 X63.581 Y33.068
N16040 X63.551 Y32.921
N16045 X63.53 Y32.773
N16050 X63.518 Y32.623
N16055 X63.515 Y32.473
N16060 X63.521 Y32.323
N16065 X63.536 Y32.174
N16070 X63.56 Y32.026
N16075 X63.593 Y31.88
N16080 X63.635 Y31.736
N16085 X63.685 Y31.594
N16090 X63.744 Y31.456
N16095 X63.811 Y31.322
N16100 X63.886 Y31.192
N16105 X63.969 Y31.067
N16110 X64.059 Y30.947
N16115 X64.156 Y30.833
N16120 X64.26 Y30.725
N16125 X64.371 Y30.624
N16130 X64.487 Y30.529
N16135 X64.609 Y30.441
N16140 X64.735 Y30.361
N16145 X64.867 Y30.289
N16150 X65.002 Y30.225
N16155 X65.141 Y30.168
N16160 X65.284 Y30.121
N16165 X65.429 Y30.082
N16170 X65.575 Y30.052
N16175 X65.724 Y30.03
N16180 X65.873 Y30.018
N16185 X66.023 Y30.015
N16190 X66.173 Y30.021
N16195 X66.323 Y30.037
N16200 X66.471 Y30.061
N16205 X66.617 Y30.094
N16210 X66.761 Y30.136
N16215 X66.902 Y30.186
N16220 X67.04 Y30.245
N16225 X67.174 Y30.312
N16230 X67.304 Y30.387
N16235 X67.43 Y30.469
N16240 X67.55 Y30.559
N16245 X67.665 Y30.656
N16250 X67.774 Y30.759
N16255 X67.876 Y30.868
N16260 X67.973 Y30.983
N16265 X68.062 Y31.104
N16270 X68.145 Y31.229
N16275 X68.22 Y31.359
N16280 X68.287 Y31.493
N16285 X68.347 Y31.63
N16290 X68.399 Y31.771
N16295 X68.443 Y31.914
N16300 X68.478 Y32.06
N16305 X68.505 Y32.208
N16310 X68.523 Y32.357
N16315 X68.533 Y32.506
N16320 Y32.656
N16325 X68.525 Y32.806
N16330 X68.509 Y32.955
N16335 X68.483 Y33.103
N16340 X68.449 Y33.249
N16345 X68.406 Y33.393
N16350 X68.355 Y33.534
N16355 X68.295 Y33.671
N16360 X68.227 Y33.805
N16365 X68.151 Y33.934
N16370 X68.068 Y34.059
N16375 X67.977 Y34.178
N16380 X67.879 Y34.292
N16385 X67.775 Y34.4
N16390 X67.664 Y34.501
N16395 X67.548 Y34.596
N16400 X67.426 Y34.683
N16405 X67.299 Y34.763
N16410 X67.168 Y34.836
N16415 X67.032 Y34.901
N16420 X66.894 Y34.958
N16425 X66.752 Y35.006
N16430 X66.607 Y35.047
N16435 X66.461 Y35.079
N16440 X66.313 Y35.102
N16445 X66.163 Y35.116
N16450 X66.013 Y35.122
N16455 X65.863 Y35.12
N16460 X65.714 Y35.108
N16465 X65.565 Y35.088
N16470 X65.418 Y35.059
N16475 X65.273 Y35.022
N16480 X65.13 Y34.977
N16485 X64.99 Y34.923
N16490 X64.853 Y34.862
N16495 X64.72 Y34.793
N16500 X64.591 Y34.716
N16505 X64.466 Y34.632
N16510 X64.347 Y34.541
N16515 X64.233 Y34.444
N16520 X64.125 Y34.34
N16525 X64.022 Y34.23
N16530 X63.927 Y34.115
N16535 X63.838 Y33.994
N16540 X63.756 Y33.868
N16545 X63.681 Y33.738
N16550 X63.614 Y33.604
N16555 X63.555 Y33.466
N16560 X63.504 Y33.325
N16565 X63.461 Y33.181
N16570 X63.427 Y33.035
N16575 X63.4 Y32.888
N16580 X63.383 Y32.739
N16585 X63.373 Y32.589
N16590 Y32.439
N16595 X63.38 Y32.289
N16600 X63.397 Y32.14
N16605 X63.421 Y31.992
N16610 X63.454 Y31.846
N16615 X63.496 Y31.702
N16620 X63.545 Y31.56
N16625 X63.602 Y31.421
N16630 X63.668 Y31.286
N16635 X63.741 Y31.155
N16640 X63.821 Y31.029
N16645 X63.909 Y30.907
N16650 X64.003 Y30.79
N16655 X64.104 Y30.679
N16660 X64.211 Y30.574
N16665 X64.324 Y30.475
N16670 X64.442 Y30.383
N16675 X64.566 Y30.298
N16680 X64.694 Y30.22
N16685 X64.826 Y30.149
N16690 X64.962 Y30.086
N16695 X65.102 Y30.031
N16700 X65.244 Y29.984
N16705 X65.389 Y29.944
N16710 X65.535 Y29.914
N16715 X65.684 Y29.891
N16720 X65.833 Y29.877
N16725 X65.983 Y29.872
N16730 X66.133 Y29.875
N16735 X66.283 Y29.887
N16740 X66.431 Y29.908
N16745 X66.578 Y29.937
N16750 X66.724 Y29.974
N16755 X66.866 Y30.02
N16760 X67.006 Y30.074
N16765 X67.143 Y30.135
N16770 X67.276 Y30.205
N16775 X67.405 Y30.281
N16780 X67.53 Y30.365
N16785 X67.65 Y30.455
N16790 X67.764 Y30.552
N16795 X67.873 Y30.655
N16800 X67.976 Y30.764
N16805 X68.073 Y30.878
N16810 X68.164 Y30.998
N16815 X68.248 Y31.122
N16820 X68.326 Y31.25
N16825 X68.396 Y31.383
N16830 X68.458 Y31.519
N16835 X68.514 Y31.659
N16840 X68.561 Y31.801
N16845 X68.601 Y31.946
N16850 X68.632 Y32.092
N16855 X68.656 Y32.24
N16860 X68.671 Y32.39
N16865 X68.678 Y32.54
N16870 X68.677 Y32.69
N16875 X68.667 Y32.839
N16880 X68.649 Y32.988
N16885 X68.623 Y33.136
N16890 X68.589 Y33.282
N16895 X68.546 Y33.426
N16900 X68.496 Y33.567
N16905 X68.437 Y33.705
N16910 X68.371 Y33.84
N16915 X68.298 Y33.97
N16920 X68.217 Y34.097
N16925 X68.129 Y34.218
N16930 X68.034 Y34.334
N16935 X67.933 Y34.445
N16940 X67.825 Y34.55
N16945 X67.712 Y34.649
N16950 X67.594 Y34.741
N16955 X67.471 Y34.826
N16960 X67.343 Y34.904
N16965 X67.211 Y34.976
N16970 X67.075 Y35.039
N16975 X66.936 Y35.096
N16980 X66.794 Y35.144
N16985 X66.649 Y35.185
N16990 X66.503 Y35.217
N16995 X66.355 Y35.242
N17000 X66.206 Y35.258
N17005 X66.056 Y35.266
N17010 X65.906
N17015 X65.756 Y35.258
N17020 X65.607 Y35.241
N17025 X65.459 Y35.216
N17030 X65.313 Y35.183
N17035 X65.169 Y35.143
N17040 X65.027 Y35.094
N17045 X64.888 Y35.038
N17050 X64.752 Y34.974
N17055 X64.62 Y34.903
N17060 X64.492 Y34.825
N17065 X64.368 Y34.74
N17070 X64.249 Y34.648
N17075 X64.135 Y34.551
N17080 X64.027 Y34.447
N17085 X63.924 Y34.338
N17090 X63.828 Y34.223
N17095 X63.737 Y34.103
N17100 X63.654 Y33.979
N17105 X63.577 Y33.85
N17110 X63.507 Y33.717
N17115 X63.445 Y33.58
N17120 X63.39 Y33.441
N17125 X63.343 Y33.298
N17130 X63.304 Y33.154
N17135 X63.273 Y33.007
N17140 X63.25 Y32.859
N17145 X63.235 Y32.709
N17150 X63.227 Y32.56
N17155 X63.228 Y32.41
N17160 X63.237 Y32.26
N17165 X63.254 Y32.111
N17170 X63.279 Y31.963
N17175 X63.312 Y31.817
N17180 X63.353 Y31.672
N17185 X63.401 Y31.53
N17190 X63.457 Y31.391
N17195 X63.521 Y31.255
N17200 X63.592 Y31.123
N17205 X63.669 Y30.995
N17210 X63.754 Y30.871
N17215 X63.845 Y30.752
N17220 X63.943 Y30.638
N17225 X64.047 Y30.53
N17230 X64.157 Y30.427
N17235 X64.271 Y30.331
N17240 X64.391 Y30.241
N17245 X64.516 Y30.158
N17250 X64.645 Y30.081
N17255 X64.778 Y30.011
N17260 X64.914 Y29.949
N17265 X65.054 Y29.894
N17270 X65.196 Y29.847
N17275 X65.341 Y29.807
N17280 X65.487 Y29.775
N17285 X65.636 Y29.751
N17290 X65.785 Y29.735
N17295 X65.934 Y29.728
N17300 X66.084
N17305 X66.234 Y29.737
N17310 X66.383 Y29.753
N17315 X66.531 Y29.778
N17320 X66.678 Y29.811
N17325 X66.822 Y29.852
N17330 X66.964 Y29.901
N17335 X67.103 Y29.957
N17340 X67.239 Y30.02
N17345 X67.371 Y30.091
N17350 X67.499 Y30.169
N17355 X67.624 Y30.253
N17360 X67.743 Y30.344
N17365 X67.858 Y30.44
N17370 X67.967 Y30.543
N17375 X68.071 Y30.651
N17380 X68.169 Y30.764
N17385 X68.262 Y30.883
N17390 X68.348 Y31.006
N17395 X68.427 Y31.133
N17400 X68.5 Y31.264
N17405 X68.566 Y31.399
N17410 X68.625 Y31.537
N17415 X68.676 Y31.678
N17420 X68.72 Y31.821
N17425 X68.756 Y31.966
N17430 X68.785 Y32.114
N17435 X68.806 Y32.262
N17440 X68.819 Y32.412
N17445 X68.825 Y32.562
N17450 X68.822 Y32.712
N17455 X68.812 Y32.861
N17460 X68.793 Y33.01
N17465 X68.767 Y33.158
N17470 X68.734 Y33.304
N17475 X68.692 Y33.448
N17480 X68.643 Y33.59
N17485 X68.586 Y33.729
N17490 X68.522 Y33.864
N17495 X68.451 Y33.997
N17500 X68.373 Y34.125
N17505 X68.288 Y34.248
N17510 X68.197 Y34.367
N17515 X68.099 Y34.481
N17520 X67.995 Y34.589
N17525 X67.886 Y34.692
N17530 X67.771 Y34.788
N17535 X67.651 Y34.879
N17540 X67.527 Y34.963
N17545 X67.399 Y35.04
N17550 X67.266 Y35.111
N17555 X67.13 Y35.174
N17560 X66.991 Y35.23
N17565 X66.85 Y35.279
N17570 X66.705 Y35.321
N17575 X66.559 Y35.355
N17580 X66.412 Y35.381
N17585 X66.263 Y35.4
N17590 X66.113 Y35.411
N17595 X65.963 Y35.414
N17600 X65.813 Y35.409
N17605 X65.664 Y35.396
N17610 X65.515 Y35.376
N17615 X65.368 Y35.347
N17620 X65.222 Y35.311
N17625 X65.079 Y35.268
N17630 X64.938 Y35.217
N17635 X64.799 Y35.159
N17640 X64.664 Y35.094
N17645 X64.533 Y35.022
N17650 X64.405 Y34.943
N17655 X64.281 Y34.858
N17660 X64.162 Y34.767
N17665 X64.048 Y34.67
N17670 X63.939 Y34.567
N17675 X63.835 Y34.458
N17680 X63.737 Y34.345
N17685 X63.645 Y34.226
N17690 X63.559 Y34.103
N17695 X63.48 Y33.976
N17700 X63.407 Y33.845
N17705 X63.341 Y33.71
N17710 X63.283 Y33.572
N17715 X63.231 Y33.431
N17720 X63.187 Y33.288
N17725 X63.151 Y33.142
N17730 X63.122 Y32.995
N17735 X63.1 Y32.847
N17740 X63.086 Y32.697
N17745 X63.08 Y32.547
N17750 X63.082 Y32.397
N17755 X63.091 Y32.248
N17760 X63.108 Y32.099
N17765 X63.132 Y31.951
N17770 X63.164 Y31.804
N17775 X63.203 Y31.659
N17780 X63.25 Y31.517
N17785 X63.304 Y31.377
N17790 X63.365 Y31.24
N17795 X63.433 Y31.106
N17800 X63.507 Y30.976
N17805 X63.589 Y30.85
N17810 X63.677 Y30.728
N17815 X63.771 Y30.612
N17820 X63.871 Y30.5
N17825 X63.977 Y30.393
N17830 X64.088 Y30.293
N17835 X64.204 Y30.198
N17840 X64.324 Y30.109
N17845 X64.45 Y30.026
N17850 X64.579 Y29.95
N17855 X64.712 Y29.88
N17860 X64.848 Y29.818
N17865 X64.987 Y29.762
N17870 X65.129 Y29.713
N17875 X65.273 Y29.672
N17880 X65.42 Y29.639
N17885 X65.567 Y29.612
N17890 X65.716 Y29.594
N17895 X65.866 Y29.583
N17900 X66.016 Y29.58
N17905 X66.166 Y29.584
N17910 X66.315 Y29.597
N17915 X66.464 Y29.617
N17920 X66.611 Y29.645
N17925 X66.757 Y29.68
N17930 X66.901 Y29.723
N17935 X67.042 Y29.773
N17940 X67.181 Y29.831
N17945 X67.316 Y29.895
N17950 X67.448 Y29.966
N17955 X67.577 Y30.043
N17960 X67.701 Y30.127
N17965 X67.821 Y30.217
N17970 X67.937 Y30.313
N17975 X68.047 Y30.414
N17980 X68.153 Y30.521
N17985 X68.253 Y30.633
N17990 X68.347 Y30.749
N17995 X68.436 Y30.87
N18000 X68.518 Y30.996
N18005 X68.594 Y31.125
N18010 X68.664 Y31.258
N18015 X68.726 Y31.394
N18020 X68.782 Y31.533
N18025 X68.831 Y31.675
N18030 X68.873 Y31.819
N18035 X68.908 Y31.965
N18040 X68.935 Y32.113
N18045 X68.955 Y32.261
N18050 X68.967 Y32.411
N18055 X68.972 Y32.561
N18060 X68.97 Y32.711
N18065 X68.96 Y32.86
N18070 X68.943 Y33.009
N18075 X68.918 Y33.157
N18080 X68.886 Y33.304
N18085 X68.847 Y33.448
N18090 X68.8 Y33.591
N18095 X68.746 Y33.731
N18100 X68.685 Y33.868
N18105 X68.617 Y34.002
N18110 X68.543 Y34.132
N18115 X68.462 Y34.258
N18120 X68.374 Y34.38
N18125 X68.28 Y34.497
N18130 X68.181 Y34.609
N18135 X68.076 Y34.716
N18140 X67.965 Y34.818
N18145 X67.85 Y34.914
N18150 X67.73 Y35.004
N18155 X67.606 Y35.088
N18160 X67.477 Y35.165
N18165 X67.345 Y35.236
N18170 X67.21 Y35.301
N18175 X67.071 Y35.358
N18180 X66.93 Y35.409
N18185 X66.786 Y35.453
N18190 X66.641 Y35.489
N18195 X66.494 Y35.518
N18200 X66.345 Y35.54
N18205 X66.196 Y35.555
N18210 X66.046 Y35.562
N18215 X65.896 Y35.561
N18220 X65.747 Y35.553
N18225 X65.597 Y35.538
N18230 X65.449 Y35.515
N18235 X65.302 Y35.484
N18240 X65.157 Y35.447
N18245 X65.014 Y35.402
N18250 X64.873 Y35.351
N18255 X64.735 Y35.292
N18260 X64.6 Y35.227
N18265 X64.468 Y35.156
N18270 X64.34 Y35.078
N18275 X64.215 Y34.994
N18280 X64.095 Y34.904
N18285 X63.98 Y34.808
N18290 X63.869 Y34.707
N18295 X63.764 Y34.6
N18300 X63.663 Y34.489
N18305 X63.569 Y34.372
N18310 X63.48 Y34.252
N18315 X63.397 Y34.126
N18320 X63.32 Y33.997
N18325 X63.25 Y33.865
N18330 X63.187 Y33.729
N18335 X63.13 Y33.59
N18340 X63.081 Y33.448
N18345 X63.038 Y33.305
N18350 X63.002 Y33.159
N18355 X62.974 Y33.012
N18360 X62.953 Y32.863
N18365 X62.939 Y32.714
N18370 X62.932 Y32.564
N18375 X62.933 Y32.414
N18380 X62.94 Y32.264
N18385 X62.956 Y32.115
N18390 X62.978 Y31.967
N18395 X63.007 Y31.819
N18400 X63.044 Y31.674
N18405 X63.087 Y31.53
N18410 X63.138 Y31.389
N18415 X63.195 Y31.251
N18420 X63.26 Y31.115
N18425 X63.33 Y30.983
N18430 X63.408 Y30.854
N18435 X63.491 Y30.73
N18440 X63.581 Y30.609
N18445 X63.676 Y30.494
N18450 X63.777 Y30.383
N18455 X63.884 Y30.277
N18460 X63.995 Y30.176
N18465 X64.111 Y30.082
N18470 X64.232 Y29.992
N18475 X64.356 Y29.909
N18480 X64.485 Y29.832
N18485 X64.617 Y29.761
N18490 X64.753 Y29.697
N18495 X64.891 Y29.639
N18500 X65.032 Y29.588
N18505 X65.176 Y29.544
N18510 X65.321 Y29.507
N18515 X65.468 Y29.477
N18520 X65.616 Y29.455
N18525 X65.766 Y29.44
N18530 X65.915 Y29.432
N18535 X66.065 Y29.431
N18540 X66.215 Y29.438
N18545 X66.365 Y29.453
N18550 X66.513 Y29.475
N18555 X66.66 Y29.503
N18560 X66.806 Y29.54
N18565 X66.949 Y29.583
N18570 X67.091 Y29.633
N18575 X67.23 Y29.69
N18580 X67.366 Y29.753
N18585 X67.498 Y29.823
N18590 X67.628 Y29.899
N18595 X67.753 Y29.981
N18600 X67.874 Y30.069
N18605 X67.992 Y30.163
N18610 X68.104 Y30.262
N18615 X68.212 Y30.366
N18620 X68.315 Y30.476
N18625 X68.412 Y30.59
N18630 X68.504 Y30.708
N18635 X68.59 Y30.831
N18640 X68.671 Y30.958
N18645 X68.745 Y31.088
N18650 X68.813 Y31.222
N18655 X68.874 Y31.359
N18660 X68.929 Y31.498
N18665 X68.977 Y31.64
N18670 X69.019 Y31.784
N18675 X69.053 Y31.93
N18680 X69.081 Y32.078
N18685 X69.101 Y32.226
N18690 X69.115 Y32.376
N18695 X69.121 Y32.526
N18700 Y32.676
N18705 X69.113 Y32.825
N18710 X69.098 Y32.975
N18715 X69.077 Y33.123
N18720 X69.048 Y33.27
N18725 X69.012 Y33.416
N18730 X68.969 Y33.56
N18735 X68.919 Y33.701
N18740 X68.862 Y33.84
N18745 X68.799 Y33.976
N18750 X68.729 Y34.109
N18755 X68.653 Y34.238
N18760 X68.57 Y34.363
N18765 X68.482 Y34.484
N18770 X68.388 Y34.601
N18775 X68.288 Y34.713
N18780 X68.183 Y34.82
N18785 X68.073 Y34.922
N18790 X67.958 Y35.018
N18795 X67.839 Y35.109
N18800 X67.715 Y35.195
N18805 X67.588 Y35.274
N18810 X67.457 Y35.347
N18815 X67.323 Y35.414
N18820 X67.185 Y35.474
N18825 X67.045 Y35.528
N18830 X66.903 Y35.575
N18835 X66.758 Y35.616
N18840 X66.612 Y35.649
N18845 X66.465 Y35.675
N18850 X66.316 Y35.695
N18855 X66.166 Y35.707
N18860 X66.016 Y35.712
N18865 X65.866 Y35.71
N18870 X65.717 Y35.701
N18875 X65.568 Y35.685
N18880 X65.419 Y35.661
N18885 X65.272 Y35.631
N18890 X65.127 Y35.594
N18895 X64.984 Y35.55
N18900 X64.842 Y35.5
N18905 X64.704 Y35.443
N18910 X64.568 Y35.379
N18915 X64.435 Y35.31
N18920 X64.305 Y35.234
N18925 X64.18 Y35.152
N18930 X64.058 Y35.065
N18935 X63.94 Y34.972
N18940 X63.827 Y34.873
N18945 X63.718 Y34.77
N18950 X63.615 Y34.661
N18955 X63.516 Y34.548
N18960 X63.423 Y34.43
N18965 X63.336 Y34.308
N18970 X63.255 Y34.182
N18975 X63.179 Y34.053
N18980 X63.11 Y33.92
N18985 X63.047 Y33.784
N18990 X62.991 Y33.645
N18995 X62.941 Y33.503
N19000 X62.897 Y33.36
N19005 X62.861 Y33.214
N19010 X62.831 Y33.067
N19015 X62.808 Y32.919
N19020 X62.792 Y32.77
N19025 X62.783 Y32.62
N19030 X62.781 Y32.47
N19035 X62.786 Y32.32
N19040 X62.797 Y32.17
N19045 X62.816 Y32.022
N19050 X62.841 Y31.874
N19055 X62.874 Y31.727
N19060 X62.913 Y31.583
N19065 X62.959 Y31.44
N19070 X63.011 Y31.299
N19075 X63.071 Y31.161
N19080 X63.136 Y31.026
N19085 X63.208 Y30.895
N19090 X63.286 Y30.767
N19095 X63.37 Y30.642
N19100 X63.459 Y30.522
N19105 X63.554 Y30.406
N19110 X63.654 Y30.294
N19115 X63.76 Y30.188
N19120 X63.87 Y30.086
N19125 X63.985 Y29.989
N19130 X64.104 Y29.898
N19135 X64.228 Y29.813
N19140 X64.355 Y29.733
N19145 X64.485 Y29.66
N19150 X64.619 Y29.592
N19155 X64.756 Y29.531
N19160 X64.896 Y29.476
N19165 X65.038 Y29.428
N19170 X65.182 Y29.386
N19175 X65.328 Y29.351
N19180 X65.475 Y29.323
N19185 X65.624 Y29.302
N19190 X65.773 Y29.288
N19195 X65.923 Y29.281
N19200 X66.073
N19205 X66.223 Y29.289
N19210 X66.372 Y29.303
N19215 X66.521 Y29.324
N19220 X66.668 Y29.352
N19225 X66.814 Y29.386
N19230 X66.958 Y29.428
N19235 X67.1 Y29.476
N19240 X67.24 Y29.53
N19245 X67.377 Y29.591
N19250 X67.511 Y29.658
N19255 X67.642 Y29.731
N19260 X67.77 Y29.81
N19265 X67.894 Y29.895
N19270 X68.013 Y29.985
N19275 X68.129 Y30.081
N19280 X68.24 Y30.181
N19285 X68.347 Y30.287
N19290 X68.448 Y30.397
N19295 X68.545 Y30.512
N19300 X68.636 Y30.631
N19305 X68.721 Y30.754
N19310 X68.801 Y30.881
N19315 X68.876 Y31.012
N19320 X68.944 Y31.145
N19325 X69.006 Y31.282
N19330 X69.062 Y31.421
N19335 X69.111 Y31.563
N19340 X69.154 Y31.706
N19345 X69.191 Y31.852
N19350 X69.221 Y31.999
N19355 X69.244 Y32.147
N19360 X69.261 Y32.296
N19365 X69.271 Y32.446
N19370 X69.274 Y32.596
N19375 X69.27 Y32.746
N19380 X69.26 Y32.895
N19385 X69.242 Y33.044
N19390 X69.218 Y33.192
N19395 X69.187 Y33.339
N19400 X69.15 Y33.484
N19405 X69.105 Y33.628
N19410 X69.055 Y33.769
N19415 X68.997 Y33.907
N19420 X68.934 Y34.043
N19425 X68.864 Y34.176
N19430 X68.788 Y34.305
N19435 X68.706 Y34.431
N19440 X68.619 Y34.553
N19445 X68.526 Y34.671
N19450 X68.427 Y34.784
N19455 X68.324 Y34.893
N19460 X68.216 Y34.996
N19465 X68.103 Y35.095
N19470 X67.986 Y35.189
N19475 X67.864 Y35.277
N19480 X67.739 Y35.359
N19485 X67.61 Y35.436
N19490 X67.478 Y35.507
N19495 X67.342 Y35.572
N19500 X67.204 Y35.63
N19505 X67.064 Y35.682
N19510 X66.978 Y35.71
N19515 X66.841 Y35.746
N19520 X66.702 Y35.768
N19525 X66.561 Y35.775
N19530 X65.593
N19535 X65.443 Y35.768
N19540 X65.294 Y35.754
N19545 X65.146 Y35.73
N19550 X65. Y35.695
N19555 X64.856 Y35.653
N19560 X64.715 Y35.602
N19565 X64.576 Y35.544
N19570 X64.441 Y35.48
N19575 X64.309 Y35.409
N19580 X64.18 Y35.332
N19585 X64.055 Y35.249
N19590 X63.934 Y35.16
N19595 X63.817 Y35.066
N19600 X63.705 Y34.967
N19605 X63.597 Y34.863
N19610 X63.494 Y34.754
N19615 X63.396 Y34.64
N19620 X63.303 Y34.522
N19625 X63.216 Y34.4
N19630 X63.134 Y34.275
N19635 X63.058 Y34.146
N19640 X62.987 Y34.013
N19645 X62.923 Y33.878
N19650 X62.865 Y33.739
N19655 X62.813 Y33.599
N19660 X62.79 Y33.528
N19665 X62.754 Y33.391
N19670 X62.732 Y33.252
N19675 X62.725 Y33.111
N19680 G3 X63.035 Y32.822 Z-6.8 I0.3 J0.01
N19685 G1 X63.088 Y32.828
N19690 X63.139 Y32.844
N19695 X63.186 Y32.868
N19700 X63.228 Y32.901
N19705 X63.273 Y32.942
N19710 X65.759 Y35.23
N19715 X65.786 Y35.254
N19720 X65.825 Y35.299
N19725 X65.855 Y35.35
N19730 X65.874 Y35.406
N19735 X65.882 Y35.465
N19740 G3 X65.593 Y35.775 Z-7. I-0.3 J0.01
N19745 G1 X65.125
N19750 X64.975 Y35.768
N19755 X64.826 Y35.747
N19760 X64.681 Y35.711
N19765 X64.538 Y35.664
N19770 X64.4 Y35.607
N19775 X64.264 Y35.542
N19780 X64.133 Y35.47
N19785 X64.006 Y35.39
N19790 X63.882 Y35.305
N19795 X63.763 Y35.214
N19800 X63.648 Y35.118
N19805 X63.538 Y35.016
N19810 X63.432 Y34.91
N19815 X63.331 Y34.799
N19820 X63.235 Y34.684
N19825 X63.144 Y34.564
N19830 X63.058 Y34.441
N19835 X62.978 Y34.314
N19840 X62.904 Y34.184
N19845 X62.878 Y34.134
N19850 X62.794 Y33.934
N19855 X62.742 Y33.723
N19860 X62.725 Y33.506
N19865 G3 X63.035 Y33.217 Z-6.8 I0.3 J0.01
N19870 G1 X63.088 Y33.224
N19875 X63.14 Y33.24
N19880 X63.188 Y33.265
N19885 X63.23 Y33.298
N19890 X63.272 Y33.338
N19895 X65.291 Y35.23
N19900 X65.319 Y35.256
N19905 X65.358 Y35.3
N19910 X65.387 Y35.351
N19915 X65.406 Y35.407
N19920 X65.414 Y35.465
N19925 G3 X65.125 Y35.775 Z-7. I-0.3 J0.01
N19930 G1 X64.771
N19935 X64.621 Y35.768
N19940 X64.474 Y35.741
N19945 X64.33 Y35.697
N19950 X64.191 Y35.641
N19955 X64.056 Y35.575
N19960 X63.926 Y35.5
N19965 X63.8 Y35.419
N19970 X63.679 Y35.33
N19975 X63.562 Y35.236
N19980 X63.45 Y35.137
N19985 X63.342 Y35.032
N19990 X63.24 Y34.923
N19995 X63.142 Y34.809
N20000 X63.049 Y34.692
N20005 X62.961 Y34.57
N20010 X62.94 Y34.536
N20015 X62.822 Y34.306
N20020 X62.749 Y34.058
N20025 X62.725 Y33.801
N20030 G3 X63.035 Y33.512 Z-6.8 I0.3 J0.01
N20035 G1 X63.089 Y33.518
N20040 X63.141 Y33.535
N20045 X63.19 Y33.561
N20050 X63.232 Y33.595
N20055 X63.272 Y33.633
N20060 X64.938 Y35.23
N20065 X64.968 Y35.259
N20070 X65.006 Y35.302
N20075 X65.034 Y35.353
N20080 X65.053 Y35.408
N20085 X65.06 Y35.465
N20090 G3 X64.771 Y35.775 Z-7. I-0.3 J0.01
N20095 G1 X64.459
N20100 X64.309 Y35.768
N20105 X64.163 Y35.733
N20110 X64.022 Y35.681
N20115 X63.886 Y35.617
N20120 X63.756 Y35.544
N20125 X63.63 Y35.462
N20130 X63.509 Y35.374
N20135 X63.393 Y35.279
N20140 X63.282 Y35.178
N20145 X63.175 Y35.072
N20150 X63.074 Y34.962
N20155 X62.979 Y34.844
N20160 X62.84 Y34.599
N20165 X62.754 Y34.331
N20170 X62.725 Y34.051
N20175 G3 X63.035 Y33.761 Z-6.8 I0.3 J0.01
N20180 G1 X63.091 Y33.768
N20185 X63.144 Y33.786
N20190 X63.193 Y33.813
N20195 X63.236 Y33.848
N20200 X63.271 Y33.883
N20205 X64.626 Y35.229
N20210 X64.66 Y35.262
N20215 X64.696 Y35.306
N20220 X64.723 Y35.355
N20225 X64.741 Y35.409
N20230 X64.748 Y35.465
N20235 G3 X64.459 Y35.775 Z-7. I-0.3 J0.01
N20240 G1 X64.204
N20245 X64.054 Y35.768
N20250 X63.909 Y35.731
N20255 X63.769 Y35.676
N20260 X63.635 Y35.609
N20265 X63.507 Y35.531
N20270 X63.384 Y35.445
N20275 X63.266 Y35.352
N20280 X63.154 Y35.252
N20285 X63.049 Y35.145
N20290 X63.042 Y35.137
N20295 X62.869 Y34.872
N20300 X62.761 Y34.575
N20305 X62.725 Y34.262
N20310 G3 X63.035 Y33.972 Z-6.8 I0.3 J0.01
N20315 G1 X63.092 Y33.98
N20320 X63.146 Y33.998
N20325 X63.196 Y34.026
N20330 X63.24 Y34.063
N20335 X63.271 Y34.095
N20340 X64.372 Y35.228
N20345 X64.409 Y35.266
N20350 X64.443 Y35.309
N20355 X64.47 Y35.358
N20360 X64.486 Y35.41
N20365 X64.493 Y35.465
N20370 G3 X64.204 Y35.775 Z-7. I-0.3 J0.01
N20375 G1 X63.961
N20380 X63.811 Y35.768
N20385 X63.666 Y35.728
N20390 X63.528 Y35.67
N20395 X63.396 Y35.598
N20400 X63.271 Y35.516
N20405 X63.152 Y35.425
N20410 X63.144 Y35.417
