%
(FOX_TOOL_V1)
(T1  D=4. CR=0. TAPER=118DEG - ZMIN=-12.202 - DRILL)
(T2  D=6. CR=0. TAPER=90DEG - ZMIN=-3.5 - SPOT DRILL)
(T5  D=3. CR=0. TAPER=118DEG - ZMIN=-11.901 - DRILL)
(T6  D=2.5 CR=0. TAPER=118DEG - ZMIN=-11.751 - DRILL)
(T7  D=3. CR=0. - ZMIN=-10. - FLAT END MILL)
(T17  D=6. CR=0. - ZMIN=-11. - BULLNOSE END MILL)
N10 G90 G94 G17 G91.1
N15 G21
N20 G53 G0 Z0.
(FACE1)
N25 T17 M6
N30 T2
N35 S18000 M3
N40 G54
N45 M8
N50 G0 X90.84 Y-9.562
N55 G43 Z15. H17
N60 G0 Z5.
N65 G1 Z-1.4 F400.
N70 G18 G3 X90.24 Z-2. I-0.6 K0. F900.
N75 G1 X88.54
N80 X-7.54
N85 X-9.486
N90 G17 G2 Y-6.159 I0. J1.702
N95 G1 X90.486
N100 X91.
N105 G3 Y-2.755 I0. J1.702
N110 G1 X-10.
N115 G2 Y0.648 I0. J1.702
N120 G1 X91.
N125 G3 Y4.051 I0. J1.702
N130 G1 X-10.
N135 G2 Y7.454 I0. J1.702
N140 G1 X91.
N145 G3 Y10.857 I0. J1.702
N150 G1 X-10.
N155 G2 Y14.261 I0. J1.702
N160 G1 X91.
N165 G3 Y17.664 I0. J1.702
N170 G1 X-10.
N175 G2 Y21.067 I0. J1.702
N180 G1 X91.
N185 G3 Y24.47 I0. J1.702
N190 G1 X-10.
N195 G2 Y27.873 I0. J1.702
N200 G1 X91.
N205 G3 Y31.277 I0. J1.702
N210 G1 X-10.
N215 G2 Y34.68 I0. J1.702
N220 G1 X91.
N225 G3 Y38.083 I0. J1.702
N230 G1 X-10.
N235 G2 Y41.486 I0. J1.702
N240 G1 X91.
N245 G3 Y44.889 I0. J1.702
N250 G1 X-10.
N255 G2 Y48.293 I0. J1.702
N260 G1 X91.
N265 G3 Y51.696 I0. J1.702
N270 G1 X-10.
N275 G2 Y55.099 I0. J1.702
N280 G1 X91.
N285 G3 Y58.502 I0. J1.702
N290 G1 X-10.
N295 G2 Y61.905 I0. J1.702
N300 G1 X91.
N305 G3 Y65.309 I0. J1.702
N310 G1 X-10.
N315 G2 Y68.712 I0. J1.702
N320 G1 X-9.972
N325 X90.972
N330 G3 Y72.115 I0. J1.702
N335 G1 X90.11
N340 X-9.11
N345 G18 G3 X-9.71 Z-1.4 I0. K0.6
N350 G0 Z15.
N355 G17
N360 M5
N365 G53 G0 Z0.
(DRILL4)
N370 M9
N375 M1
N380 T2 M6
N385 T1
N390 S8539 M3
N395 G54
N400 M8
N405 G0 X7.731 Y10.677
N410 G43 Z15. H2
N415 G0 Z5.
N420 G98 G81 X7.731 Y10.677 Z-3.5 R3. F333.33
N425 X41. Y12.5
N430 X39.034 Y28.75
N435 Y36.25
N440 X41. Y52.5
N445 X7.731 Y54.323
N450 X70.775 Y37.275
N455 X61.225
N460 Y27.725
N465 X70.775
N470 G80
N475 G0 Z15.
N480 M5
N485 G53 Z0.
(DRILL3)
N490 M9
N495 M1
N500 T1 M6
N505 T6
N510 S12767 M3
N515 G54
N520 M8
N525 G0 X7.731 Y54.323
N530 G43 Z20. H1
N535 G0 Z10.
N540 G83 X7.731 Y54.323 Z-12.202 R3. Q2.5 F217.56
N545 X39.034 Y36.25
N550 Y28.75
N555 X7.731 Y10.677
N560 G80
N565 G0 Z20.
N570 M5
N575 G53 Z0.
(DRILL6)
N580 M9
N585 M1
N590 T6 M6
N595 T5
N600 S20428 M3
N605 G54
N610 M8
N615 G0 X41. Y12.5
N620 G43 Z20. H6
N625 G0 Z10.
N630 G83 X41. Y12.5 Z-11.751 R3. Q2.5 F314.03
N635 Y52.5
N640 G80
N645 G0 Z20.
N650 M5
N655 G53 Z0.
(DRILL5)
N660 M9
N665 M1
N670 T5 M6
N675 T17
N680 S12779 M3
N685 G54
N690 M8
N695 G0 X70.775 Y27.725
N700 G43 Z20. H5
N705 G0 Z10.
N710 G83 X70.775 Y27.725 Z-11.901 R3. Q2.5 F193.79
N715 X61.225
N720 Y37.275
N725 X70.775
N730 G80
N735 G0 Z20.
N740 M5
N745 G53 Z0.
(2D ADAPTIVE2)
N750 M9
N755 M1
N760 T17 M6
N765 T7
N770 S18000 M3
N775 G54
N780 M8
N785 G0 X8.375 Y-4.832
N790 G43 Z15. H17
N795 G0 Z5.
N800 Z-4.3
N805 G1 Z-4.9 F900.
N810 X8.369 Y-4.828 Z-4.994
N815 X8.35 Y-4.816 Z-5.085
N820 X8.32 Y-4.796 Z-5.172
N825 X8.279 Y-4.769 Z-5.253
N830 X8.228 Y-4.735 Z-5.324
N835 X8.168 Y-4.696 Z-5.385
N840 X8.101 Y-4.652 Z-5.435
N845 X8.028 Y-4.605 Z-5.471
N850 X7.951 Y-4.555 Z-5.493
N855 X7.873 Y-4.503 Z-5.5
N860 G3 X4.932 Y-3.005 I-8.384 J-12.82
N865 G1 X4.759 Y-2.946
N870 X4.551 Y-2.851
N875 X4.488 Y-2.815
N880 X4.352 Y-2.746
N885 X4.216 Y-2.684
N890 X4.063 Y-2.623
N895 X3.873 Y-2.557
N900 X3.637 Y-2.487
N905 X3.339 Y-2.411
N910 X2.953 Y-2.331
N915 X2.432 Y-2.247
N920 X1.523 Y-2.14
N925 X0.651 Y-1.862
N930 X-0.093 Y-1.328
N935 X-0.682 Y-0.628
N940 X-1.121 Y0.176
N945 X-1.432 Y1.037
N950 X-1.643 Y1.928
N955 X-1.78 Y2.833
N960 X-1.812 Y3.173
N965 X-1.842 Y3.385
N970 X-1.891 Y3.593
N975 X-1.959 Y3.796
N980 X-2.01 Y3.928
N985 X-2.077 Y4.136
N990 X-2.131 Y4.344
N995 X-2.165 Y4.551
N1000 X-2.182 Y4.759
N1005 X-2.197 Y5.175
N1010 X-2.2 Y5.383
N1015 Y11.409
N1020 X-2.187 Y11.616
N1025 X-2.156 Y12.032
N1030 X-2.087 Y12.945
N1035 X-2.051 Y13.86
N1040 X-2.03 Y14.775
N1045 X-2.018 Y15.69
N1050 X-2.01 Y16.605
N1055 X-2.006 Y17.521
N1060 X-2.004 Y18.436
N1065 X-2.001 Y20.267
N1070 X-2. Y26.675
N1075 Y51.975
N1080 X-2.006 Y52.14
N1085 X-2.023 Y52.304
N1090 X-2.052 Y52.466
N1095 X-2.115 Y52.76
N1100 X-2.156 Y52.968
N1105 X-2.187 Y53.384
N1110 X-2.2 Y53.591
N1115 Y59.617
N1120 X-2.197 Y59.825
N1125 X-2.182 Y60.241
N1130 X-2.165 Y60.449
N1135 X-2.092 Y61.361
N1140 X-2.054 Y62.276
N1145 X-2.031 Y63.191
N1150 X-1.855 Y64.089
N1155 X-1.39 Y64.878
N1160 X-0.733 Y65.515
N1165 X0.044 Y65.999
N1170 X0.89 Y66.348
N1175 X1.774 Y66.586
N1180 X2.631 Y66.736
N1185 X2.948 Y66.814
N1190 X3.25 Y66.936
N1195 X3.533 Y67.099
N1200 X3.79 Y67.299
N1205 G3 X3.899 Y68.022 I-0.417 J0.432
N1210 G1 X3.853 Y68.104 Z-5.493
N1215 X3.809 Y68.184 Z-5.471
N1220 X3.767 Y68.26 Z-5.435
N1225 X3.728 Y68.33 Z-5.385
N1230 X3.693 Y68.393 Z-5.324
N1235 X3.664 Y68.447 Z-5.253
N1240 X3.64 Y68.49 Z-5.172
N1245 X3.622 Y68.521 Z-5.085
N1250 X3.612 Y68.54 Z-4.994
N1255 X3.608 Y68.547 Z-4.9
N1260 G0 Z5.
N1265 X-2.89 Y59.28
N1270 Z-4.3
N1275 G1 Z-4.9 F900.
N1280 X-2.885 Y59.286 Z-4.994
N1285 X-2.871 Y59.303 Z-5.085
N1290 X-2.848 Y59.331 Z-5.172
N1295 X-2.816 Y59.368 Z-5.253
N1300 X-2.777 Y59.415 Z-5.324
N1305 X-2.731 Y59.47 Z-5.385
N1310 X-2.679 Y59.532 Z-5.435
N1315 X-2.623 Y59.598 Z-5.471
N1320 X-2.565 Y59.668 Z-5.493
N1325 X-2.504 Y59.74 Z-5.5
N1330 G3 X-2.165 Y60.449 I-1.213 J1.017
N1335 G1 X-2.131 Y60.656
N1340 X-2.077 Y60.864
N1345 X-2.01 Y61.072
N1350 X-1.93 Y61.28
N1355 X-1.83 Y61.488
N1360 X-1.81 Y61.522
N1365 X-1.741 Y61.655
N1370 X-1.383 Y62.498
N1375 X-0.902 Y63.277
N1380 X-0.281 Y63.949
N1385 X0.449 Y64.502
N1390 X1.251 Y64.944
N1395 X1.447 Y65.048
N1400 X1.63 Y65.174
N1405 X1.796 Y65.322
N1410 G3 X1.767 Y66.169 Z-5.3 I-0.439 J0.409
N1415 X0.921 Y66.143 I-0.41 J-0.438
N1420 G1 X-2.753 Y62.255
N1425 G3 X-2.637 Y61.336 I0.436 J-0.412
N1430 X-1.81 Y61.522 Z-5.5 I0.321 J0.507
N1435 G1 X-1.708 Y61.695
N1440 X-1.683 Y61.736
N1445 X-1.567 Y61.903
N1450 X-1.404 Y62.111
N1455 X-1.206 Y62.319
N1460 X1.91 Y65.436
N1465 X3.573 Y67.098
N1470 X3.72 Y67.236
N1475 X3.79 Y67.299
N1480 G3 X3.899 Y68.022 I-0.417 J0.432
N1485 G1 X3.853 Y68.104 Z-5.493
N1490 X3.809 Y68.184 Z-5.471
N1495 X3.767 Y68.26 Z-5.435
N1500 X3.728 Y68.33 Z-5.385
N1505 X3.693 Y68.393 Z-5.324
N1510 X3.664 Y68.447 Z-5.253
N1515 X3.64 Y68.49 Z-5.172
N1520 X3.622 Y68.521 Z-5.085
N1525 X3.612 Y68.54 Z-4.994
N1530 X3.608 Y68.547 Z-4.9
N1535 G0 Z5.
N1540 X-2.914 Y10.886
N1545 Z-4.3
N1550 G1 Z-4.9 F900.
N1555 X-2.909 Y10.891 Z-4.994
N1560 X-2.895 Y10.908 Z-5.085
N1565 X-2.871 Y10.934 Z-5.172
N1570 X-2.838 Y10.971 Z-5.253
N1575 X-2.797 Y11.017 Z-5.324
N1580 X-2.75 Y11.07 Z-5.385
N1585 X-2.696 Y11.13 Z-5.435
N1590 X-2.639 Y11.195 Z-5.471
N1595 X-2.578 Y11.264 Z-5.493
N1600 X-2.515 Y11.334 Z-5.5
N1605 G3 X-2.156 Y12.032 I-1.183 J1.052
N1610 G1 X-2.115 Y12.24
N1615 X-2.026 Y12.655
N1620 X-1.968 Y12.863
N1625 X-1.899 Y13.071
N1630 X-1.816 Y13.279
N1635 X-1.798 Y13.313
N1640 X-1.72 Y13.485
N1645 X-1.656 Y13.643
N1650 X-1.587 Y13.839
N1655 X-1.513 Y14.082
N1660 X-1.435 Y14.384
N1665 X-1.352 Y14.775
N1670 X-1.265 Y15.292
N1675 X-1.174 Y16.03
N1680 X-1.102 Y16.942
N1685 X-1.061 Y17.857
N1690 X-1.036 Y18.772
N1695 X-1.022 Y19.687
N1700 X-1.013 Y20.602
N1705 X-1.008 Y21.518
N1710 X-1.005 Y22.433
N1715 X-1.002 Y24.264
N1720 X-1. Y28.841
N1725 Y49.733
N1730 X-1.03 Y50.104
N1735 X-1.118 Y50.466
N1740 X-1.263 Y50.809
N1745 X-1.461 Y51.125
N1750 G3 X-2.17 Y51.3 I-0.469 J-0.375
N1755 G1 X-2.256 Y51.262 Z-5.493
N1760 X-2.34 Y51.226 Z-5.471
N1765 X-2.42 Y51.191 Z-5.435
N1770 X-2.493 Y51.159 Z-5.385
N1775 X-2.559 Y51.13 Z-5.324
N1780 X-2.615 Y51.105 Z-5.253
N1785 X-2.66 Y51.086 Z-5.172
N1790 X-2.693 Y51.071 Z-5.085
N1795 X-2.713 Y51.062 Z-4.994
N1800 X-2.72 Y51.059 Z-4.9
N1805 G0 Z5.
N1810 X-2.85 Y12.428
N1815 Z-4.3
N1820 G1 Z-4.9 F900.
N1825 X-2.843 Y12.432 Z-4.994
N1830 X-2.825 Y12.443 Z-5.085
N1835 X-2.794 Y12.463 Z-5.172
N1840 X-2.752 Y12.489 Z-5.253
N1845 X-2.701 Y12.521 Z-5.324
N1850 X-2.64 Y12.559 Z-5.385
N1855 X-2.572 Y12.601 Z-5.435
N1860 X-2.498 Y12.647 Z-5.471
N1865 X-2.42 Y12.696 Z-5.493
N1870 X-2.341 Y12.745 Z-5.5
N1875 G3 X-1.798 Y13.313 I-0.837 J1.343
N1880 G1 X-1.709 Y13.487
N1885 X-1.683 Y13.534
N1890 X-1.584 Y13.694
N1895 X-1.475 Y13.856
N1900 X-1.441 Y13.902
N1905 X-1.267 Y14.128
N1910 X-1.169 Y14.266
N1915 X-1.087 Y14.391
N1920 X-1.012 Y14.521
N1925 X-0.936 Y14.668
N1930 X-0.859 Y14.833
N1935 X-0.775 Y15.037
N1940 X-0.684 Y15.287
N1945 X-0.597 Y15.563
N1950 X-0.502 Y15.918
N1955 X-0.408 Y16.343
N1960 X-0.309 Y16.904
N1965 X-0.209 Y17.667
N1970 X-0.129 Y18.579
N1975 X-0.08 Y19.493
N1980 X-0.05 Y20.408
N1985 X-0.031 Y21.323
N1990 X-0.019 Y22.238
N1995 X-0.012 Y23.154
N2000 X-0.007 Y24.069
N2005 X-0.005 Y24.985
N2010 X-0.002 Y26.816
N2015 X0. Y31.393
N2020 Y47.87
N2025 X-0.006 Y48.529
N2030 X-0.018 Y48.739
N2035 X-0.066 Y49.104
N2040 X-0.171 Y49.456
N2045 X-0.33 Y49.788
N2050 X-0.539 Y50.09
N2055 X-0.794 Y50.356
N2060 X-0.927 Y50.474
N2065 X-1.059 Y50.616
N2070 X-1.116 Y50.682
N2075 X-1.281 Y50.89
N2080 X-1.441 Y51.098
N2085 X-1.461 Y51.125
N2090 G3 X-2.17 Y51.3 I-0.469 J-0.375
N2095 G1 X-2.256 Y51.262 Z-5.493
N2100 X-2.34 Y51.226 Z-5.471
N2105 X-2.42 Y51.191 Z-5.435
N2110 X-2.493 Y51.159 Z-5.385
N2115 X-2.559 Y51.13 Z-5.324
N2120 X-2.615 Y51.105 Z-5.253
N2125 X-2.66 Y51.086 Z-5.172
N2130 X-2.693 Y51.071 Z-5.085
N2135 X-2.713 Y51.062 Z-4.994
N2140 X-2.72 Y51.059 Z-4.9
N2145 G0 Z5.
N2150 X-2.469 Y13.461
N2155 Z-4.3
N2160 G1 Z-4.9 F900.
N2165 X-2.463 Y13.464 Z-4.994
N2170 X-2.442 Y13.472 Z-5.085
N2175 X-2.408 Y13.485 Z-5.172
N2180 X-2.362 Y13.502 Z-5.253
N2185 X-2.305 Y13.524 Z-5.324
N2190 X-2.238 Y13.549 Z-5.385
N2195 X-2.163 Y13.578 Z-5.435
N2200 X-2.082 Y13.609 Z-5.471
N2205 X-1.996 Y13.642 Z-5.493
N2210 X-1.909 Y13.675 Z-5.5
N2215 G3 X-1.267 Y14.128 I-0.563 J1.479
N2220 G1 X-1.116 Y14.318
N2225 X-1.059 Y14.384
N2230 X-0.927 Y14.526
N2235 X-0.694 Y14.733
N2240 X-0.587 Y14.839
N2245 X-0.486 Y14.95
N2250 X-0.393 Y15.067
N2255 X-0.307 Y15.19
N2260 X-0.223 Y15.322
N2265 X-0.135 Y15.476
N2270 X-0.048 Y15.644
N2275 X0.05 Y15.855
N2280 X0.148 Y16.093
N2285 X0.246 Y16.364
N2290 X0.355 Y16.713
N2295 X0.456 Y17.09
N2300 X0.565 Y17.586
N2305 X0.671 Y18.194
N2310 X0.78 Y19.027
N2315 X0.859 Y19.939
N2320 X0.909 Y20.853
N2325 X0.941 Y21.768
N2330 X0.962 Y22.683
N2335 X0.976 Y23.599
N2340 X0.985 Y24.514
N2345 X0.99 Y25.43
N2350 X0.994 Y26.345
N2355 X0.997 Y28.176
N2360 X1. Y31.838
N2365 Y46.484
N2370 X0.995 Y47.325
N2375 X0.976 Y47.712
N2380 X0.943 Y48.067
N2385 X0.909 Y48.314
N2390 X0.862 Y48.576
N2395 X0.848 Y48.635
N2400 X0.785 Y48.86
N2405 X0.7 Y49.077
N2410 X0.593 Y49.285
N2415 X0.507 Y49.435
N2420 X0.458 Y49.505
N2425 X0.395 Y49.574
N2430 X0.352 Y49.612
N2435 X0.309 Y49.643
N2440 X0.188 Y49.71
N2445 X-0.084 Y49.851
N2450 X-0.228 Y49.93
N2455 X-0.436 Y50.066
N2460 X-0.644 Y50.222
N2465 X-0.794 Y50.356
N2470 G3 X-1.524 Y50.384 I-0.384 J-0.461
N2475 G1 X-1.6 Y50.33 Z-5.493
N2480 X-1.675 Y50.277 Z-5.471
N2485 X-1.746 Y50.227 Z-5.435
N2490 X-1.812 Y50.181 Z-5.385
N2495 X-1.87 Y50.14 Z-5.324
N2500 X-1.92 Y50.104 Z-5.253
N2505 X-1.96 Y50.076 Z-5.172
N2510 X-1.99 Y50.055 Z-5.085
N2515 X-2.008 Y50.042 Z-4.994
N2520 X-2.014 Y50.038 Z-4.9
N2525 G0 Z5.
N2530 X-1.992 Y14.282
N2535 Z-4.3
N2540 G1 Z-4.9 F900.
N2545 X-1.985 Y14.283 Z-4.994
N2550 X-1.964 Y14.287 Z-5.085
N2555 X-1.928 Y14.294 Z-5.172
N2560 X-1.88 Y14.304 Z-5.253
N2565 X-1.82 Y14.315 Z-5.324
N2570 X-1.75 Y14.329 Z-5.385
N2575 X-1.671 Y14.344 Z-5.435
N2580 X-1.585 Y14.361 Z-5.471
N2585 X-1.496 Y14.379 Z-5.493
N2590 X-1.403 Y14.397 Z-5.5
N2595 G3 X-0.694 Y14.733 I-0.303 J1.553
N2600 G1 X-0.644 Y14.778
N2605 X-0.436 Y14.934
N2610 X-0.228 Y15.07
N2615 X-0.184 Y15.094
N2620 X-0.056 Y15.172
N2625 X0.061 Y15.265
N2630 X0.171 Y15.368
N2635 X0.274 Y15.477
N2640 X0.37 Y15.592
N2645 X0.463 Y15.714
N2650 X0.552 Y15.844
N2655 X0.654 Y16.006
N2660 X0.752 Y16.177
N2665 X0.859 Y16.386
N2670 X0.967 Y16.62
N2675 X1.077 Y16.89
N2680 X1.197 Y17.226
N2685 X1.307 Y17.58
N2690 X1.428 Y18.041
N2695 X1.541 Y18.566
N2700 X1.658 Y19.246
N2705 X1.773 Y20.154
N2710 X1.849 Y21.067
N2715 X1.9 Y21.981
N2720 X1.934 Y22.895
N2725 X1.956 Y23.811
N2730 X1.971 Y24.726
N2735 X1.981 Y25.641
N2740 X1.988 Y26.557
N2745 X1.992 Y27.472
N2750 X1.997 Y29.303
N2755 X1.999 Y32.049
N2760 X2. Y43.95
N2765 Y44.865
N2770 X1.999 Y45.781
N2775 X1.989 Y46.296
N2780 X1.945 Y46.709
N2785 X1.828 Y47.107
N2790 X1.642 Y47.479
N2795 X1.588 Y47.565
N2800 X1.434 Y47.829
N2805 X0.593 Y49.285
N2810 G3 X-0.091 Y49.541 I-0.509 J-0.318
N2815 G1 X-0.181 Y49.514 Z-5.493
N2820 X-0.268 Y49.487 Z-5.471
N2825 X-0.352 Y49.461 Z-5.435
N2830 X-0.428 Y49.438 Z-5.385
N2835 X-0.497 Y49.417 Z-5.324
N2840 X-0.555 Y49.399 Z-5.253
N2845 X-0.602 Y49.385 Z-5.172
N2850 X-0.637 Y49.374 Z-5.085
N2855 X-0.658 Y49.368 Z-4.994
N2860 X-0.665 Y49.365 Z-4.9
N2865 G0 Z5.
N2870 X-1.552 Y14.95
N2875 Z-4.3
N2880 G1 Z-4.9 F900.
N2885 X-1.544 Z-4.994
N2890 X-1.522 Y14.949 Z-5.085
N2895 X-1.486 Y14.947 Z-5.172
N2900 X-1.437 Y14.946 Z-5.253
N2905 X-1.376 Y14.943 Z-5.324
N2910 X-1.304 Y14.941 Z-5.385
N2915 X-1.224 Y14.938 Z-5.435
N2920 X-1.137 Y14.934 Z-5.471
N2925 X-1.046 Y14.931 Z-5.493
N2930 X-0.952 Y14.928 Z-5.5
N2935 G3 X-0.184 Y15.094 I0.059 J1.581
N2940 G1 X-0.084 Y15.149
N2945 X0.188 Y15.29
N2950 X0.309 Y15.357
N2955 X0.352 Y15.388
N2960 X0.395 Y15.426
N2965 X0.458 Y15.495
N2970 X0.507 Y15.565
N2975 X1.466 Y17.227
N2980 X1.588 Y17.435
N2985 X1.642 Y17.522
N2990 X1.67 Y17.558
N2995 X1.756 Y17.682
N3000 X1.842 Y17.834
N3005 X1.929 Y18.004
N3010 X2.026 Y18.216
N3015 X2.13 Y18.474
N3020 X2.228 Y18.748
N3025 X2.336 Y19.102
N3030 X2.442 Y19.509
N3035 X2.555 Y20.036
N3040 X2.667 Y20.697
N3045 X2.78 Y21.605
N3050 X2.854 Y22.518
N3055 X2.903 Y23.432
N3060 X2.935 Y24.347
N3065 X2.957 Y25.262
N3070 X2.971 Y26.177
N3075 X2.981 Y27.092
N3080 X2.987 Y28.008
N3085 X2.992 Y28.923
N3090 X2.996 Y30.754
N3095 X2.999 Y33.5
N3100 X3. Y43.57
N3105 X2.999 Y44.485
N3110 X2.987 Y45.124
N3115 X2.981 Y45.227
N3120 X2.933 Y45.575
N3125 X2.833 Y45.911
N3130 X2.684 Y46.228
N3135 X2.49 Y46.52
N3140 X2.254 Y46.779
N3145 X2.081 Y46.942
N3150 X2.058 Y46.964
N3155 X1.896 Y47.15
N3160 X1.642 Y47.479
N3165 G3 X0.95 Y47.714 I-0.499 J-0.333
N3170 G1 X0.861 Y47.684 Z-5.493
N3175 X0.775 Y47.655 Z-5.471
N3180 X0.692 Y47.627 Z-5.435
N3185 X0.616 Y47.601 Z-5.385
N3190 X0.548 Y47.579 Z-5.324
N3195 X0.49 Y47.559 Z-5.253
N3200 X0.444 Y47.543 Z-5.172
N3205 X0.41 Y47.532 Z-5.085
N3210 X0.389 Y47.525 Z-4.994
N3215 X0.382 Y47.522 Z-4.9
N3220 G0 Z5.
N3225 X0.477 Y16.876
N3230 Z-4.3
N3235 G1 Z-4.9 F900.
N3240 X0.484 Y16.879 Z-4.994
N3245 X0.504 Y16.887 Z-5.085
N3250 X0.538 Y16.9 Z-5.172
N3255 X0.583 Y16.918 Z-5.253
N3260 X0.64 Y16.941 Z-5.324
N3265 X0.707 Y16.967 Z-5.385
N3270 X0.782 Y16.997 Z-5.435
N3275 X0.862 Y17.029 Z-5.471
N3280 X0.947 Y17.062 Z-5.493
N3285 X1.035 Y17.097 Z-5.5
N3290 G3 X1.67 Y17.558 I-0.583 J1.471
N3295 G1 X1.896 Y17.85
N3300 X2.058 Y18.036
N3305 X2.081 Y18.058
N3310 X2.265 Y18.233
N3315 X2.375 Y18.336
N3320 X2.471 Y18.45
N3325 X2.561 Y18.57
N3330 X2.646 Y18.697
N3335 X2.731 Y18.836
N3340 X2.826 Y19.009
N3345 X2.923 Y19.203
N3350 X3.021 Y19.426
N3355 X3.132 Y19.708
N3360 X3.238 Y20.016
N3365 X3.348 Y20.39
N3370 X3.46 Y20.842
N3375 X3.576 Y21.415
N3380 X3.69 Y22.138
N3385 X3.793 Y23.048
N3390 X3.862 Y23.96
N3395 X3.907 Y24.875
N3400 X3.938 Y25.79
N3405 X3.958 Y26.705
N3410 X3.972 Y27.62
N3415 X3.981 Y28.536
N3420 X3.987 Y29.451
N3425 X3.992 Y30.366
N3430 X3.996 Y32.197
N3435 X3.999 Y34.943
N3440 X4. Y42.267
N3445 Y43.182
N3450 X3.992 Y43.865
N3455 X3.971 Y44.235
N3460 X3.938 Y44.572
N3465 X3.901 Y44.825
N3470 X3.788 Y45.226
N3475 X3.606 Y45.6
N3480 X3.36 Y45.935
N3485 X3.058 Y46.222
N3490 X2.71 Y46.451
N3495 G3 X1.907 Y46.177 Z-5.3 I-0.265 J-0.538
N3500 X1.846 Y45.924 I0.538 J-0.265
N3505 G1 X1.308 Y18.726
N3510 G3 X1.426 Y18.357 I0.6 J-0.012
N3515 X2.265 Y18.233 Z-5.5 I0.482 J0.358
N3520 G1 X2.473 Y18.396
N3525 X2.681 Y18.534
N3530 X2.716 Y18.552
N3535 X2.844 Y18.63
N3540 X2.964 Y18.72
N3545 X3.076 Y18.82
N3550 X3.181 Y18.927
N3555 X3.279 Y19.041
N3560 X3.371 Y19.159
N3565 X3.468 Y19.294
N3570 X3.565 Y19.444
N3575 X3.668 Y19.619
N3580 X3.778 Y19.825
N3585 X3.885 Y20.05
N3590 X4.006 Y20.335
N3595 X4.116 Y20.63
N3600 X4.24 Y21.011
N3605 X4.358 Y21.435
N3610 X4.482 Y21.974
N3615 X4.601 Y22.613
N3620 X4.723 Y23.472
N3625 X4.811 Y24.383
N3630 X4.871 Y25.297
N3635 X4.912 Y26.211
N3640 X4.94 Y27.126
N3645 X4.96 Y28.041
N3650 X4.973 Y28.957
N3655 X4.981 Y29.872
N3660 X4.987 Y30.788
N3665 X4.992 Y31.703
N3670 X4.996 Y33.534
N3675 X4.999 Y36.28
N3680 X5. Y41.773
N3685 X4.995 Y42.688
N3690 X4.972 Y43.269
N3695 X4.939 Y43.679
N3700 X4.901 Y43.975
N3705 X4.858 Y44.226
N3710 X4.802 Y44.485
N3715 X4.785 Y44.554
N3720 X4.659 Y44.913
N3725 X4.477 Y45.248
N3730 X4.244 Y45.549
N3735 X3.966 Y45.809
N3740 X3.65 Y46.021
N3745 X3.304 Y46.18
N3750 X3.097 Y46.255
N3755 X2.889 Y46.355
N3760 X2.71 Y46.451
N3765 G3 X1.907 Y46.177 Z-5.3 I-0.265 J-0.538
N3770 X1.845 Y45.912 I0.538 J-0.265
N3775 G1 X1.851 Y19.091
N3780 G3 X1.913 Y18.825 I0.6 J0.
N3785 X2.716 Y18.552 Z-5.5 I0.538 J0.265
N3790 G1 X2.889 Y18.645
N3795 X3.097 Y18.745
N3800 X3.211 Y18.786
N3805 X3.349 Y18.845
N3810 X3.482 Y18.914
N3815 X3.608 Y18.996
N3820 X3.727 Y19.087
N3825 X3.839 Y19.186
N3830 X3.946 Y19.292
N3835 X4.047 Y19.403
N3840 X4.152 Y19.528
N3845 X4.255 Y19.663
N3850 X4.368 Y19.827
N3855 X4.478 Y20.001
N3860 X4.599 Y20.213
N3865 X4.717 Y20.441
N3870 X4.845 Y20.717
N3875 X4.967 Y21.016
N3880 X5.1 Y21.384
N3885 X5.229 Y21.797
N3890 X5.362 Y22.301
N3895 X5.488 Y22.877
N3900 X5.617 Y23.622
N3905 X5.735 Y24.529
N3910 X5.816 Y25.441
N3915 X5.872 Y26.355
N3920 X5.912 Y27.27
N3925 X5.939 Y28.185
N3930 X5.958 Y29.1
N3935 X5.971 Y30.015
N3940 X5.98 Y30.93
N3945 X5.986 Y31.846
N3950 X5.991 Y32.761
N3955 X5.996 Y34.592
N3960 X5.999 Y37.338
N3965 X6. Y40.085
N3970 X5.998 Y41.
N3975 X5.989 Y41.915
N3980 X5.96 Y42.599
N3985 X5.919 Y43.077
N3990 X5.87 Y43.452
N3995 X5.821 Y43.733
N4000 X5.765 Y43.986
N4005 X5.701 Y44.226
N4010 X5.643 Y44.412
N4015 X5.569 Y44.618
N4020 X5.559 Y44.643
N4025 X5.377 Y44.995
N4030 X5.139 Y45.312
N4035 X4.85 Y45.584
N4040 X4.519 Y45.803
N4045 X4.156 Y45.963
N4050 X3.771 Y46.059
N4055 G3 X3.102 Y45.539 Z-5.3 I-0.075 J-0.595
N4060 G1 X3.097 Y45.479
N4065 X2.425 Y19.372
N4070 X2.427 Y19.304
N4075 X2.437 Y19.236
N4080 X2.455 Y19.171
N4085 G3 X3.211 Y18.786 Z-5.5 I0.57 J0.186
N4090 G1 X3.304 Y18.82
N4095 X3.512 Y18.883
N4100 X3.72 Y18.933
N4105 X3.755 Y18.938
N4110 X3.901 Y18.97
N4115 X4.04 Y19.027
N4120 X4.173 Y19.096
N4125 X4.3 Y19.176
N4130 X4.421 Y19.265
N4135 X4.537 Y19.36
N4140 X4.648 Y19.461
N4145 X4.756 Y19.57
N4150 X4.865 Y19.689
N4155 X4.984 Y19.832
N4160 X5.101 Y19.984
N4165 X5.229 Y20.167
N4170 X5.352 Y20.361
N4175 X5.487 Y20.596
N4180 X5.617 Y20.847
N4185 X5.756 Y21.145
N4190 X5.893 Y21.476
N4195 X6.034 Y21.865
N4200 X6.176 Y22.314
N4205 X6.315 Y22.837
N4210 X6.457 Y23.475
N4215 X6.594 Y24.251
N4220 X6.713 Y25.158
N4225 X6.798 Y26.07
N4230 X6.857 Y26.983
N4235 X6.9 Y27.898
N4240 X6.93 Y28.813
N4245 X6.951 Y29.728
N4250 X6.966 Y30.643
N4255 X6.976 Y31.559
N4260 X6.983 Y32.474
N4265 X6.989 Y33.389
N4270 X6.992 Y34.305
N4275 X6.996 Y36.136
N4280 X6.999 Y38.882
N4285 X6.998 Y39.797
N4290 X6.993 Y40.713
N4295 X6.97 Y41.628
N4300 X6.928 Y42.277
N4305 X6.875 Y42.772
N4310 X6.811 Y43.187
N4315 X6.752 Y43.485
N4320 X6.679 Y43.788
N4325 X6.612 Y44.018
N4330 X6.543 Y44.221
N4335 X6.459 Y44.439
N4340 X6.386 Y44.607
N4345 X6.307 Y44.767
N4350 X6.292 Y44.795
N4355 X6.069 Y45.131
N4360 X5.791 Y45.424
N4365 X5.467 Y45.664
N4370 X5.107 Y45.845
N4375 X4.72 Y45.961
N4380 X4.32 Y46.009
N4385 X4.136 Y46.015
N4390 X3.928 Y46.034
N4395 X3.771 Y46.059
N4400 G3 X3.102 Y45.539 Z-5.3 I-0.075 J-0.595
N4405 G1 X3.097 Y45.464
N4410 X3.08 Y19.534
N4415 X3.085 Y19.459
N4420 G3 X3.755 Y18.938 Z-5.5 I0.595 J0.075
N4425 G1 X3.928 Y18.966
N4430 X4.136 Y18.985
N4435 X4.17 Y18.986
N4440 X4.32 Y18.998
N4445 X4.467 Y19.028
N4450 X4.609 Y19.074
N4455 X4.747 Y19.134
N4460 X4.88 Y19.203
N4465 X5.008 Y19.282
N4470 X5.131 Y19.368
N4475 X5.249 Y19.46
N4480 X5.363 Y19.558
N4485 X5.481 Y19.67
N4490 X5.601 Y19.792
N4495 X5.73 Y19.938
N4500 X5.857 Y20.092
N4505 X5.993 Y20.275
N4510 X6.13 Y20.476
N4515 X6.271 Y20.703
N4520 X6.42 Y20.967
N4525 X6.562 Y21.248
N4530 X6.718 Y21.594
N4535 X6.863 Y21.955
N4540 X7.019 Y22.401
N4545 X7.169 Y22.896
N4550 X7.318 Y23.477
N4555 X7.466 Y24.183
N4560 X7.609 Y25.049
N4565 X7.719 Y25.958
N4570 X7.798 Y26.87
N4575 X7.855 Y27.784
N4580 X7.897 Y28.698
N4585 X7.927 Y29.613
N4590 X7.948 Y30.528
N4595 X7.963 Y31.444
N4600 X7.974 Y32.359
N4605 X7.982 Y33.274
N4610 X7.987 Y34.19
N4615 X7.991 Y35.105
N4620 X7.996 Y36.936
N4625 X7.997 Y37.851
N4630 Y38.767
N4635 X7.993 Y39.682
N4640 X7.978 Y40.598
N4645 X7.939 Y41.464
N4650 X7.883 Y42.1
N4655 X7.817 Y42.596
N4660 X7.743 Y43.019
N4665 X7.662 Y43.382
N4670 X7.582 Y43.681
N4675 X7.503 Y43.93
N4680 X7.411 Y44.184
N4685 X7.334 Y44.369
N4690 X7.245 Y44.56
N4695 X7.147 Y44.748
N4700 X7.064 Y44.893
N4705 X6.971 Y45.039
N4710 X6.861 Y45.196
N4715 X6.844 Y45.218
N4720 X6.579 Y45.507
N4725 X6.266 Y45.742
N4730 X5.916 Y45.918
N4735 X5.539 Y46.028
N4740 X5.15 Y46.068
N4745 X4.759 Y46.037
N4750 G3 X4.248 Y45.459 Z-5.322 I0.089 J-0.593
N4755 G1 X4.245 Y45.355 Z-5.3
N4760 X3.572 Y19.601
N4765 Y19.587
N4770 G3 X4.17 Y18.986 Z-5.5 I0.6 J-0.001
N4775 G1 X4.343 Y18.991
N4780 X4.551 Y18.987
N4785 X4.614 Y18.979
N4790 X4.764 Y18.97
N4795 X4.913 Y18.98
N4800 X5.061 Y19.008
N4805 X5.205 Y19.05
N4810 X5.345 Y19.104
N4815 X5.481 Y19.168
N4820 X5.612 Y19.24
N4825 X5.739 Y19.319
N4830 X5.863 Y19.405
N4835 X5.982 Y19.496
N4840 X6.109 Y19.603
N4845 X6.239 Y19.722
N4850 X6.371 Y19.854
N4855 X6.515 Y20.01
N4860 X6.655 Y20.177
N4865 X6.802 Y20.368
N4870 X6.955 Y20.587
N4875 X7.106 Y20.822
N4880 X7.268 Y21.102
N4885 X7.424 Y21.4
N4890 X7.585 Y21.743
N4895 X7.753 Y22.147
N4900 X7.909 Y22.573
N4905 X8.079 Y23.108
N4910 X8.235 Y23.685
N4915 X8.39 Y24.373
N4920 X8.542 Y25.224
N4925 X8.665 Y26.131
N4930 X8.755 Y27.042
N4935 X8.822 Y27.955
N4940 X8.87 Y28.869
N4945 X8.906 Y29.784
N4950 X8.933 Y30.699
N4955 X8.952 Y31.614
N4960 X8.965 Y32.53
N4965 X8.975 Y33.445
N4970 X8.982 Y34.36
N4975 X8.988 Y35.276
N4980 X8.991 Y36.191
N4985 X8.994 Y37.107
N4990 Y38.022
N4995 X8.99 Y38.938
N5000 X8.975 Y39.853
N5005 X8.94 Y40.768
N5010 X8.884 Y41.51
N5015 X8.813 Y42.111
N5020 X8.731 Y42.606
N5025 X8.644 Y43.026
N5030 X8.55 Y43.394
N5035 X8.451 Y43.724
N5040 X8.349 Y44.015
N5045 X8.243 Y44.28
N5050 X8.151 Y44.485
N5055 X8.037 Y44.71
N5060 X7.938 Y44.888
N5065 X7.846 Y45.036
N5070 X7.732 Y45.203
N5075 X7.626 Y45.346
N5080 X7.531 Y45.462
N5085 X7.263 Y45.717
N5090 X6.958 Y45.925
N5095 X6.623 Y46.08
N5100 X6.266 Y46.179
N5105 X5.899 Y46.219
N5110 X5.53 Y46.199
N5115 X5.169 Y46.118
N5120 G3 X4.767 Y45.567 Z-5.346 I0.197 J-0.567
N5125 G1 X4.765 Y45.525 Z-5.337
N5130 X4.761 Y45.351 Z-5.3
N5135 X4.105 Y19.661
N5140 X4.103 Y19.588 Z-5.316
N5145 G3 X4.614 Y18.979 Z-5.5 I0.6 J-0.015
N5150 G1 X4.759 Y18.963
N5155 X4.967 Y18.927
N5160 X5.065 Y18.906
N5165 X5.213 Y18.882
N5170 X5.362 Y18.877
N5175 X5.512 Y18.891
N5180 X5.659 Y18.919
N5185 X5.804 Y18.959
N5190 X5.945 Y19.009
N5195 X6.083 Y19.068
N5200 X6.217 Y19.135
N5205 X6.348 Y19.209
N5210 X6.475 Y19.29
N5215 X6.602 Y19.378
N5220 X6.736 Y19.48
N5225 X6.879 Y19.599
N5230 X7.02 Y19.727
N5235 X7.17 Y19.877
N5240 X7.325 Y20.044
N5245 X7.479 Y20.225
N5250 X7.645 Y20.44
N5255 X7.807 Y20.67
N5260 X7.973 Y20.927
N5265 X8.15 Y21.231
N5270 X8.317 Y21.548
N5275 X8.492 Y21.917
N5280 X8.673 Y22.348
N5285 X8.839 Y22.796
N5290 X9.016 Y23.349
N5295 X9.189 Y23.978
N5300 X9.349 Y24.682
N5305 X9.51 Y25.562
N5310 X9.635 Y26.469
N5315 X9.729 Y27.38
N5320 X9.8 Y28.292
N5325 X9.853 Y29.206
N5330 X9.892 Y30.121
N5335 X9.921 Y31.036
N5340 X9.943 Y31.951
N5345 X9.958 Y32.866
N5350 X9.97 Y33.782
N5355 X9.978 Y34.697
N5360 X9.984 Y35.612
N5365 X9.988 Y36.528
N5370 X9.989 Y37.443
N5375 X9.985 Y38.359
N5380 X9.97 Y39.274
N5385 X9.937 Y40.189
N5390 X9.88 Y41.012
N5395 X9.802 Y41.708
N5400 X9.715 Y42.266
N5405 X9.614 Y42.766
N5410 X9.51 Y43.188
N5415 X9.398 Y43.569
N5420 X9.283 Y43.905
N5425 X9.166 Y44.205
N5430 X9.043 Y44.482
N5435 X8.933 Y44.704
N5440 X8.823 Y44.904
N5445 X8.702 Y45.103
N5450 X8.602 Y45.253
N5455 X8.486 Y45.41
N5460 X8.367 Y45.559
N5465 X8.264 Y45.675
N5470 X8.148 Y45.797
N5475 X8.132 Y45.812
N5480 X7.831 Y46.055
N5485 X7.495 Y46.246
N5490 X7.132 Y46.378
N5495 X6.752 Y46.448
N5500 X6.366 Y46.454
N5505 X5.984 Y46.397
N5510 X5.616 Y46.278
N5515 G3 X5.268 Y45.748 Z-5.358 I0.251 J-0.545
N5520 G1 X5.265 Y45.648 Z-5.337
N5525 X5.261 Y45.474 Z-5.3
N5530 X4.615 Y19.636
N5535 X4.611 Y19.503 Z-5.328
N5540 G3 X5.065 Y18.906 Z-5.5 I0.6 J-0.015
N5545 G1 X5.144 Y18.889
N5550 X5.382 Y18.816
N5555 X5.445 Y18.791
N5560 X5.587 Y18.742
N5565 X5.735 Y18.718
N5570 X5.885 Y18.713
N5575 X6.035 Y18.724
N5580 X6.183 Y18.747
N5585 X6.329 Y18.781
N5590 X6.473 Y18.825
N5595 X6.613 Y18.877
N5600 X6.751 Y18.937
N5605 X6.885 Y19.003
N5610 X7.016 Y19.076
N5615 X7.155 Y19.161
N5620 X7.3 Y19.259
N5625 X7.445 Y19.366
N5630 X7.598 Y19.491
N5635 X7.76 Y19.633
N5640 X7.919 Y19.787
N5645 X8.087 Y19.964
N5650 X8.261 Y20.164
N5655 X8.431 Y20.377
N5660 X8.612 Y20.626
N5665 X8.798 Y20.906
N5670 X8.974 Y21.199
N5675 X9.162 Y21.544
N5680 X9.355 Y21.937
N5685 X9.535 Y22.351
N5690 X9.724 Y22.839
N5695 X9.914 Y23.405
N5700 X10.088 Y24.006
N5705 X10.264 Y24.734
N5710 X10.435 Y25.601
N5715 X10.573 Y26.506
N5720 X10.678 Y27.416
N5725 X10.758 Y28.328
N5730 X10.819 Y29.241
N5735 X10.866 Y30.155
N5740 X10.901 Y31.07
N5745 X10.927 Y31.985
N5750 X10.946 Y32.9
N5755 X10.961 Y33.815
N5760 X10.971 Y34.731
N5765 X10.978 Y35.646
N5770 X10.982 Y36.562
N5775 X10.98 Y37.477
N5780 X10.97 Y38.392
N5785 X10.946 Y39.308
N5790 X10.899 Y40.222
N5795 X10.826 Y41.048
N5800 X10.737 Y41.722
N5805 X10.632 Y42.32
N5810 X10.521 Y42.821
N5815 X10.399 Y43.275
N5820 X10.274 Y43.673
N5825 X10.146 Y44.023
N5830 X10.015 Y44.341
N5835 X9.883 Y44.625
N5840 X9.749 Y44.882
N5845 X9.617 Y45.111
N5850 X9.501 Y45.294
N5855 X9.362 Y45.493
N5860 X9.243 Y45.648
N5865 X9.128 Y45.786
N5870 X8.991 Y45.937
N5875 X8.871 Y46.057
N5880 X8.757 Y46.161
N5885 X8.619 Y46.278
N5890 X8.587 Y46.303
N5895 X8.258 Y46.515
N5900 X7.898 Y46.669
N5905 X7.517 Y46.76
N5910 X7.127 Y46.786
N5915 X6.737 Y46.746
N5920 X6.36 Y46.642
N5925 X6.006 Y46.475
N5930 X5.713 Y46.318
N5935 X5.616 Y46.278
N5940 G3 X5.267 Y45.737 Z-5.356 I0.251 J-0.545
N5945 G1 Y45.648 Z-5.337
N5950 X5.266 Y45.474 Z-5.3
N5955 X5.088 Y19.587
N5960 X5.087 Y19.414 Z-5.337
N5965 X5.086 Y19.344 Z-5.352
N5970 G3 X5.445 Y18.791 Z-5.5 I0.6 J-0.004
N5975 G1 X5.59 Y18.733
N5980 X5.713 Y18.682
N5985 X5.833 Y18.618
N5990 X5.968 Y18.554
N5995 X6.113 Y18.516
N6000 X6.262 Y18.496
N6005 X6.412 Y18.492
N6010 X6.562 Y18.501
N6015 X6.71 Y18.521
N6020 X6.857 Y18.551
N6025 X7.002 Y18.59
N6030 X7.145 Y18.637
N6035 X7.284 Y18.691
N6040 X7.422 Y18.752
N6045 X7.561 Y18.821
N6050 X7.708 Y18.902
N6055 X7.863 Y18.997
N6060 X8.018 Y19.101
N6065 X8.18 Y19.22
N6070 X8.353 Y19.359
N6075 X8.524 Y19.51
N6080 X8.699 Y19.678
N6085 X8.885 Y19.872
N6090 X9.071 Y20.084
N6095 X9.259 Y20.319
N6100 X9.454 Y20.586
N6105 X9.653 Y20.883
N6110 X9.845 Y21.2
N6115 X10.048 Y21.571
N6120 X10.255 Y21.989
N6125 X10.446 Y22.424
N6130 X10.645 Y22.935
N6135 X10.85 Y23.54
N6140 X11.034 Y24.169
N6145 X11.218 Y24.919
N6150 X11.397 Y25.816
N6155 X11.538 Y26.721
N6160 X11.647 Y27.63
N6165 X11.731 Y28.541
N6170 X11.797 Y29.454
N6175 X11.847 Y30.368
N6180 X11.885 Y31.283
N6185 X11.914 Y32.198
N6190 X11.936 Y33.113
N6195 X11.953 Y34.028
N6200 X11.964 Y34.944
N6205 X11.971 Y35.859
N6210 X11.972 Y36.775
N6215 X11.965 Y37.69
N6220 X11.945 Y38.605
N6225 X11.906 Y39.52
N6230 X11.84 Y40.433
N6235 X11.754 Y41.203
N6240 X11.648 Y41.883
N6245 X11.527 Y42.483
N6250 X11.402 Y42.991
N6255 X11.266 Y43.454
N6260 X11.124 Y43.872
N6265 X10.983 Y44.232
N6270 X10.835 Y44.566
N6275 X10.688 Y44.865
N6280 X10.54 Y45.133
N6285 X10.39 Y45.38
N6290 X10.238 Y45.607
N6295 X10.096 Y45.801
N6300 X9.962 Y45.968
N6305 X9.806 Y46.145
N6310 X9.678 Y46.279
N6315 X9.549 Y46.402
N6320 X9.398 Y46.534
N6325 X9.27 Y46.637
N6330 X9.147 Y46.728
N6335 X9.101 Y46.758
N6340 X8.778 Y46.939
N6345 X8.43 Y47.067
N6350 X8.066 Y47.138
N6355 X7.695 Y47.15
N6360 X7.328 Y47.103
N6365 X6.972 Y46.999
N6370 X6.637 Y46.84
N6375 X6.006 Y46.475
N6380 G3 X5.724 Y45.971 Z-5.372 I0.318 J-0.509
N6385 G1 X5.723 Y45.805 Z-5.337
N6390 X5.721 Y45.632 Z-5.3
N6395 X5.537 Y19.452
N6400 X5.536 Y19.279 Z-5.337
N6405 X5.535 Y19.14 Z-5.366
N6410 G3 X5.833 Y18.618 Z-5.5 I0.6 J-0.004
N6415 G1 X6.006 Y18.525
N6420 X6.248 Y18.385
N6425 X6.382 Y18.316
N6430 X6.524 Y18.27
N6435 X6.672 Y18.242
N6440 X6.821 Y18.228
N6445 X6.971 Y18.227
N6450 X7.121 Y18.237
N6455 X7.269 Y18.257
N6460 X7.417 Y18.286
N6465 X7.562 Y18.322
N6470 X7.706 Y18.366
N6475 X7.847 Y18.417
N6480 X7.994 Y18.478
N6485 X8.146 Y18.548
N6490 X8.301 Y18.628
N6495 X8.467 Y18.723
N6500 X8.638 Y18.831
N6505 X8.809 Y18.949
N6510 X8.991 Y19.088
N6515 X9.181 Y19.245
N6520 X9.367 Y19.415
N6525 X9.561 Y19.607
N6530 X9.765 Y19.828
N6535 X9.967 Y20.065
N6540 X10.172 Y20.329
N6545 X10.383 Y20.628
N6550 X10.599 Y20.963
N6555 X10.805 Y21.314
N6560 X11.021 Y21.725
N6565 X11.241 Y22.189
N6570 X11.449 Y22.684
N6575 X11.654 Y23.236
N6580 X11.866 Y23.892
N6585 X12.068 Y24.627
N6590 X12.258 Y25.459
N6595 X12.423 Y26.359
N6600 X12.553 Y27.265
N6605 X12.656 Y28.175
N6610 X12.736 Y29.087
N6615 X12.798 Y30.
N6620 X12.846 Y30.914
N6625 X12.884 Y31.829
N6630 X12.912 Y32.744
N6635 X12.934 Y33.659
N6640 X12.949 Y34.574
N6645 X12.958 Y35.49
N6650 X12.961 Y36.405
N6655 X12.954 Y37.321
N6660 X12.934 Y38.236
N6665 X12.896 Y39.15
N6670 X12.833 Y40.064
N6675 X12.743 Y40.912
N6680 X12.629 Y41.663
N6685 X12.501 Y42.314
N6690 X12.366 Y42.874
N6695 X12.218 Y43.386
N6700 X12.063 Y43.848
N6705 X11.908 Y44.253
N6710 X11.745 Y44.626
N6715 X11.578 Y44.968
N6720 X11.413 Y45.271
N6725 X11.247 Y45.546
N6730 X11.08 Y45.799
N6735 X10.911 Y46.031
N6740 X10.746 Y46.239
N6745 X10.599 Y46.408
N6750 X10.439 Y46.577
N6755 X10.284 Y46.727
N6760 X10.152 Y46.844
N6765 X9.996 Y46.97
N6770 X9.852 Y47.077
N6775 X9.724 Y47.163
N6780 X9.685 Y47.188
N6785 X9.311 Y47.374
N6790 X8.91 Y47.49
N6795 X8.495 Y47.533
N6800 X8.079 Y47.501
N6805 X7.675 Y47.396
N6810 X7.297 Y47.22
N6815 X6.637 Y46.84
N6820 G3 X6.355 Y46.339 Z-5.373 I0.318 J-0.509
N6825 G1 X6.353 Y46.17 Z-5.337
N6830 X6.35 Y45.996 Z-5.3
N6835 X5.971 Y19.228
N6840 X5.968 Y19.055 Z-5.337
N6845 X5.966 Y18.902 Z-5.369
N6850 G3 X6.248 Y18.385 Z-5.5 I0.6 J-0.009
N6855 G1 X6.724 Y18.11
N6860 X6.858 Y18.042
N6865 X6.999 Y17.992
N6870 X7.146 Y17.959
N6875 X7.294 Y17.941
N6880 X7.444 Y17.934
N6885 X7.594 Y17.937
N6890 X7.744 Y17.951
N6895 X7.892 Y17.973
N6900 X8.039 Y18.002
N6905 X8.184 Y18.04
N6910 X8.329 Y18.084
N6915 X8.478 Y18.136
N6920 X8.636 Y18.2
N6925 X8.802 Y18.276
N6930 X8.969 Y18.36
N6935 X9.147 Y18.46
N6940 X9.333 Y18.577
N6945 X9.519 Y18.704
N6950 X9.712 Y18.848
N6955 X9.915 Y19.015
N6960 X10.121 Y19.2
N6965 X10.328 Y19.402
N6970 X10.542 Y19.631
N6975 X10.766 Y19.891
N6980 X10.983 Y20.167
N6985 X11.205 Y20.478
N6990 X11.435 Y20.829
N6995 X11.668 Y21.221
N7000 X11.887 Y21.63
N7005 X12.114 Y22.102
N7010 X12.347 Y22.646
N7015 X12.572 Y23.24
N7020 X12.782 Y23.879
N7025 X12.993 Y24.627
N7030 X13.195 Y25.488
N7035 X13.366 Y26.387
N7040 X13.503 Y27.292
N7045 X13.612 Y28.201
N7050 X13.699 Y29.113
N7055 X13.767 Y30.025
N7060 X13.821 Y30.939
N7065 X13.863 Y31.854
N7070 X13.895 Y32.769
N7075 X13.919 Y33.684
N7080 X13.936 Y34.599
N7085 X13.945 Y35.514
N7090 Y36.43
N7095 X13.934 Y37.345
N7100 X13.908 Y38.26
N7105 X13.862 Y39.175
N7110 X13.79 Y40.087
N7115 X13.685 Y40.974
N7120 X13.561 Y41.736
N7125 X13.425 Y42.391
N7130 X13.274 Y42.988
N7135 X13.111 Y43.534
N7140 X12.943 Y44.014
N7145 X12.771 Y44.448
N7150 X12.591 Y44.849
N7155 X12.406 Y45.218
N7160 X12.224 Y45.543
N7165 X12.04 Y45.841
N7170 X11.854 Y46.116
N7175 X11.672 Y46.361
N7180 X11.491 Y46.583
N7185 X11.314 Y46.783
N7190 X11.164 Y46.937
N7195 X10.99 Y47.102
N7200 X10.828 Y47.243
N7205 X10.693 Y47.35
N7210 X10.538 Y47.462
N7215 X10.376 Y47.569
N7220 X10.339 Y47.591
N7225 X9.967 Y47.771
N7230 X9.569 Y47.883
N7235 X9.158 Y47.923
N7240 X8.747 Y47.89
N7245 X8.347 Y47.785
N7250 X7.972 Y47.611
N7255 X7.297 Y47.22
N7260 G3 X7.015 Y46.724 Z-5.374 I0.318 J-0.509
N7265 G1 X7.011 Y46.551 Z-5.337
N7270 X7.008 Y46.377 Z-5.3
N7275 X6.449 Y18.953
N7280 X6.445 Y18.78 Z-5.337
N7285 X6.442 Y18.631 Z-5.368
N7290 G3 X6.724 Y18.11 Z-5.5 I0.6 J-0.012
N7295 G1 X7.217 Y17.825
N7300 X7.351 Y17.757
N7305 X7.49 Y17.702
N7310 X7.635 Y17.663
N7315 X7.783 Y17.638
N7320 X7.932 Y17.625
N7325 X8.082 Y17.623
N7330 X8.232 Y17.629
N7335 X8.381 Y17.645
N7340 X8.53 Y17.669
N7345 X8.676 Y17.699
N7350 X8.826 Y17.738
N7355 X8.977 Y17.784
N7360 X9.14 Y17.841
N7365 X9.312 Y17.91
N7370 X9.485 Y17.989
N7375 X9.666 Y18.081
N7380 X9.859 Y18.19
N7385 X10.055 Y18.311
N7390 X10.254 Y18.448
N7395 X10.464 Y18.605
N7400 X10.683 Y18.784
N7405 X10.897 Y18.976
N7410 X11.121 Y19.195
N7415 X11.355 Y19.444
N7420 X11.591 Y19.718
N7425 X11.819 Y20.009
N7430 X12.057 Y20.34
N7435 X12.305 Y20.718
N7440 X12.548 Y21.129
N7445 X12.785 Y21.57
N7450 X13.025 Y22.068
N7455 X13.269 Y22.636
N7460 X13.506 Y23.26
N7465 X13.726 Y23.928
N7470 X13.946 Y24.707
N7475 X14.156 Y25.598
N7480 X14.328 Y26.497
N7485 X14.467 Y27.402
N7490 X14.58 Y28.311
N7495 X14.67 Y29.222
N7500 X14.742 Y30.134
N7505 X14.8 Y31.048
N7510 X14.845 Y31.962
N7515 X14.879 Y32.877
N7520 X14.905 Y33.792
N7525 X14.921 Y34.707
N7530 X14.929 Y35.623
N7535 X14.925 Y36.538
N7540 X14.909 Y37.453
N7545 X14.875 Y38.368
N7550 X14.819 Y39.282
N7555 X14.736 Y40.194
N7560 X14.621 Y41.079
N7565 X14.484 Y41.864
N7570 X14.337 Y42.537
N7575 X14.173 Y43.153
N7580 X13.996 Y43.721
N7585 X13.808 Y44.239
N7590 X13.621 Y44.695
N7595 X13.426 Y45.116
N7600 X13.225 Y45.506
N7605 X13.021 Y45.862
N7610 X12.823 Y46.174
N7615 X12.624 Y46.461
N7620 X12.423 Y46.724
N7625 X12.23 Y46.956
N7630 X12.038 Y47.167
N7635 X11.874 Y47.333
N7640 X11.696 Y47.497
N7645 X11.52 Y47.646
N7650 X11.378 Y47.756
N7655 X11.22 Y47.868
N7660 X11.052 Y47.976
N7665 X11.004 Y48.004
N7670 X10.632 Y48.179
N7675 X10.235 Y48.286
N7680 X9.826 Y48.322
N7685 X9.417 Y48.286
N7690 X9.02 Y48.178
N7695 X8.649 Y48.003
N7700 X8.254 Y47.773
N7705 X7.972 Y47.611
N7710 G3 X7.691 Y47.118 Z-5.374 I0.318 J-0.509
N7715 G1 X7.686 Y46.941 Z-5.337
N7720 X7.681 Y46.767 Z-5.3
N7725 X6.944 Y18.669
N7730 X6.939 Y18.495 Z-5.337
N7735 X6.935 Y18.35 Z-5.368
N7740 G3 X7.217 Y17.825 Z-5.5 I0.6 J-0.016
N7745 G1 X7.782 Y17.499
N7750 X7.916 Y17.431
N7755 X8.056 Y17.377
N7760 X8.201 Y17.338
N7765 X8.349 Y17.313
N7770 X8.498 Y17.298
N7775 X8.648 Y17.294
N7780 X8.798 Y17.299
N7785 X8.947 Y17.312
N7790 X9.096 Y17.332
N7795 X9.243 Y17.36
N7800 X9.397 Y17.396
N7805 X9.56 Y17.442
N7810 X9.725 Y17.496
N7815 X9.901 Y17.562
N7820 X10.088 Y17.642
N7825 X10.276 Y17.732
N7830 X10.472 Y17.837
N7835 X10.68 Y17.96
N7840 X10.894 Y18.1
N7845 X11.109 Y18.254
N7850 X11.333 Y18.43
N7855 X11.568 Y18.631
N7860 X11.803 Y18.851
N7865 X12.041 Y19.093
N7870 X12.288 Y19.369
N7875 X12.543 Y19.679
N7880 X12.793 Y20.01
N7885 X13.041 Y20.373
N7890 X13.3 Y20.787
N7895 X13.564 Y21.254
N7900 X13.818 Y21.753
N7905 X14.062 Y22.289
N7910 X14.31 Y22.903
N7915 X14.56 Y23.606
N7920 X14.796 Y24.379
N7925 X15.019 Y25.239
N7930 X15.21 Y26.135
N7935 X15.367 Y27.037
N7940 X15.495 Y27.943
N7945 X15.599 Y28.853
N7950 X15.683 Y29.764
N7955 X15.75 Y30.677
N7960 X15.804 Y31.591
N7965 X15.846 Y32.505
N7970 X15.877 Y33.42
N7975 X15.898 Y34.335
N7980 X15.91 Y35.251
N7985 X15.909 Y36.166
N7990 X15.895 Y37.081
N7995 X15.864 Y37.996
N8000 X15.813 Y38.91
N8005 X15.735 Y39.823
N8010 X15.627 Y40.732
N8015 X15.497 Y41.548
N8020 X15.343 Y42.299
N8025 X15.17 Y42.99
N8030 X14.982 Y43.621
N8035 X14.789 Y44.182
N8040 X14.588 Y44.69
N8045 X14.379 Y45.16
N8050 X14.162 Y45.594
N8055 X13.944 Y45.988
N8060 X13.728 Y46.34
N8065 X13.514 Y46.658
N8070 X13.298 Y46.95
N8075 X13.089 Y47.208
N8080 X12.886 Y47.438
N8085 X12.684 Y47.647
N8090 X12.516 Y47.806
N8095 X12.321 Y47.976
N8100 X12.153 Y48.111
N8105 X12.007 Y48.217
N8110 X11.833 Y48.332
N8115 X11.673 Y48.429
N8120 X11.537 Y48.503
N8125 X11.143 Y48.654
N8130 X10.728 Y48.731
N8135 X10.306 Y48.732
N8140 X9.891 Y48.657
N8145 X9.496 Y48.509
N8150 X9.134 Y48.292
N8155 X9.123 Y48.284
N8160 X8.966 Y48.189
N8165 X8.649 Y48.003
N8170 G3 X8.397 Y47.317 I0.321 J-0.507
N8175 G1 X8.425 Y47.227 Z-5.493
N8180 X8.452 Y47.14 Z-5.471
N8185 X8.478 Y47.057 Z-5.435
N8190 X8.502 Y46.98 Z-5.385
N8195 X8.523 Y46.912 Z-5.324
N8200 X8.541 Y46.854 Z-5.253
N8205 X8.556 Y46.807 Z-5.172
N8210 X8.567 Y46.772 Z-5.085
N8215 X8.573 Y46.751 Z-4.994
N8220 X8.576 Y46.744 Z-4.9
N8225 G0 Z5.
N8230 X6.947 Y18.591
N8235 Z-4.3
N8240 G1 Z-4.9 F900.
N8245 X6.951 Y18.584 Z-4.994
N8250 X6.962 Y18.565 Z-5.085
N8255 X6.979 Y18.534 Z-5.172
N8260 X7.003 Y18.491 Z-5.253
N8265 X7.033 Y18.438 Z-5.324
N8270 X7.068 Y18.375 Z-5.385
N8275 X7.107 Y18.305 Z-5.435
N8280 X7.15 Y18.229 Z-5.471
N8285 X7.195 Y18.149 Z-5.493
N8290 X7.241 Y18.067 Z-5.5
N8295 G3 X7.782 Y17.499 I1.381 J0.774
N8300 G1 X8.354 Y17.169
N8305 X8.488 Y17.1
N8310 X8.627 Y17.045
N8315 X8.772 Y17.005
N8320 X8.919 Y16.977
N8325 X9.068 Y16.96
N8330 X9.218 Y16.953
N8335 X9.368 Y16.955
N8340 X9.518 Y16.965
N8345 X9.667 Y16.983
N8350 X9.815 Y17.007
N8355 X9.974 Y17.041
N8360 X10.139 Y17.083
N8365 X10.309 Y17.134
N8370 X10.492 Y17.198
N8375 X10.683 Y17.275
N8380 X10.877 Y17.363
N8385 X11.082 Y17.467
N8390 X11.299 Y17.588
N8395 X11.516 Y17.723
N8400 X11.741 Y17.876
N8405 X11.979 Y18.054
N8410 X12.224 Y18.255
N8415 X12.466 Y18.471
N8420 X12.715 Y18.714
N8425 X12.976 Y18.991
N8430 X13.244 Y19.302
N8435 X13.502 Y19.63
N8440 X13.769 Y20.
N8445 X14.04 Y20.413
N8450 X14.316 Y20.876
N8455 X14.58 Y21.366
N8460 X14.843 Y21.91
N8465 X15.109 Y22.528
N8470 X15.374 Y23.225
N8475 X15.626 Y23.988
N8480 X15.862 Y24.818
N8485 X16.073 Y25.708
N8490 X16.248 Y26.607
N8495 X16.394 Y27.511
N8500 X16.513 Y28.418
N8505 X16.611 Y29.328
N8510 X16.69 Y30.24
N8515 X16.754 Y31.154
N8520 X16.804 Y32.068
N8525 X16.843 Y32.982
N8530 X16.87 Y33.897
N8535 X16.886 Y34.812
N8540 X16.89 Y35.728
N8545 X16.881 Y36.643
N8550 X16.854 Y37.558
N8555 X16.809 Y38.473
N8560 X16.74 Y39.385
N8565 X16.643 Y40.296
N8570 X16.512 Y41.202
N8575 X16.361 Y42.014
N8580 X16.188 Y42.756
N8585 X15.998 Y43.44
N8590 X15.792 Y44.071
N8595 X15.575 Y44.651
N8600 X15.356 Y45.165
N8605 X15.131 Y45.636
N8610 X14.899 Y46.073
N8615 X14.662 Y46.474
N8620 X14.43 Y46.831
N8625 X14.205 Y47.146
N8630 X13.977 Y47.438
N8635 X13.756 Y47.697
N8640 X13.543 Y47.926
N8645 X13.332 Y48.134
N8650 X13.14 Y48.307
N8655 X12.976 Y48.442
N8660 X12.781 Y48.59
N8665 X12.618 Y48.702
N8670 X12.473 Y48.792
N8675 X12.299 Y48.891
N8680 X12.137 Y48.974
N8685 X12.001 Y49.037
N8690 X11.963 Y49.052
N8695 X11.607 Y49.164
N8700 X11.237 Y49.217
N8705 X10.864 Y49.21
N8710 X10.497 Y49.142
N8715 X10.146 Y49.016
N8720 X9.819 Y48.835
N8725 X9.526 Y48.604
N8730 X9.331 Y48.436
N8735 X9.134 Y48.292
N8740 G3 X8.953 Y47.584 I0.371 J-0.472
N8745 G1 X8.99 Y47.498 Z-5.493
N8750 X9.026 Y47.414 Z-5.471
N8755 X9.06 Y47.334 Z-5.435
N8760 X9.091 Y47.26 Z-5.385
N8765 X9.119 Y47.194 Z-5.324
N8770 X9.143 Y47.138 Z-5.253
N8775 X9.163 Y47.092 Z-5.172
N8780 X9.177 Y47.059 Z-5.085
N8785 X9.186 Y47.039 Z-4.994
N8790 X9.189 Y47.032 Z-4.9
N8795 G0 Z5.
N8800 X7.521 Y18.262
N8805 Z-4.3
N8810 G1 Z-4.9 F900.
N8815 X7.525 Y18.256 Z-4.994
N8820 X7.535 Y18.236 Z-5.085
N8825 X7.553 Y18.205 Z-5.172
N8830 X7.577 Y18.162 Z-5.253
N8835 X7.607 Y18.109 Z-5.324
N8840 X7.642 Y18.046 Z-5.385
N8845 X7.681 Y17.976 Z-5.435
N8850 X7.723 Y17.9 Z-5.471
N8855 X7.768 Y17.82 Z-5.493
N8860 X7.814 Y17.738 Z-5.5
N8865 G3 X8.354 Y17.169 I1.382 J0.771
N8870 G1 X8.707 Y16.963
N8875 X8.943 Y16.825
N8880 X9.076 Y16.756
N8885 X9.215 Y16.7
N8890 X9.36 Y16.658
N8895 X9.507 Y16.628
N8900 X9.655 Y16.61
N8905 X9.805 Y16.601
N8910 X9.955 Y16.6
N8915 X10.105 Y16.608
N8920 X10.254 Y16.622
N8925 X10.404 Y16.644
N8930 X10.567 Y16.675
N8935 X10.735 Y16.715
N8940 X10.909 Y16.764
N8945 X11.098 Y16.826
N8950 X11.295 Y16.901
N8955 X11.494 Y16.986
N8960 X11.706 Y17.089
N8965 X11.931 Y17.209
N8970 X12.155 Y17.342
N8975 X12.388 Y17.495
N8980 X12.636 Y17.673
N8985 X12.891 Y17.873
N8990 X13.141 Y18.088
N8995 X13.402 Y18.333
N9000 X13.675 Y18.612
N9005 X13.955 Y18.925
N9010 X14.226 Y19.255
N9015 X14.503 Y19.625
N9020 X14.787 Y20.04
N9025 X15.077 Y20.507
N9030 X15.358 Y21.005
N9035 X15.635 Y21.551
N9040 X15.915 Y22.169
N9045 X16.193 Y22.859
N9050 X16.461 Y23.619
N9055 X16.713 Y24.447
N9060 X16.941 Y25.333
N9065 X17.133 Y26.229
N9070 X17.294 Y27.13
N9075 X17.427 Y28.035
N9080 X17.537 Y28.944
N9085 X17.628 Y29.855
N9090 X17.701 Y30.768
N9095 X17.76 Y31.681
N9100 X17.806 Y32.595
N9105 X17.839 Y33.51
N9110 X17.86 Y34.425
N9115 X17.869 Y35.341
N9120 X17.863 Y36.256
N9125 X17.841 Y37.171
N9130 X17.801 Y38.086
N9135 X17.738 Y38.999
N9140 X17.649 Y39.91
N9145 X17.531 Y40.818
N9150 X17.378 Y41.721
N9155 X17.206 Y42.518
N9160 X17.013 Y43.26
N9165 X16.802 Y43.945
N9170 X16.577 Y44.577
N9175 X16.341 Y45.16
N9180 X16.103 Y45.68
N9185 X15.862 Y46.152
N9190 X15.614 Y46.589
N9195 X15.363 Y46.99
N9200 X15.115 Y47.35
N9205 X14.876 Y47.668
N9210 X14.64 Y47.953
N9215 X14.407 Y48.212
N9220 X14.187 Y48.435
N9225 X13.969 Y48.639
N9230 X13.753 Y48.823
N9235 X13.561 Y48.974
N9240 X13.382 Y49.102
N9245 X13.185 Y49.23
N9250 X13.028 Y49.322
N9255 X12.861 Y49.411
N9260 X12.684 Y49.496
N9265 X12.539 Y49.558
N9270 X12.385 Y49.615
N9275 X12.332 Y49.633
N9280 X11.946 Y49.723
N9285 X11.551 Y49.747
N9290 X11.157 Y49.704
N9295 X10.776 Y49.595
N9300 X10.419 Y49.423
N9305 X10.097 Y49.193
N9310 X9.818 Y48.911
N9315 G3 X9.812 Y48.181 I0.473 J-0.369
N9320 G1 X9.869 Y48.106 Z-5.493
N9325 X9.924 Y48.033 Z-5.471
N9330 X9.977 Y47.964 Z-5.435
N9335 X10.025 Y47.9 Z-5.385
N9340 X10.068 Y47.842 Z-5.324
N9345 X10.105 Y47.794 Z-5.253
N9350 X10.135 Y47.754 Z-5.172
N9355 X10.157 Y47.726 Z-5.085
N9360 X10.17 Y47.708 Z-4.994
N9365 X10.174 Y47.702 Z-4.9
N9370 G0 Z5.
N9375 X8.114 Y17.922
N9380 Z-4.3
N9385 G1 Z-4.9 F900.
N9390 X8.118 Y17.915 Z-4.994
N9395 X8.129 Y17.896 Z-5.085
N9400 X8.146 Y17.864 Z-5.172
N9405 X8.17 Y17.821 Z-5.253
N9410 X8.199 Y17.768 Z-5.324
N9415 X8.234 Y17.705 Z-5.385
N9420 X8.273 Y17.635 Z-5.435
N9425 X8.315 Y17.559 Z-5.471
N9430 X8.359 Y17.479 Z-5.493
N9435 X8.405 Y17.397 Z-5.5
N9440 G3 X8.943 Y16.825 I1.385 J0.765
N9445 G1 X9.123 Y16.716
N9450 X9.331 Y16.564
N9455 X9.363 Y16.536
N9460 X9.481 Y16.444
N9465 X9.614 Y16.375
N9470 X9.754 Y16.32
N9475 X9.898 Y16.278
N9480 X10.045 Y16.248
N9485 X10.194 Y16.227
N9490 X10.343 Y16.216
N9495 X10.493 Y16.213
N9500 X10.643 Y16.217
N9505 X10.793 Y16.228
N9510 X10.951 Y16.248
N9515 X11.118 Y16.276
N9520 X11.288 Y16.312
N9525 X11.471 Y16.359
N9530 X11.667 Y16.419
N9535 X11.864 Y16.488
N9540 X12.074 Y16.573
N9545 X12.297 Y16.674
N9550 X12.524 Y16.789
N9555 X12.756 Y16.92
N9560 X13.001 Y17.073
N9565 X13.261 Y17.25
N9570 X13.517 Y17.443
N9575 X13.781 Y17.659
N9580 X14.055 Y17.905
N9585 X14.341 Y18.185
N9590 X14.624 Y18.486
N9595 X14.909 Y18.818
N9600 X15.204 Y19.193
N9605 X15.504 Y19.611
N9610 X15.807 Y20.074
N9615 X16.095 Y20.559
N9620 X16.389 Y21.108
N9625 X16.687 Y21.726
N9630 X16.982 Y22.414
N9635 X17.267 Y23.167
N9640 X17.529 Y23.963
N9645 X17.777 Y24.844
N9650 X17.989 Y25.735
N9655 X18.167 Y26.633
N9660 X18.317 Y27.536
N9665 X18.442 Y28.443
N9670 X18.547 Y29.352
N9675 X18.632 Y30.264
N9680 X18.702 Y31.176
N9685 X18.757 Y32.09
N9690 X18.799 Y33.005
N9695 X18.827 Y33.92
N9700 X18.842 Y34.835
N9705 X18.843 Y35.75
N9710 X18.828 Y36.666
N9715 X18.795 Y37.58
N9720 X18.742 Y38.494
N9725 X18.665 Y39.406
N9730 X18.561 Y40.316
N9735 X18.426 Y41.221
N9740 X18.256 Y42.121
N9745 X18.061 Y42.948
N9750 X17.853 Y43.688
N9755 X17.629 Y44.372
N9760 X17.39 Y45.006
N9765 X17.138 Y45.594
N9770 X16.877 Y46.138
N9775 X16.616 Y46.624
N9780 X16.358 Y47.06
N9785 X16.096 Y47.462
N9790 X15.833 Y47.829
N9795 X15.574 Y48.159
N9800 X15.325 Y48.45
N9805 X15.08 Y48.711
N9810 X14.837 Y48.949
N9815 X14.607 Y49.155
N9820 X14.382 Y49.341
N9825 X14.161 Y49.507
N9830 X13.954 Y49.648
N9835 X13.774 Y49.761
N9840 X13.564 Y49.879
N9845 X13.392 Y49.967
N9850 X13.232 Y50.04
N9855 X13.045 Y50.115
N9860 X12.883 Y50.173
N9865 X12.739 Y50.217
N9870 X12.568 Y50.261
N9875 X12.405 Y50.296
N9880 X12.386 Y50.299
N9885 X11.999 Y50.33
N9890 X11.611 Y50.295
N9895 X11.236 Y50.195
N9900 X10.882 Y50.033
N9905 X10.561 Y49.813
N9910 X10.282 Y49.542
N9915 X10.054 Y49.228
N9920 G3 X10.132 Y48.501 I0.512 J-0.312
N9925 G1 X10.197 Y48.433 Z-5.493
N9930 X10.26 Y48.367 Z-5.471
N9935 X10.32 Y48.304 Z-5.435
N9940 X10.375 Y48.246 Z-5.385
N9945 X10.425 Y48.194 Z-5.324
N9950 X10.467 Y48.15 Z-5.253
N9955 X10.501 Y48.115 Z-5.172
N9960 X10.526 Y48.089 Z-5.085
N9965 X10.541 Y48.073 Z-4.994
N9970 X10.546 Y48.067 Z-4.9
N9975 G0 Z5.
N9980 X8.747 Y17.765
N9985 Z-4.3
N9990 G1 Z-4.9 F900.
N9995 X8.749 Y17.758 Z-4.994
N10000 X8.756 Y17.737 Z-5.085
N10005 X8.768 Y17.703 Z-5.172
N10010 X8.783 Y17.657 Z-5.253
N10015 X8.803 Y17.599 Z-5.324
N10020 X8.825 Y17.531 Z-5.385
N10025 X8.851 Y17.455 Z-5.435
N10030 X8.878 Y17.372 Z-5.471
N10035 X8.907 Y17.285 Z-5.493
N10040 X8.937 Y17.196 Z-5.5
N10045 G3 X9.363 Y16.536 I1.501 J0.502
N10050 G1 X9.526 Y16.396
N10055 X9.538 Y16.384
N10060 X9.695 Y16.228
N10065 X9.806 Y16.127
N10070 X9.93 Y16.042
N10075 X10.063 Y15.973
N10080 X10.202 Y15.916
N10085 X10.345 Y15.872
N10090 X10.491 Y15.837
N10095 X10.639 Y15.813
N10100 X10.788 Y15.796
N10105 X10.938 Y15.788
N10110 X11.088
N10115 X11.242 Y15.794
N10120 X11.401 Y15.808
N10125 X11.568 Y15.829
N10130 X11.748 Y15.86
N10135 X11.938 Y15.902
N10140 X12.131 Y15.953
N10145 X12.338 Y16.018
N10150 X12.558 Y16.097
N10155 X12.78 Y16.188
N10160 X13.011 Y16.295
N10165 X13.256 Y16.422
N10170 X13.512 Y16.568
N10175 X13.767 Y16.729
N10180 X14.034 Y16.915
N10185 X14.313 Y17.127
N10190 X14.602 Y17.367
N10195 X14.884 Y17.624
N10200 X15.178 Y17.915
N10205 X15.484 Y18.245
N10210 X15.795 Y18.613
N10215 X16.103 Y19.01
N10220 X16.405 Y19.436
N10225 X16.716 Y19.92
N10230 X17.034 Y20.464
N10235 X17.355 Y21.071
N10240 X17.659 Y21.715
N10245 X17.948 Y22.401
N10250 X18.235 Y23.174
N10255 X18.511 Y24.033
N10260 X18.754 Y24.916
N10265 X18.962 Y25.807
N10270 X19.139 Y26.706
N10275 X19.289 Y27.609
N10280 X19.415 Y28.515
N10285 X19.521 Y29.425
N10290 X19.608 Y30.336
N10295 X19.679 Y31.249
N10300 X19.734 Y32.162
N10305 X19.776 Y33.077
N10310 X19.804 Y33.992
N10315 X19.817 Y34.907
N10320 X19.815 Y35.822
N10325 X19.797 Y36.738
N10330 X19.76 Y37.652
N10335 X19.703 Y38.566
N10340 X19.621 Y39.478
N10345 X19.514 Y40.387
N10350 X19.376 Y41.292
N10355 X19.204 Y42.191
N10360 X19.004 Y43.038
N10365 X18.782 Y43.827
N10370 X18.54 Y44.56
N10375 X18.283 Y45.238
N10380 X18.024 Y45.84
N10385 X17.758 Y46.393
N10390 X17.482 Y46.907
N10395 X17.201 Y47.38
N10400 X16.918 Y47.812
N10405 X16.644 Y48.194
N10410 X16.372 Y48.54
N10415 X16.1 Y48.857
N10420 X15.829 Y49.145
N10425 X15.572 Y49.396
N10430 X15.32 Y49.622
N10435 X15.073 Y49.824
N10440 X14.834 Y50.004
N10445 X14.602 Y50.162
N10450 X14.379 Y50.301
N10455 X14.156 Y50.427
N10460 X13.947 Y50.533
N10465 X13.768 Y50.614
N10470 X13.559 Y50.698
N10475 X13.382 Y50.761
N10480 X13.225 Y50.808
N10485 X13.04 Y50.856
N10490 X12.873 Y50.891
N10495 X12.725 Y50.916
N10500 X12.563 Y50.936
N10505 X12.396 Y50.948
N10510 X12.246 Y50.953
N10515 X12.096 Y50.951
N10520 X12.078 Y50.95
N10525 X11.692 Y50.889
N10530 X11.325 Y50.757
N10535 X10.99 Y50.559
N10540 X10.698 Y50.3
N10545 X10.459 Y49.991
N10550 X10.284 Y49.643
N10555 X10.162 Y49.407
N10560 X10.054 Y49.228
N10565 G3 X10.16 Y48.505 I0.524 J-0.292
N10570 G1 X10.227 Y48.439 Z-5.493
N10575 X10.293 Y48.376 Z-5.471
N10580 X10.355 Y48.315 Z-5.435
N10585 X10.413 Y48.259 Z-5.385
N10590 X10.464 Y48.209 Z-5.324
N10595 X10.508 Y48.167 Z-5.253
N10600 X10.543 Y48.132 Z-5.172
N10605 X10.569 Y48.107 Z-5.085
N10610 X10.585 Y48.092 Z-4.994
N10615 X10.59 Y48.087 Z-4.9
N10620 G0 Z5.
N10625 X9.171 Y17.499
N10630 Z-4.3
N10635 G1 Z-4.9 F900.
N10640 X9.173 Y17.492 Z-4.994
N10645 X9.178 Y17.47 Z-5.085
N10650 X9.187 Y17.435 Z-5.172
N10655 X9.199 Y17.388 Z-5.253
N10660 X9.214 Y17.328 Z-5.324
N10665 X9.232 Y17.259 Z-5.385
N10670 X9.252 Y17.181 Z-5.435
N10675 X9.273 Y17.097 Z-5.471
N10680 X9.296 Y17.008 Z-5.493
N10685 X9.319 Y16.917 Z-5.5
N10690 G3 X9.695 Y16.228 I1.534 J0.389
N10695 G1 X9.735 Y16.188
N10700 X9.908 Y15.98
N10705 X9.954 Y15.924
N10710 X9.971 Y15.899
N10715 X10.059 Y15.778
N10720 X10.174 Y15.682
N10725 X10.3 Y15.6
N10730 X10.434 Y15.531
N10735 X10.572 Y15.474
N10740 X10.714 Y15.426
N10745 X10.86 Y15.388
N10750 X11.007 Y15.359
N10755 X11.155 Y15.338
N10760 X11.305 Y15.325
N10765 X11.455 Y15.318
N10770 X11.612
N10775 X11.774 Y15.325
N10780 X11.95 Y15.341
N10785 X12.137 Y15.366
N10790 X12.327 Y15.399
N10795 X12.53 Y15.444
N10800 X12.746 Y15.502
N10805 X12.969 Y15.572
N10810 X13.196 Y15.655
N10815 X13.438 Y15.755
N10820 X13.694 Y15.874
N10825 X13.952 Y16.008
N10830 X14.216 Y16.16
N10835 X14.493 Y16.336
N10840 X14.784 Y16.539
N10845 X15.078 Y16.764
N10850 X15.373 Y17.011
N10855 X15.68 Y17.291
N10860 X15.996 Y17.606
N10865 X16.32 Y17.958
N10870 X16.635 Y18.331
N10875 X16.955 Y18.747
N10880 X17.286 Y19.218
N10885 X17.621 Y19.74
N10890 X17.953 Y20.312
N10895 X18.272 Y20.919
N10900 X18.579 Y21.573
N10905 X18.887 Y22.308
N10910 X19.185 Y23.121
N10915 X19.464 Y23.993
N10920 X19.705 Y24.876
N10925 X19.914 Y25.767
N10930 X20.093 Y26.665
N10935 X20.245 Y27.567
N10940 X20.375 Y28.474
N10945 X20.484 Y29.383
N10950 X20.574 Y30.294
N10955 X20.647 Y31.206
N10960 X20.705 Y32.12
N10965 X20.748 Y33.034
N10970 X20.776 Y33.949
N10975 X20.79 Y34.864
N10980 X20.788 Y35.78
N10985 X20.769 Y36.695
N10990 X20.731 Y37.61
N10995 X20.673 Y38.523
N11000 X20.591 Y39.435
N11005 X20.484 Y40.344
N11010 X20.348 Y41.249
N11015 X20.179 Y42.149
N11020 X19.977 Y43.031
N11025 X19.748 Y43.86
N11030 X19.499 Y44.628
N11035 X19.234 Y45.338
N11040 X18.956 Y45.996
N11045 X18.669 Y46.6
N11050 X18.383 Y47.14
N11055 X18.093 Y47.636
N11060 X17.796 Y48.094
N11065 X17.496 Y48.516
N11070 X17.198 Y48.899
N11075 X16.911 Y49.238
N11080 X16.625 Y49.546
N11085 X16.341 Y49.826
N11090 X16.06 Y50.081
N11095 X15.787 Y50.308
N11100 X15.526 Y50.505
N11105 X15.267 Y50.685
N11110 X15.014 Y50.844
N11115 X14.772 Y50.982
N11120 X14.537 Y51.103
N11125 X14.309 Y51.208
N11130 X14.084 Y51.3
N11135 X13.862 Y51.379
N11140 X13.648 Y51.446
N11145 X13.456 Y51.496
N11150 X13.286 Y51.533
N11155 X13.087 Y51.568
N11160 X12.913 Y51.59
N11165 X12.764 Y51.602
N11170 X12.604 Y51.608
N11175 X12.437
N11180 X12.05 Y51.57
N11185 X11.677 Y51.46
N11190 X11.332 Y51.284
N11195 X11.024 Y51.047
N11200 X10.767 Y50.756
N11205 X10.567 Y50.423
N11210 X10.433 Y50.059
N11215 X10.37 Y49.863
N11220 X10.284 Y49.643
N11225 G3 X10.511 Y48.949 I0.566 J-0.199
N11230 G1 X10.588 Y48.896 Z-5.493
N11235 X10.664 Y48.844 Z-5.471
N11240 X10.736 Y48.795 Z-5.435
N11245 X10.802 Y48.75 Z-5.385
N11250 X10.861 Y48.709 Z-5.324
N11255 X10.912 Y48.675 Z-5.253
N11260 X10.952 Y48.647 Z-5.172
N11265 X10.982 Y48.627 Z-5.085
N11270 X11. Y48.614 Z-4.994
N11275 X11.006 Y48.61 Z-4.9
N11280 G0 Z5.
N11285 X9.714 Y17.249
N11290 Z-4.3
N11295 G1 Z-4.9 F900.
N11300 Y17.242 Z-4.994
N11305 X9.715 Y17.22 Z-5.085
N11310 X9.717 Y17.184 Z-5.172
N11315 X9.719 Y17.135 Z-5.253
N11320 X9.722 Y17.074 Z-5.324
N11325 X9.725 Y17.002 Z-5.385
N11330 X9.729 Y16.922 Z-5.435
N11335 X9.733 Y16.835 Z-5.471
N11340 X9.737 Y16.744 Z-5.493
N11345 X9.741 Y16.65 Z-5.5
N11350 G3 X9.971 Y15.899 I1.581 J0.072
N11355 G1 X10.054 Y15.772
N11360 X10.162 Y15.593
N11365 X10.177 Y15.565
N11370 X10.252 Y15.435
N11375 X10.355 Y15.325
N11380 X10.47 Y15.23
N11385 X10.595 Y15.147
N11390 X10.727 Y15.074
N11395 X10.863 Y15.013
N11400 X11.004 Y14.96
N11405 X11.147 Y14.916
N11410 X11.293 Y14.881
N11415 X11.44 Y14.853
N11420 X11.589 Y14.833
N11425 X11.74 Y14.819
N11430 X11.898 Y14.811
N11435 X12.068 Y14.81
N11440 X12.25 Y14.817
N11445 X12.435 Y14.832
N11450 X12.633 Y14.857
N11455 X12.844 Y14.893
N11460 X13.063 Y14.941
N11465 X13.286 Y14.999
N11470 X13.524 Y15.072
N11475 X13.777 Y15.162
N11480 X14.034 Y15.267
N11485 X14.296 Y15.387
N11490 X14.572 Y15.529
N11495 X14.862 Y15.693
N11500 X15.159 Y15.88
N11505 X15.455 Y16.083
N11510 X15.765 Y16.318
N11515 X16.084 Y16.582
N11520 X16.414 Y16.879
N11525 X16.742 Y17.202
N11530 X17.069 Y17.554
N11535 X17.409 Y17.952
N11540 X17.757 Y18.399
N11545 X18.108 Y18.891
N11550 X18.454 Y19.424
N11555 X18.783 Y19.982
N11560 X19.114 Y20.604
N11565 X19.445 Y21.298
N11570 X19.77 Y22.064
N11575 X20.081 Y22.895
N11580 X20.365 Y23.765
N11585 X20.612 Y24.646
N11590 X20.828 Y25.536
N11595 X21.014 Y26.432
N11600 X21.174 Y27.334
N11605 X21.31 Y28.239
N11610 X21.426 Y29.147
N11615 X21.522 Y30.057
N11620 X21.601 Y30.969
N11625 X21.664 Y31.883
N11630 X21.712 Y32.797
N11635 X21.744 Y33.712
N11640 X21.761 Y34.627
N11645 X21.763 Y35.542
N11650 X21.747 Y36.458
N11655 X21.713 Y37.372
N11660 X21.659 Y38.286
N11665 X21.582 Y39.199
N11670 X21.481 Y40.108
N11675 X21.352 Y41.015
N11680 X21.193 Y41.916
N11685 X21. Y42.811
N11690 X20.771 Y43.697
N11695 X20.524 Y44.509
N11700 X20.259 Y45.261
N11705 X19.977 Y45.96
N11710 X19.683 Y46.609
N11715 X19.377 Y47.211
N11720 X19.063 Y47.769
N11725 X18.748 Y48.275
N11730 X18.439 Y48.727
N11735 X18.126 Y49.144
N11740 X17.81 Y49.529
N11745 X17.495 Y49.881
N11750 X17.184 Y50.199
N11755 X16.883 Y50.481
N11760 X16.586 Y50.736
N11765 X16.292 Y50.968
N11770 X16.001 Y51.176
N11775 X15.717 Y51.362
N11780 X15.441 Y51.526
N11785 X15.173 Y51.67
N11790 X14.912 Y51.796
N11795 X14.655 Y51.906
N11800 X14.409 Y51.999
N11805 X14.175 Y52.076
N11810 X14.125 Y52.09
N11815 X13.826 Y52.154
N11820 X13.522 Y52.178
N11825 X13.218 Y52.162
N11830 X12.24 Y52.047
N11835 X12.125 Y52.038
N11840 X11.973 Y52.018
N11845 X11.661 Y51.934
N11850 X11.37 Y51.793
N11855 X11.11 Y51.602
N11860 X10.889 Y51.367
N11865 X10.714 Y51.095
N11870 X10.592 Y50.796
N11875 X10.527 Y50.479
N11880 G3 X11.08 Y49.835 Z-5.3 I0.598 J-0.046
N11885 X11.545 Y50.005 I0.046 J0.598
N11890 G1 X12.572 Y51.01
N11895 G3 X12.752 Y51.466 I-0.42 J0.429
N11900 X12.125 Y52.038 Z-5.5 I-0.599 J-0.027
N11905 G1 X12.032 Y52.031
N11910 X11.824 Y52.022
N11915 X11.616 Y52.031
N11920 X11.466 Y52.037
N11925 X11.225 Y51.974
N11930 X11.005 Y51.855
N11935 X10.82 Y51.688
N11940 X10.679 Y51.482
N11945 X10.592 Y51.248
N11950 X10.562 Y51.
N11955 G3 X11.025 Y50.225 Z-5.3 I0.933 J0.032
N11960 X11.659 Y50.113 I0.47 J0.807
N11965 X12.355 Y51.507 I-0.171 J0.956
N11970 X11.616 Y52.031 Z-5.5 I-0.866 J-0.438
N11975 G1 X11.409 Y52.051
N11980 X11.266 Y52.071
N11985 X11.23 Y52.077
N11990 X11.201 Y52.081
N11995 X11.051 Y52.075
N12000 X11.015 Y52.065
N12005 X10.876 Y52.011
N12010 X10.752 Y51.93
N12015 X10.648 Y51.825
N12020 G3 X11.42 Y51.106 I0.46 J-0.281
N12025 X11.201 Y52.081 I-0.315 J0.442
N12030 G1 X11.097 Y52.082
N12035 X11.045 Y52.076
N12040 X10.993 Y52.065
N12045 X10.941 Y52.049
N12050 X10.889 Y52.027
N12055 X10.837 Y52.
N12060 X10.785 Y51.965
N12065 X10.741 Y51.929
N12070 X10.69 Y51.877
N12075 X10.648 Y51.825
N12080 X10.613 Y51.773
N12085 X10.586 Y51.721
N12090 X10.577 Y51.701
N12095 X10.547 Y51.607
N12100 X10.532 Y51.513
N12105 X10.543 Y51.306
N12110 X10.549 Y51.243
N12115 G3 X11.062 Y50.723 I0.595 J0.075
N12120 G1 X11.155 Y50.71 Z-5.493
N12125 X11.246 Y50.698 Z-5.471
N12130 X11.332 Y50.686 Z-5.435
N12135 X11.411 Y50.675 Z-5.385
N12140 X11.482 Y50.665 Z-5.324
N12145 X11.543 Y50.657 Z-5.253
N12150 X11.592 Y50.65 Z-5.172
N12155 X11.627 Y50.645 Z-5.085
N12160 X11.649 Y50.642 Z-4.994
N12165 X11.657 Y50.641 Z-4.9
N12170 G0 Z5.
N12175 X10.067 Y16.935
N12180 Z-4.3
N12185 G1 Z-4.9 F900.
N12190 Y16.928 Z-4.994
N12195 X10.066 Y16.906 Z-5.085
N12200 X10.063 Y16.87 Z-5.172
N12205 X10.06 Y16.821 Z-5.253
N12210 X10.056 Y16.76 Z-5.324
N12215 X10.052 Y16.688 Z-5.385
N12220 X10.047 Y16.608 Z-5.435
N12225 X10.041 Y16.521 Z-5.471
N12230 X10.036 Y16.43 Z-5.493
N12235 X10.03 Y16.336 Z-5.5
N12240 G3 X10.177 Y15.565 I1.579 J-0.099
N12245 G1 X10.284 Y15.357
N12250 X10.328 Y15.242
N12255 X10.39 Y15.106
N12260 X10.475 Y14.982
N12265 X10.576 Y14.872
N12270 X10.689 Y14.773
N12275 X10.811 Y14.685
N12280 X10.939 Y14.608
N12285 X11.073 Y14.54
N12290 X11.211 Y14.48
N12295 X11.352 Y14.429
N12300 X11.496 Y14.386
N12305 X11.641 Y14.35
N12310 X11.788 Y14.321
N12315 X11.939 Y14.298
N12320 X12.102 Y14.281
N12325 X12.276 Y14.27
N12330 X12.454 Y14.266
N12335 X12.645 Y14.271
N12340 X12.849 Y14.285
N12345 X13.062 Y14.308
N12350 X13.28 Y14.342
N12355 X13.511 Y14.388
N12360 X13.757 Y14.449
N12365 X14.012 Y14.523
N12370 X14.27 Y14.611
N12375 X14.541 Y14.717
N12380 X14.827 Y14.843
N12385 X15.124 Y14.99
N12390 X15.42 Y15.152
N12395 X15.728 Y15.339
N12400 X16.049 Y15.554
N12405 X16.38 Y15.797
N12410 X16.718 Y16.068
N12415 X17.05 Y16.359
N12420 X17.395 Y16.689
N12425 X17.752 Y17.061
N12430 X18.116 Y17.475
N12435 X18.481 Y17.929
N12440 X18.833 Y18.408
N12445 X19.183 Y18.929
N12450 X19.537 Y19.512
N12455 X19.894 Y20.159
N12460 X20.247 Y20.872
N12465 X20.588 Y21.644
N12470 X20.913 Y22.474
N12475 X21.209 Y23.34
N12480 X21.469 Y24.218
N12485 X21.697 Y25.105
N12490 X21.896 Y25.998
N12495 X22.068 Y26.897
N12500 X22.216 Y27.801
N12505 X22.342 Y28.707
N12510 X22.449 Y29.617
N12515 X22.537 Y30.528
N12520 X22.609 Y31.44
N12525 X22.664 Y32.354
N12530 X22.704 Y33.269
N12535 X22.728 Y34.184
N12540 X22.736 Y35.099
N12545 X22.728 Y36.015
N12550 X22.702 Y36.93
N12555 X22.656 Y37.844
N12560 X22.589 Y38.757
N12565 X22.499 Y39.668
N12570 X22.383 Y40.576
N12575 X22.239 Y41.48
N12580 X22.065 Y42.379
N12585 X21.858 Y43.27
N12590 X21.616 Y44.153
N12595 X21.348 Y44.985
N12600 X21.061 Y45.76
N12605 X20.764 Y46.467
N12610 X20.456 Y47.119
N12615 X20.137 Y47.724
N12620 X19.809 Y48.285
N12625 X19.475 Y48.805
N12630 X19.135 Y49.286
N12635 X18.796 Y49.723
N12640 X18.465 Y50.114
N12645 X18.134 Y50.472
N12650 X17.802 Y50.801
N12655 X17.471 Y51.102
N12660 X17.142 Y51.376
N12665 X16.822 Y51.62
N12670 X16.51 Y51.837
N12675 X16.203 Y52.031
N12680 X16.165 Y52.053
N12685 X15.802 Y52.221
N12690 X15.417 Y52.325
N12695 X15.019 Y52.362
N12700 X14.941
N12705 X14.733 Y52.341
N12710 X13.218 Y52.162
N12715 G3 X12.713 Y51.635 I0.091 J-0.593
N12720 G1 X12.702 Y51.541 Z-5.493
N12725 X12.692 Y51.45 Z-5.471
N12730 X12.683 Y51.364 Z-5.435
N12735 X12.674 Y51.284 Z-5.385
N12740 X12.666 Y51.213 Z-5.324
N12745 X12.66 Y51.152 Z-5.253
N12750 X12.654 Y51.103 Z-5.172
N12755 X12.65 Y51.067 Z-5.085
N12760 X12.648 Y51.046 Z-4.994
N12765 X12.647 Y51.038 Z-4.9
N12770 G0 Z5.
N12775 X10.357 Y16.617
N12780 Z-4.3
N12785 G1 Z-4.9 F900.
N12790 X10.356 Y16.61 Z-4.994
N12795 X10.353 Y16.588 Z-5.085
N12800 X10.347 Y16.552 Z-5.172
N12805 X10.339 Y16.504 Z-5.253
N12810 X10.329 Y16.443 Z-5.324
N12815 X10.317 Y16.373 Z-5.385
N12820 X10.304 Y16.294 Z-5.435
N12825 X10.29 Y16.208 Z-5.471
N12830 X10.275 Y16.117 Z-5.493
N12835 X10.26 Y16.025 Z-5.5
N12840 G3 X10.328 Y15.242 I1.561 J-0.257
N12845 G1 X10.37 Y15.137
N12850 X10.433 Y14.941
N12855 X10.442 Y14.907
N12860 X10.488 Y14.764
N12865 X10.556 Y14.63
N12870 X10.643 Y14.508
N12875 X10.743 Y14.396
N12880 X10.853 Y14.295
N12885 X10.972 Y14.203
N12890 X11.097 Y14.121
N12895 X11.228 Y14.047
N12900 X11.363 Y13.981
N12905 X11.501 Y13.922
N12910 X11.642 Y13.872
N12915 X11.785 Y13.828
N12920 X11.931 Y13.79
N12925 X12.084 Y13.758
N12930 X12.251 Y13.73
N12935 X12.426 Y13.709
N12940 X12.608 Y13.695
N12945 X12.803 Y13.689
N12950 X13.011 Y13.691
N12955 X13.226 Y13.702
N12960 X13.448 Y13.724
N12965 X13.685 Y13.757
N12970 X13.937 Y13.804
N12975 X14.196 Y13.864
N12980 X14.46 Y13.937
N12985 X14.738 Y14.027
N12990 X15.03 Y14.137
N12995 X15.336 Y14.266
N13000 X15.641 Y14.412
N13005 X15.957 Y14.58
N13010 X16.285 Y14.773
N13015 X16.626 Y14.993
N13020 X16.977 Y15.243
N13025 X17.323 Y15.513
N13030 X17.68 Y15.817
N13035 X18.048 Y16.16
N13040 X18.423 Y16.539
N13045 X18.801 Y16.958
N13050 X19.18 Y17.416
N13055 X19.545 Y17.898
N13060 X19.916 Y18.436
N13065 X20.293 Y19.037
N13070 X20.67 Y19.698
N13075 X21.041 Y20.422
N13080 X21.398 Y21.2
N13085 X21.738 Y22.034
N13090 X22.046 Y22.896
N13095 X22.319 Y23.77
N13100 X22.559 Y24.653
N13105 X22.77 Y25.544
N13110 X22.954 Y26.441
N13115 X23.114 Y27.342
N13120 X23.251 Y28.247
N13125 X23.368 Y29.155
N13130 X23.466 Y30.065
N13135 X23.547 Y30.977
N13140 X23.611 Y31.89
N13145 X23.659 Y32.804
N13150 X23.691 Y33.719
N13155 X23.706 Y34.635
N13160 Y35.55
N13165 X23.687 Y36.465
N13170 X23.65 Y37.38
N13175 X23.593 Y38.293
N13180 X23.514 Y39.205
N13185 X23.411 Y40.115
N13190 X23.282 Y41.021
N13195 X23.125 Y41.923
N13200 X22.938 Y42.819
N13205 X22.718 Y43.708
N13210 X22.464 Y44.588
N13215 X22.182 Y45.431
N13220 X21.88 Y46.216
N13225 X21.562 Y46.946
N13230 X21.238 Y47.612
N13235 X20.903 Y48.228
N13240 X20.556 Y48.805
N13245 X20.204 Y49.338
N13250 X19.846 Y49.831
N13255 X19.484 Y50.286
N13260 X19.121 Y50.705
N13265 X18.764 Y51.082
N13270 X18.412 Y51.423
N13275 X18.063 Y51.732
N13280 X17.946 Y51.826
N13285 X17.623 Y52.047
N13290 X17.268 Y52.21
N13295 X16.89 Y52.311
N13300 X16.501 Y52.348
N13305 X15.564 Y52.358
N13310 X15.019 Y52.362
N13315 G3 X14.452 Y51.9 I0.017 J-0.6
N13320 G1 X14.431 Y51.809 Z-5.493
N13325 X14.409 Y51.72 Z-5.471
N13330 X14.389 Y51.635 Z-5.435
N13335 X14.371 Y51.557 Z-5.385
N13340 X14.354 Y51.488 Z-5.324
N13345 X14.34 Y51.428 Z-5.253
N13350 X14.329 Y51.38 Z-5.172
N13355 X14.321 Y51.345 Z-5.085
N13360 X14.315 Y51.324 Z-4.994
N13365 X14.314 Y51.317 Z-4.9
N13370 G0 Z5.
N13375 X10.627 Y16.269
N13380 Z-4.3
N13385 G1 Z-4.9 F900.
N13390 X10.625 Y16.262 Z-4.994
N13395 X10.619 Y16.241 Z-5.085
N13400 X10.609 Y16.206 Z-5.172
N13405 X10.596 Y16.159 Z-5.253
N13410 X10.579 Y16.1 Z-5.324
N13415 X10.559 Y16.031 Z-5.385
N13420 X10.537 Y15.954 Z-5.435
N13425 X10.514 Y15.87 Z-5.471
N13430 X10.489 Y15.782 Z-5.493
N13435 X10.463 Y15.692 Z-5.5
N13440 G3 X10.442 Y14.907 I1.522 J-0.433
N13445 G1 X10.488 Y14.733
N13450 X10.527 Y14.526
N13455 X10.531 Y14.491
N13460 X10.555 Y14.343
N13465 X10.618 Y14.207
N13470 X10.698 Y14.08
N13475 X10.792 Y13.963
N13480 X10.895 Y13.854
N13485 X11.007 Y13.754
N13490 X11.126 Y13.663
N13495 X11.25 Y13.579
N13500 X11.38 Y13.503
N13505 X11.513 Y13.434
N13510 X11.65 Y13.372
N13515 X11.789 Y13.317
N13520 X11.934 Y13.267
N13525 X12.087 Y13.222
N13530 X12.247 Y13.182
N13535 X12.419 Y13.147
N13540 X12.605 Y13.118
N13545 X12.798 Y13.096
N13550 X12.999 Y13.082
N13555 X13.213 Y13.076
N13560 X13.441 Y13.08
N13565 X13.679 Y13.095
N13570 X13.922 Y13.12
N13575 X14.181 Y13.159
N13580 X14.453 Y13.211
N13585 X14.738 Y13.279
N13590 X15.026 Y13.362
N13595 X15.324 Y13.461
N13600 X15.638 Y13.581
N13605 X15.967 Y13.723
N13610 X16.305 Y13.887
N13615 X16.641 Y14.069
N13620 X16.988 Y14.277
N13625 X17.349 Y14.515
N13630 X17.723 Y14.785
N13635 X18.107 Y15.089
N13640 X18.488 Y15.419
N13645 X18.869 Y15.778
N13650 X19.255 Y16.175
N13655 X19.648 Y16.617
N13660 X20.047 Y17.106
N13665 X20.451 Y17.648
N13670 X20.852 Y18.239
N13675 X21.234 Y18.857
N13680 X21.617 Y19.542
N13685 X21.995 Y20.292
N13690 X22.361 Y21.105
N13695 X22.7 Y21.955
N13700 X23.003 Y22.819
N13705 X23.273 Y23.693
N13710 X23.513 Y24.577
N13715 X23.724 Y25.468
N13720 X23.909 Y26.364
N13725 X24.07 Y27.265
N13730 X24.21 Y28.17
N13735 X24.329 Y29.078
N13740 X24.429 Y29.988
N13745 X24.511 Y30.899
N13750 X24.577 Y31.812
N13755 X24.626 Y32.726
N13760 X24.66 Y33.641
N13765 X24.677 Y34.557
N13770 Y35.472
N13775 X24.659 Y36.387
N13780 X24.623 Y37.302
N13785 X24.567 Y38.216
N13790 X24.489 Y39.128
N13795 X24.389 Y40.038
N13800 X24.263 Y40.944
N13805 X24.111 Y41.847
N13810 X23.93 Y42.744
N13815 X23.718 Y43.635
N13820 X23.473 Y44.517
N13825 X23.193 Y45.389
N13830 X22.891 Y46.21
N13835 X22.572 Y46.971
N13840 X22.236 Y47.687
N13845 X21.884 Y48.358
N13850 X21.519 Y48.985
N13855 X21.145 Y49.569
N13860 X20.763 Y50.111
N13865 X20.379 Y50.609
N13870 X20.001 Y51.057
N13875 X19.7 Y51.385
N13880 X19.5 Y51.584
N13885 X19.214 Y51.827
N13890 X18.892 Y52.02
N13895 X18.543 Y52.16
N13900 X18.177 Y52.241
N13905 X17.85 Y52.287
N13910 X17.642 Y52.306
N13915 X17.227 Y52.331
N13920 X17.019 Y52.343
N13925 X16.501 Y52.348
N13930 G3 X15.932 Y51.89 I0.014 J-0.6
N13935 G1 X15.91 Y51.799 Z-5.493
N13940 X15.888 Y51.71 Z-5.471
N13945 X15.868 Y51.625 Z-5.435
N13950 X15.849 Y51.547 Z-5.385
N13955 X15.832 Y51.477 Z-5.324
N13960 X15.818 Y51.418 Z-5.253
N13965 X15.806 Y51.37 Z-5.172
N13970 X15.798 Y51.335 Z-5.085
N13975 X15.793 Y51.314 Z-4.994
N13980 X15.791 Y51.307 Z-4.9
N13985 G0 Z5.
N13990 X10.915 Y15.811
N13995 Z-4.3
N14000 G1 Z-4.9 F900.
N14005 X10.912 Y15.804 Z-4.994
N14010 X10.903 Y15.784 Z-5.085
N14015 X10.888 Y15.751 Z-5.172
N14020 X10.868 Y15.707 Z-5.253
N14025 X10.842 Y15.651 Z-5.324
N14030 X10.813 Y15.586 Z-5.385
N14035 X10.78 Y15.513 Z-5.435
N14040 X10.744 Y15.433 Z-5.471
N14045 X10.706 Y15.35 Z-5.493
N14050 X10.667 Y15.264 Z-5.5
N14055 G3 X10.531 Y14.491 I1.441 J-0.653
N14060 G1 X10.55 Y14.318
N14065 X10.559 Y14.152
N14070 X10.575 Y14.003
N14075 X10.617 Y13.859
N14080 X10.68 Y13.723
N14085 X10.863 Y13.477
N14090 X11.091 Y13.273
N14095 X11.355 Y13.117
N14100 X11.644 Y13.015
N14105 X11.948 Y12.973
N14110 G3 X12.805 Y13.306 Z-5.3 I0.008 J1.248
N14115 X13.022 Y14.87 I-0.85 J0.915
N14120 X10.861 Y15.024 I-1.135 J-0.69
N14125 X10.559 Y14.152 Z-5.5 I1.026 J-0.844
N14130 G1 X10.562 Y14.11
N14135 Y13.902
N14140 X10.556 Y13.839
N14145 X10.55 Y13.689
N14150 X10.617 Y13.478
N14155 X10.734 Y13.29
N14160 X10.893 Y13.136
N14165 X11.085 Y13.026
N14170 X11.298 Y12.966
N14175 X11.52 Y12.96
N14180 G3 X12.181 Y13.551 Z-5.3 I-0.104 J0.782
N14185 X12.197 Y13.856 I-0.765 J0.191
N14190 X11.127 Y14.525 I-0.819 J-0.12
N14195 X10.556 Y13.839 Z-5.5 I0.251 J-0.789
N14200 G1 X10.543 Y13.694
N14205 X10.532 Y13.487
N14210 X10.547 Y13.393
N14215 X10.577 Y13.299
N14220 X10.586 Y13.279
N14225 X10.613 Y13.227
N14230 X10.648 Y13.175
N14235 X10.69 Y13.123
N14240 X10.741 Y13.071
N14245 X10.785 Y13.035
N14250 X10.837 Y13.
N14255 X10.889 Y12.973
N14260 X10.941 Y12.951
N14265 X10.993 Y12.935
N14270 X11.045 Y12.924
N14275 X11.097 Y12.918
N14280 X11.201 Y12.919
N14285 X11.409 Y12.949
N14290 X11.616 Y12.969
N14295 X11.824 Y12.978
N14300 X12.032 Y12.969
N14305 X12.24 Y12.953
N14310 X14.016 Y12.744
N14315 X14.251 Y12.728
N14320 X14.408 Y12.724
N14325 X14.575 Y12.728
N14330 X14.764 Y12.739
N14335 X14.957 Y12.76
N14340 X15.175 Y12.793
N14345 X15.404 Y12.838
N14350 X15.643 Y12.896
N14355 X15.907 Y12.972
N14360 X16.181 Y13.064
N14365 X16.465 Y13.173
N14370 X16.773 Y13.307
N14375 X17.101 Y13.468
N14380 X17.428 Y13.645
N14385 X17.773 Y13.853
N14390 X18.135 Y14.093
N14395 X18.513 Y14.367
N14400 X18.894 Y14.67
N14405 X19.273 Y15.
N14410 X19.668 Y15.374
N14415 X20.076 Y15.797
N14420 X20.494 Y16.268
N14425 X20.912 Y16.784
N14430 X21.32 Y17.334
N14435 X21.719 Y17.924
N14440 X22.121 Y18.579
N14445 X22.521 Y19.299
N14450 X22.913 Y20.08
N14455 X23.286 Y20.916
N14460 X23.624 Y21.767
N14465 X23.927 Y22.631
N14470 X24.199 Y23.505
N14475 X24.44 Y24.388
N14480 X24.655 Y25.278
N14485 X24.844 Y26.174
N14490 X25.009 Y27.074
N14495 X25.152 Y27.978
N14500 X25.276 Y28.885
N14505 X25.38 Y29.795
N14510 X25.467 Y30.706
N14515 X25.536 Y31.619
N14520 X25.589 Y32.533
N14525 X25.625 Y33.447
N14530 X25.645 Y34.363
N14535 X25.649 Y35.278
N14540 X25.634 Y36.193
N14545 X25.602 Y37.108
N14550 X25.55 Y38.022
N14555 X25.477 Y38.935
N14560 X25.382 Y39.845
N14565 X25.262 Y40.753
N14570 X25.117 Y41.657
N14575 X24.945 Y42.556
N14580 X24.743 Y43.448
N14585 X24.51 Y44.334
N14590 X24.245 Y45.21
N14595 X23.946 Y46.075
N14600 X23.617 Y46.907
N14605 X23.274 Y47.677
N14610 X22.917 Y48.393
N14615 X22.544 Y49.066
N14620 X22.157 Y49.698
N14625 X21.761 Y50.285
N14630 X21.388 Y50.791
N14635 X21.104 Y51.141
N14640 X20.979 Y51.283
N14645 X20.679 Y51.567
N14650 X20.335 Y51.793
N14655 X19.956 Y51.956
N14660 X19.554 Y52.049
N14665 X18.177 Y52.241
N14670 G3 X17.554 Y51.859 I-0.062 J-0.597
N14675 G1 X17.521 Y51.772 Z-5.493
N14680 X17.488 Y51.686 Z-5.471
N14685 X17.457 Y51.605 Z-5.435
N14690 X17.428 Y51.53 Z-5.385
N14695 X17.402 Y51.463 Z-5.324
N14700 X17.381 Y51.406 Z-5.253
N14705 X17.363 Y51.36 Z-5.172
N14710 X17.35 Y51.326 Z-5.085
N14715 X17.342 Y51.306 Z-4.994
N14720 X17.34 Y51.299 Z-4.9
N14725 G0 Z5.
N14730 X12.818 Y13.417
N14735 Z-4.3
N14740 G1 Z-4.9 F900.
N14745 X12.823 Y13.412 Z-4.994
N14750 X12.841 Y13.399 Z-5.085
N14755 X12.87 Y13.377 Z-5.172
N14760 X12.909 Y13.347 Z-5.253
N14765 X12.957 Y13.31 Z-5.324
N14770 X13.014 Y13.266 Z-5.385
N14775 X13.078 Y13.218 Z-5.435
N14780 X13.147 Y13.165 Z-5.471
N14785 X13.219 Y13.109 Z-5.493
N14790 X13.294 Y13.052 Z-5.5
N14795 G3 X14.016 Y12.744 I0.963 J1.256
N14800 G1 X14.766 Y12.655
N14805 X14.941 Y12.638
N14810 X15.772 Y12.644
N14815 X15.98 Y12.646
N14820 X16.237 Y12.662
N14825 X16.389 Y12.678
N14830 X16.545 Y12.701
N14835 X16.726 Y12.736
N14840 X16.911 Y12.78
N14845 X17.124 Y12.841
N14850 X17.341 Y12.913
N14855 X17.585 Y13.007
N14860 X17.844 Y13.119
N14865 X18.115 Y13.25
N14870 X18.414 Y13.412
N14875 X18.722 Y13.596
N14880 X19.042 Y13.808
N14885 X19.392 Y14.06
N14890 X19.761 Y14.353
N14895 X20.125 Y14.667
N14900 X20.513 Y15.034
N14905 X20.918 Y15.451
N14910 X21.332 Y15.917
N14915 X21.747 Y16.426
N14920 X22.149 Y16.966
N14925 X22.562 Y17.574
N14930 X22.979 Y18.249
N14935 X23.393 Y18.989
N14940 X23.794 Y19.786
N14945 X24.17 Y20.621
N14950 X24.51 Y21.47
N14955 X24.817 Y22.333
N14960 X25.094 Y23.205
N14965 X25.341 Y24.087
N14970 X25.562 Y24.975
N14975 X25.757 Y25.87
N14980 X25.929 Y26.769
N14985 X26.079 Y27.672
N14990 X26.208 Y28.578
N14995 X26.319 Y29.487
N15000 X26.412 Y30.397
N15005 X26.487 Y31.31
N15010 X26.545 Y32.223
N15015 X26.587 Y33.138
N15020 X26.613 Y34.053
N15025 X26.621 Y34.968
N15030 X26.612 Y35.884
N15035 X26.585 Y36.799
N15040 X26.54 Y37.713
N15045 X26.473 Y38.626
N15050 X26.386 Y39.537
N15055 X26.275 Y40.446
N15060 X26.14 Y41.351
N15065 X25.979 Y42.252
N15070 X25.791 Y43.148
N15075 X25.573 Y44.038
N15080 X25.325 Y44.919
N15085 X25.045 Y45.79
N15090 X24.732 Y46.65
N15095 X24.386 Y47.488
N15100 X24.019 Y48.277
N15105 X23.634 Y49.02
N15110 X23.243 Y49.701
N15115 X22.876 Y50.279
N15120 X22.612 Y50.657
N15125 X22.496 Y50.81
N15130 X22.242 Y51.091
N15135 X21.945 Y51.328
N15140 X21.614 Y51.514
N15145 X21.258 Y51.644
N15150 X20.759 Y51.78
N15155 X20.552 Y51.835
N15160 X19.928 Y51.993
N15165 X19.72 Y52.025
N15170 X19.554 Y52.049
N15175 G3 X18.931 Y51.667 I-0.062 J-0.597
N15180 G1 X18.897 Y51.579 Z-5.493
N15185 X18.865 Y51.494 Z-5.471
N15190 X18.833 Y51.412 Z-5.435
N15195 X18.805 Y51.337 Z-5.385
N15200 X18.779 Y51.27 Z-5.324
N15205 X18.757 Y51.213 Z-5.253
N15210 X18.74 Y51.167 Z-5.172
N15215 X18.727 Y51.134 Z-5.085
N15220 X18.719 Y51.113 Z-4.994
N15225 X18.716 Y51.106 Z-4.9
N15230 G0 Z5.
N15235 X14.705 Y13.16
N15240 Z-4.3
N15245 G1 Z-4.9 F900.
N15250 X14.711 Y13.157 Z-4.994
N15255 X14.731 Y13.146 Z-5.085
N15260 X14.762 Y13.127 Z-5.172
N15265 X14.804 Y13.103 Z-5.253
N15270 X14.857 Y13.072 Z-5.324
N15275 X14.919 Y13.036 Z-5.385
N15280 X14.988 Y12.996 Z-5.435
N15285 X15.064 Y12.952 Z-5.471
N15290 X15.143 Y12.906 Z-5.493
N15295 X15.224 Y12.859 Z-5.5
N15300 G3 X15.98 Y12.646 I0.794 J1.369
N15305 G1 X17.019 Y12.657
N15310 X17.227 Y12.669
N15315 X17.642 Y12.694
N15320 X17.94 Y12.736
N15325 X18.087 Y12.763
N15330 X18.238 Y12.798
N15335 X18.413 Y12.847
N15340 X18.593 Y12.905
N15345 X18.801 Y12.983
N15350 X19.011 Y13.072
N15355 X19.253 Y13.187
N15360 X19.497 Y13.316
N15365 X19.769 Y13.477
N15370 X20.061 Y13.666
N15375 X20.361 Y13.879
N15380 X20.696 Y14.14
N15385 X21.042 Y14.435
N15390 X21.395 Y14.763
N15395 X21.772 Y15.145
N15400 X22.17 Y15.586
N15405 X22.57 Y16.069
N15410 X22.968 Y16.594
N15415 X23.383 Y17.195
N15420 X23.805 Y17.867
N15425 X24.224 Y18.603
N15430 X24.633 Y19.399
N15435 X25.015 Y20.231
N15440 X25.362 Y21.078
N15445 X25.677 Y21.937
N15450 X25.961 Y22.807
N15455 X26.217 Y23.686
N15460 X26.445 Y24.573
N15465 X26.649 Y25.465
N15470 X26.83 Y26.363
N15475 X26.988 Y27.264
N15480 X27.126 Y28.169
N15485 X27.245 Y29.077
N15490 X27.345 Y29.987
N15495 X27.428 Y30.899
N15500 X27.494 Y31.812
N15505 X27.543 Y32.726
N15510 X27.575 Y33.641
N15515 X27.591 Y34.556
N15520 X27.589 Y35.471
N15525 X27.57 Y36.387
N15530 X27.532 Y37.301
N15535 X27.475 Y38.215
N15540 X27.397 Y39.127
N15545 X27.297 Y40.037
N15550 X27.174 Y40.944
N15555 X27.027 Y41.848
N15560 X26.854 Y42.746
N15565 X26.653 Y43.64
N15570 X26.425 Y44.526
N15575 X26.166 Y45.404
N15580 X25.876 Y46.272
N15585 X25.553 Y47.129
N15590 X25.196 Y47.972
N15595 X24.813 Y48.777
N15600 X24.429 Y49.503
N15605 X24.155 Y49.97
N15610 X23.982 Y50.237
N15615 X23.77 Y50.517
N15620 X23.519 Y50.761
N15625 X23.234 Y50.965
N15630 X22.921 Y51.124
N15635 X22.837 Y51.159
N15640 X22.63 Y51.239
N15645 X22.422 Y51.316
N15650 X22.214 Y51.382
N15655 X21.258 Y51.644
N15660 G3 X20.591 Y51.344 I-0.138 J-0.584
N15665 G1 X20.547 Y51.262 Z-5.493
N15670 X20.503 Y51.181 Z-5.471
N15675 X20.462 Y51.105 Z-5.435
N15680 X20.424 Y51.034 Z-5.385
N15685 X20.39 Y50.971 Z-5.324
N15690 X20.361 Y50.917 Z-5.253
N15695 X20.338 Y50.874 Z-5.172
N15700 X20.321 Y50.842 Z-5.085
N15705 X20.31 Y50.823 Z-4.994
N15710 X20.307 Y50.816 Z-4.9
N15715 G0 Z5.
N15720 X16.343 Y13.144
N15725 Z-4.3
N15730 G1 Z-4.9 F900.
N15735 X16.35 Y13.14 Z-4.994
N15740 X16.369 Y13.13 Z-5.085
N15745 X16.401 Y13.114 Z-5.172
N15750 X16.445 Y13.091 Z-5.253
N15755 X16.499 Y13.063 Z-5.324
N15760 X16.563 Y13.03 Z-5.385
N15765 X16.635 Y12.994 Z-5.435
N15770 X16.712 Y12.954 Z-5.471
N15775 X16.793 Y12.912 Z-5.493
N15780 X16.877 Y12.869 Z-5.5
N15785 G3 X17.642 Y12.694 I0.724 J1.407
N15790 G1 X17.85 Y12.713
N15795 X19.419 Y12.932
N15800 X19.598 Y12.967
N15805 X19.744 Y13.001
N15810 X19.892 Y13.044
N15815 X20.046 Y13.096
N15820 X20.225 Y13.165
N15825 X20.407 Y13.245
N15830 X20.616 Y13.347
N15835 X20.829 Y13.464
N15840 X21.07 Y13.609
N15845 X21.324 Y13.777
N15850 X21.597 Y13.976
N15855 X21.901 Y14.218
N15860 X22.2 Y14.479
N15865 X22.533 Y14.796
N15870 X22.893 Y15.169
N15875 X23.242 Y15.564
N15880 X23.625 Y16.037
N15885 X24.031 Y16.586
N15890 X24.445 Y17.2
N15895 X24.839 Y17.844
N15900 X25.245 Y18.577
N15905 X25.652 Y19.393
N15910 X26.025 Y20.229
N15915 X26.364 Y21.079
N15920 X26.672 Y21.941
N15925 X26.95 Y22.813
N15930 X27.201 Y23.694
N15935 X27.427 Y24.581
N15940 X27.628 Y25.474
N15945 X27.806 Y26.372
N15950 X27.963 Y27.274
N15955 X28.1 Y28.179
N15960 X28.218 Y29.087
N15965 X28.318 Y29.997
N15970 X28.4 Y30.908
N15975 X28.465 Y31.822
N15980 X28.514 Y32.736
N15985 X28.545 Y33.651
N15990 X28.56 Y34.566
N15995 X28.558 Y35.481
N16000 X28.538 Y36.396
N16005 X28.5 Y37.311
N16010 X28.442 Y38.225
N16015 X28.364 Y39.137
N16020 X28.265 Y40.047
N16025 X28.144 Y40.954
N16030 X27.999 Y41.858
N16035 X27.829 Y42.758
N16040 X27.633 Y43.652
N16045 X27.409 Y44.539
N16050 X27.157 Y45.419
N16055 X26.874 Y46.29
N16060 X26.56 Y47.15
N16065 X26.214 Y47.997
N16070 X25.855 Y48.782
N16075 X25.578 Y49.325
N16080 X25.462 Y49.53
N16085 X25.25 Y49.842
N16090 X24.991 Y50.116
N16095 X24.69 Y50.344
N16100 X24.357 Y50.521
N16105 X24.084 Y50.638
N16110 X22.921 Y51.124
N16115 G3 X22.222 Y50.912 I-0.212 J-0.561
N16120 G1 X22.167 Y50.836 Z-5.493
N16125 X22.114 Y50.761 Z-5.471
N16130 X22.063 Y50.691 Z-5.435
N16135 X22.017 Y50.625 Z-5.385
N16140 X21.975 Y50.567 Z-5.324
N16145 X21.939 Y50.518 Z-5.253
N16150 X21.911 Y50.478 Z-5.172
N16155 X21.89 Y50.448 Z-5.085
N16160 X21.877 Y50.43 Z-4.994
N16165 X21.872 Y50.424 Z-4.9
N16170 G0 Z5.
N16175 X18.089 Y13.279
N16180 Z-4.3
N16185 G1 Z-4.9 F900.
N16190 X18.096 Y13.277 Z-4.994
N16195 X18.116 Y13.268 Z-5.085
N16200 X18.149 Y13.254 Z-5.172
N16205 X18.195 Y13.235 Z-5.253
N16210 X18.251 Y13.211 Z-5.324
N16215 X18.317 Y13.184 Z-5.385
N16220 X18.391 Y13.153 Z-5.435
N16225 X18.471 Y13.119 Z-5.471
N16230 X18.556 Y13.084 Z-5.493
N16235 X18.642 Y13.047 Z-5.5
N16240 G3 X19.419 Y12.932 I0.612 J1.459
N16245 G1 X19.72 Y12.975
N16250 X19.928 Y13.007
N16255 X20.552 Y13.165
N16260 X20.759 Y13.22
N16265 X21.289 Y13.365
N16270 X21.528 Y13.443
N16275 X21.669 Y13.496
N16280 X21.826 Y13.564
N16285 X21.99 Y13.642
N16290 X22.18 Y13.744
N16295 X22.371 Y13.857
N16300 X22.592 Y14.002
N16305 X22.816 Y14.162
N16310 X23.071 Y14.361
N16315 X23.334 Y14.587
N16320 X23.623 Y14.858
N16325 X23.941 Y15.182
N16330 X24.257 Y15.534
N16335 X24.606 Y15.959
N16340 X24.981 Y16.457
N16345 X25.339 Y16.979
N16350 X25.725 Y17.598
N16355 X26.123 Y18.302
N16360 X26.522 Y19.086
N16365 X26.901 Y19.92
N16370 X27.246 Y20.768
N16375 X27.559 Y21.628
N16380 X27.843 Y22.498
N16385 X28.1 Y23.377
N16390 X28.331 Y24.263
N16395 X28.538 Y25.154
N16400 X28.722 Y26.051
N16405 X28.885 Y26.952
N16410 X29.028 Y27.856
N16415 X29.152 Y28.763
N16420 X29.257 Y29.672
N16425 X29.345 Y30.584
N16430 X29.416 Y31.496
N16435 X29.471 Y32.41
N16440 X29.508 Y33.325
N16445 X29.529 Y34.24
N16450 X29.532 Y35.155
N16455 X29.518 Y36.071
N16460 X29.486 Y36.985
N16465 X29.435 Y37.899
N16470 X29.365 Y38.812
N16475 X29.274 Y39.723
N16480 X29.161 Y40.632
N16485 X29.026 Y41.537
N16490 X28.868 Y42.439
N16495 X28.684 Y43.335
N16500 X28.475 Y44.227
N16505 X28.239 Y45.111
N16510 X27.974 Y45.987
N16515 X27.679 Y46.854
N16520 X27.354 Y47.71
N16525 X27.067 Y48.387
N16530 X26.952 Y48.627
N16535 X26.778 Y48.931
N16540 X26.56 Y49.206
N16545 X26.303 Y49.445
N16550 X26.013 Y49.643
N16555 X24.915 Y50.277
N16560 X24.707 Y50.37
N16565 X24.357 Y50.521
N16570 G3 X23.655 Y50.318 I-0.219 J-0.559
N16575 G1 X23.6 Y50.243 Z-5.493
N16580 X23.545 Y50.169 Z-5.471
N16585 X23.494 Y50.099 Z-5.435
N16590 X23.446 Y50.034 Z-5.385
N16595 X23.404 Y49.977 Z-5.324
N16600 X23.368 Y49.928 Z-5.253
N16605 X23.338 Y49.888 Z-5.172
N16610 X23.317 Y49.859 Z-5.085
N16615 X23.304 Y49.841 Z-4.994
N16620 X23.3 Y49.835 Z-4.9
N16625 G0 Z5.
N16630 X19.926 Y13.539
N16635 Z-4.3
N16640 G1 Z-4.9 F900.
N16645 X19.933 Y13.537 Z-4.994
N16650 X19.954 Y13.531 Z-5.085
N16655 X19.989 Y13.522 Z-5.172
N16660 X20.036 Y13.509 Z-5.253
N16665 X20.095 Y13.492 Z-5.324
N16670 X20.164 Y13.473 Z-5.385
N16675 X20.241 Y13.452 Z-5.435
N16680 X20.325 Y13.429 Z-5.471
N16685 X20.413 Y13.404 Z-5.493
N16690 X20.504 Y13.379 Z-5.5
N16695 G3 X21.289 Y13.365 I0.421 J1.526
N16700 G1 X22.214 Y13.618
N16705 X22.422 Y13.684
N16710 X22.63 Y13.761
N16715 X22.837 Y13.841
N16720 X23.253 Y14.015
N16725 X23.456 Y14.112
N16730 X23.616 Y14.197
N16735 X23.777 Y14.292
N16740 X23.967 Y14.415
N16745 X24.157 Y14.55
N16750 X24.38 Y14.725
N16755 X24.603 Y14.915
N16760 X24.862 Y15.157
N16765 X25.116 Y15.414
N16770 X25.408 Y15.738
N16775 X25.709 Y16.102
N16780 X26.028 Y16.524
N16785 X26.383 Y17.04
N16790 X26.732 Y17.597
N16795 X27.095 Y18.235
N16800 X27.474 Y18.976
N16805 X27.855 Y19.808
N16810 X28.2 Y20.656
N16815 X28.514 Y21.516
N16820 X28.797 Y22.386
N16825 X29.053 Y23.265
N16830 X29.284 Y24.151
N16835 X29.492 Y25.043
N16840 X29.677 Y25.939
N16845 X29.841 Y26.84
N16850 X29.985 Y27.744
N16855 X30.111 Y28.651
N16860 X30.218 Y29.56
N16865 X30.307 Y30.471
N16870 X30.38 Y31.383
N16875 X30.436 Y32.297
N16880 X30.475 Y33.212
N16885 X30.497 Y34.127
N16890 X30.503 Y35.042
N16895 X30.491 Y35.958
N16900 X30.461 Y36.872
N16905 X30.413 Y37.787
N16910 X30.345 Y38.7
N16915 X30.258 Y39.611
N16920 X30.149 Y40.52
N16925 X30.019 Y41.426
N16930 X29.866 Y42.328
N16935 X29.689 Y43.227
N16940 X29.487 Y44.119
N16945 X29.259 Y45.006
N16950 X29.004 Y45.885
N16955 X28.721 Y46.756
N16960 X28.467 Y47.453
N16965 X28.402 Y47.611
N16970 X28.212 Y47.974
N16975 X27.963 Y48.299
N16980 X27.66 Y48.575
N16985 X27.075 Y49.02
N16990 X26.993 Y49.077
N16995 X26.013 Y49.643
N17000 G3 X25.292 Y49.522 I-0.282 J-0.53
N17005 G1 X25.228 Y49.454 Z-5.493
N17010 X25.166 Y49.387 Z-5.471
N17015 X25.107 Y49.323 Z-5.435
N17020 X25.052 Y49.264 Z-5.385
N17025 X25.003 Y49.212 Z-5.324
N17030 X24.961 Y49.167 Z-5.253
N17035 X24.928 Y49.131 Z-5.172
N17040 X24.903 Y49.105 Z-5.085
N17045 X24.888 Y49.089 Z-4.994
N17050 X24.883 Y49.083 Z-4.9
N17055 G0 Z5.
N17060 X21.878 Y14.013
N17065 Z-4.3
N17070 G1 Z-4.9 F900.
N17075 X21.886 Y14.012 Z-4.994
N17080 X21.907 Y14.009 Z-5.085
N17085 X21.943 Y14.004 Z-5.172
N17090 X21.992 Y13.997 Z-5.253
N17095 X22.052 Y13.988 Z-5.324
N17100 X22.123 Y13.978 Z-5.385
N17105 X22.203 Y13.967 Z-5.435
N17110 X22.289 Y13.955 Z-5.471
N17115 X22.379 Y13.942 Z-5.493
N17120 X22.472 Y13.929 Z-5.5
N17125 G3 X23.253 Y14.015 I0.222 J1.567
N17130 G1 X24.084 Y14.362
N17135 X24.466 Y14.526
N17140 X24.707 Y14.63
N17145 X24.915 Y14.723
N17150 X25.123 Y14.843
N17155 X25.434 Y15.044
N17160 X25.594 Y15.158
N17165 X25.774 Y15.298
N17170 X25.97 Y15.465
N17175 X26.178 Y15.657
N17180 X26.407 Y15.889
N17185 X26.648 Y16.155
N17190 X26.908 Y16.468
N17195 X27.193 Y16.844
N17200 X27.482 Y17.26
N17205 X27.811 Y17.782
N17210 X28.139 Y18.356
N17215 X28.479 Y19.017
N17220 X28.839 Y19.799
N17225 X29.185 Y20.646
N17230 X29.498 Y21.506
N17235 X29.78 Y22.377
N17240 X30.034 Y23.257
N17245 X30.263 Y24.143
N17250 X30.469 Y25.035
N17255 X30.652 Y25.932
N17260 X30.815 Y26.833
N17265 X30.959 Y27.737
N17270 X31.083 Y28.644
N17275 X31.19 Y29.553
N17280 X31.279 Y30.464
N17285 X31.351 Y31.376
N17290 X31.406 Y32.29
N17295 X31.445 Y33.205
N17300 X31.467 Y34.12
N17305 X31.472 Y35.035
N17310 X31.46 Y35.951
N17315 X31.43 Y36.866
N17320 X31.382 Y37.78
N17325 X31.316 Y38.693
N17330 X31.229 Y39.604
N17335 X31.123 Y40.513
N17340 X30.995 Y41.42
N17345 X30.844 Y42.323
N17350 X30.671 Y43.222
N17355 X30.474 Y44.116
N17360 X30.251 Y45.004
N17365 X30.003 Y45.885
N17370 X29.857 Y46.343
N17375 X29.715 Y46.69
N17380 X29.519 Y47.009
N17385 X29.274 Y47.294
N17390 X29.21 Y47.357
N17395 X29.071 Y47.478
N17400 X28.709 Y47.773
N17405 X28.656 Y47.815
N17410 X27.66 Y48.575
N17415 G3 X26.93 Y48.547 I-0.347 J-0.49
N17420 G1 X26.858 Y48.487 Z-5.493
N17425 X26.787 Y48.429 Z-5.471
N17430 X26.72 Y48.373 Z-5.435
N17435 X26.658 Y48.322 Z-5.385
N17440 X26.603 Y48.276 Z-5.324
N17445 X26.556 Y48.237 Z-5.253
N17450 X26.518 Y48.206 Z-5.172
N17455 X26.491 Y48.182 Z-5.085
N17460 X26.474 Y48.168 Z-4.994
N17465 X26.468 Y48.164 Z-4.9
N17470 G0 Z5.
N17475 X23.76 Y14.666
N17480 Z-4.3
N17485 G1 Z-4.9 F900.
N17490 X23.767 Z-4.994
N17495 X23.789 Z-5.085
N17500 X23.825 Y14.665 Z-5.172
N17505 X23.874 Z-5.253
N17510 X23.936 Y14.664 Z-5.324
N17515 X24.007 Y14.663 Z-5.385
N17520 X24.087 Y14.662 Z-5.435
N17525 X24.174 Y14.661 Z-5.471
N17530 X24.266 Y14.66 Z-5.493
N17535 X24.36 Y14.658 Z-5.5
N17540 G3 X25.123 Y14.843 I0.02 J1.582
N17545 G1 X26.785 Y15.803
N17550 X27.005 Y15.945
N17555 X27.133 Y16.036
N17560 X27.282 Y16.151
N17565 X27.444 Y16.289
N17570 X27.613 Y16.446
N17575 X27.81 Y16.645
N17580 X28.002 Y16.858
N17585 X28.232 Y17.135
N17590 X28.454 Y17.427
N17595 X28.721 Y17.812
N17600 X28.977 Y18.218
N17605 X29.27 Y18.732
N17610 X29.584 Y19.343
N17615 X29.898 Y20.023
N17620 X30.235 Y20.847
N17625 X30.545 Y21.709
N17630 X30.821 Y22.581
N17635 X31.07 Y23.462
N17640 X31.292 Y24.35
N17645 X31.492 Y25.244
N17650 X31.669 Y26.142
N17655 X31.826 Y27.044
N17660 X31.964 Y27.949
N17665 X32.083 Y28.856
N17670 X32.185 Y29.766
N17675 X32.269 Y30.678
N17680 X32.337 Y31.59
N17685 X32.388 Y32.505
N17690 X32.422 Y33.419
N17695 X32.44 Y34.335
N17700 X32.441 Y35.25
N17705 X32.424 Y36.165
N17710 X32.39 Y37.08
N17715 X32.338 Y37.994
N17720 X32.267 Y38.907
N17725 X32.177 Y39.818
N17730 X32.067 Y40.726
N17735 X31.936 Y41.632
N17740 X31.783 Y42.535
N17745 X31.607 Y43.433
N17750 X31.408 Y44.327
N17755 X31.281 Y44.83
N17760 X31.148 Y45.215
N17765 X30.949 Y45.57
N17770 X30.692 Y45.886
N17775 X30.526 Y46.056
N17780 X29.274 Y47.294
N17785 G3 X28.547 Y47.36 I-0.407 J-0.441
N17790 G1 X28.467 Y47.31 Z-5.493
N17795 X28.39 Y47.261 Z-5.471
N17800 X28.317 Y47.214 Z-5.435
N17805 X28.249 Y47.171 Z-5.385
N17810 X28.188 Y47.133 Z-5.324
N17815 X28.137 Y47.1 Z-5.253
N17820 X28.095 Y47.074 Z-5.172
N17825 X28.064 Y47.055 Z-5.085
N17830 X28.046 Y47.043 Z-4.994
N17835 X28.04 Y47.039 Z-4.9
N17840 G0 Z5.
N17845 X25.422 Y15.626
N17850 Z-4.3
N17855 G1 Z-4.9 F900.
N17860 X25.43 Z-4.994
N17865 X25.452 Y15.625 Z-5.085
N17870 X25.488 Z-5.172
N17875 X25.537 Y15.624 Z-5.253
N17880 X25.598 Z-5.324
N17885 X25.67 Y15.623 Z-5.385
N17890 X25.75 Y15.622 Z-5.435
N17895 X25.837 Y15.62 Z-5.471
N17900 X25.928 Y15.619 Z-5.493
N17905 X26.022 Y15.618 Z-5.5
N17910 G3 X26.785 Y15.803 I0.02 J1.582
N17915 G1 X26.993 Y15.923
N17920 X27.075 Y15.98
N17925 X28.656 Y17.185
N17930 X28.863 Y17.353
N17935 X29.134 Y17.596
N17940 X29.286 Y17.745
N17945 X29.435 Y17.904
N17950 X29.607 Y18.106
N17955 X29.791 Y18.341
N17960 X29.985 Y18.612
N17965 X30.209 Y18.956
N17970 X30.429 Y19.328
N17975 X30.681 Y19.8
N17980 X30.949 Y20.358
N17985 X31.225 Y21.005
N17990 X31.527 Y21.806
N17995 X31.812 Y22.676
N18000 X32.064 Y23.556
N18005 X32.287 Y24.444
N18010 X32.485 Y25.337
N18015 X32.66 Y26.236
N18020 X32.815 Y27.138
N18025 X32.951 Y28.043
N18030 X33.068 Y28.951
N18035 X33.151 Y29.713
N18040 X33.163 Y29.915
N18045 X33.158 Y30.117
N18050 X33.133 Y30.318
N18055 X33.11 Y30.526
N18060 X33.102 Y30.734
N18065 X33.1 Y30.942
N18070 Y34.058
N18075 X33.102 Y34.266
N18080 X33.11 Y34.474
N18085 X33.133 Y34.682
N18090 X33.144 Y34.745
N18095 X33.217 Y35.37
N18100 X33.265 Y36.04
N18105 X33.29 Y36.882
N18110 X33.277 Y37.797
N18115 X33.23 Y38.711
N18120 X33.156 Y39.624
N18125 X33.058 Y40.534
N18130 X32.937 Y41.441
N18135 X32.793 Y42.345
N18140 X32.682 Y42.945
N18145 X32.593 Y43.282
N18150 X32.455 Y43.603
N18155 X32.27 Y43.898
N18160 G3 X31.562 Y44.079 I-0.472 J-0.371
N18165 G1 X31.476 Y44.042 Z-5.493
N18170 X31.392 Y44.006 Z-5.471
N18175 X31.312 Y43.972 Z-5.435
N18180 X31.238 Y43.94 Z-5.385
N18185 X31.172 Y43.912 Z-5.324
N18190 X31.116 Y43.888 Z-5.253
N18195 X31.071 Y43.868 Z-5.172
N18200 X31.038 Y43.854 Z-5.085
N18205 X31.018 Y43.846 Z-4.994
N18210 X31.011 Y43.843 Z-4.9
N18215 G0 Z5.
N18220 X32.413 Y33.58
N18225 Z-4.3
N18230 G1 Z-4.9 F900.
N18235 X32.418 Y33.586 Z-4.994
N18240 X32.432 Y33.603 Z-5.085
N18245 X32.455 Y33.63 Z-5.172
N18250 X32.487 Y33.668 Z-5.253
N18255 X32.527 Y33.714 Z-5.324
N18260 X32.573 Y33.769 Z-5.385
N18265 X32.625 Y33.83 Z-5.435
N18270 X32.681 Y33.897 Z-5.471
N18275 X32.74 Y33.966 Z-5.493
N18280 X32.801 Y34.038 Z-5.5
N18285 G3 X33.144 Y34.745 I-1.208 J1.023
N18290 G1 X33.168 Y34.89
N18295 X33.215 Y35.097
N18300 X33.283 Y35.305
N18305 X33.365 Y35.513
N18310 X33.435 Y35.672
N18315 X33.461 Y35.721
N18320 X33.481 Y35.755
N18325 X33.548 Y35.889
N18330 X33.609 Y36.026
N18335 X33.667 Y36.175
N18340 X33.728 Y36.355
N18345 X33.784 Y36.547
N18350 X33.843 Y36.787
N18355 X33.901 Y37.079
N18360 X33.951 Y37.407
N18365 X33.998 Y37.831
N18370 X34.029 Y38.311
N18375 X34.043 Y38.923
N18380 X34.027 Y39.683
N18385 X33.968 Y40.596
N18390 X33.956 Y40.706
N18395 X33.902 Y41.014
N18400 X33.806 Y41.312
N18405 X33.672 Y41.595
N18410 G3 X32.848 Y41.797 Z-5.3 I-0.513 J-0.311
N18415 X32.56 Y41.306 I0.311 J-0.513
N18420 G1 X32.37 Y36.092
N18425 G3 X32.656 Y35.559 I0.6 J-0.022
N18430 X33.481 Y35.755 Z-5.5 I0.314 J0.511
N18435 G1 X33.579 Y35.929
N18440 X33.643 Y36.027
N18445 X33.721 Y36.136
N18450 X33.851 Y36.302
N18455 X33.916 Y36.376
N18460 X34.011 Y36.492
N18465 X34.099 Y36.614
N18470 X34.177 Y36.741
N18475 X34.249 Y36.873
N18480 X34.314 Y37.01
N18485 X34.378 Y37.16
N18490 X34.447 Y37.346
N18495 X34.512 Y37.543
N18500 X34.577 Y37.778
N18505 X34.643 Y38.061
N18510 X34.699 Y38.36
N18515 X34.704 Y38.395
N18520 X34.727 Y38.714
N18525 X34.707 Y39.032
N18530 X34.643 Y39.345
N18535 X34.537 Y39.646
N18540 G3 X33.739 Y39.933 Z-5.3 I-0.543 J-0.256
N18545 X33.406 Y39.506 I0.256 J-0.543
N18550 G1 X32.896 Y36.908
N18555 G3 X33.068 Y36.361 I0.589 J-0.116
N18560 X33.916 Y36.376 Z-5.5 I0.417 J0.432
N18565 G1 X34.058 Y36.533
N18570 X34.079 Y36.552
N18575 X34.319 Y36.76
N18580 X34.366 Y36.794
N18585 X34.483 Y36.888
N18590 X34.59 Y36.992
N18595 X34.789 Y37.274
N18600 X34.93 Y37.588
N18605 X35.008 Y37.923
N18610 X35.021 Y38.267
N18615 X34.968 Y38.607
N18620 X34.851 Y38.931
N18625 G3 X34.042 Y39.187 Z-5.3 I-0.532 J-0.277
N18630 X33.731 Y38.778 I0.276 J-0.533
N18635 G1 X33.444 Y37.416
N18640 G3 X33.533 Y36.957 I0.587 J-0.124
N18645 X34.366 Y36.794 Z-5.5 I0.498 J0.335
N18650 G1 X34.474 Y36.872
N18655 X34.613 Y36.968
N18660 X34.769 Y37.053
N18665 X34.896 Y37.132
N18670 X35.064 Y37.318
N18675 X35.183 Y37.538
N18680 X35.247 Y37.78
N18685 X35.252 Y38.031
N18690 X35.198 Y38.275
N18695 X35.088 Y38.5
N18700 G3 X34.282 Y38.91 Z-5.3 I-0.785 J-0.547
N18705 X33.633 Y38.636 I0.021 J-0.957
N18710 X33.862 Y37.061 I0.69 J-0.704
N18715 X34.769 Y37.053 Z-5.5 I0.461 J0.871
N18720 G1 X34.889 Y37.12
N18725 X35.007 Y37.175
N18730 X35.057 Y37.198
N18735 X35.097 Y37.216
N18740 X35.126 Y37.23
N18745 X35.181 Y37.262
N18750 X35.201 Y37.274
N18755 G3 X35.274 Y37.693 I-0.213 J0.253
N18760 X34.709 Y37.363 I-0.283 J-0.165
N18765 X35.126 Y37.23 I0.283 J0.165
N18770 G1 X35.149 Y37.241
N18775 X35.201 Y37.274
N18780 X35.23 Y37.296
N18785 X35.253 Y37.314
N18790 X35.282 Y37.343
N18795 X35.305 Y37.366
N18800 X35.321 Y37.383
N18805 X35.344 Y37.412
N18810 X35.363 Y37.435
N18815 X35.381 Y37.464
N18820 X35.395 Y37.487
N18825 X35.421 Y37.539
N18830 X35.441 Y37.591
N18835 X35.456 Y37.643
N18840 X35.466 Y37.695
N18845 X35.472 Y37.799
N18850 X35.468 Y37.851
N18855 X35.46 Y37.903
N18860 X35.447 Y37.955
N18865 X35.428 Y38.007
N18870 X35.406 Y38.055
N18875 X35.379 Y38.103
N18880 X35.305 Y38.199
N18885 X35.292 Y38.214
N18890 X35.139 Y38.422
N18895 X35.005 Y38.63
N18900 X34.889 Y38.849
N18905 X34.796 Y39.046
N18910 X33.812 Y41.331
N18915 X33.703 Y41.539
N18920 X33.435 Y42.019
N18925 X32.604 Y43.424
N18930 X32.476 Y43.617
N18935 X32.02 Y44.241
N18940 X30.941 Y45.623
N18945 X30.878 Y45.695
N18950 X30.692 Y45.886
N18955 G3 X29.844 Y45.869 Z-5.3 I-0.416 J-0.433
N18960 X29.678 Y45.483 I0.432 J-0.416
N18965 G1 X28.253 Y16.945
N18970 X28.244 Y16.909
N18975 X28.223 Y16.878
N18980 X28.191 Y16.858
N18985 X28.154 Y16.85
N18990 X28.117 Y16.857
N18995 X28.085 Y16.878
N19000 X28.063 Y16.908
N19005 X28.054 Y16.945
N19010 Y16.952 Z-5.302
N19015 X28.06 Y16.986 Z-5.309
N19020 X28.078 Y17.016 Z-5.317
N19025 X28.106 Y17.038 Z-5.324
N19030 X28.139 Y17.049 Z-5.331
N19035 G3 X28.863 Y17.353 Z-5.5 I-0.23 J1.566
N19040 G1 X29.071 Y17.522
N19045 X29.21 Y17.643
N19050 X30.526 Y18.944
N19055 X30.734 Y19.157
N19060 X30.878 Y19.305
N19065 X30.941 Y19.377
N19070 X31.209 Y19.72
N19075 X31.52 Y20.162
N19080 X31.681 Y20.414
N19085 X31.872 Y20.743
N19090 X32.056 Y21.095
N19095 X32.274 Y21.559
N19100 X32.495 Y22.09
N19105 X32.739 Y22.755
N19110 X33.004 Y23.586
N19115 X33.243 Y24.469
N19120 X33.45 Y25.361
N19125 X33.631 Y26.258
N19130 X33.788 Y27.16
N19135 X33.851 Y27.582
N19140 X33.877 Y27.969
N19145 X33.838 Y28.356
N19150 X33.736 Y28.73
N19155 X33.573 Y29.082
N19160 G3 X32.755 Y29.308 Z-5.3 I-0.522 J-0.296
N19165 X32.477 Y28.959 I0.296 J-0.522
N19170 G1 X29.779 Y19.994
N19175 G3 X30.428 Y19.226 I0.575 J-0.173
N19180 G1 X30.501 Y19.24 Z-5.316
N19185 X30.571 Y19.263 Z-5.331
N19190 G3 X31.209 Y19.72 Z-5.5 I-0.575 J1.474
N19195 G1 X32.02 Y20.759
N19200 X32.476 Y21.383
N19205 X32.604 Y21.576
N19210 X33.35 Y22.837
N19215 X33.544 Y23.208
N19220 X33.699 Y23.539
N19225 X33.858 Y23.921
N19230 X34.037 Y24.41
N19235 X34.232 Y25.025
N19240 X34.406 Y25.67
N19245 X34.514 Y26.152
N19250 X34.569 Y26.455
N19255 X34.594 Y26.643
N19260 X34.613 Y27.046
N19265 X34.562 Y27.447
N19270 X34.442 Y27.834
N19275 X34.258 Y28.193
N19280 X34.014 Y28.516
N19285 G3 X33.166 Y28.53 Z-5.3 I-0.431 J-0.417
N19290 X32.989 Y28.187 I0.417 J-0.432
N19295 G1 X32.251 Y23.25
N19300 G3 X32.522 Y22.655 I0.593 J-0.089
N19305 X33.35 Y22.837 Z-5.5 I0.323 J0.506
N19310 G1 X33.435 Y22.981
N19315 X33.703 Y23.461
N19320 X33.812 Y23.669
N19325 X34.796 Y25.954
N19330 X34.847 Y26.063
N19335 X34.915 Y26.226
N19340 X34.926 Y26.256
N19345 X35.007 Y26.564
N19350 X35.031 Y26.88
N19355 X34.995 Y27.196
N19360 X34.902 Y27.5
N19365 X34.755 Y27.782
N19370 X34.558 Y28.031
N19375 X34.319 Y28.24
N19380 G3 X33.475 Y28.15 Z-5.3 I-0.377 J-0.467
N19385 X33.361 Y27.622 I0.467 J-0.377
N19390 G1 X33.734 Y26.188
N19395 G3 X34.039 Y25.807 I0.581 J0.151
N19400 X34.847 Y26.063 Z-5.5 I0.276 J0.533
N19405 G1 X34.895 Y26.162
N19410 X35.005 Y26.37
N19415 X35.12 Y26.549
N19420 X35.195 Y26.679
N19425 X35.259 Y26.919
N19430 X35.263 Y27.167
N19435 X35.208 Y27.409
N19440 X35.097 Y27.631
N19445 X34.936 Y27.82
N19450 X34.735 Y27.965
N19455 G3 X33.83 Y27.944 Z-5.3 I-0.432 J-0.853
N19460 X33.396 Y27.417 I0.472 J-0.832
N19465 X34.316 Y26.131 I0.924 J-0.311
N19470 X35.12 Y26.549 Z-5.5 I0.004 J0.975
N19475 G1 X35.139 Y26.578
N19480 X35.292 Y26.786
N19485 X35.305 Y26.801
N19490 X35.327 Y26.83
N19495 X35.356 Y26.867
N19500 X35.385 Y26.912
N19505 X35.408 Y26.952
N19510 X35.428 Y26.993
N19515 G3 X35.25 Y27.45 I-0.374 J0.117
N19520 X34.863 Y26.778 I-0.193 J-0.336
N19525 X35.356 Y26.867 I0.193 J0.336
N19530 G1 X35.379 Y26.897
N19535 X35.406 Y26.945
N19540 X35.428 Y26.993
N19545 X35.438 Y27.022
N19550 X35.447 Y27.045
N19555 X35.454 Y27.074
N19560 X35.468 Y27.149
N19565 G3 X35.206 Y27.478 I-0.322 J0.012
N19570 X35.086 Y26.849 I-0.06 J-0.315
N19575 X35.454 Y27.074 I0.06 J0.315
N19580 G1 X35.46 Y27.097
N19585 X35.468 Y27.149
N19590 X35.47 Y27.178
N19595 X35.472 Y27.201
N19600 X35.466 Y27.305
N19605 X35.456 Y27.357
N19610 X35.441 Y27.409
N19615 X35.421 Y27.461
N19620 X35.395 Y27.513
N19625 X35.363 Y27.565
N19630 X35.321 Y27.617
N19635 X35.305 Y27.634
N19640 X35.253 Y27.686
N19645 X35.201 Y27.726
N19650 X35.149 Y27.759
N19655 X35.097 Y27.784
N19660 X35.047 Y27.807
N19665 G3 X34.344 Y27.61 I-0.224 J-0.557
N19670 G1 X34.288 Y27.535 Z-5.493
N19675 X34.233 Y27.462 Z-5.471
N19680 X34.18 Y27.392 Z-5.435
N19685 X34.132 Y27.328 Z-5.385
N19690 X34.089 Y27.27 Z-5.324
N19695 X34.053 Y27.222 Z-5.253
N19700 X34.023 Y27.182 Z-5.172
N19705 X34.001 Y27.153 Z-5.085
N19710 X33.988 Y27.136 Z-4.994
N19715 X33.984 Y27.13 Z-4.9
N19720 G0 Z5.
N19725 X5.192 Y-3.762
N19730 Z-4.3
N19735 G1 Z-4.9 F900.
N19740 X5.188 Y-3.756 Z-4.994
N19745 X5.177 Y-3.737 Z-5.085
N19750 X5.159 Y-3.705 Z-5.172
N19755 X5.135 Y-3.663 Z-5.253
N19760 X5.105 Y-3.609 Z-5.324
N19765 X5.07 Y-3.547 Z-5.385
N19770 X5.03 Y-3.477 Z-5.435
N19775 X4.988 Y-3.401 Z-5.471
N19780 X4.943 Y-3.322 Z-5.493
N19785 X4.896 Y-3.24 Z-5.5
N19790 G3 X4.488 Y-2.815 I-1.033 J-0.584
N19795 G1 X4.326 Y-2.722
N19800 X4.136 Y-2.598
N19805 X4.029 Y-2.514
N19810 X3.856 Y-2.359
N19815 X3.736 Y-2.261
N19820 X3.615 Y-2.171
N19825 X3.49 Y-2.089
N19830 X3.36 Y-2.014
N19835 X2.547 Y-1.594
N19840 X1.767 Y-1.113
N19845 X1.09 Y-0.498
N19850 X0.53 Y0.227
N19855 X0.089 Y1.029
N19860 X0.033 Y1.172
N19865 X-0.104 Y1.458
N19870 X-0.278 Y1.722
N19875 X-0.486 Y1.961
N19880 G3 X-1.334 Y1.931 Z-5.3 I-0.409 J-0.439
N19885 X-1.318 Y1.096 I0.438 J-0.41
N19890 G1 X3.017 Y-3.216
N19895 G3 X3.872 Y-3.207 I0.423 J0.425
N19900 X3.856 Y-2.359 Z-5.5 I-0.432 J0.416
N19905 G1 X3.72 Y-2.236
N19910 X3.573 Y-2.098
N19915 X-1.059 Y2.534
N19920 X-1.206 Y2.681
N19925 X-1.308 Y2.789
N19930 X-1.379 Y2.848
N19935 X-1.459 Y2.896
N19940 X-1.53 Y2.917 Z-5.495
N19945 X-1.599 Y2.937 Z-5.482
N19950 X-1.667 Y2.957 Z-5.459
N19955 X-1.728 Y2.96 Z-5.431
N19960 X-1.79 Y2.949 Z-5.392
N19965 X-1.847 Y2.938 Z-5.346
N19970 X-1.898 Y2.929 Z-5.294
N19975 X-1.942 Y2.921 Z-5.235
N19980 X-1.981 Y2.902 Z-5.158
N19985 X-2.01 Y2.888 Z-5.075
N19990 X-2.028 Y2.879 Z-4.989
N19995 X-2.034 Y2.876 Z-4.9
N20000 G0 Z5.
N20005 X8.375 Y-4.832
N20010 Z-9.8
N20015 G1 Z-10.4 F900.
N20020 X8.369 Y-4.828 Z-10.494
N20025 X8.35 Y-4.816 Z-10.585
N20030 X8.32 Y-4.796 Z-10.672
N20035 X8.279 Y-4.769 Z-10.753
N20040 X8.228 Y-4.735 Z-10.824
N20045 X8.168 Y-4.696 Z-10.885
N20050 X8.101 Y-4.652 Z-10.935
N20055 X8.028 Y-4.605 Z-10.971
N20060 X7.951 Y-4.555 Z-10.993
N20065 X7.873 Y-4.503 Z-11.
N20070 G3 X4.932 Y-3.005 I-8.384 J-12.82
N20075 G1 X4.759 Y-2.946
N20080 X4.551 Y-2.851
N20085 X4.488 Y-2.815
N20090 X4.352 Y-2.746
N20095 X4.216 Y-2.684
N20100 X4.063 Y-2.623
N20105 X3.873 Y-2.557
N20110 X3.637 Y-2.487
N20115 X3.339 Y-2.411
N20120 X2.953 Y-2.331
N20125 X2.432 Y-2.247
N20130 X1.523 Y-2.14
N20135 X0.651 Y-1.862
N20140 X-0.093 Y-1.328
N20145 X-0.682 Y-0.628
N20150 X-1.121 Y0.176
N20155 X-1.432 Y1.037
N20160 X-1.643 Y1.928
N20165 X-1.78 Y2.833
N20170 X-1.812 Y3.173
N20175 X-1.842 Y3.385
N20180 X-1.891 Y3.593
N20185 X-1.959 Y3.796
N20190 X-2.01 Y3.928
N20195 X-2.077 Y4.136
N20200 X-2.131 Y4.344
N20205 X-2.165 Y4.551
N20210 X-2.182 Y4.759
N20215 X-2.197 Y5.175
N20220 X-2.2 Y5.383
N20225 Y11.409
N20230 X-2.187 Y11.616
N20235 X-2.156 Y12.032
N20240 X-2.087 Y12.945
N20245 X-2.051 Y13.86
N20250 X-2.03 Y14.775
N20255 X-2.018 Y15.69
N20260 X-2.01 Y16.605
N20265 X-2.006 Y17.521
N20270 X-2.004 Y18.436
N20275 X-2.001 Y20.267
N20280 X-2. Y26.675
N20285 Y51.975
N20290 X-2.006 Y52.14
N20295 X-2.023 Y52.304
N20300 X-2.052 Y52.466
