%
(FRAME_LONG_V3)
(T10  D=6. CR=0. - ZMIN=-21. - FLAT END MILL)
N10 G90 G94 G17 G91.1
N15 G21
N20 G53 G0 Z0.
(2D ADAPTIVE2)
N25 T10 M6
N30 S20000 M3
N35 G54
N40 G64 P0.1 Q0.1
N45 G0 X413.804 Y45.543
N50 G43 Z80. H10
N55 G0 Z30.
N60 Z-9.8
N65 G1 Z-10.4 F1600.
N70 X413.809 Y45.538 Z-10.494
N75 X413.824 Y45.522 Z-10.585
N80 X413.849 Y45.496 Z-10.672
N85 X413.884 Y45.461 Z-10.753
N90 X413.926 Y45.417 Z-10.824
N95 X413.976 Y45.366 Z-10.885
N100 X414.032 Y45.309 Z-10.935
N105 X414.093 Y45.246 Z-10.971
N110 X414.157 Y45.181 Z-10.993
N115 X414.223 Y45.114 Z-11.
N120 G3 X416.768 Y43.014 I10.964 J10.697
N125 G1 X416.934 Y42.913
N130 X416.986 Y42.878
N135 X417.204 Y42.714
N140 X417.226 Y42.695
N145 X417.421 Y42.527
N150 X417.468 Y42.478
N155 X417.562 Y42.378
N160 X417.682 Y42.262
N165 X418.422 Y41.655
N170 X419.055 Y40.935
N175 X419.504 Y40.089
N180 X419.817 Y39.185
N185 X420.034 Y38.252
N190 X420.183 Y37.306
N195 X420.285 Y36.353
N200 X420.354 Y35.398
N205 X420.401 Y34.442
N210 X420.433 Y33.485
N215 X420.455 Y32.527
N220 X420.469 Y31.569
N225 X420.479 Y30.612
N230 X420.486 Y29.654
N235 X420.491 Y28.696
N240 X420.496 Y26.781
N245 X420.499 Y23.908
N250 X420.5 Y15.289
N255 Y2.839
N260 X420.423 Y2.366
N265 X420.195 Y1.945
N270 X419.58 Y1.211
N275 X418.78 Y0.684
N280 X417.897 Y0.313
N285 X416.975 Y0.056
N290 X416.034 Y-0.121
N295 X415.084 Y-0.243
N300 X414.13 Y-0.325
N305 X413.173 Y-0.382
N310 X412.217 Y-0.42
N315 X411.259 Y-0.446
N320 X410.302 Y-0.463
N325 X409.344 Y-0.475
N330 X408.386 Y-0.483
N335 X407.429 Y-0.489
N340 X406.471 Y-0.492
N345 X404.556 Y-0.496
N350 X401.683 Y-0.499
N355 X391.148 Y-0.5
N360 X380.002
N365 X379.742 Y-0.526
N370 X379.492 Y-0.601
N375 X379.261 Y-0.725
N380 X379.059 Y-0.891
N385 X377.906 Y-2.044
N390 G0 Z30.
N395 X417.082 Y43.666
N400 Z-9.8
N405 G1 Z-10.4 F1600.
N410 X417.083 Y43.658 Z-10.494
N415 X417.088 Y43.637 Z-10.585
N420 X417.096 Y43.602 Z-10.672
N425 X417.106 Y43.554 Z-10.753
N430 X417.119 Y43.494 Z-10.824
N435 X417.134 Y43.424 Z-10.885
N440 X417.151 Y43.346 Z-10.935
N445 X417.17 Y43.261 Z-10.971
N450 X417.189 Y43.171 Z-10.993
N455 X417.209 Y43.079 Z-11.
N460 G3 X417.562 Y42.378 I1.546 J0.337
N465 G1 X417.671 Y42.261
N470 X417.856 Y42.02
N475 X417.979 Y41.827
N480 X418.074 Y41.668
N485 X418.21 Y41.392
N490 X418.293 Y41.175
N495 X418.362 Y40.958
N500 X418.419 Y40.741
N505 X418.458 Y40.524
N510 X418.483 Y40.306
N515 X418.496 Y40.089
N520 Y39.872
N525 X418.479 Y39.655
N530 X418.451 Y39.438
N535 X418.411 Y39.221
N540 X418.352 Y39.003
N545 X418.313 Y38.859
N550 X418.144 Y37.916
N555 X418.054 Y36.962
N560 X418.008 Y36.006
N565 X417.987 Y35.048
N570 X417.978 Y34.091
N575 X417.977 Y33.133
N580 X417.979 Y32.175
N585 X417.991 Y28.344
N590 X417.996 Y25.471
N595 X417.999 Y21.641
N600 X418. Y9.191
N605 Y6.317
N610 X417.986 Y5.839
N615 X417.863 Y5.376
N620 X417.439 Y4.517
N625 X416.765 Y3.838
N630 X415.956 Y3.324
N635 X415.076 Y2.946
N640 X414.159 Y2.672
N645 X413.221 Y2.475
N650 X412.274 Y2.335
N655 X411.321 Y2.235
N660 X410.366 Y2.165
N665 X409.41 Y2.115
N670 X408.453 Y2.081
N675 X407.495 Y2.056
N680 X406.538 Y2.039
N685 X405.58 Y2.027
N690 X404.623 Y2.019
N695 X403.665 Y2.013
N700 X402.707 Y2.009
N705 X401.75 Y2.006
N710 X399.834 Y2.003
N715 X396.003 Y2.001
N720 X382.596 Y2.
N725 X382.492 Y1.999
N730 X382.234 Y1.972
N735 X381.987 Y1.896
N740 X381.759 Y1.773
N745 X381.559 Y1.609
N750 X379.059 Y-0.891
N755 G0 Z30.
N760 X419.254 Y40.041
N765 Z-9.8
N770 G1 Z-10.4 F1600.
N775 X419.248 Y40.036 Z-10.494
N780 X419.231 Y40.022 Z-10.585
N785 X419.204 Y39.998 Z-10.672
N790 X419.167 Y39.966 Z-10.753
N795 X419.121 Y39.926 Z-10.824
N800 X419.067 Y39.879 Z-10.885
N805 X419.006 Y39.827 Z-10.935
N810 X418.94 Y39.77 Z-10.971
N815 X418.871 Y39.71 Z-10.993
N820 X418.8 Y39.648 Z-11.
N825 G3 X418.352 Y39.003 I1.035 J-1.197
N830 G1 X418.292 Y38.823
N835 X418.278 Y38.786
N840 X418.191 Y38.569
N845 X418.074 Y38.33
N850 X417.955 Y38.135
N855 X417.856 Y37.981
N860 X417.637 Y37.7
N865 X417.421 Y37.471
N870 X417.308 Y37.358
N875 X417.181 Y37.218
N880 X416.999 Y36.979
N885 X416.803 Y36.673
N890 X416.596 Y36.281
N895 X416.38 Y35.772
N900 X416.156 Y35.094
N905 X415.932 Y34.163
N910 X415.784 Y33.216
N915 X415.686 Y32.264
N920 X415.622 Y31.308
N925 X415.579 Y30.351
N930 X415.551 Y29.394
N935 X415.533 Y28.437
N940 X415.521 Y27.479
N945 X415.513 Y26.521
N950 X415.508 Y25.564
N955 X415.505 Y24.606
N960 X415.502 Y22.691
N965 X415.5 Y18.86
N970 Y9.283
N975 X415.498 Y8.804
N980 X415.418 Y8.332
N985 X415.085 Y7.434
N990 X414.48 Y6.692
N995 X413.717 Y6.113
N1000 X412.864 Y5.676
N1005 X411.963 Y5.352
N1010 X411.036 Y5.114
N1015 X410.094 Y4.941
N1020 X409.144 Y4.816
N1025 X408.191 Y4.725
N1030 X407.235 Y4.661
N1035 X406.279 Y4.614
N1040 X405.322 Y4.581
N1045 X404.364 Y4.558
N1050 X403.407 Y4.541
N1055 X402.449 Y4.529
N1060 X401.491 Y4.52
N1065 X400.534 Y4.514
N1070 X399.576 Y4.51
N1075 X397.661 Y4.505
N1080 X395.745 Y4.502
N1085 X390.957 Y4.5
N1090 X385.211
N1095 X384.997 Y4.499
N1100 X384.738 Y4.473
N1105 X384.489 Y4.397
N1110 X384.26 Y4.274
N1115 X384.059 Y4.109
N1120 X381.559 Y1.609
N1125 G0 Z30.
N1130 X418.579 Y37.883
N1135 Z-9.8
N1140 G1 Z-10.4 F1600.
N1145 X418.572 Y37.881 Z-10.494
N1150 X418.551 Y37.875 Z-10.585
N1155 X418.516 Y37.866 Z-10.672
N1160 X418.468 Y37.854 Z-10.753
N1165 X418.409 Y37.839 Z-10.824
N1170 X418.339 Y37.822 Z-10.885
N1175 X418.261 Y37.802 Z-10.935
N1180 X418.177 Y37.78 Z-10.971
N1185 X418.088 Y37.758 Z-10.993
N1190 X417.997 Y37.735 Z-11.
N1195 G3 X417.308 Y37.358 I0.39 J-1.534
N1200 G1 X415.245 Y35.295
N1205 X414.928 Y34.945
N1210 X414.705 Y34.653
N1215 X414.479 Y34.299
N1220 X414.237 Y33.841
N1225 X413.99 Y33.261
N1230 X413.737 Y32.494
N1235 X413.513 Y31.563
N1240 X413.357 Y30.618
N1245 X413.248 Y29.666
N1250 X413.172 Y28.712
N1255 X413.119 Y27.756
N1260 X413.082 Y26.799
N1265 X413.057 Y25.841
N1270 X413.039 Y24.884
N1275 X413.027 Y23.926
N1280 X413.018 Y22.968
N1285 X413.012 Y22.011
N1290 X413.008 Y21.053
N1295 X413.004 Y19.138
N1300 X413.001 Y16.265
N1305 X413. Y11.476
N1310 X412.926 Y11.003
N1315 X412.614 Y10.098
N1320 X412.032 Y9.337
N1325 X411.285 Y8.738
N1330 X410.443 Y8.28
N1335 X409.549 Y7.937
N1340 X408.626 Y7.682
N1345 X407.687 Y7.494
N1350 X406.739 Y7.358
N1355 X405.787 Y7.258
N1360 X404.832 Y7.186
N1365 X403.876 Y7.133
N1370 X402.919 Y7.096
N1375 X401.961 Y7.069
N1380 X401.004 Y7.049
N1385 X400.046 Y7.035
N1390 X399.089 Y7.025
N1395 X398.131 Y7.018
N1400 X397.173 Y7.013
N1405 X396.215 Y7.009
N1410 X394.3 Y7.005
N1415 X391.427 Y7.002
N1420 X388.554 Y7.001
N1425 X387.596 Y7.
N1430 X387.492
N1435 X387.234 Y6.973
N1440 X386.987 Y6.896
N1445 X386.759 Y6.774
N1450 X386.559 Y6.609
N1455 X384.059 Y4.109
N1460 G0 Z30.
N1465 X416.516 Y35.819
N1470 Z-9.8
N1475 G1 Z-10.4 F1600.
N1480 X416.508 Y35.817 Z-10.494
N1485 X416.487 Y35.812 Z-10.585
N1490 X416.452 Y35.803 Z-10.672
N1495 X416.404 Y35.791 Z-10.753
N1500 X416.345 Y35.776 Z-10.824
N1505 X416.276 Y35.758 Z-10.885
N1510 X416.198 Y35.738 Z-10.935
N1515 X416.114 Y35.717 Z-10.971
N1520 X416.025 Y35.694 Z-10.993
N1525 X415.934 Y35.671 Z-11.
N1530 G3 X415.245 Y35.295 I0.39 J-1.534
N1535 G1 X412.85 Y32.901
N1540 X412.514 Y32.529
N1545 X412.282 Y32.224
N1550 X412.046 Y31.856
N1555 X411.794 Y31.378
N1560 X411.538 Y30.776
N1565 X411.273 Y29.976
N1570 X411.05 Y29.045
N1575 X410.891 Y28.1
N1580 X410.778 Y27.149
N1585 X410.697 Y26.195
N1590 X410.64 Y25.239
N1595 X410.599 Y24.282
N1600 X410.57 Y23.325
N1605 X410.549 Y22.368
N1610 X410.535 Y21.41
N1615 X410.524 Y20.452
N1620 X410.517 Y19.495
N1625 X410.512 Y18.537
N1630 X410.508 Y17.579
N1635 X410.504 Y15.664
N1640 X410.502 Y13.749
N1645 X410.245 Y12.826
N1650 X409.704 Y12.035
N1655 X408.987 Y11.401
N1660 X408.165 Y10.911
N1665 X407.282 Y10.54
N1670 X406.365 Y10.262
N1675 X405.43 Y10.057
N1680 X404.484 Y9.905
N1685 X403.533 Y9.795
N1690 X402.578 Y9.714
N1695 X401.623 Y9.655
N1700 X400.666 Y9.612
N1705 X399.709 Y9.581
N1710 X398.751 Y9.558
N1715 X397.794 Y9.542
N1720 X396.836 Y9.53
N1725 X395.878 Y9.522
N1730 X394.921 Y9.516
N1735 X393.963 Y9.511
N1740 X392.048 Y9.506
N1745 X390.132 Y9.503
N1750 X389.995 Y9.502
N1755 X389.737 Y9.475
N1760 X389.49 Y9.399
N1765 X389.261 Y9.276
N1770 X389.061 Y9.112
N1775 X386.559 Y6.609
N1780 G0 Z30.
N1785 X414.121 Y33.425
N1790 Z-9.8
N1795 G1 Z-10.4 F1600.
N1800 X414.114 Y33.423 Z-10.494
N1805 X414.093 Y33.418 Z-10.585
N1810 X414.058 Y33.409 Z-10.672
N1815 X414.01 Y33.397 Z-10.753
N1820 X413.951 Y33.382 Z-10.824
N1825 X413.882 Y33.364 Z-10.885
N1830 X413.804 Y33.344 Z-10.935
N1835 X413.72 Y33.323 Z-10.971
N1840 X413.631 Y33.3 Z-10.993
N1845 X413.54 Y33.277 Z-11.
N1850 G3 X412.85 Y32.901 I0.39 J-1.534
N1855 G1 X410.266 Y30.316
N1860 X410.054 Y30.082
N1865 X409.819 Y29.774
N1870 X409.578 Y29.398
N1875 X409.321 Y28.911
N1880 X409.061 Y28.3
N1885 X408.792 Y27.485
N1890 X408.569 Y26.554
N1895 X408.408 Y25.61
N1900 X408.293 Y24.659
N1905 X408.211 Y23.705
N1910 X408.151 Y22.749
N1915 X408.108 Y21.792
N1920 X408.078 Y20.835
N1925 X408.056 Y19.878
N1930 X408.04 Y18.92
N1935 X408.028 Y17.962
N1940 X408.02 Y17.005
N1945 X407.999 Y16.047
N1950 X407.659 Y15.152
N1955 X407.069 Y14.398
N1960 X406.322 Y13.799
N1965 X405.483 Y13.337
N1970 X404.591 Y12.987
N1975 X403.67 Y12.725
N1980 X402.732 Y12.531
N1985 X401.785 Y12.388
N1990 X400.833 Y12.283
N1995 X399.879 Y12.206
N2000 X398.923 Y12.15
N2005 X397.966 Y12.109
N2010 X397.009 Y12.079
N2015 X396.051 Y12.057
N2020 X395.094 Y12.041
N2025 X394.136 Y12.03
N2030 X393.178 Y12.022
N2035 X392.511 Y12.017
N2040 X392.253 Y11.991
N2045 X392.005 Y11.914
N2050 X391.777 Y11.792
N2055 X391.577 Y11.627
N2060 X389.061 Y9.112
N2065 G0 Z30.
N2070 X411.537 Y30.84
N2075 Z-9.8
N2080 G1 Z-10.4 F1600.
N2085 X411.53 Y30.839 Z-10.494
N2090 X411.508 Y30.833 Z-10.585
N2095 X411.473 Y30.824 Z-10.672
N2100 X411.426 Y30.812 Z-10.753
N2105 X411.366 Y30.797 Z-10.824
N2110 X411.297 Y30.779 Z-10.885
N2115 X411.219 Y30.76 Z-10.935
N2120 X411.135 Y30.738 Z-10.971
N2125 X411.046 Y30.716 Z-10.993
N2130 X410.955 Y30.692 Z-11.
N2135 G3 X410.266 Y30.316 I0.39 J-1.534
N2140 G1 X407.877 Y27.927
N2145 X407.571 Y27.589
N2150 X407.334 Y27.279
N2155 X407.093 Y26.901
N2160 X406.834 Y26.412
N2165 X406.572 Y25.796
N2170 X406.301 Y24.976
N2175 X406.078 Y24.045
N2180 X405.917 Y23.101
N2185 X405.801 Y22.15
N2190 X405.717 Y21.196
N2195 X405.657 Y20.24
N2200 X405.613 Y19.284
N2205 X405.503 Y18.332
N2210 X405.086 Y17.47
N2215 X404.448 Y16.756
N2220 X403.674 Y16.192
N2225 X402.82 Y15.758
N2230 X401.92 Y15.43
N2235 X400.995 Y15.185
N2240 X400.054 Y15.002
N2245 X399.106 Y14.868
N2250 X398.154 Y14.769
N2255 X397.199 Y14.696
N2260 X396.243 Y14.643
N2265 X395.286 Y14.604
N2270 X395.058 Y14.597
N2275 X394.809 Y14.565
N2280 X394.57 Y14.488
N2285 X394.35 Y14.367
N2290 X394.157 Y14.207
N2295 X391.577 Y11.627
N2300 G0 Z30.
N2305 X409.148 Y28.451
N2310 Z-9.8
N2315 G1 Z-10.4 F1600.
N2320 X409.141 Y28.45 Z-10.494
N2325 X409.119 Y28.444 Z-10.585
N2330 X409.084 Y28.435 Z-10.672
N2335 X409.037 Y28.423 Z-10.753
N2340 X408.977 Y28.408 Z-10.824
N2345 X408.908 Y28.39 Z-10.885
N2350 X408.83 Y28.371 Z-10.935
N2355 X408.746 Y28.349 Z-10.971
N2360 X408.657 Y28.327 Z-10.993
N2365 X408.566 Y28.303 Z-11.
N2370 G3 X407.877 Y27.927 I0.39 J-1.534
N2375 G1 X405.271 Y25.321
N2380 X405.083 Y25.114
N2385 X404.846 Y24.803
N2390 X404.603 Y24.423
N2395 X404.343 Y23.93
N2400 X404.08 Y23.313
N2405 X403.808 Y22.488
N2410 X403.584 Y21.557
N2415 X403.308 Y20.64
N2420 X402.799 Y19.829
N2425 X402.115 Y19.158
N2430 X401.318 Y18.628
N2435 X400.452 Y18.218
N2440 X399.547 Y17.906
N2445 X398.618 Y17.671
N2450 X397.798 Y17.518
N2455 X397.542 Y17.443
N2460 X397.306 Y17.319
N2465 X397.1 Y17.15
N2470 X394.157 Y14.207
N2475 G0 Z30.
N2480 X406.542 Y25.845
N2485 Z-9.8
N2490 G1 Z-10.4 F1600.
N2495 X406.534 Y25.843 Z-10.494
N2500 X406.513 Y25.838 Z-10.585
N2505 X406.478 Y25.829 Z-10.672
N2510 X406.43 Y25.817 Z-10.753
N2515 X406.371 Y25.802 Z-10.824
N2520 X406.302 Y25.784 Z-10.885
N2525 X406.224 Y25.764 Z-10.935
N2530 X406.14 Y25.743 Z-10.971
N2535 X406.051 Y25.72 Z-10.993
N2540 X405.96 Y25.697 Z-11.
N2545 G3 X405.271 Y25.321 I0.39 J-1.534
N2550 G1 X397.1 Y17.15
N2555 G0 Z30.
N2560 X46.173 Y-5.541
N2565 Z-9.8
N2570 G1 Z-10.4 F1600.
N2575 X46.168 Y-5.536 Z-10.494
N2580 X46.152 Y-5.52 Z-10.585
N2585 X46.127 Y-5.494 Z-10.672
N2590 X46.093 Y-5.459 Z-10.753
N2595 X46.05 Y-5.415 Z-10.824
N2600 X46.001 Y-5.364 Z-10.885
N2605 X45.945 Y-5.306 Z-10.935
N2610 X45.884 Y-5.244 Z-10.971
N2615 X45.82 Y-5.178 Z-10.993
N2620 X45.755 Y-5.111 Z-11.
N2625 G3 X43.215 Y-3.003 I-10.994 J-10.667
N2630 G1 X43.067 Y-2.913
N2635 X42.781 Y-2.695
N2640 X42.627 Y-2.569
N2645 X42.532 Y-2.478
N2650 X42.409 Y-2.359
N2655 X42.225 Y-2.193
N2660 X41.992 Y-2.015
N2665 X41.692 Y-1.823
N2670 X41.305 Y-1.618
N2675 X40.798 Y-1.403
N2680 X40.115 Y-1.177
N2685 X39.184 Y-0.953
N2690 X38.238 Y-0.805
N2695 X37.286 Y-0.705
N2700 X36.33 Y-0.638
N2705 X35.374 Y-0.593
N2710 X34.416 Y-0.563
N2715 X33.459 Y-0.543
N2720 X32.501 Y-0.529
N2725 X31.544 Y-0.519
N2730 X30.586 Y-0.513
N2735 X29.628 Y-0.509
N2740 X27.713 Y-0.504
N2745 X24.84 Y-0.501
N2750 X16.221 Y-0.5
N2755 X2.813
N2760 X2.342 Y-0.411
N2765 X1.924 Y-0.178
N2770 X1.196 Y0.444
N2775 X0.673 Y1.247
N2780 X0.306 Y2.131
N2785 X0.051 Y3.054
N2790 X-0.125 Y3.996
N2795 X-0.245 Y4.946
N2800 X-0.327 Y5.9
N2805 X-0.383 Y6.856
N2810 X-0.421 Y7.813
N2815 X-0.446 Y8.77
N2820 X-0.464 Y9.728
N2825 X-0.475 Y10.685
N2830 X-0.483 Y11.643
N2835 X-0.489 Y12.601
N2840 X-0.492 Y13.559
N2845 X-0.497 Y15.474
N2850 X-0.499 Y18.347
N2855 X-0.5 Y29.839
N2860 Y37.262
N2865 X-0.457 Y37.497
N2870 X-0.289 Y37.945
N2875 X0.29 Y38.708
N2880 X0.945 Y39.169
N2885 X1.169 Y39.367
N2890 X1.343 Y39.609
N2895 X1.458 Y39.885
N2900 X1.51 Y40.179
N2905 G3 X1.08 Y40.769 I-0.6 J0.016
N2910 G1 X0.99 Y40.796 Z-10.993
N2915 X0.902 Y40.822 Z-10.971
N2920 X0.819 Y40.847 Z-10.935
N2925 X0.742 Y40.87 Z-10.885
N2930 X0.673 Y40.89 Z-10.824
N2935 X0.615 Y40.907 Z-10.753
N2940 X0.568 Y40.921 Z-10.672
N2945 X0.533 Y40.931 Z-10.585
N2950 X0.512 Y40.938 Z-10.494
N2955 X0.505 Y40.94 Z-10.4
N2960 G0 Z30.
N2965 X42.933 Y-3.63
N2970 Z-9.8
N2975 G1 Z-10.4 F1600.
N2980 X42.931 Y-3.622 Z-10.494
N2985 X42.926 Y-3.601 Z-10.585
N2990 X42.917 Y-3.566 Z-10.672
N2995 X42.905 Y-3.518 Z-10.753
N3000 X42.89 Y-3.459 Z-10.824
N3005 X42.872 Y-3.39 Z-10.885
N3010 X42.852 Y-3.312 Z-10.935
N3015 X42.831 Y-3.228 Z-10.971
N3020 X42.808 Y-3.139 Z-10.993
N3025 X42.785 Y-3.048 Z-11.
N3030 G3 X42.409 Y-2.359 I-1.534 J-0.39
N3035 G1 X40.232 Y-0.182
N3040 X39.974 Y0.052
N3045 X39.681 Y0.275
N3050 X39.324 Y0.503
N3055 X38.864 Y0.746
N3060 X38.279 Y0.995
N3065 X37.506 Y1.251
N3070 X36.574 Y1.475
N3075 X35.63 Y1.631
N3080 X34.678 Y1.741
N3085 X33.724 Y1.819
N3090 X32.767 Y1.873
N3095 X31.811 Y1.911
N3100 X30.853 Y1.938
N3105 X29.896 Y1.957
N3110 X28.938 Y1.97
N3115 X27.98 Y1.979
N3120 X27.023 Y1.985
N3125 X26.065 Y1.99
N3130 X24.15 Y1.995
N3135 X21.277 Y1.998
N3140 X14.573 Y2.
N3145 X5.953
N3150 X5.484 Y2.097
N3155 X4.607 Y2.48
N3160 X3.908 Y3.135
N3165 X3.377 Y3.932
N3170 X2.986 Y4.806
N3175 X2.701 Y5.72
N3180 X2.496 Y6.656
N3185 X2.35 Y7.602
N3190 X2.246 Y8.554
N3195 X2.172 Y9.509
N3200 X2.121 Y10.466
N3205 X2.084 Y11.423
N3210 X2.059 Y12.38
N3215 X2.041 Y13.338
N3220 X2.029 Y14.295
N3225 X2.02 Y15.253
N3230 X2.014 Y16.211
N3235 X2.01 Y17.168
N3240 X2.005 Y19.084
N3245 X2.002 Y21.957
N3250 X2. Y29.618
N3255 Y34.407
N3260 X2.231 Y35.336
N3265 X2.589 Y36.224
N3270 X2.611 Y36.274
N3275 X2.7 Y36.567
N3280 X2.719 Y36.872
N3285 X2.666 Y37.174
N3290 X2.545 Y37.455
N3295 X2.363 Y37.7
N3300 X2.144 Y37.981
N3305 X2.045 Y38.135
N3310 X1.926 Y38.33
N3315 X1.809 Y38.569
N3320 G3 X1.145 Y38.873 I-0.53 J-0.281
N3325 G1 X1.053 Y38.851 Z-10.993
N3330 X0.964 Y38.831 Z-10.971
N3335 X0.879 Y38.811 Z-10.935
N3340 X0.801 Y38.793 Z-10.885
N3345 X0.731 Y38.777 Z-10.824
N3350 X0.672 Y38.764 Z-10.753
N3355 X0.624 Y38.753 Z-10.672
N3360 X0.589 Y38.745 Z-10.585
N3365 X0.567 Y38.74 Z-10.494
N3370 X0.56 Y38.738 Z-10.4
N3375 G0 Z30.
N3380 X40.757 Y-1.453
N3385 Z-9.8
N3390 G1 Z-10.4 F1600.
N3395 X40.755 Y-1.446 Z-10.494
N3400 X40.749 Y-1.425 Z-10.585
N3405 X40.741 Y-1.39 Z-10.672
N3410 X40.728 Y-1.342 Z-10.753
N3415 X40.713 Y-1.283 Z-10.824
N3420 X40.696 Y-1.213 Z-10.885
N3425 X40.676 Y-1.136 Z-10.935
N3430 X40.654 Y-1.051 Z-10.971
N3435 X40.632 Y-0.962 Z-10.993
N3440 X40.609 Y-0.872 Z-11.
N3445 G3 X40.232 Y-0.182 I-1.534 J-0.39
N3450 G1 X37.838 Y2.212
N3455 X37.549 Y2.474
N3460 X37.243 Y2.707
N3465 X36.873 Y2.944
N3470 X36.393 Y3.197
N3475 X35.789 Y3.454
N3480 X34.985 Y3.72
N3485 X34.054 Y3.943
N3490 X33.11 Y4.103
N3495 X32.159 Y4.217
N3500 X31.204 Y4.298
N3505 X30.248 Y4.356
N3510 X29.292 Y4.397
N3515 X28.334 Y4.427
N3520 X27.377 Y4.448
N3525 X26.419 Y4.463
N3530 X25.462 Y4.474
N3535 X24.504 Y4.481
N3540 X23.546 Y4.487
N3545 X22.589 Y4.491
N3550 X20.673 Y4.495
N3555 X17.8 Y4.498
N3560 X10.139 Y4.5
N3565 X9.181
N3570 X8.702 Y4.511
N3575 X8.234 Y4.61
N3580 X7.349 Y4.976
N3585 X6.623 Y5.601
N3590 X6.061 Y6.377
N3595 X5.638 Y7.236
N3600 X5.324 Y8.14
N3605 X5.093 Y9.07
N3610 X4.926 Y10.013
N3615 X4.805 Y10.963
N3620 X4.717 Y11.917
N3625 X4.655 Y12.872
N3630 X4.61 Y13.829
N3635 X4.578 Y14.786
N3640 X4.555 Y15.744
N3645 X4.539 Y16.701
N3650 X4.528 Y17.659
N3655 X4.52 Y18.616
N3660 X4.514 Y19.574
N3665 X4.51 Y20.532
N3670 X4.505 Y22.447
N3675 X4.503 Y23.405
N3680 X4.501 Y27.236
N3685 X4.5 Y32.024
N3690 X4.597 Y32.977
N3695 X4.763 Y33.92
N3700 X4.843 Y34.431
N3705 X4.855 Y34.744
N3710 X4.794 Y35.051
N3715 X4.663 Y35.335
N3720 X4.469 Y35.581
N3725 X2.568 Y37.483
N3730 X2.363 Y37.7
N3735 G3 X1.638 Y37.791 I-0.422 J-0.427
N3740 G1 X1.557 Y37.744 Z-10.993
N3745 X1.478 Y37.698 Z-10.971
N3750 X1.403 Y37.654 Z-10.935
N3755 X1.333 Y37.613 Z-10.885
N3760 X1.272 Y37.577 Z-10.824
N3765 X1.219 Y37.546 Z-10.753
N3770 X1.176 Y37.521 Z-10.672
N3775 X1.145 Y37.503 Z-10.585
N3780 X1.126 Y37.492 Z-10.494
N3785 X1.12 Y37.488 Z-10.4
N3790 G0 Z30.
N3795 X38.362 Y0.941
N3800 Z-9.8
N3805 G1 Z-10.4 F1600.
N3810 X38.361 Y0.948 Z-10.494
N3815 X38.355 Y0.97 Z-10.585
N3820 X38.346 Y1.005 Z-10.672
N3825 X38.334 Y1.052 Z-10.753
N3830 X38.319 Y1.111 Z-10.824
N3835 X38.302 Y1.181 Z-10.885
N3840 X38.282 Y1.259 Z-10.935
N3845 X38.26 Y1.343 Z-10.971
N3850 X38.238 Y1.432 Z-10.993
N3855 X38.215 Y1.523 Z-11.
N3860 G3 X37.838 Y2.212 I-1.534 J-0.39
N3865 G1 X35.444 Y4.606
N3870 X35.073 Y4.942
N3875 X34.764 Y5.177
N3880 X34.389 Y5.418
N3885 X33.902 Y5.675
N3890 X33.29 Y5.935
N3895 X32.474 Y6.205
N3900 X31.543 Y6.428
N3905 X30.599 Y6.589
N3910 X29.648 Y6.704
N3915 X28.694 Y6.787
N3920 X27.738 Y6.847
N3925 X26.781 Y6.89
N3930 X25.824 Y6.921
N3935 X24.867 Y6.943
N3940 X23.909 Y6.959
N3945 X22.951 Y6.971
N3950 X21.994 Y6.979
N3955 X21.036 Y6.985
N3960 X20.078 Y6.989
N3965 X18.163 Y6.994
N3970 X15.29 Y6.998
N3975 X11.459 Y6.999
N3980 X10.986 Y7.077
N3985 X10.083 Y7.395
N3990 X9.326 Y7.982
N3995 X8.73 Y8.731
N4000 X8.274 Y9.573
N4005 X7.932 Y10.468
N4010 X7.678 Y11.392
N4015 X7.492 Y12.331
N4020 X7.356 Y13.279
N4025 X7.257 Y14.231
N4030 X7.185 Y15.186
N4035 X7.133 Y16.143
N4040 X7.095 Y17.1
N4045 X7.068 Y18.057
N4050 X7.049 Y19.014
N4055 X7.035 Y19.972
N4060 X7.025 Y20.93
N4065 X7.018 Y21.887
N4070 X7.013 Y22.845
N4075 X7.009 Y23.803
N4080 X7.005 Y25.718
N4085 X7.002 Y28.591
N4090 X7.001 Y29.549
N4095 X7.021 Y30.506
N4100 X7.087 Y31.462
N4105 X7.17 Y32.416
N4110 X7.157 Y32.625
N4115 X7.102 Y32.827
N4120 X7.006 Y33.014
N4125 X6.873 Y33.177
N4130 X4.469 Y35.581
N4135 G0 Z30.
N4140 X35.968 Y3.335
N4145 Z-9.8
N4150 G1 Z-10.4 F1600.
N4155 X35.966 Y3.342 Z-10.494
N4160 X35.961 Y3.364 Z-10.585
N4165 X35.952 Y3.399 Z-10.672
N4170 X35.94 Y3.446 Z-10.753
N4175 X35.925 Y3.506 Z-10.824
N4180 X35.907 Y3.575 Z-10.885
N4185 X35.888 Y3.653 Z-10.935
N4190 X35.866 Y3.737 Z-10.971
N4195 X35.844 Y3.826 Z-10.993
N4200 X35.82 Y3.917 Z-11.
N4205 G3 X35.444 Y4.606 I-1.534 J-0.39
N4210 G1 X32.832 Y7.218
N4215 X32.606 Y7.423
N4220 X32.296 Y7.66
N4225 X31.916 Y7.902
N4230 X31.425 Y8.162
N4235 X30.809 Y8.424
N4240 X29.986 Y8.695
N4245 X29.055 Y8.919
N4250 X28.111 Y9.08
N4255 X27.16 Y9.196
N4260 X26.206 Y9.28
N4265 X25.251 Y9.341
N4270 X24.294 Y9.385
N4275 X23.337 Y9.417
N4280 X22.379 Y9.44
N4285 X21.422 Y9.457
N4290 X20.464 Y9.469
N4295 X19.506 Y9.477
N4300 X18.549 Y9.484
N4305 X17.591 Y9.488
N4310 X15.676 Y9.494
N4315 X13.76 Y9.497
N4320 X12.837 Y9.751
N4325 X12.044 Y10.289
N4330 X11.408 Y11.004
N4335 X10.916 Y11.826
N4340 X10.544 Y12.708
N4345 X10.265 Y13.625
N4350 X10.059 Y14.56
N4355 X9.907 Y15.505
N4360 X9.796 Y16.457
N4365 X9.715 Y17.411
N4370 X9.655 Y18.367
N4375 X9.612 Y19.323
N4380 X9.581 Y20.281
N4385 X9.559 Y21.238
N4390 X9.542 Y22.196
N4395 X9.53 Y23.153
N4400 X9.522 Y24.111
N4405 X9.516 Y25.069
N4410 X9.511 Y26.026
N4415 X9.508 Y26.984
N4420 X9.509 Y27.942
N4425 X9.524 Y28.899
N4430 X9.56 Y29.895
N4435 X9.541 Y30.166
N4440 X9.467 Y30.428
N4445 X9.342 Y30.67
N4450 X9.17 Y30.88
N4455 X6.873 Y33.177
N4460 G0 Z30.
N4465 X33.356 Y5.947
N4470 Z-9.8
N4475 G1 Z-10.4 F1600.
N4480 X33.355 Y5.954 Z-10.494
N4485 X33.349 Y5.976 Z-10.585
N4490 X33.34 Y6.01 Z-10.672
N4495 X33.328 Y6.058 Z-10.753
N4500 X33.313 Y6.117 Z-10.824
N4505 X33.296 Y6.187 Z-10.885
N4510 X33.276 Y6.265 Z-10.935
N4515 X33.254 Y6.349 Z-10.971
N4520 X33.232 Y6.438 Z-10.993
N4525 X33.209 Y6.529 Z-11.
N4530 G3 X32.832 Y7.218 I-1.534 J-0.39
N4535 G1 X30.438 Y9.612
N4540 X30.101 Y9.917
N4545 X29.79 Y10.154
N4550 X29.411 Y10.397
N4555 X28.92 Y10.656
N4560 X28.302 Y10.919
N4565 X27.477 Y11.191
N4570 X26.546 Y11.415
N4575 X25.602 Y11.576
N4580 X24.651 Y11.693
N4585 X23.697 Y11.777
N4590 X22.742 Y11.838
N4595 X21.785 Y11.883
N4600 X20.828 Y11.915
N4605 X19.87 Y11.938
N4610 X18.913 Y11.955
N4615 X17.955 Y11.967
N4620 X16.997 Y11.976
N4625 X16.04 Y12.001
N4630 X15.146 Y12.343
N4635 X14.393 Y12.935
N4640 X13.795 Y13.683
N4645 X13.334 Y14.522
N4650 X12.985 Y15.414
N4655 X12.724 Y16.336
N4660 X12.53 Y17.274
N4665 X12.387 Y18.221
N4670 X12.282 Y19.172
N4675 X12.205 Y20.127
N4680 X12.149 Y21.083
N4685 X12.108 Y22.04
N4690 X12.079 Y22.997
N4695 X12.057 Y23.955
N4700 X12.041 Y24.912
N4705 X12.031 Y25.87
N4710 X12.028 Y26.828
N4715 X12.034 Y27.45
N4720 X12.011 Y27.714
N4725 X11.936 Y27.968
N4730 X11.812 Y28.201
N4735 X11.644 Y28.406
N4740 X9.17 Y30.88
N4745 G0 Z30.
N4750 X30.962 Y8.341
N4755 Z-9.8
N4760 G1 Z-10.4 F1600.
N4765 X30.961 Y8.348 Z-10.494
N4770 X30.955 Y8.37 Z-10.585
N4775 X30.946 Y8.405 Z-10.672
N4780 X30.934 Y8.452 Z-10.753
N4785 X30.919 Y8.512 Z-10.824
N4790 X30.901 Y8.581 Z-10.885
N4795 X30.882 Y8.659 Z-10.935
N4800 X30.86 Y8.743 Z-10.971
N4805 X30.838 Y8.832 Z-10.993
N4810 X30.814 Y8.923 Z-11.
N4815 G3 X30.438 Y9.612 I-1.534 J-0.39
N4820 G1 X27.977 Y12.073
N4825 X27.603 Y12.412
N4830 X27.291 Y12.649
N4835 X26.911 Y12.893
N4840 X26.419 Y13.152
N4845 X25.8 Y13.416
N4850 X24.974 Y13.689
N4855 X24.043 Y13.912
N4860 X23.098 Y14.074
N4865 X22.148 Y14.19
N4870 X21.194 Y14.275
N4875 X20.238 Y14.336
N4880 X19.282 Y14.381
N4885 X18.331 Y14.494
N4890 X17.469 Y14.911
N4895 X16.755 Y15.549
N4900 X16.191 Y16.324
N4905 X15.758 Y17.178
N4910 X15.43 Y18.078
N4915 X15.185 Y19.003
N4920 X15.002 Y19.944
N4925 X14.868 Y20.892
N4930 X14.769 Y21.844
N4935 X14.696 Y22.799
N4940 X14.643 Y23.756
N4945 X14.606 Y24.713
N4950 X14.6 Y24.934
N4955 X14.569 Y25.184
N4960 X14.492 Y25.424
N4965 X14.371 Y25.646
N4970 X14.21 Y25.84
N4975 X11.644 Y28.406
N4980 G0 Z30.
N4985 X28.502 Y10.802
N4990 Z-9.8
N4995 G1 Z-10.4 F1600.
N5000 X28.5 Y10.809 Z-10.494
N5005 X28.494 Y10.83 Z-10.585
N5010 X28.485 Y10.865 Z-10.672
N5015 X28.473 Y10.913 Z-10.753
N5020 X28.458 Y10.972 Z-10.824
N5025 X28.441 Y11.042 Z-10.885
N5030 X28.421 Y11.12 Z-10.935
N5035 X28.399 Y11.204 Z-10.971
N5040 X28.377 Y11.293 Z-10.993
N5045 X28.354 Y11.384 Z-11.
N5050 G3 X27.977 Y12.073 I-1.534 J-0.39
N5055 G1 X25.432 Y14.618
N5060 X25.112 Y14.908
N5065 X24.801 Y15.146
N5070 X24.419 Y15.389
N5075 X23.926 Y15.65
N5080 X23.306 Y15.913
N5085 X22.479 Y16.187
N5090 X21.548 Y16.41
N5095 X20.631 Y16.689
N5100 X19.822 Y17.201
N5105 X19.153 Y17.886
N5110 X18.624 Y18.685
N5115 X18.215 Y19.551
N5120 X17.904 Y20.456
N5125 X17.669 Y21.385
N5130 X17.518 Y22.201
N5135 X17.443 Y22.457
N5140 X17.319 Y22.694
N5145 X17.15 Y22.9
N5150 X14.21 Y25.84
N5155 G0 Z30.
N5160 X25.956 Y13.347
N5165 Z-9.8
N5170 G1 Z-10.4 F1600.
N5175 X25.955 Y13.354 Z-10.494
N5180 X25.949 Y13.376 Z-10.585
N5185 X25.94 Y13.411 Z-10.672
N5190 X25.928 Y13.458 Z-10.753
N5195 X25.913 Y13.518 Z-10.824
N5200 X25.895 Y13.587 Z-10.885
N5205 X25.876 Y13.665 Z-10.935
N5210 X25.854 Y13.749 Z-10.971
N5215 X25.832 Y13.838 Z-10.993
N5220 X25.809 Y13.929 Z-11.
N5225 G3 X25.432 Y14.618 I-1.534 J-0.39
N5230 G1 X17.15 Y22.9
N5235 X17.077 Y22.958
N5240 X16.997 Y23.004
N5245 X16.926 Y23.023 Z-10.995
N5250 X16.855 Y23.042 Z-10.982
N5255 X16.787 Y23.06 Z-10.959
N5260 X16.741 Y23.062 Z-10.939
N5265 Z-10.938
N5270 X16.66 Y23.047 Z-10.889
N5275 X16.589 Y23.034 Z-10.828
N5280 X16.527 Y23.022 Z-10.756
N5285 X16.482 Y23. Z-10.675
N5290 X16.449 Y22.984 Z-10.587
N5295 X16.429 Y22.974 Z-10.495
N5300 X16.423 Y22.97 Z-10.4
N5305 G0 Z30.
N5310 X413.804 Y45.543
N5315 Z-19.8
N5320 G1 Z-20.4 F1600.
N5325 X413.809 Y45.538 Z-20.494
N5330 X413.824 Y45.522 Z-20.585
N5335 X413.849 Y45.496 Z-20.672
N5340 X413.884 Y45.461 Z-20.753
N5345 X413.926 Y45.417 Z-20.824
N5350 X413.976 Y45.366 Z-20.885
N5355 X414.032 Y45.309 Z-20.935
N5360 X414.093 Y45.246 Z-20.971
N5365 X414.157 Y45.181 Z-20.993
N5370 X414.223 Y45.114 Z-21.
N5375 G3 X416.768 Y43.014 I10.964 J10.697
N5380 G1 X416.934 Y42.913
N5385 X416.986 Y42.878
N5390 X417.204 Y42.714
N5395 X417.226 Y42.695
N5400 X417.421 Y42.527
N5405 X417.468 Y42.478
N5410 X417.562 Y42.378
N5415 X417.682 Y42.262
N5420 X418.422 Y41.655
N5425 X419.055 Y40.935
N5430 X419.504 Y40.089
N5435 X419.817 Y39.185
N5440 X420.034 Y38.252
N5445 X420.183 Y37.306
N5450 X420.285 Y36.353
N5455 X420.354 Y35.398
N5460 X420.401 Y34.442
N5465 X420.433 Y33.485
N5470 X420.455 Y32.527
N5475 X420.469 Y31.569
N5480 X420.479 Y30.612
N5485 X420.486 Y29.654
N5490 X420.491 Y28.696
N5495 X420.496 Y26.781
N5500 X420.499 Y23.908
N5505 X420.5 Y15.289
N5510 Y2.839
N5515 X420.423 Y2.366
N5520 X420.195 Y1.945
N5525 X419.58 Y1.211
N5530 X418.78 Y0.684
N5535 X417.897 Y0.313
N5540 X416.975 Y0.056
N5545 X416.034 Y-0.121
N5550 X415.084 Y-0.243
N5555 X414.13 Y-0.325
N5560 X413.173 Y-0.382
N5565 X412.217 Y-0.42
N5570 X411.259 Y-0.446
N5575 X410.302 Y-0.463
N5580 X409.344 Y-0.475
N5585 X408.386 Y-0.483
N5590 X407.429 Y-0.489
N5595 X406.471 Y-0.492
N5600 X404.556 Y-0.496
N5605 X401.683 Y-0.499
N5610 X391.148 Y-0.5
N5615 X380.002
N5620 X379.742 Y-0.526
N5625 X379.492 Y-0.601
N5630 X379.261 Y-0.725
N5635 X379.059 Y-0.891
N5640 X377.906 Y-2.044
N5645 G0 Z30.
N5650 X417.082 Y43.666
N5655 Z-19.8
N5660 G1 Z-20.4 F1600.
N5665 X417.083 Y43.658 Z-20.494
N5670 X417.088 Y43.637 Z-20.585
N5675 X417.096 Y43.602 Z-20.672
N5680 X417.106 Y43.554 Z-20.753
N5685 X417.119 Y43.494 Z-20.824
N5690 X417.134 Y43.424 Z-20.885
N5695 X417.151 Y43.346 Z-20.935
N5700 X417.17 Y43.261 Z-20.971
N5705 X417.189 Y43.171 Z-20.993
N5710 X417.209 Y43.079 Z-21.
N5715 G3 X417.562 Y42.378 I1.546 J0.337
N5720 G1 X417.671 Y42.261
N5725 X417.856 Y42.02
N5730 X417.979 Y41.827
N5735 X418.074 Y41.668
N5740 X418.21 Y41.392
N5745 X418.293 Y41.175
N5750 X418.362 Y40.958
N5755 X418.419 Y40.741
N5760 X418.458 Y40.524
N5765 X418.483 Y40.306
N5770 X418.496 Y40.089
N5775 Y39.872
N5780 X418.479 Y39.655
N5785 X418.451 Y39.438
N5790 X418.411 Y39.221
N5795 X418.352 Y39.003
N5800 X418.313 Y38.859
N5805 X418.144 Y37.916
N5810 X418.054 Y36.962
N5815 X418.008 Y36.006
N5820 X417.987 Y35.048
N5825 X417.978 Y34.091
N5830 X417.977 Y33.133
N5835 X417.979 Y32.175
N5840 X417.991 Y28.344
N5845 X417.996 Y25.471
N5850 X417.999 Y21.641
N5855 X418. Y9.191
N5860 Y6.317
N5865 X417.986 Y5.839
N5870 X417.863 Y5.376
N5875 X417.439 Y4.517
N5880 X416.765 Y3.838
N5885 X415.956 Y3.324
N5890 X415.076 Y2.946
N5895 X414.159 Y2.672
N5900 X413.221 Y2.475
N5905 X412.274 Y2.335
N5910 X411.321 Y2.235
N5915 X410.366 Y2.165
N5920 X409.41 Y2.115
N5925 X408.453 Y2.081
N5930 X407.495 Y2.056
N5935 X406.538 Y2.039
N5940 X405.58 Y2.027
N5945 X404.623 Y2.019
N5950 X403.665 Y2.013
N5955 X402.707 Y2.009
N5960 X401.75 Y2.006
N5965 X399.834 Y2.003
N5970 X396.003 Y2.001
N5975 X382.596 Y2.
N5980 X382.492 Y1.999
N5985 X382.234 Y1.972
N5990 X381.987 Y1.896
N5995 X381.759 Y1.773
N6000 X381.559 Y1.609
N6005 X379.059 Y-0.891
N6010 G0 Z30.
N6015 X419.254 Y40.041
N6020 Z-19.8
N6025 G1 Z-20.4 F1600.
N6030 X419.248 Y40.036 Z-20.494
N6035 X419.231 Y40.022 Z-20.585
N6040 X419.204 Y39.998 Z-20.672
N6045 X419.167 Y39.966 Z-20.753
N6050 X419.121 Y39.926 Z-20.824
N6055 X419.067 Y39.879 Z-20.885
N6060 X419.006 Y39.827 Z-20.935
N6065 X418.94 Y39.77 Z-20.971
N6070 X418.871 Y39.71 Z-20.993
N6075 X418.8 Y39.648 Z-21.
N6080 G3 X418.352 Y39.003 I1.035 J-1.197
N6085 G1 X418.292 Y38.823
N6090 X418.278 Y38.786
N6095 X418.191 Y38.569
N6100 X418.074 Y38.33
N6105 X417.955 Y38.135
N6110 X417.856 Y37.981
N6115 X417.637 Y37.7
N6120 X417.421 Y37.471
N6125 X417.308 Y37.358
N6130 X417.181 Y37.218
N6135 X416.999 Y36.979
N6140 X416.803 Y36.673
N6145 X416.596 Y36.281
N6150 X416.38 Y35.772
N6155 X416.156 Y35.094
N6160 X415.932 Y34.163
N6165 X415.784 Y33.216
N6170 X415.686 Y32.264
N6175 X415.622 Y31.308
N6180 X415.579 Y30.351
N6185 X415.551 Y29.394
N6190 X415.533 Y28.437
N6195 X415.521 Y27.479
N6200 X415.513 Y26.521
N6205 X415.508 Y25.564
N6210 X415.505 Y24.606
N6215 X415.502 Y22.691
N6220 X415.5 Y18.86
N6225 Y9.283
N6230 X415.498 Y8.804
N6235 X415.418 Y8.332
N6240 X415.085 Y7.434
N6245 X414.48 Y6.692
N6250 X413.717 Y6.113
N6255 X412.864 Y5.676
N6260 X411.963 Y5.352
N6265 X411.036 Y5.114
N6270 X410.094 Y4.941
N6275 X409.144 Y4.816
N6280 X408.191 Y4.725
N6285 X407.235 Y4.661
N6290 X406.279 Y4.614
N6295 X405.322 Y4.581
N6300 X404.364 Y4.558
N6305 X403.407 Y4.541
N6310 X402.449 Y4.529
N6315 X401.491 Y4.52
N6320 X400.534 Y4.514
N6325 X399.576 Y4.51
N6330 X397.661 Y4.505
N6335 X395.745 Y4.502
N6340 X390.957 Y4.5
N6345 X385.211
N6350 X384.997 Y4.499
N6355 X384.738 Y4.473
N6360 X384.489 Y4.397
N6365 X384.26 Y4.274
N6370 X384.059 Y4.109
N6375 X381.559 Y1.609
N6380 G0 Z30.
N6385 X418.579 Y37.883
N6390 Z-19.8
N6395 G1 Z-20.4 F1600.
N6400 X418.572 Y37.881 Z-20.494
N6405 X418.551 Y37.875 Z-20.585
N6410 X418.516 Y37.866 Z-20.672
N6415 X418.468 Y37.854 Z-20.753
N6420 X418.409 Y37.839 Z-20.824
N6425 X418.339 Y37.822 Z-20.885
N6430 X418.261 Y37.802 Z-20.935
N6435 X418.177 Y37.78 Z-20.971
N6440 X418.088 Y37.758 Z-20.993
N6445 X417.997 Y37.735 Z-21.
N6450 G3 X417.308 Y37.358 I0.39 J-1.534
N6455 G1 X415.245 Y35.295
N6460 X414.928 Y34.945
N6465 X414.705 Y34.653
N6470 X414.479 Y34.299
N6475 X414.237 Y33.841
N6480 X413.99 Y33.261
N6485 X413.737 Y32.494
N6490 X413.513 Y31.563
N6495 X413.357 Y30.618
N6500 X413.248 Y29.666
N6505 X413.172 Y28.712
N6510 X413.119 Y27.756
N6515 X413.082 Y26.799
N6520 X413.057 Y25.841
N6525 X413.039 Y24.884
N6530 X413.027 Y23.926
N6535 X413.018 Y22.968
N6540 X413.012 Y22.011
N6545 X413.008 Y21.053
N6550 X413.004 Y19.138
N6555 X413.001 Y16.265
N6560 X413. Y11.476
N6565 X412.926 Y11.003
N6570 X412.614 Y10.098
N6575 X412.032 Y9.337
N6580 X411.285 Y8.738
N6585 X410.443 Y8.28
N6590 X409.549 Y7.937
N6595 X408.626 Y7.682
N6600 X407.687 Y7.494
N6605 X406.739 Y7.358
N6610 X405.787 Y7.258
N6615 X404.832 Y7.186
N6620 X403.876 Y7.133
N6625 X402.919 Y7.096
N6630 X401.961 Y7.069
N6635 X401.004 Y7.049
N6640 X400.046 Y7.035
N6645 X399.089 Y7.025
N6650 X398.131 Y7.018
N6655 X397.173 Y7.013
N6660 X396.215 Y7.009
N6665 X394.3 Y7.005
N6670 X391.427 Y7.002
N6675 X388.554 Y7.001
N6680 X387.596 Y7.
N6685 X387.492
N6690 X387.234 Y6.973
N6695 X386.987 Y6.896
N6700 X386.759 Y6.774
N6705 X386.559 Y6.609
N6710 X384.059 Y4.109
N6715 G0 Z30.
N6720 X416.516 Y35.819
N6725 Z-19.8
N6730 G1 Z-20.4 F1600.
N6735 X416.508 Y35.817 Z-20.494
N6740 X416.487 Y35.812 Z-20.585
N6745 X416.452 Y35.803 Z-20.672
N6750 X416.404 Y35.791 Z-20.753
N6755 X416.345 Y35.776 Z-20.824
N6760 X416.276 Y35.758 Z-20.885
N6765 X416.198 Y35.738 Z-20.935
N6770 X416.114 Y35.717 Z-20.971
N6775 X416.025 Y35.694 Z-20.993
N6780 X415.934 Y35.671 Z-21.
N6785 G3 X415.245 Y35.295 I0.39 J-1.534
N6790 G1 X412.85 Y32.901
N6795 X412.514 Y32.529
N6800 X412.282 Y32.224
N6805 X412.046 Y31.856
N6810 X411.794 Y31.378
N6815 X411.538 Y30.776
N6820 X411.273 Y29.976
N6825 X411.05 Y29.045
N6830 X410.891 Y28.1
N6835 X410.778 Y27.149
N6840 X410.697 Y26.195
N6845 X410.64 Y25.239
N6850 X410.599 Y24.282
N6855 X410.57 Y23.325
N6860 X410.549 Y22.368
N6865 X410.535 Y21.41
N6870 X410.524 Y20.452
N6875 X410.517 Y19.495
N6880 X410.512 Y18.537
N6885 X410.508 Y17.579
N6890 X410.504 Y15.664
N6895 X410.502 Y13.749
N6900 X410.245 Y12.826
N6905 X409.704 Y12.035
N6910 X408.987 Y11.401
N6915 X408.165 Y10.911
N6920 X407.282 Y10.54
N6925 X406.365 Y10.262
N6930 X405.43 Y10.057
N6935 X404.484 Y9.905
N6940 X403.533 Y9.795
N6945 X402.578 Y9.714
N6950 X401.623 Y9.655
N6955 X400.666 Y9.612
N6960 X399.709 Y9.581
N6965 X398.751 Y9.558
N6970 X397.794 Y9.542
N6975 X396.836 Y9.53
N6980 X395.878 Y9.522
N6985 X394.921 Y9.516
N6990 X393.963 Y9.511
N6995 X392.048 Y9.506
N7000 X390.132 Y9.503
N7005 X389.995 Y9.502
N7010 X389.737 Y9.475
N7015 X389.49 Y9.399
N7020 X389.261 Y9.276
N7025 X389.061 Y9.112
N7030 X386.559 Y6.609
N7035 G0 Z30.
N7040 X414.121 Y33.425
N7045 Z-19.8
N7050 G1 Z-20.4 F1600.
N7055 X414.114 Y33.423 Z-20.494
N7060 X414.093 Y33.418 Z-20.585
N7065 X414.058 Y33.409 Z-20.672
N7070 X414.01 Y33.397 Z-20.753
N7075 X413.951 Y33.382 Z-20.824
N7080 X413.882 Y33.364 Z-20.885
N7085 X413.804 Y33.344 Z-20.935
N7090 X413.72 Y33.323 Z-20.971
N7095 X413.631 Y33.3 Z-20.993
N7100 X413.54 Y33.277 Z-21.
N7105 G3 X412.85 Y32.901 I0.39 J-1.534
N7110 G1 X410.266 Y30.316
N7115 X410.054 Y30.082
N7120 X409.819 Y29.774
N7125 X409.578 Y29.398
N7130 X409.321 Y28.911
N7135 X409.061 Y28.3
N7140 X408.792 Y27.485
N7145 X408.569 Y26.554
N7150 X408.408 Y25.61
N7155 X408.293 Y24.659
N7160 X408.211 Y23.705
N7165 X408.151 Y22.749
N7170 X408.108 Y21.792
N7175 X408.078 Y20.835
N7180 X408.056 Y19.878
N7185 X408.04 Y18.92
N7190 X408.028 Y17.962
N7195 X408.02 Y17.005
N7200 X407.999 Y16.047
N7205 X407.659 Y15.152
N7210 X407.069 Y14.398
N7215 X406.322 Y13.799
N7220 X405.483 Y13.337
N7225 X404.591 Y12.987
N7230 X403.67 Y12.725
N7235 X402.732 Y12.531
N7240 X401.785 Y12.388
N7245 X400.833 Y12.283
N7250 X399.879 Y12.206
N7255 X398.923 Y12.15
N7260 X397.966 Y12.109
N7265 X397.009 Y12.079
N7270 X396.051 Y12.057
N7275 X395.094 Y12.041
N7280 X394.136 Y12.03
N7285 X393.178 Y12.022
N7290 X392.511 Y12.017
N7295 X392.253 Y11.991
N7300 X392.005 Y11.914
N7305 X391.777 Y11.792
N7310 X391.577 Y11.627
N7315 X389.061 Y9.112
N7320 G0 Z30.
N7325 X411.537 Y30.84
N7330 Z-19.8
N7335 G1 Z-20.4 F1600.
N7340 X411.53 Y30.839 Z-20.494
N7345 X411.508 Y30.833 Z-20.585
N7350 X411.473 Y30.824 Z-20.672
N7355 X411.426 Y30.812 Z-20.753
N7360 X411.366 Y30.797 Z-20.824
N7365 X411.297 Y30.779 Z-20.885
N7370 X411.219 Y30.76 Z-20.935
N7375 X411.135 Y30.738 Z-20.971
N7380 X411.046 Y30.716 Z-20.993
N7385 X410.955 Y30.692 Z-21.
N7390 G3 X410.266 Y30.316 I0.39 J-1.534
N7395 G1 X407.877 Y27.927
N7400 X407.571 Y27.589
N7405 X407.334 Y27.279
N7410 X407.093 Y26.901
N7415 X406.834 Y26.412
N7420 X406.572 Y25.796
N7425 X406.301 Y24.976
N7430 X406.078 Y24.045
N7435 X405.917 Y23.101
N7440 X405.801 Y22.15
N7445 X405.717 Y21.196
N7450 X405.657 Y20.24
N7455 X405.613 Y19.284
N7460 X405.503 Y18.332
N7465 X405.086 Y17.47
N7470 X404.448 Y16.756
N7475 X403.674 Y16.192
N7480 X402.82 Y15.758
N7485 X401.92 Y15.43
N7490 X400.995 Y15.185
N7495 X400.054 Y15.002
N7500 X399.106 Y14.868
N7505 X398.154 Y14.769
N7510 X397.199 Y14.696
N7515 X396.243 Y14.643
N7520 X395.286 Y14.604
N7525 X395.058 Y14.597
N7530 X394.809 Y14.565
N7535 X394.57 Y14.488
N7540 X394.35 Y14.367
N7545 X394.157 Y14.207
N7550 X391.577 Y11.627
N7555 G0 Z30.
N7560 X409.148 Y28.451
N7565 Z-19.8
N7570 G1 Z-20.4 F1600.
N7575 X409.141 Y28.45 Z-20.494
N7580 X409.119 Y28.444 Z-20.585
N7585 X409.084 Y28.435 Z-20.672
N7590 X409.037 Y28.423 Z-20.753
N7595 X408.977 Y28.408 Z-20.824
N7600 X408.908 Y28.39 Z-20.885
N7605 X408.83 Y28.371 Z-20.935
N7610 X408.746 Y28.349 Z-20.971
N7615 X408.657 Y28.327 Z-20.993
N7620 X408.566 Y28.303 Z-21.
N7625 G3 X407.877 Y27.927 I0.39 J-1.534
N7630 G1 X405.271 Y25.321
N7635 X405.083 Y25.114
N7640 X404.846 Y24.803
N7645 X404.603 Y24.423
N7650 X404.343 Y23.93
N7655 X404.08 Y23.313
N7660 X403.808 Y22.488
N7665 X403.584 Y21.557
N7670 X403.308 Y20.64
N7675 X402.799 Y19.829
N7680 X402.115 Y19.158
N7685 X401.318 Y18.628
N7690 X400.452 Y18.218
N7695 X399.547 Y17.906
N7700 X398.618 Y17.671
N7705 X397.798 Y17.518
N7710 X397.542 Y17.443
N7715 X397.306 Y17.319
N7720 X397.1 Y17.15
N7725 X394.157 Y14.207
N7730 G0 Z30.
N7735 X406.542 Y25.845
N7740 Z-19.8
N7745 G1 Z-20.4 F1600.
N7750 X406.534 Y25.843 Z-20.494
N7755 X406.513 Y25.838 Z-20.585
N7760 X406.478 Y25.829 Z-20.672
N7765 X406.43 Y25.817 Z-20.753
N7770 X406.371 Y25.802 Z-20.824
N7775 X406.302 Y25.784 Z-20.885
N7780 X406.224 Y25.764 Z-20.935
N7785 X406.14 Y25.743 Z-20.971
N7790 X406.051 Y25.72 Z-20.993
N7795 X405.96 Y25.697 Z-21.
N7800 G3 X405.271 Y25.321 I0.39 J-1.534
N7805 G1 X397.1 Y17.15
N7810 G0 Z30.
N7815 X46.173 Y-5.541
N7820 Z-19.8
N7825 G1 Z-20.4 F1600.
N7830 X46.168 Y-5.536 Z-20.494
N7835 X46.152 Y-5.52 Z-20.585
N7840 X46.127 Y-5.494 Z-20.672
N7845 X46.093 Y-5.459 Z-20.753
N7850 X46.05 Y-5.415 Z-20.824
N7855 X46.001 Y-5.364 Z-20.885
N7860 X45.945 Y-5.306 Z-20.935
N7865 X45.884 Y-5.244 Z-20.971
N7870 X45.82 Y-5.178 Z-20.993
N7875 X45.755 Y-5.111 Z-21.
N7880 G3 X43.215 Y-3.003 I-10.994 J-10.667
N7885 G1 X43.067 Y-2.913
N7890 X42.781 Y-2.695
N7895 X42.627 Y-2.569
N7900 X42.532 Y-2.478
N7905 X42.409 Y-2.359
N7910 X42.225 Y-2.193
N7915 X41.992 Y-2.015
N7920 X41.692 Y-1.823
N7925 X41.305 Y-1.618
N7930 X40.798 Y-1.403
N7935 X40.115 Y-1.177
N7940 X39.184 Y-0.953
N7945 X38.238 Y-0.805
N7950 X37.286 Y-0.705
N7955 X36.33 Y-0.638
N7960 X35.374 Y-0.593
N7965 X34.416 Y-0.563
N7970 X33.459 Y-0.543
N7975 X32.501 Y-0.529
N7980 X31.544 Y-0.519
N7985 X30.586 Y-0.513
N7990 X29.628 Y-0.509
N7995 X27.713 Y-0.504
N8000 X24.84 Y-0.501
N8005 X16.221 Y-0.5
N8010 X2.813
N8015 X2.342 Y-0.411
N8020 X1.924 Y-0.178
N8025 X1.196 Y0.444
N8030 X0.673 Y1.247
N8035 X0.306 Y2.131
N8040 X0.051 Y3.054
N8045 X-0.125 Y3.996
N8050 X-0.245 Y4.946
N8055 X-0.327 Y5.9
N8060 X-0.383 Y6.856
N8065 X-0.421 Y7.813
N8070 X-0.446 Y8.77
N8075 X-0.464 Y9.728
N8080 X-0.475 Y10.685
N8085 X-0.483 Y11.643
N8090 X-0.489 Y12.601
N8095 X-0.492 Y13.559
N8100 X-0.497 Y15.474
N8105 X-0.499 Y18.347
N8110 X-0.5 Y29.839
N8115 Y37.262
N8120 X-0.457 Y37.497
N8125 X-0.289 Y37.945
N8130 X0.29 Y38.708
N8135 X0.945 Y39.169
N8140 X1.169 Y39.367
N8145 X1.343 Y39.609
N8150 X1.458 Y39.885
N8155 X1.51 Y40.179
N8160 G3 X1.08 Y40.769 I-0.6 J0.016
N8165 G1 X0.99 Y40.796 Z-20.993
N8170 X0.902 Y40.822 Z-20.971
N8175 X0.819 Y40.847 Z-20.935
N8180 X0.742 Y40.87 Z-20.885
N8185 X0.673 Y40.89 Z-20.824
N8190 X0.615 Y40.907 Z-20.753
N8195 X0.568 Y40.921 Z-20.672
N8200 X0.533 Y40.931 Z-20.585
N8205 X0.512 Y40.938 Z-20.494
N8210 X0.505 Y40.94 Z-20.4
N8215 G0 Z30.
N8220 X42.933 Y-3.63
N8225 Z-19.8
N8230 G1 Z-20.4 F1600.
N8235 X42.931 Y-3.622 Z-20.494
N8240 X42.926 Y-3.601 Z-20.585
N8245 X42.917 Y-3.566 Z-20.672
N8250 X42.905 Y-3.518 Z-20.753
N8255 X42.89 Y-3.459 Z-20.824
N8260 X42.872 Y-3.39 Z-20.885
N8265 X42.852 Y-3.312 Z-20.935
N8270 X42.831 Y-3.228 Z-20.971
N8275 X42.808 Y-3.139 Z-20.993
N8280 X42.785 Y-3.048 Z-21.
N8285 G3 X42.409 Y-2.359 I-1.534 J-0.39
N8290 G1 X40.232 Y-0.182
N8295 X39.974 Y0.052
N8300 X39.681 Y0.275
N8305 X39.324 Y0.503
N8310 X38.864 Y0.746
N8315 X38.279 Y0.995
N8320 X37.506 Y1.251
N8325 X36.574 Y1.475
N8330 X35.63 Y1.631
N8335 X34.678 Y1.741
N8340 X33.724 Y1.819
N8345 X32.767 Y1.873
N8350 X31.811 Y1.911
N8355 X30.853 Y1.938
N8360 X29.896 Y1.957
N8365 X28.938 Y1.97
N8370 X27.98 Y1.979
N8375 X27.023 Y1.985
N8380 X26.065 Y1.99
N8385 X24.15 Y1.995
N8390 X21.277 Y1.998
N8395 X14.573 Y2.
N8400 X5.953
N8405 X5.484 Y2.097
N8410 X4.607 Y2.48
N8415 X3.908 Y3.135
N8420 X3.377 Y3.932
N8425 X2.986 Y4.806
N8430 X2.701 Y5.72
N8435 X2.496 Y6.656
N8440 X2.35 Y7.602
N8445 X2.246 Y8.554
N8450 X2.172 Y9.509
N8455 X2.121 Y10.466
N8460 X2.084 Y11.423
N8465 X2.059 Y12.38
N8470 X2.041 Y13.338
N8475 X2.029 Y14.295
N8480 X2.02 Y15.253
N8485 X2.014 Y16.211
N8490 X2.01 Y17.168
N8495 X2.005 Y19.084
N8500 X2.002 Y21.957
N8505 X2. Y29.618
N8510 Y34.407
N8515 X2.231 Y35.336
N8520 X2.589 Y36.224
N8525 X2.611 Y36.274
N8530 X2.7 Y36.567
N8535 X2.719 Y36.872
N8540 X2.666 Y37.174
N8545 X2.545 Y37.455
N8550 X2.363 Y37.7
N8555 X2.144 Y37.981
N8560 X2.045 Y38.135
N8565 X1.926 Y38.33
N8570 X1.809 Y38.569
N8575 G3 X1.145 Y38.873 I-0.53 J-0.281
N8580 G1 X1.053 Y38.851 Z-20.993
N8585 X0.964 Y38.831 Z-20.971
N8590 X0.879 Y38.811 Z-20.935
N8595 X0.801 Y38.793 Z-20.885
N8600 X0.731 Y38.777 Z-20.824
N8605 X0.672 Y38.764 Z-20.753
N8610 X0.624 Y38.753 Z-20.672
N8615 X0.589 Y38.745 Z-20.585
N8620 X0.567 Y38.74 Z-20.494
N8625 X0.56 Y38.738 Z-20.4
N8630 G0 Z30.
N8635 X40.757 Y-1.453
N8640 Z-19.8
N8645 G1 Z-20.4 F1600.
N8650 X40.755 Y-1.446 Z-20.494
N8655 X40.749 Y-1.425 Z-20.585
N8660 X40.741 Y-1.39 Z-20.672
N8665 X40.728 Y-1.342 Z-20.753
N8670 X40.713 Y-1.283 Z-20.824
N8675 X40.696 Y-1.213 Z-20.885
N8680 X40.676 Y-1.136 Z-20.935
N8685 X40.654 Y-1.051 Z-20.971
N8690 X40.632 Y-0.962 Z-20.993
N8695 X40.609 Y-0.872 Z-21.
N8700 G3 X40.232 Y-0.182 I-1.534 J-0.39
N8705 G1 X37.838 Y2.212
N8710 X37.549 Y2.474
N8715 X37.243 Y2.707
N8720 X36.873 Y2.944
N8725 X36.393 Y3.197
N8730 X35.789 Y3.454
N8735 X34.985 Y3.72
N8740 X34.054 Y3.943
N8745 X33.11 Y4.103
N8750 X32.159 Y4.217
N8755 X31.204 Y4.298
N8760 X30.248 Y4.356
N8765 X29.292 Y4.397
N8770 X28.334 Y4.427
N8775 X27.377 Y4.448
N8780 X26.419 Y4.463
N8785 X25.462 Y4.474
N8790 X24.504 Y4.481
N8795 X23.546 Y4.487
N8800 X22.589 Y4.491
N8805 X20.673 Y4.495
N8810 X17.8 Y4.498
N8815 X10.139 Y4.5
N8820 X9.181
N8825 X8.702 Y4.511
N8830 X8.234 Y4.61
N8835 X7.349 Y4.976
N8840 X6.623 Y5.601
N8845 X6.061 Y6.377
N8850 X5.638 Y7.236
N8855 X5.324 Y8.14
N8860 X5.093 Y9.07
N8865 X4.926 Y10.013
N8870 X4.805 Y10.963
N8875 X4.717 Y11.917
N8880 X4.655 Y12.872
N8885 X4.61 Y13.829
N8890 X4.578 Y14.786
N8895 X4.555 Y15.744
N8900 X4.539 Y16.701
N8905 X4.528 Y17.659
N8910 X4.52 Y18.616
N8915 X4.514 Y19.574
N8920 X4.51 Y20.532
N8925 X4.505 Y22.447
N8930 X4.503 Y23.405
N8935 X4.501 Y27.236
N8940 X4.5 Y32.024
N8945 X4.597 Y32.977
N8950 X4.763 Y33.92
N8955 X4.843 Y34.431
N8960 X4.855 Y34.744
N8965 X4.794 Y35.051
N8970 X4.663 Y35.335
N8975 X4.469 Y35.581
N8980 X2.568 Y37.483
N8985 X2.363 Y37.7
N8990 G3 X1.638 Y37.791 I-0.422 J-0.427
N8995 G1 X1.557 Y37.744 Z-20.993
N9000 X1.478 Y37.698 Z-20.971
N9005 X1.403 Y37.654 Z-20.935
N9010 X1.333 Y37.613 Z-20.885
N9015 X1.272 Y37.577 Z-20.824
N9020 X1.219 Y37.546 Z-20.753
N9025 X1.176 Y37.521 Z-20.672
N9030 X1.145 Y37.503 Z-20.585
N9035 X1.126 Y37.492 Z-20.494
N9040 X1.12 Y37.488 Z-20.4
N9045 G0 Z30.
N9050 X38.362 Y0.941
N9055 Z-19.8
N9060 G1 Z-20.4 F1600.
N9065 X38.361 Y0.948 Z-20.494
N9070 X38.355 Y0.97 Z-20.585
N9075 X38.346 Y1.005 Z-20.672
N9080 X38.334 Y1.052 Z-20.753
N9085 X38.319 Y1.111 Z-20.824
N9090 X38.302 Y1.181 Z-20.885
N9095 X38.282 Y1.259 Z-20.935
N9100 X38.26 Y1.343 Z-20.971
N9105 X38.238 Y1.432 Z-20.993
N9110 X38.215 Y1.523 Z-21.
N9115 G3 X37.838 Y2.212 I-1.534 J-0.39
N9120 G1 X35.444 Y4.606
N9125 X35.073 Y4.942
N9130 X34.764 Y5.177
N9135 X34.389 Y5.418
N9140 X33.902 Y5.675
N9145 X33.29 Y5.935
N9150 X32.474 Y6.205
N9155 X31.543 Y6.428
N9160 X30.599 Y6.589
N9165 X29.648 Y6.704
N9170 X28.694 Y6.787
N9175 X27.738 Y6.847
N9180 X26.781 Y6.89
N9185 X25.824 Y6.921
N9190 X24.867 Y6.943
N9195 X23.909 Y6.959
N9200 X22.951 Y6.971
N9205 X21.994 Y6.979
N9210 X21.036 Y6.985
N9215 X20.078 Y6.989
N9220 X18.163 Y6.994
N9225 X15.29 Y6.998
N9230 X11.459 Y6.999
N9235 X10.986 Y7.077
N9240 X10.083 Y7.395
N9245 X9.326 Y7.982
N9250 X8.73 Y8.731
N9255 X8.274 Y9.573
N9260 X7.932 Y10.468
N9265 X7.678 Y11.392
N9270 X7.492 Y12.331
N9275 X7.356 Y13.279
N9280 X7.257 Y14.231
N9285 X7.185 Y15.186
N9290 X7.133 Y16.143
N9295 X7.095 Y17.1
N9300 X7.068 Y18.057
N9305 X7.049 Y19.014
N9310 X7.035 Y19.972
N9315 X7.025 Y20.93
N9320 X7.018 Y21.887
N9325 X7.013 Y22.845
N9330 X7.009 Y23.803
N9335 X7.005 Y25.718
N9340 X7.002 Y28.591
N9345 X7.001 Y29.549
N9350 X7.021 Y30.506
N9355 X7.087 Y31.462
N9360 X7.17 Y32.416
N9365 X7.157 Y32.625
N9370 X7.102 Y32.827
N9375 X7.006 Y33.014
N9380 X6.873 Y33.177
N9385 X4.469 Y35.581
N9390 G0 Z30.
N9395 X35.968 Y3.335
N9400 Z-19.8
N9405 G1 Z-20.4 F1600.
N9410 X35.966 Y3.342 Z-20.494
N9415 X35.961 Y3.364 Z-20.585
N9420 X35.952 Y3.399 Z-20.672
N9425 X35.94 Y3.446 Z-20.753
N9430 X35.925 Y3.506 Z-20.824
N9435 X35.907 Y3.575 Z-20.885
N9440 X35.888 Y3.653 Z-20.935
N9445 X35.866 Y3.737 Z-20.971
N9450 X35.844 Y3.826 Z-20.993
N9455 X35.82 Y3.917 Z-21.
N9460 G3 X35.444 Y4.606 I-1.534 J-0.39
N9465 G1 X32.832 Y7.218
N9470 X32.606 Y7.423
N9475 X32.296 Y7.66
N9480 X31.916 Y7.902
N9485 X31.425 Y8.162
N9490 X30.809 Y8.424
N9495 X29.986 Y8.695
N9500 X29.055 Y8.919
N9505 X28.111 Y9.08
N9510 X27.16 Y9.196
N9515 X26.206 Y9.28
N9520 X25.251 Y9.341
N9525 X24.294 Y9.385
N9530 X23.337 Y9.417
N9535 X22.379 Y9.44
N9540 X21.422 Y9.457
N9545 X20.464 Y9.469
N9550 X19.506 Y9.477
N9555 X18.549 Y9.484
N9560 X17.591 Y9.488
N9565 X15.676 Y9.494
N9570 X13.76 Y9.497
N9575 X12.837 Y9.751
N9580 X12.044 Y10.289
N9585 X11.408 Y11.004
N9590 X10.916 Y11.826
N9595 X10.544 Y12.708
N9600 X10.265 Y13.625
N9605 X10.059 Y14.56
N9610 X9.907 Y15.505
N9615 X9.796 Y16.457
N9620 X9.715 Y17.411
N9625 X9.655 Y18.367
N9630 X9.612 Y19.323
N9635 X9.581 Y20.281
N9640 X9.559 Y21.238
N9645 X9.542 Y22.196
N9650 X9.53 Y23.153
N9655 X9.522 Y24.111
N9660 X9.516 Y25.069
N9665 X9.511 Y26.026
N9670 X9.508 Y26.984
N9675 X9.509 Y27.942
N9680 X9.524 Y28.899
N9685 X9.56 Y29.895
N9690 X9.541 Y30.166
N9695 X9.467 Y30.428
N9700 X9.342 Y30.67
N9705 X9.17 Y30.88
N9710 X6.873 Y33.177
N9715 G0 Z30.
N9720 X33.356 Y5.947
N9725 Z-19.8
N9730 G1 Z-20.4 F1600.
N9735 X33.355 Y5.954 Z-20.494
N9740 X33.349 Y5.976 Z-20.585
N9745 X33.34 Y6.01 Z-20.672
N9750 X33.328 Y6.058 Z-20.753
N9755 X33.313 Y6.117 Z-20.824
N9760 X33.296 Y6.187 Z-20.885
N9765 X33.276 Y6.265 Z-20.935
N9770 X33.254 Y6.349 Z-20.971
N9775 X33.232 Y6.438 Z-20.993
N9780 X33.209 Y6.529 Z-21.
N9785 G3 X32.832 Y7.218 I-1.534 J-0.39
N9790 G1 X30.438 Y9.612
N9795 X30.101 Y9.917
N9800 X29.79 Y10.154
N9805 X29.411 Y10.397
N9810 X28.92 Y10.656
N9815 X28.302 Y10.919
N9820 X27.477 Y11.191
N9825 X26.546 Y11.415
N9830 X25.602 Y11.576
N9835 X24.651 Y11.693
N9840 X23.697 Y11.777
N9845 X22.742 Y11.838
N9850 X21.785 Y11.883
N9855 X20.828 Y11.915
N9860 X19.87 Y11.938
N9865 X18.913 Y11.955
N9870 X17.955 Y11.967
N9875 X16.997 Y11.976
N9880 X16.04 Y12.001
N9885 X15.146 Y12.343
N9890 X14.393 Y12.935
N9895 X13.795 Y13.683
N9900 X13.334 Y14.522
N9905 X12.985 Y15.414
N9910 X12.724 Y16.336
N9915 X12.53 Y17.274
N9920 X12.387 Y18.221
N9925 X12.282 Y19.172
N9930 X12.205 Y20.127
N9935 X12.149 Y21.083
N9940 X12.108 Y22.04
N9945 X12.079 Y22.997
N9950 X12.057 Y23.955
N9955 X12.041 Y24.912
N9960 X12.031 Y25.87
N9965 X12.028 Y26.828
N9970 X12.034 Y27.45
N9975 X12.011 Y27.714
N9980 X11.936 Y27.968
N9985 X11.812 Y28.201
N9990 X11.644 Y28.406
N9995 X9.17 Y30.88
N10000 G0 Z30.
N10005 X30.962 Y8.341
N10010 Z-19.8
N10015 G1 Z-20.4 F1600.
N10020 X30.961 Y8.348 Z-20.494
N10025 X30.955 Y8.37 Z-20.585
N10030 X30.946 Y8.405 Z-20.672
N10035 X30.934 Y8.452 Z-20.753
N10040 X30.919 Y8.512 Z-20.824
N10045 X30.901 Y8.581 Z-20.885
N10050 X30.882 Y8.659 Z-20.935
N10055 X30.86 Y8.743 Z-20.971
N10060 X30.838 Y8.832 Z-20.993
N10065 X30.814 Y8.923 Z-21.
N10070 G3 X30.438 Y9.612 I-1.534 J-0.39
N10075 G1 X27.977 Y12.073
N10080 X27.603 Y12.412
N10085 X27.291 Y12.649
N10090 X26.911 Y12.893
N10095 X26.419 Y13.152
N10100 X25.8 Y13.416
N10105 X24.974 Y13.689
N10110 X24.043 Y13.912
N10115 X23.098 Y14.074
N10120 X22.148 Y14.19
N10125 X21.194 Y14.275
N10130 X20.238 Y14.336
N10135 X19.282 Y14.381
N10140 X18.331 Y14.494
N10145 X17.469 Y14.911
N10150 X16.755 Y15.549
N10155 X16.191 Y16.324
N10160 X15.758 Y17.178
N10165 X15.43 Y18.078
N10170 X15.185 Y19.003
N10175 X15.002 Y19.944
N10180 X14.868 Y20.892
N10185 X14.769 Y21.844
N10190 X14.696 Y22.799
N10195 X14.643 Y23.756
N10200 X14.606 Y24.713
N10205 X14.6 Y24.934
N10210 X14.569 Y25.184
N10215 X14.492 Y25.424
N10220 X14.371 Y25.646
N10225 X14.21 Y25.84
N10230 X11.644 Y28.406
N10235 G0 Z30.
N10240 X28.502 Y10.802
N10245 Z-19.8
N10250 G1 Z-20.4 F1600.
N10255 X28.5 Y10.809 Z-20.494
N10260 X28.494 Y10.83 Z-20.585
N10265 X28.485 Y10.865 Z-20.672
N10270 X28.473 Y10.913 Z-20.753
N10275 X28.458 Y10.972 Z-20.824
N10280 X28.441 Y11.042 Z-20.885
N10285 X28.421 Y11.12 Z-20.935
N10290 X28.399 Y11.204 Z-20.971
N10295 X28.377 Y11.293 Z-20.993
N10300 X28.354 Y11.384 Z-21.
N10305 G3 X27.977 Y12.073 I-1.534 J-0.39
N10310 G1 X25.432 Y14.618
N10315 X25.112 Y14.908
N10320 X24.801 Y15.146
N10325 X24.419 Y15.389
N10330 X23.926 Y15.65
N10335 X23.306 Y15.913
N10340 X22.479 Y16.187
N10345 X21.548 Y16.41
N10350 X20.631 Y16.689
N10355 X19.822 Y17.201
N10360 X19.153 Y17.886
N10365 X18.624 Y18.685
N10370 X18.215 Y19.551
N10375 X17.904 Y20.456
N10380 X17.669 Y21.385
N10385 X17.518 Y22.201
N10390 X17.443 Y22.457
N10395 X17.319 Y22.694
N10400 X17.15 Y22.9
N10405 X14.21 Y25.84
N10410 G0 Z30.
N10415 X25.956 Y13.347
N10420 Z-19.8
N10425 G1 Z-20.4 F1600.
N10430 X25.955 Y13.354 Z-20.494
N10435 X25.949 Y13.376 Z-20.585
N10440 X25.94 Y13.411 Z-20.672
N10445 X25.928 Y13.458 Z-20.753
N10450 X25.913 Y13.518 Z-20.824
N10455 X25.895 Y13.587 Z-20.885
N10460 X25.876 Y13.665 Z-20.935
N10465 X25.854 Y13.749 Z-20.971
N10470 X25.832 Y13.838 Z-20.993
N10475 X25.809 Y13.929 Z-21.
N10480 G3 X25.432 Y14.618 I-1.534 J-0.39
N10485 G1 X17.15 Y22.9
N10490 G3 X16.741 Y23.062 I-0.409 J-0.439
N10495 X16.423 Y22.97 I0. J-0.6
N10500 G1 X16.343 Y22.921 Z-20.993
N10505 X16.265 Y22.872 Z-20.971
N10510 X16.192 Y22.826 Z-20.935
N10515 X16.124 Y22.784 Z-20.885
N10520 X16.063 Y22.746 Z-20.824
N10525 X16.011 Y22.713 Z-20.753
N10530 X15.969 Y22.687 Z-20.672
N10535 X15.939 Y22.668 Z-20.585
N10540 X15.92 Y22.656 Z-20.494
N10545 X15.914 Y22.652 Z-20.4
N10550 G0 Z80.
(2D ADAPTIVE2 2)
N10555 G0 X426.281 Y6.03
N10560 Z80.
N10565 Z30.
N10570 Z-9.4
N10575 G1 Z-10. F1600.
N10580 Z-12.
N10585 G3 X423.014 Y6.5 I-3.801 J-14.839
N10590 G1 X422.689
N10595 X422.651 Y6.498
N10600 X422.525 Y6.402
N10605 X422.382 Y6.271
N10610 X422.222 Y6.1
N10615 X422.047 Y5.877
N10620 X421.857 Y5.59
N10625 X421.655 Y5.219
N10630 X421.441 Y4.736
N10635 X421.217 Y4.091
N10640 X420.985 Y3.182
N10645 X420.905 Y2.71
N10650 X420.775 Y2.249
N10655 X420.27 Y1.436
N10660 X419.517 Y0.844
N10665 X418.656 Y0.425
N10670 X417.744 Y0.133
N10675 X416.807 Y-0.068
N10680 X415.86 Y-0.206
N10685 X414.907 Y-0.301
N10690 X413.951 Y-0.365
N10695 X412.994 Y-0.408
N10700 X412.037 Y-0.438
N10705 X411.08 Y-0.458
N10710 X410.122 Y-0.472
N10715 X409.164 Y-0.481
N10720 X408.207 Y-0.487
N10725 X407.249 Y-0.491
N10730 X405.334 Y-0.496
N10735 X402.46 Y-0.499
N10740 X392.883 Y-0.5
N10745 X375.645
N10750 X324.887
N10755 X274.129
N10760 X223.371
N10765 X172.613
N10770 X121.855
N10775 X71.097
N10780 X20.339
N10785 X2.622
N10790 X2.171 Y-0.34
N10795 X1.377 Y0.196
N10800 X0.802 Y0.962
N10805 X0.396 Y1.829
N10810 X0.113 Y2.744
N10815 X-0.082 Y3.682
N10820 X-0.216 Y4.63
N10825 X-0.279 Y5.294
N10830 X-0.335 Y5.569
N10835 X-0.448 Y5.826
N10840 X-0.611 Y6.054
N10845 X-0.819 Y6.242
N10850 X-1.061 Y6.383
N10855 X-1.328 Y6.47
N10860 X-1.607 Y6.5
N10865 G3 X-2.17 Y6.035 I0.021 J-0.6
N10870 G1 X-2.191 Y5.944 Z-11.993
N10875 X-2.212 Y5.855 Z-11.971
N10880 X-2.232 Y5.77 Z-11.935
N10885 X-2.25 Y5.692 Z-11.885
N10890 X-2.266 Y5.622 Z-11.824
N10895 X-2.28 Y5.562 Z-11.753
N10900 X-2.291 Y5.514 Z-11.672
N10905 X-2.299 Y5.479 Z-11.585
N10910 X-2.304 Y5.458 Z-11.494
N10915 X-2.305 Y5.451 Z-11.4
N10920 G0 Z30.
N10925 X423.958 Y5.972
N10930 Z-10.8
N10935 G1 Z-11.4 F1600.
N10940 X423.952 Y5.976 Z-11.494
N10945 X423.933 Y5.987 Z-11.585
N10950 X423.902 Y6.005 Z-11.672
N10955 X423.86 Y6.031 Z-11.753
N10960 X423.807 Y6.062 Z-11.824
N10965 X423.746 Y6.098 Z-11.885
N10970 X423.677 Y6.139 Z-11.935
N10975 X423.602 Y6.184 Z-11.971
N10980 X423.523 Y6.231 Z-11.993
N10985 X423.442 Y6.279 Z-12.
N10990 G3 X422.689 Y6.5 I-0.809 J-1.36
N10995 G1 X421.818
N11000 X421.668 Y6.492
N11005 X421.496 Y6.432
N11010 X421.312 Y6.349
N11015 X421.099 Y6.232
N11020 X420.889 Y6.092
N11025 X420.658 Y5.908
N11030 X420.401 Y5.666
N11035 X419.76 Y4.954
N11040 X419.099 Y4.261
N11045 X418.326 Y3.695
N11050 X417.477 Y3.252
N11055 X416.581 Y2.916
N11060 X415.657 Y2.664
N11065 X414.717 Y2.479
N11070 X413.769 Y2.344
N11075 X412.816 Y2.246
N11080 X411.861 Y2.175
N11085 X410.905 Y2.124
N11090 X409.948 Y2.088
N11095 X408.99 Y2.062
N11100 X408.033 Y2.044
N11105 X407.075 Y2.031
N11110 X406.118 Y2.022
N11115 X405.16 Y2.015
N11120 X404.202 Y2.011
N11125 X402.287 Y2.005
N11130 X399.414 Y2.002
N11135 X392.71 Y2.
N11140 X372.598
N11145 X321.84
N11150 X271.082
N11155 X220.325
N11160 X169.567
N11165 X118.809
N11170 X68.051
N11175 X17.293
N11180 X5.801
N11185 X5.339 Y2.129
N11190 X4.487 Y2.565
N11195 X3.813 Y3.245
N11200 X3.296 Y4.052
N11205 X2.849 Y4.899
N11210 X2.402 Y5.72
N11215 X2.284 Y5.899
N11220 X2.118 Y6.104
N11225 X1.916 Y6.272
N11230 X1.684 Y6.397
N11235 X1.432 Y6.474
N11240 X1.17 Y6.5
N11245 X0.065
N11250 G3 X-0.499 Y6.035 I0.021 J-0.6
N11255 G1 X-0.52 Y5.944 Z-11.993
N11260 X-0.54 Y5.855 Z-11.971
N11265 X-0.56 Y5.77 Z-11.935
N11270 X-0.578 Y5.692 Z-11.885
N11275 X-0.594 Y5.622 Z-11.824
N11280 X-0.608 Y5.562 Z-11.753
N11285 X-0.619 Y5.514 Z-11.672
N11290 X-0.627 Y5.479 Z-11.585
N11295 X-0.632 Y5.458 Z-11.494
N11300 X-0.634 Y5.451 Z-11.4
N11305 G0 Z30.
N11310 X423.088 Y5.972
N11315 Z-10.8
N11320 G1 Z-11.4 F1600.
N11325 X423.081 Y5.976 Z-11.494
N11330 X423.062 Y5.987 Z-11.585
N11335 X423.031 Y6.005 Z-11.672
N11340 X422.989 Y6.031 Z-11.753
N11345 X422.936 Y6.062 Z-11.824
N11350 X422.875 Y6.098 Z-11.885
N11355 X422.806 Y6.139 Z-11.935
N11360 X422.731 Y6.184 Z-11.971
N11365 X422.652 Y6.231 Z-11.993
N11370 X422.572 Y6.279 Z-12.
N11375 G3 X421.818 Y6.5 I-0.809 J-1.36
N11380 G1 X420.468
N11385 X420.17 Y6.485
N11390 X419.782 Y6.433
N11395 X418.847 Y6.227
N11400 X417.93 Y5.951
N11405 X417.012 Y5.677
N11410 X416.086 Y5.434
N11415 X415.15 Y5.229
N11420 X414.207 Y5.062
N11425 X413.259 Y4.928
N11430 X412.307 Y4.824
N11435 X411.353 Y4.743
N11440 X410.397 Y4.681
N11445 X409.441 Y4.634
N11450 X408.484 Y4.599
N11455 X407.526 Y4.573
N11460 X406.569 Y4.553
N11465 X405.611 Y4.539
N11470 X404.653 Y4.528
N11475 X403.696 Y4.52
N11480 X402.738 Y4.515
N11485 X401.78 Y4.511
N11490 X399.865 Y4.506
N11495 X396.992 Y4.502
N11500 X391.246 Y4.5
N11505 X370.176
N11510 X319.419
N11515 X268.661
N11520 X217.903
N11525 X167.145
N11530 X116.387
N11535 X65.629
N11540 X14.871
N11545 X9.125
N11550 X8.168 Y4.536
N11555 X7.279 Y4.892
N11560 X6.491 Y5.436
N11565 X5.777 Y6.075
N11570 X5.711 Y6.137
N11575 X5.513 Y6.291
N11580 X5.289 Y6.406
N11585 X5.047 Y6.476
N11590 X4.797 Y6.5
N11595 X1.17
N11600 G3 X0.606 Y6.035 I0.021 J-0.6
N11605 G1 X0.585 Y5.944 Z-11.993
N11610 X0.564 Y5.855 Z-11.971
N11615 X0.545 Y5.77 Z-11.935
N11620 X0.527 Y5.692 Z-11.885
N11625 X0.511 Y5.622 Z-11.824
N11630 X0.497 Y5.562 Z-11.753
N11635 X0.486 Y5.514 Z-11.672
N11640 X0.478 Y5.479 Z-11.585
N11645 X0.473 Y5.458 Z-11.494
N11650 X0.471 Y5.451 Z-11.4
N11655 G0 Z30.
N11660 X421.738 Y5.972
N11665 Z-10.8
N11670 G1 Z-11.4 F1600.
N11675 X421.731 Y5.976 Z-11.494
N11680 X421.712 Y5.987 Z-11.585
N11685 X421.681 Y6.005 Z-11.672
N11690 X421.639 Y6.031 Z-11.753
N11695 X421.587 Y6.062 Z-11.824
N11700 X421.525 Y6.098 Z-11.885
N11705 X421.456 Y6.139 Z-11.935
N11710 X421.381 Y6.184 Z-11.971
N11715 X421.303 Y6.231 Z-11.993
N11720 X421.222 Y6.279 Z-12.
N11725 G3 X420.468 Y6.5 I-0.809 J-1.36
N11730 G1 X4.797
N11735 G3 X4.233 Y6.035 I0.021 J-0.6
N11740 G1 X4.212 Y5.944 Z-11.993
N11745 X4.191 Y5.855 Z-11.971
N11750 X4.172 Y5.77 Z-11.935
N11755 X4.154 Y5.692 Z-11.885
N11760 X4.137 Y5.622 Z-11.824
N11765 X4.124 Y5.562 Z-11.753
N11770 X4.113 Y5.514 Z-11.672
N11775 X4.105 Y5.479 Z-11.585
N11780 X4.1 Y5.458 Z-11.494
N11785 X4.098 Y5.451 Z-11.4
N11790 G0 Z80.
(2D ADAPTIVE1)
N11795 G0 X64.163 Y-6.203
N11800 Z45.
N11805 Z15.
N11810 Z-5.4
N11815 G1 Z-6. F1000.
N11820 Z-8.
N11825 G3 X63.347 Y-3.005 I-15.164 J-2.167
N11830 G1 X63.217 Y-2.69
N11835 X63.153 Y-2.555
N11840 X63.027 Y-2.42
N11845 X62.861 Y-2.27
N11850 X62.648 Y-2.106
N11855 X62.374 Y-1.927
N11860 X62.022 Y-1.737
N11865 X61.565 Y-1.535
N11870 X60.957 Y-1.323
N11875 X60.113 Y-1.103
N11880 X59.17 Y-0.936
N11885 X58.219 Y-0.825
N11890 X57.264 Y-0.751
N11895 X56.308 Y-0.702
N11900 X55.35 Y-0.668
N11905 X54.393 Y-0.646
N11910 X53.435 Y-0.631
N11915 X52.478 Y-0.621
N11920 X51.52 Y-0.614
N11925 X50.562 Y-0.61
N11930 X49.605 Y-0.606
N11935 X47.689 Y-0.603
N11940 X43.859 Y-0.601
N11945 X33.465 Y-0.6
N11950 X33.192 Y-0.627
N11955 X32.929 Y-0.707
N11960 X32.687 Y-0.836
N11965 X32.475 Y-1.01
N11970 X31.447 Y-2.039
N11975 G0 Z15.
N11980 X63.215 Y-4.065
N11985 Z-6.8
N11990 G1 Z-7.4 F1000.
N11995 X63.216 Y-4.058 Z-7.494
N12000 X63.219 Y-4.036 Z-7.585
N12005 X63.224 Y-4. Z-7.672
N12010 X63.231 Y-3.952 Z-7.753
N12015 X63.24 Y-3.891 Z-7.824
N12020 X63.25 Y-3.82 Z-7.885
N12025 X63.262 Y-3.741 Z-7.935
N12030 X63.274 Y-3.655 Z-7.971
N12035 X63.287 Y-3.564 Z-7.993
N12040 X63.301 Y-3.471 Z-8.
N12045 G3 X63.217 Y-2.69 I-1.566 J0.227
N12050 G1 X62.677 Y-1.387
N12055 X62.613 Y-1.252
N12060 X62.515 Y-1.082
N12065 X62.38 Y-0.886
N12070 X62.211 Y-0.68
N12075 X62.012 Y-0.473
N12080 X61.751 Y-0.241
N12085 X61.442 Y-0.009
N12090 X61.058 Y0.235
N12095 X60.584 Y0.484
N12100 X59.98 Y0.743
N12105 X59.209 Y1.002
N12110 X58.279 Y1.232
N12115 X57.336 Y1.397
N12120 X56.385 Y1.514
N12125 X55.431 Y1.598
N12130 X54.475 Y1.657
N12135 X53.518 Y1.699
N12140 X52.561 Y1.729
N12145 X51.604 Y1.75
N12150 X50.646 Y1.765
N12155 X49.689 Y1.775
N12160 X48.731 Y1.783
N12165 X47.773 Y1.788
N12170 X46.816 Y1.792
N12175 X44.9 Y1.796
N12180 X42.027 Y1.799
N12185 X36.281 Y1.8
N12190 X35.863
N12195 X35.591 Y1.772
N12200 X35.328 Y1.693
N12205 X35.087 Y1.563
N12210 X34.875 Y1.389
N12215 X32.475 Y-1.01
N12220 G0 Z15.
N12225 X62.675 Y-2.762
N12230 Z-6.8
N12235 G1 Z-7.4 F1000.
N12240 X62.676 Y-2.754 Z-7.494
N12245 X62.679 Y-2.733 Z-7.585
N12250 X62.684 Y-2.697 Z-7.672
N12255 X62.691 Y-2.648 Z-7.753
N12260 X62.7 Y-2.588 Z-7.824
N12265 X62.71 Y-2.517 Z-7.885
N12270 X62.722 Y-2.438 Z-7.935
N12275 X62.734 Y-2.351 Z-7.971
N12280 X62.747 Y-2.261 Z-7.993
N12285 X62.761 Y-2.168 Z-8.
N12290 G3 X62.677 Y-1.387 I-1.566 J0.227
N12295 G1 X61.867 Y0.568
N12300 X61.767 Y0.78
N12305 X61.652 Y0.979
N12310 X61.494 Y1.208
N12315 X61.313 Y1.43
N12320 X61.079 Y1.674
N12325 X60.781 Y1.939
N12330 X60.441 Y2.195
N12335 X60. Y2.475
N12340 X59.48 Y2.75
N12345 X58.817 Y3.034
N12350 X57.963 Y3.321
N12355 X57.034 Y3.553
N12360 X56.092 Y3.724
N12365 X55.142 Y3.851
N12370 X54.189 Y3.945
N12375 X53.234 Y4.014
N12380 X52.278 Y4.065
N12385 X51.321 Y4.102
N12390 X50.363 Y4.129
N12395 X49.406 Y4.149
N12400 X48.448 Y4.163
N12405 X47.491 Y4.173
N12410 X46.533 Y4.181
N12415 X45.575 Y4.186
N12420 X44.618 Y4.19
N12425 X42.702 Y4.195
N12430 X39.829 Y4.198
N12435 X38.264 Y4.199
N12440 X37.991 Y4.172
N12445 X37.728 Y4.092
N12450 X37.486 Y3.963
N12455 X37.274 Y3.789
N12460 X34.875 Y1.389
N12465 G3 X34.904 Y0.542 Z-7.8 I0.439 J-0.409
N12470 X35.299 Y0.38 I0.41 J0.438
N12475 G1 X61.291 Y-0.242
N12480 X61.367 Y-0.239
N12485 X61.443 Y-0.226
N12490 X61.516 Y-0.204
N12495 G3 X61.867 Y0.568 Z-8. I-0.211 J0.562
N12500 G1 X60.967 Y2.74
N12505 X60.852 Y2.984
N12510 X60.734 Y3.188
N12515 X60.576 Y3.418
N12520 X60.367 Y3.674
N12525 X60.131 Y3.92
N12530 X59.82 Y4.196
N12535 X59.454 Y4.473
N12540 X58.992 Y4.766
N12545 X58.44 Y5.057
N12550 X57.734 Y5.36
N12555 X56.829 Y5.665
N12560 X55.899 Y5.896
N12565 X54.958 Y6.072
N12570 X54.009 Y6.204
N12575 X53.057 Y6.304
N12580 X52.102 Y6.379
N12585 X51.146 Y6.436
N12590 X50.189 Y6.478
N12595 X49.232 Y6.51
N12600 X48.275 Y6.534
N12605 X47.317 Y6.551
N12610 X46.36 Y6.564
N12615 X45.402 Y6.574
N12620 X44.444 Y6.581
N12625 X43.487 Y6.586
N12630 X42.529 Y6.59
N12635 X40.663 Y6.594
N12640 X40.389 Y6.568
N12645 X40.125 Y6.488
N12650 X39.882 Y6.359
N12655 X39.67 Y6.184
N12660 X37.274 Y3.789
N12665 G3 X37.303 Y2.941 Z-7.8 I0.439 J-0.409
N12670 X37.69 Y2.78 I0.41 J0.438
N12675 G1 X60.383 Y1.931
N12680 X60.462 Y1.933
N12685 X60.54 Y1.945
N12690 X60.616 Y1.968
N12695 G3 X60.967 Y2.74 Z-8. I-0.211 J0.562
N12700 G1 X60.018 Y5.032
N12705 X59.915 Y5.249
N12710 X59.789 Y5.468
N12715 X59.631 Y5.698
N12720 X59.417 Y5.96
N12725 X59.167 Y6.221
N12730 X58.856 Y6.497
N12735 X58.468 Y6.79
N12740 X58. Y7.087
N12745 X57.423 Y7.391
N12750 X56.69 Y7.705
N12755 X55.782 Y8.011
N12760 X54.854 Y8.245
N12765 X53.913 Y8.425
N12770 X52.965 Y8.563
N12775 X52.014 Y8.668
N12780 X51.059 Y8.749
N12785 X50.104 Y8.81
N12790 X49.147 Y8.857
N12795 X48.19 Y8.892
N12800 X47.233 Y8.919
N12805 X46.275 Y8.94
N12810 X45.318 Y8.955
N12815 X44.36 Y8.966
N12820 X43.402 Y8.975
N12825 X43.048 Y8.977
N12830 X42.773 Y8.951
N12835 X42.509 Y8.871
N12840 X42.265 Y8.742
N12845 X42.052 Y8.567
N12850 X39.67 Y6.184
N12855 G3 X39.699 Y5.337 Z-7.8 I0.439 J-0.409
N12860 X40.079 Y5.176 I0.41 J0.438
N12865 G1 X59.427 Y4.223
N12870 X59.508 Y4.224
N12875 X59.589 Y4.237
N12880 X59.667 Y4.26
N12885 G3 X60.018 Y5.032 Z-8. I-0.211 J0.562
N12890 G1 X59.101 Y7.246
N12895 X58.952 Y7.56
N12900 X58.821 Y7.788
N12905 X58.663 Y8.018
N12910 X58.449 Y8.28
N12915 X58.189 Y8.551
N12920 X57.876 Y8.829
N12925 X57.479 Y9.129
N12930 X57.004 Y9.43
N12935 X56.413 Y9.742
N12940 X55.663 Y10.063
N12945 X54.755 Y10.369
N12950 X53.827 Y10.605
N12955 X52.887 Y10.788
N12960 X51.94 Y10.929
N12965 X50.988 Y11.039
N12970 X50.034 Y11.123
N12975 X49.079 Y11.188
N12980 X48.122 Y11.239
N12985 X47.165 Y11.277
N12990 X46.208 Y11.307
N12995 X45.424 Y11.325
N13000 X45.142 Y11.303
N13005 X44.87 Y11.225
N13010 X44.62 Y11.094
N13015 X44.401 Y10.915
N13020 X42.052 Y8.567
N13025 G3 X42.081 Y7.719 Z-7.8 I0.439 J-0.409
N13030 X42.449 Y7.559 I0.41 J0.438
N13035 G1 X58.497 Y6.437
N13040 G3 X58.75 Y6.474 I0.042 J0.599
N13045 X59.101 Y7.246 Z-8. I-0.211 J0.562
N13050 G1 X58.088 Y9.692
N13055 X58.005 Y9.871
N13060 X57.871 Y10.105
N13065 X57.715 Y10.334
N13070 X57.506 Y10.594
N13075 X57.242 Y10.874
N13080 X56.934 Y11.151
N13085 X56.533 Y11.457
N13090 X56.064 Y11.759
N13095 X55.469 Y12.077
N13100 X54.719 Y12.404
N13105 X53.813 Y12.716
N13110 X52.886 Y12.958
N13115 X51.947 Y13.146
N13120 X51.001 Y13.293
N13125 X50.05 Y13.407
N13130 X49.096 Y13.496
N13135 X48.141 Y13.566
N13140 X47.728 Y13.587
N13145 X47.436 Y13.572
N13150 X47.153 Y13.496
N13155 X46.892 Y13.364
N13160 X46.665 Y13.179
N13165 X44.401 Y10.915
N13170 G3 X44.43 Y10.068 Z-7.8 I0.439 J-0.409
N13175 X44.791 Y9.908 I0.41 J0.438
N13180 G1 X57.477 Y8.887
N13185 G3 X57.732 Y8.922 I0.048 J0.598
N13190 X58.088 Y9.692 Z-8. I-0.207 J0.563
N13195 G1 X58. Y9.909
N13200 X57.913 Y10.126
N13205 X57.835 Y10.343
N13210 X57.769 Y10.56
N13215 X57.725 Y10.778
N13220 X57.692 Y10.995
N13225 X57.671 Y11.212
N13230 X57.656 Y11.361
N13235 X57.616 Y11.531
N13240 X57.551 Y11.729
N13245 X57.461 Y11.946
N13250 X57.345 Y12.171
N13255 X57.184 Y12.431
N13260 X56.992 Y12.691
N13265 X56.748 Y12.972
N13270 X56.434 Y13.28
N13275 X56.074 Y13.579
N13280 X55.611 Y13.906
N13285 X55.057 Y14.233
N13290 X54.37 Y14.567
N13295 X53.493 Y14.91
N13300 X52.576 Y15.186
N13305 X51.644 Y15.404
N13310 X50.702 Y15.576
N13315 X49.958 Y15.682
N13320 X49.634 Y15.69
N13325 X49.318 Y15.624
N13330 X49.024 Y15.486
N13335 X48.771 Y15.285
N13340 X46.665 Y13.179
N13345 G3 X46.694 Y12.332 Z-7.8 I0.439 J-0.409
N13350 X47.011 Y12.177 I0.41 J0.438
N13355 G1 X56.979 Y10.627
N13360 X57.064 Y10.619
N13365 G3 X57.671 Y11.212 Z-8. I0.007 J0.6
N13370 G1 X57.666 Y11.429
N13375 X57.675 Y11.647
N13380 X57.695 Y11.864
N13385 X57.729 Y12.081
N13390 X57.781 Y12.298
N13395 X57.81 Y12.445
N13400 X57.821 Y12.6
N13405 X57.82 Y12.763
N13410 X57.803 Y12.957
N13415 X57.77 Y13.155
N13420 X57.711 Y13.386
N13425 X57.63 Y13.625
N13430 X57.516 Y13.889
N13435 X57.367 Y14.17
N13440 X57.178 Y14.465
N13445 X56.935 Y14.786
N13450 X56.647 Y15.107
N13455 X56.271 Y15.465
N13460 X55.849 Y15.807
N13465 X55.314 Y16.173
N13470 X54.66 Y16.547
N13475 X53.88 Y16.914
N13480 X52.983 Y17.251
N13485 X52.167 Y17.492
N13490 X51.924 Y17.542
N13495 X51.649 Y17.572
N13500 X51.373 Y17.547
N13505 X51.107 Y17.468
N13510 X50.862 Y17.338
N13515 X50.647 Y17.162
N13520 X48.771 Y15.285
N13525 G3 X48.8 Y14.438 Z-7.8 I0.439 J-0.409
N13530 X49.036 Y14.302 I0.41 J0.438
N13535 G1 X57.031 Y11.89
N13540 X57.039 Y11.887
N13545 G3 X57.781 Y12.298 Z-8. I0.165 J0.577
N13550 G1 X57.795 Y12.358
N13555 X57.845 Y12.516
N13560 X57.922 Y12.733
N13565 X58.02 Y12.95
N13570 X58.142 Y13.167
N13575 X58.211 Y13.302
N13580 X58.269 Y13.441
N13585 X58.313 Y13.584
N13590 X58.349 Y13.744
N13595 X58.373 Y13.922
N13600 X58.384 Y14.12
N13605 X58.379 Y14.338
N13610 X58.354 Y14.577
N13615 X58.305 Y14.839
N13620 X58.229 Y15.12
N13625 X58.121 Y15.419
N13630 X57.975 Y15.742
N13635 X57.788 Y16.078
N13640 X57.547 Y16.441
N13645 X57.258 Y16.809
N13650 X56.884 Y17.212
N13655 X56.465 Y17.597
N13660 X55.925 Y18.019
N13665 X55.305 Y18.427
N13670 X54.672 Y18.775
N13675 X54.125 Y19.021
N13680 X53.669 Y19.183
N13685 X53.66 Y19.185
N13690 X53.371 Y19.231
N13695 X53.079 Y19.216
N13700 X52.796 Y19.14
N13705 X52.535 Y19.007
N13710 X52.308 Y18.823
N13715 X50.647 Y17.162
N13720 G3 X50.677 Y16.314 Z-7.8 I0.439 J-0.409
N13725 G1 X50.744 Y16.26
N13730 X50.818 Y16.216
N13735 X57.314 Y12.974
N13740 X57.366 Y12.949 Z-7.812
N13745 G3 X58.142 Y13.167 Z-8. I0.268 J0.537
N13750 G1 X58.231 Y13.32
N13755 X58.273 Y13.384
N13760 X58.432 Y13.602
N13765 X58.666 Y13.866
N13770 X58.759 Y13.96
N13775 X58.859 Y14.071
N13780 X58.947 Y14.193
N13785 X59.022 Y14.323
N13790 X59.092 Y14.469
N13795 X59.153 Y14.63
N13800 X59.208 Y14.82
N13805 X59.25 Y15.021
N13810 X59.278 Y15.257
N13815 X59.289 Y15.502
N13820 X59.278 Y15.785
N13825 X59.243 Y16.075
N13830 X59.176 Y16.406
N13835 X59.079 Y16.744
N13840 X58.94 Y17.111
N13845 X58.756 Y17.503
N13850 X58.525 Y17.905
N13855 X58.222 Y18.347
N13860 X57.876 Y18.774
N13865 X57.454 Y19.215
N13870 X56.975 Y19.643
N13875 X56.468 Y20.027
N13880 X56.034 Y20.304
N13885 X55.644 Y20.51
N13890 X55.365 Y20.631
N13895 X55.1 Y20.715
N13900 X54.824 Y20.745
N13905 X54.547 Y20.72
N13910 X54.281 Y20.641
N13915 X54.035 Y20.511
N13920 X53.821 Y20.335
N13925 X52.308 Y18.823
N13930 G3 X52.337 Y17.975 Z-7.8 I0.439 J-0.409
N13935 G1 X52.397 Y17.926
N13940 X57.904 Y13.979
N13945 X58. Y13.91 Z-7.825
N13950 G3 X58.759 Y13.96 Z-8. I0.35 J0.488
N13955 G1 X59.704 Y14.905
N13960 X59.845 Y15.06
N13965 X59.936 Y15.179
N13970 X60.027 Y15.321
N13975 X60.111 Y15.477
N13980 X60.192 Y15.663
N13985 X60.261 Y15.863
N13990 X60.322 Y16.1
N13995 X60.365 Y16.348
N14000 X60.391 Y16.636
N14005 X60.394 Y16.937
N14010 X60.37 Y17.276
N14015 X60.316 Y17.638
N14020 X60.226 Y18.018
N14025 X60.09 Y18.441
N14030 X59.916 Y18.863
N14035 X59.684 Y19.317
N14040 X59.391 Y19.794
N14045 X59.052 Y20.256
N14050 X58.67 Y20.698
N14055 X58.26 Y21.102
N14060 X57.856 Y21.441
N14065 X57.497 Y21.695
N14070 X57.135 Y21.911
N14075 X56.806 Y22.072
N14080 X56.765 Y22.088
N14085 X56.452 Y22.172
N14090 X56.127 Y22.181
N14095 X55.81 Y22.115
N14100 X55.516 Y21.977
N14105 X55.261 Y21.776
N14110 X53.821 Y20.335
N14115 G3 X53.85 Y19.488 Z-7.8 I0.439 J-0.409
N14120 G1 X53.856 Y19.482
N14125 X58.855 Y14.933
N14130 X58.891 Y14.9 Z-7.81
N14135 G3 X59.704 Y14.905 Z-8. I0.404 J0.444
N14140 G1 X60.842 Y16.043
N14145 X60.999 Y16.217
N14150 X61.097 Y16.344
N14155 X61.199 Y16.501
N14160 X61.291 Y16.672
N14165 X61.382 Y16.88
N14170 X61.459 Y17.101
N14175 X61.527 Y17.363
N14180 X61.575 Y17.638
N14185 X61.604 Y17.956
N14190 X61.608 Y18.293
N14195 X61.583 Y18.665
N14200 X61.522 Y19.074
N14205 X61.425 Y19.489
N14210 X61.28 Y19.944
N14215 X61.085 Y20.419
N14220 X60.847 Y20.888
N14225 X60.558 Y21.36
N14230 X60.226 Y21.814
N14235 X59.858 Y22.242
N14240 X59.482 Y22.613
N14245 X59.129 Y22.91
N14250 X58.798 Y23.146
N14255 X58.47 Y23.342
N14260 X58.269 Y23.441
N14265 X57.964 Y23.55
N14270 X57.642 Y23.585
N14275 X57.321 Y23.546
N14280 X57.017 Y23.434
N14285 X56.747 Y23.256
N14290 X56.708 Y23.222
N14295 X55.261 Y21.776
N14300 G3 X55.269 Y20.949 Z-7.806 I0.439 J-0.409
N14305 G1 X55.29 Y20.928 Z-7.8
N14310 X59.994 Y16.072
N14315 X60.002 Y16.064 Z-7.802
N14320 G3 X60.842 Y16.043 Z-8. I0.431 J0.417
N14325 G1 X62.094 Y17.295
N14330 X62.237 Y17.453
N14335 X62.346 Y17.596
N14340 X62.45 Y17.756
N14345 X62.553 Y17.947
N14350 X62.646 Y18.158
N14355 X62.731 Y18.404
N14360 X62.801 Y18.674
N14365 X62.854 Y18.978
N14370 X62.885 Y19.315
N14375 X62.89 Y19.672
N14380 X62.862 Y20.076
N14385 X62.801 Y20.489
N14390 X62.697 Y20.934
N14395 X62.544 Y21.411
N14400 X62.347 Y21.893
N14405 X62.104 Y22.37
N14410 X61.816 Y22.84
N14415 X61.49 Y23.287
N14420 X61.137 Y23.698
N14425 X60.791 Y24.04
N14430 X60.564 Y24.231
N14435 X60.363 Y24.371
N14440 X60.142 Y24.475
N14445 X59.906 Y24.538
N14450 X59.662 Y24.559
N14455 G3 X59.084 Y23.939 Z-7.8 I0.021 J-0.6
N14460 G1 X59.092 Y23.857
N14465 X59.112 Y23.776
N14470 X61.113 Y17.55
N14475 G3 X61.246 Y17.324 I0.571 J0.184
N14480 X62.094 Y17.295 Z-8. I0.438 J0.41
N14485 G1 X62.365 Y17.566
N14490 X62.506 Y17.729
N14495 X63.03 Y18.381
N14500 X63.112 Y18.489
N14505 X63.169 Y18.598
N14510 X63.482 Y19.25
N14515 X63.518 Y19.358
N14520 X63.67 Y20.025
N14525 X63.691 Y20.119
N14530 X63.702 Y20.227
N14535 Y20.987
N14540 X63.692 Y21.088
N14545 X63.667 Y21.205
N14550 X63.518 Y21.856
N14555 X63.491 Y21.941
N14560 X63.453 Y22.025
N14565 X63.22 Y22.508
N14570 X63.11 Y22.725
N14575 X63.018 Y22.847
N14580 X62.595 Y23.377
N14585 X62.582 Y23.391
N14590 X62.365 Y23.576
N14595 X61.93 Y23.923
N14600 X61.841 Y23.984
N14605 X61.753 Y24.029
N14610 X61.277 Y24.258
N14615 X61.059 Y24.358
N14620 X60.842 Y24.412
N14625 X60.407 Y24.511
N14630 X60.189 Y24.556
N14635 X59.971 Y24.559
N14640 X59.536
N14645 X59.319 Y24.557
N14650 X59.101 Y24.513
N14655 X58.666 Y24.414
N14660 X58.448 Y24.361
N14665 X58.231 Y24.263
N14670 X57.744 Y24.029
N14675 X57.661 Y23.987
N14680 X57.578 Y23.931
N14685 X57.143 Y23.584
N14690 X56.891 Y23.377
N14695 X56.747 Y23.256
N14700 X56.683 Y23.188
N14705 X56.631 Y23.112
N14710 X56.606 Y23.043 Z-7.995
N14715 X56.581 Y22.974 Z-7.982
N14720 X56.558 Y22.908 Z-7.959
N14725 X56.554 Y22.858 Z-7.937
N14730 X56.55 Y22.811 Z-7.91
N14735 X56.562 Y22.746 Z-7.863
N14740 X56.572 Y22.688 Z-7.807
N14745 X56.581 Y22.638 Z-7.743
N14750 X56.589 Y22.597 Z-7.674
N14755 X56.604 Y22.564 Z-7.586
N14760 X56.613 Y22.544 Z-7.494
N14765 X56.616 Y22.537 Z-7.4
N14770 G0 Z15.
N14775 X391.802 Y-6.163
N14780 Z-6.8
N14785 G1 Z-7.4 F1000.
N14790 X391.798 Y-6.156 Z-7.494
N14795 X391.787 Y-6.137 Z-7.585
N14800 X391.769 Y-6.106 Z-7.672
N14805 X391.744 Y-6.064 Z-7.753
N14810 X391.712 Y-6.011 Z-7.824
N14815 X391.676 Y-5.95 Z-7.885
N14820 X391.635 Y-5.881 Z-7.935
N14825 X391.591 Y-5.806 Z-7.971
N14830 X391.544 Y-5.727 Z-7.993
N14835 X391.496 Y-5.646 Z-8.
N14840 G3 X389.519 Y-3.004 I-13.18 J-7.805
N14845 G1 X388.987 Y-2.473
N14850 X388.759 Y-2.266
N14855 X388.544 Y-2.101
N14860 X388.268 Y-1.923
N14865 X387.914 Y-1.732
N14870 X387.454 Y-1.53
N14875 X386.842 Y-1.318
N14880 X385.99 Y-1.097
N14885 X385.047 Y-0.932
N14890 X384.095 Y-0.823
N14895 X383.14 Y-0.75
N14900 X382.184 Y-0.701
N14905 X381.227 Y-0.668
N14910 X380.269 Y-0.646
N14915 X379.312 Y-0.631
N14920 X378.354 Y-0.621
N14925 X377.396 Y-0.614
N14930 X376.439 Y-0.609
N14935 X374.523 Y-0.604
N14940 X371.65 Y-0.601
N14945 X363.031 Y-0.6
N14950 X358.584
N14955 X358.311 Y-0.627
N14960 X358.049 Y-0.707
N14965 X357.806 Y-0.836
N14970 X357.594 Y-1.01
N14975 X357.42 Y-1.222
N14980 X357.291 Y-1.464
N14985 G3 X357.504 Y-2.163 I0.562 J-0.21
N14990 G1 X357.581 Y-2.217 Z-7.993
N14995 X357.655 Y-2.271 Z-7.971
N15000 X357.726 Y-2.321 Z-7.935
N15005 X357.792 Y-2.368 Z-7.885
N15010 X357.85 Y-2.409 Z-7.824
N15015 X357.9 Y-2.445 Z-7.753
N15020 X357.94 Y-2.473 Z-7.672
N15025 X357.969 Y-2.494 Z-7.585
N15030 X357.987 Y-2.507 Z-7.494
N15035 X357.993 Y-2.511 Z-7.4
N15040 G0 Z15.
N15045 X389.418 Y-3.572
N15050 Z-6.8
N15055 G1 Z-7.4 F1000.
N15060 X389.416 Y-3.565 Z-7.494
N15065 X389.41 Y-3.543 Z-7.585
N15070 X389.401 Y-3.508 Z-7.672
N15075 X389.389 Y-3.461 Z-7.753
N15080 X389.374 Y-3.401 Z-7.824
N15085 X389.357 Y-3.332 Z-7.885
N15090 X389.337 Y-3.254 Z-7.935
N15095 X389.315 Y-3.17 Z-7.971
N15100 X389.293 Y-3.081 Z-7.993
N15105 X389.27 Y-2.99 Z-8.
N15110 G3 X388.987 Y-2.473 I-1.15 J-0.292
N15115 G1 X386.815 Y-0.301
N15120 X386.632 Y-0.135
N15125 X386.358 Y0.075
N15130 X386.023 Y0.292
N15135 X385.596 Y0.522
N15140 X385.058 Y0.759
N15145 X384.357 Y1.002
N15150 X383.43 Y1.242
N15155 X382.487 Y1.409
N15160 X381.537 Y1.526
N15165 X380.583 Y1.609
N15170 X379.627 Y1.666
N15175 X378.67 Y1.706
N15180 X377.713 Y1.735
N15185 X376.755 Y1.754
N15190 X375.797 Y1.768
N15195 X374.84 Y1.778
N15200 X373.882 Y1.785
N15205 X372.924 Y1.789
N15210 X371.009 Y1.795
N15215 X368.136 Y1.798
N15220 X361.432 Y1.8
N15225 X360.474 Y1.799
N15230 X359.727 Y1.765
N15235 X359.374 Y1.72
N15240 X359.088 Y1.653
N15245 X358.822 Y1.527
N15250 X358.588 Y1.349
N15255 X358.397 Y1.126
N15260 X358.257 Y0.867
N15265 X357.291 Y-1.464
N15270 G3 X357.642 Y-2.236 Z-7.8 I0.562 J-0.21
N15275 G1 X357.72 Y-2.26
N15280 X357.8 Y-2.272
N15285 X357.882 Y-2.274
N15290 X387.284 Y-0.866
N15295 X387.321 Y-0.871
N15300 X387.354 Y-0.89
N15305 X387.377 Y-0.919
N15310 X387.388 Y-0.955
N15315 X387.385 Y-0.993
N15320 X387.368 Y-1.026
N15325 X387.34 Y-1.051
N15330 X387.305 Y-1.064
N15335 X387.268 Y-1.063 Z-7.808
N15340 X387.234 Y-1.049 Z-7.816
N15345 X387.207 Y-1.024 Z-7.824
N15350 X387.192 Y-0.99 Z-7.831
N15355 X387.185 Y-0.966 Z-7.837
N15360 G3 X386.815 Y-0.301 Z-8. I-1.527 J-0.415
N15365 G1 X384.643 Y1.871
N15370 X384.296 Y2.185
N15375 X384.007 Y2.407
N15380 X383.663 Y2.63
N15385 X383.215 Y2.871
N15390 X382.661 Y3.115
N15395 X381.931 Y3.368
N15400 X381.004 Y3.608
N15405 X380.062 Y3.778
N15410 X379.112 Y3.899
N15415 X378.158 Y3.986
N15420 X377.202 Y4.047
N15425 X376.245 Y4.091
N15430 X375.288 Y4.123
N15435 X374.331 Y4.145
N15440 X373.373 Y4.161
N15445 X372.416 Y4.172
N15450 X371.458 Y4.18
N15455 X370.5 Y4.186
N15460 X369.543 Y4.19
N15465 X367.627 Y4.195
N15470 X364.754 Y4.198
N15475 X362.839 Y4.199
N15480 X361.881 Y4.192
N15485 X360.924 Y4.157
N15490 X360.298 Y4.087
N15495 X360.265 Y4.08
N15500 X360.001 Y4.001
N15505 X359.758 Y3.872
N15510 X359.545 Y3.697
N15515 X359.37 Y3.485
N15520 X359.24 Y3.242
N15525 X358.257 Y0.867
N15530 G3 X358.608 Y0.095 Z-7.8 I0.562 J-0.21
N15535 G1 X358.683 Y0.073
N15540 X358.76 Y0.06
N15545 X358.838 Y0.058
N15550 X384.223 Y0.862
N15555 G3 X384.614 Y1.024 I-0.019 J0.6
N15560 X384.643 Y1.871 Z-8. I-0.41 J0.438
N15565 G1 X382.253 Y4.261
N15570 X381.936 Y4.548
N15575 X381.644 Y4.772
N15580 X381.292 Y5.
N15585 X380.837 Y5.245
N15590 X380.275 Y5.492
N15595 X379.532 Y5.75
N15600 X378.605 Y5.99
N15605 X377.663 Y6.162
N15610 X376.713 Y6.285
N15615 X375.759 Y6.373
N15620 X374.804 Y6.437
N15625 X373.847 Y6.483
N15630 X372.89 Y6.516
N15635 X371.933 Y6.539
N15640 X370.975 Y6.557
N15645 X370.017 Y6.569
N15650 X369.06 Y6.578
N15655 X368.102 Y6.584
N15660 X367.144 Y6.589
N15665 X365.229 Y6.594
N15670 X364.271
N15675 X363.314 Y6.588
N15680 X362.356 Y6.563
N15685 X361.591 Y6.507
N15690 X361.302 Y6.463
N15695 X361.025 Y6.39
N15700 X360.769 Y6.263
N15705 X360.544 Y6.086
N15710 X360.359 Y5.867
N15715 X360.223 Y5.615
N15720 X359.24 Y3.242
N15725 G3 X359.592 Y2.47 Z-7.8 I0.562 J-0.21
N15730 G1 X359.667 Y2.447
N15735 X359.745 Y2.434
N15740 X359.824 Y2.432
N15745 X381.837 Y3.252
N15750 G3 X382.224 Y3.413 I-0.022 J0.6
N15755 G1 X382.283 Y3.477 Z-7.818
N15760 X382.332 Y3.548 Z-7.837
N15765 G3 X382.253 Y4.261 Z-8. I-0.518 J0.303
N15770 G1 X379.864 Y6.65
N15775 X379.555 Y6.93
N15780 X379.261 Y7.156
N15785 X378.907 Y7.385
N15790 X378.449 Y7.632
N15795 X377.882 Y7.881
N15800 X377.134 Y8.14
N15805 X376.206 Y8.38
N15810 X375.264 Y8.552
N15815 X374.315 Y8.677
N15820 X373.361 Y8.766
N15825 X372.406 Y8.831
N15830 X371.449 Y8.878
N15835 X370.492 Y8.911
N15840 X369.535 Y8.936
N15845 X368.577 Y8.954
N15850 X367.62 Y8.967
N15855 X366.662 Y8.976
N15860 X365.704 Y8.981
N15865 X364.747 Y8.979
N15870 X363.789 Y8.963
N15875 X362.832 Y8.918
N15880 X362.33 Y8.855
N15885 X362.044 Y8.788
N15890 X361.778 Y8.662
N15895 X361.544 Y8.484
N15900 X361.352 Y8.26
N15905 X361.212 Y8.002
N15910 X360.223 Y5.615
N15915 G3 X360.574 Y4.843 Z-7.8 I0.562 J-0.21
N15920 G1 X360.652 Y4.82
N15925 X360.731 Y4.807
N15930 X360.812 Y4.805
N15935 X379.452 Y5.642
N15940 G3 X379.835 Y5.803 I-0.027 J0.599
N15945 X379.864 Y6.65 Z-8. I-0.41 J0.438
N15950 G1 X377.474 Y9.04
N15955 X377.165 Y9.32
N15960 X376.87 Y9.546
N15965 X376.515 Y9.776
N15970 X376.055 Y10.024
N15975 X375.487 Y10.274
N15980 X374.735 Y10.535
N15985 X373.808 Y10.775
N15990 X372.866 Y10.947
N15995 X371.916 Y11.072
N16000 X370.963 Y11.162
N16005 X370.007 Y11.227
N16010 X369.051 Y11.274
N16015 X368.094 Y11.308
N16020 X367.136 Y11.332
N16025 X366.179 Y11.344
N16030 X365.221 Y11.343
N16035 X364.264 Y11.319
N16040 X363.534 Y11.263
N16045 X363.25 Y11.218
N16050 X362.962 Y11.14
N16055 X362.697 Y11.002
N16060 X362.467 Y10.812
N16065 X362.283 Y10.577
N16070 X362.153 Y10.308
N16075 X362.087 Y10.126
N16080 X361.987 Y9.876
N16085 X361.912 Y9.692
N16090 X361.212 Y8.002
N16095 G3 X361.563 Y7.23 Z-7.8 I0.562 J-0.21
N16100 G1 X361.642 Y7.206
N16105 X361.724 Y7.193
N16110 X361.807 Y7.192
N16115 X377.069 Y8.032
N16120 G3 X377.445 Y8.192 I-0.033 J0.599
N16125 X377.474 Y9.04 Z-8. I-0.41 J0.438
N16130 G1 X375.085 Y11.429
N16135 X374.77 Y11.714
N16140 X374.475 Y11.941
N16145 X374.119 Y12.172
N16150 X373.658 Y12.42
N16155 X373.089 Y12.67
N16160 X372.336 Y12.931
N16165 X371.408 Y13.171
N16170 X370.466 Y13.344
N16175 X369.517 Y13.468
N16180 X368.563 Y13.557
N16185 X367.608 Y13.618
N16190 X366.651 Y13.655
N16195 X365.693 Y13.665
N16200 X364.79 Y13.637
N16205 X364.195 Y13.57
N16210 X363.719 Y13.478
N16215 X363.344 Y13.373
N16220 X363.038 Y13.248
N16225 X362.769 Y13.056
N16230 X362.551 Y12.807
N16235 X362.396 Y12.515
N16240 X362.313 Y12.195
N16245 X362.305 Y11.864
N16250 X362.325 Y11.647
N16255 G3 X362.884 Y11.124 Z-7.824 I0.595 J0.076
N16260 G1 X362.996 Y11.117 Z-7.8
N16265 X374.61 Y10.421
N16270 G3 X375.056 Y10.582 I0.036 J0.599
N16275 X375.085 Y11.429 Z-8. I-0.41 J0.438
N16280 G1 X372.696 Y13.819
N16285 X372.373 Y14.111
N16290 X372.078 Y14.338
N16295 X371.723 Y14.568
N16300 X371.264 Y14.815
N16305 X370.702 Y15.062
N16310 X369.97 Y15.316
N16315 X369.042 Y15.556
N16320 X368.099 Y15.723
N16325 X367.148 Y15.832
N16330 X366.192 Y15.885
N16335 X365.295 Y15.872
N16340 X364.604 Y15.806
N16345 X364.1 Y15.717
N16350 X363.635 Y15.595
N16355 X363.26 Y15.464
N16360 X362.898 Y15.304
N16365 X362.601 Y15.143
N16370 X362.304 Y14.949
N16375 X362.252 Y14.909
N16380 X362.046 Y14.714
N16385 X361.883 Y14.48
N16390 X361.771 Y14.218
N16395 X361.714 Y13.94
N16400 X361.715 Y13.655
N16405 X361.774 Y13.376
N16410 X361.887 Y13.116
N16415 G3 X362.398 Y12.828 Z-7.87 I0.512 J0.312
N16420 G1 X362.553 Y12.827 Z-7.837
N16425 X362.727 Z-7.8
N16430 X372.256 Y12.81
N16435 G3 X372.666 Y12.971 I0.001 J0.6
N16440 X372.696 Y13.819 Z-8. I-0.41 J0.438
N16445 G1 X370.306 Y16.208
N16450 X370.003 Y16.483
N16455 X369.72 Y16.7
N16460 X369.385 Y16.917
N16465 X368.973 Y17.139
N16470 X368.49 Y17.352
N16475 X367.908 Y17.553
N16480 X367.292 Y17.713
N16485 X366.615 Y17.831
N16490 X365.934 Y17.894
N16495 X365.259 Y17.903
N16500 X364.615 Y17.859
N16505 X364.009 Y17.768
N16510 X363.439 Y17.636
N16515 X362.962 Y17.483
N16520 X362.539 Y17.31
N16525 X362.179 Y17.127
N16530 X361.864 Y16.934
N16535 X361.578 Y16.725
N16540 X361.33 Y16.512
N16545 X361.104 Y16.284
N16550 X360.909 Y16.052
N16555 X360.864 Y15.989
N16560 X360.707 Y15.702
N16565 X360.621 Y15.387
N16570 X360.609 Y15.06
N16575 X360.674 Y14.739
N16580 X360.812 Y14.443
N16585 X361.015 Y14.186
N16590 X361.334 Y13.866
N16595 G3 X361.853 Y13.714 Z-7.881 I0.41 J0.438
N16600 G1 X362.057 Y13.752 Z-7.837
N16605 X362.228 Y13.783 Z-7.8
N16610 X369.976 Y15.209
N16615 G3 X370.277 Y15.361 I-0.109 J0.59
N16620 X370.306 Y16.208 Z-8. I-0.41 J0.438
N16625 G1 X368.134 Y18.381
N16630 X367.86 Y18.629
N16635 X367.639 Y18.799
N16640 X367.369 Y18.974
N16645 X367.07 Y19.134
N16650 X366.715 Y19.291
N16655 X366.322 Y19.427
N16660 X365.889 Y19.539
N16665 X365.399 Y19.625
N16670 X364.885 Y19.672
N16675 X364.355 Y19.679
N16680 X363.815 Y19.642
N16685 X363.275 Y19.561
N16690 X362.749 Y19.439
N16695 X362.243 Y19.277
N16700 X361.762 Y19.08
N16705 X361.309 Y18.85
N16710 X360.927 Y18.616
N16715 X360.574 Y18.358
N16720 X360.294 Y18.118
N16725 X360.033 Y17.853
N16730 X359.819 Y17.599
N16735 X359.633 Y17.338
N16740 X359.531 Y17.167
N16745 X359.403 Y16.886
N16750 X359.339 Y16.584
N16755 X359.343 Y16.276
N16760 X359.415 Y15.976
N16765 X359.55 Y15.699
N16770 X359.743 Y15.458
N16775 X361.015 Y14.186
N16780 G3 X361.706 Y14.096 Z-7.842 I0.409 J0.439
N16785 G1 X361.727 Y14.107 Z-7.837
N16790 X361.881 Y14.189 Z-7.8
N16795 X367.978 Y17.442
N16800 X368.044 Y17.483
N16805 X368.105 Y17.533
N16810 X368.164 Y17.597 Z-7.818
N16815 X368.213 Y17.668 Z-7.837
N16820 G3 X368.134 Y18.381 Z-8. I-0.518 J0.303
N16825 G1 X366.339 Y20.176
N16830 X366.088 Y20.403
N16835 X365.905 Y20.544
N16840 X365.683 Y20.688
N16845 X365.437 Y20.82
N16850 X365.148 Y20.947
N16855 X364.828 Y21.058
N16860 X364.473 Y21.15
N16865 X364.07 Y21.22
N16870 X363.652 Y21.259
N16875 X363.197 Y21.265
N16880 X362.709 Y21.232
N16885 X362.207 Y21.157
N16890 X361.703 Y21.039
N16895 X361.204 Y20.88
N16900 X360.719 Y20.681
N16905 X360.255 Y20.445
N16910 X359.818 Y20.178
N16915 X359.429 Y19.894
N16920 X359.082 Y19.595
N16925 X358.808 Y19.318
N16930 X358.559 Y19.022
N16935 X358.363 Y18.746
N16940 X358.188 Y18.454
N16945 X358.156 Y18.389
N16950 X358.055 Y18.117
N16955 X358.013 Y17.831
N16960 X358.03 Y17.542
N16965 X358.107 Y17.262
N16970 X358.239 Y17.004
N16975 X358.422 Y16.78
N16980 X359.743 Y15.458
N16985 G3 X360.487 Y15.399 Z-7.829 I0.409 J0.439
N16990 G1 X360.6 Y15.476 Z-7.8
N16995 X366.235 Y19.269
N17000 X366.309 Y19.329
N17005 G3 X366.339 Y20.176 Z-8. I-0.41 J0.438
N17010 G1 X364.659 Y21.856
N17015 X364.541 Y21.963
N17020 X364.373 Y22.092
N17025 X364.179 Y22.218
N17030 X363.951 Y22.341
N17035 X363.695 Y22.453
N17040 X363.405 Y22.554
N17045 X363.077 Y22.639
N17050 X362.726 Y22.7
N17055 X362.327 Y22.737
N17060 X361.91 Y22.742
N17065 X361.467 Y22.712
N17070 X360.991 Y22.641
N17075 X360.497 Y22.526
N17080 X360.003 Y22.368
N17085 X359.514 Y22.167
N17090 X359.041 Y21.927
N17095 X358.589 Y21.65
N17100 X358.167 Y21.342
N17105 X357.813 Y21.037
N17110 X357.499 Y20.72
N17115 X357.256 Y20.431
N17120 X357.037 Y20.123
N17125 X356.868 Y19.84
N17130 X356.85 Y19.803
N17135 X356.756 Y19.557
N17140 X356.71 Y19.297
N17145 X356.713 Y19.034
N17150 X356.766 Y18.775
N17155 X356.866 Y18.532
N17160 X356.889 Y18.489
N17165 X356.982 Y18.366
N17170 X357.494 Y17.729
N17175 X357.635 Y17.566
N17180 X358.422 Y16.78
N17185 G3 X359.201 Y16.746 Z-7.82 I0.409 J0.439
N17190 G1 X359.274 Y16.803 Z-7.8
N17195 X364.59 Y20.975
N17200 X364.629 Y21.009
N17205 G3 X364.659 Y21.856 Z-8. I-0.41 J0.438
N17210 G1 X363.292 Y23.223
N17215 X363.109 Y23.377
N17220 X362.868 Y23.558
N17225 X362.675 Y23.679
N17230 X362.464 Y23.789
N17235 X362.21 Y23.896
N17240 X361.937 Y23.987
N17245 X361.623 Y24.064
N17250 X361.277 Y24.12
N17255 X360.906 Y24.149
N17260 X360.49
N17265 X360.059 Y24.114
N17270 X359.604 Y24.039
N17275 X359.121 Y23.92
N17280 X358.628 Y23.755
N17285 X358.139 Y23.547
N17290 X357.666 Y23.299
N17295 X357.214 Y23.014
N17300 X357.188 Y22.994
N17305 X357.021 Y22.846
N17310 X356.879 Y22.674
N17315 X356.767 Y22.482
N17320 G3 X357.075 Y21.691 Z-7.8 I0.549 J-0.241
N17325 X357.393 Y21.645 I0.242 J0.549
N17330 G1 X362.783 Y22.337
N17335 G3 X363.152 Y22.53 I-0.076 J0.595
N17340 X363.109 Y23.377 Z-8. I-0.445 J0.402
N17345 G1 X362.845 Y23.594
N17350 X362.422 Y23.932
N17355 X362.339 Y23.987
N17360 X362.256 Y24.029
N17365 X361.769 Y24.263
N17370 X361.552 Y24.361
N17375 X361.334 Y24.414
N17380 X360.899 Y24.513
N17385 X360.681 Y24.557
N17390 X360.464 Y24.559
N17395 X360.029
N17400 X359.811 Y24.556
N17405 X359.593 Y24.511
N17410 X359.158 Y24.412
N17415 X358.941 Y24.358
N17420 X358.698 Y24.246
N17425 X358.247 Y24.029
N17430 X358.159 Y23.984
N17435 X358.07 Y23.923
N17440 X357.635 Y23.576
N17445 X357.418 Y23.391
N17450 X357.405 Y23.377
N17455 X356.982 Y22.847
N17460 X356.89 Y22.725
N17465 X356.78 Y22.508
N17470 X356.547 Y22.025
N17475 X356.509 Y21.941
N17480 X356.482 Y21.856
N17485 X356.33 Y21.19
N17490 X356.307 Y21.089
N17495 X356.298 Y20.987
N17500 Y20.227
N17505 X356.308 Y20.119
N17510 X356.357 Y19.901
N17515 X356.482 Y19.358
N17520 X356.518 Y19.25
N17525 X356.831 Y18.598
N17530 X356.866 Y18.532
N17535 G3 X357.386 Y18.229 I0.521 J0.298
N17540 G1 X357.387
N17545 X357.464 Y18.234
N17550 X357.54 Y18.249
N17555 X357.631 Y18.273 Z-7.993
N17560 X357.719 Y18.297 Z-7.971
N17565 X357.803 Y18.319 Z-7.935
N17570 X357.881 Y18.339 Z-7.885
N17575 X357.95 Y18.357 Z-7.824
N17580 X358.009 Y18.373 Z-7.753
N17585 X358.057 Y18.386 Z-7.672
N17590 X358.092 Y18.395 Z-7.585
N17595 X358.113 Y18.4 Z-7.494
N17600 X358.12 Y18.402 Z-7.4
N17605 G0 Z45.
(2D CONTOUR1)
N17610 G64 P0.01 Q0.01
N17615 G0 Z80.
N17620 X57.544 Y7.609
N17625 Z5.
N17630 G1 Z1. F333.33
N17635 Z-7.4
N17640 X57.55 Y7.612 Z-7.494 F1000.
N17645 X57.571 Y7.62 Z-7.585
N17650 X57.604 Y7.634 Z-7.672
N17655 X57.649 Y7.653 Z-7.753
N17660 X57.706 Y7.676 Z-7.824
N17665 X57.772 Y7.704 Z-7.885
N17670 X57.846 Y7.734 Z-7.935
N17675 X57.927 Y7.768 Z-7.971
N17680 X58.011 Y7.803 Z-7.993
N17685 X58.098 Y7.839 Z-8.
N17690 X58.652 Y8.068
N17695 G3 X58.977 Y8.852 I-0.23 J0.554
N17700 G1 X58.391 Y10.266
N17705 G2 X59.042 Y13.535 I2.772 J1.148
N17710 G1 X62.931 Y17.425
N17715 G3 Y23.789 I-3.182 J3.182
N17720 X56.567 I-3.182 J-3.182
N17725 G1 X40.657 Y7.879
N17730 G3 Y7.03 I0.424 J-0.424
N17735 G1 X41.081 Y6.606
N17740 X41.147 Y6.54 Z-7.993
N17745 X41.212 Y6.475 Z-7.971
N17750 X41.274 Y6.413 Z-7.935
N17755 X41.33 Y6.357 Z-7.885
N17760 X41.381 Y6.306 Z-7.824
N17765 X41.424 Y6.263 Z-7.753
N17770 X41.459 Y6.228 Z-7.672
N17775 X41.485 Y6.202 Z-7.585
N17780 X41.5 Y6.187 Z-7.494
N17785 X41.505 Y6.182 Z-7.4
N17790 G0 Z30.
N17795 X378.494
N17800 Z5.
N17805 G1 Z1. F333.33
N17810 Z-7.4
N17815 X378.499 Y6.187 Z-7.494 F1000.
N17820 X378.515 Y6.202 Z-7.585
N17825 X378.54 Y6.228 Z-7.672
N17830 X378.575 Y6.263 Z-7.753
N17835 X378.618 Y6.306 Z-7.824
N17840 X378.669 Y6.357 Z-7.885
N17845 X378.726 Y6.413 Z-7.935
N17850 X378.787 Y6.475 Z-7.971
N17855 X378.852 Y6.54 Z-7.993
N17860 X378.918 Y6.606 Z-8.
N17865 X379.343 Y7.03
N17870 G3 Y7.879 I-0.424 J0.424
N17875 G1 X363.434 Y23.789
N17880 G3 X357.069 I-3.182 J-3.182
N17885 Y17.425 I3.182 J-3.182
N17890 G1 X360.958 Y13.535
N17895 G2 X361.608 Y10.266 I-2.121 J-2.121
N17900 G1 X361.022 Y8.852
N17905 G3 X361.347 Y8.068 I0.554 J-0.23
N17910 G1 X361.901 Y7.838
N17915 X361.988 Y7.802 Z-7.993
N17920 X362.073 Y7.767 Z-7.971
N17925 X362.153 Y7.734 Z-7.935
N17930 X362.227 Y7.703 Z-7.885
N17935 X362.293 Y7.676 Z-7.824
N17940 X362.35 Y7.652 Z-7.753
N17945 X362.395 Y7.633 Z-7.672
N17950 X362.429 Y7.619 Z-7.585
N17955 X362.449 Y7.611 Z-7.494
N17960 X362.456 Y7.608 Z-7.4
N17965 G0 Z80.
(2D CONTOUR2)
N17970 G0 Z90.
N17975 X49.101 Y-10.889
N17980 Z5.
N17985 G1 Z1. F333.33
N17990 Z-20.4
N17995 X49.106 Y-10.884 Z-20.494 F1000.
N18000 X49.122 Y-10.869 Z-20.585
N18005 X49.147 Y-10.843 Z-20.672
N18010 X49.182 Y-10.808 Z-20.753
N18015 X49.225 Y-10.765 Z-20.824
N18020 X49.276 Y-10.715 Z-20.885
N18025 X49.333 Y-10.658 Z-20.935
N18030 X49.394 Y-10.596 Z-20.971
N18035 X49.459 Y-10.532 Z-20.993
N18040 X49.525 Y-10.465 Z-21.
N18045 X49.95 Y-10.041
N18050 G3 Y-9.192 I-0.424 J0.424
N18055 G1 X-4.192 Y44.95
N18060 G3 X-5.041 I-0.424 J-0.424
N18065 G1 X-5.465 Y44.525
N18070 X-5.532 Y44.459 Z-20.993
N18075 X-5.596 Y44.394 Z-20.971
N18080 X-5.658 Y44.333 Z-20.935
N18085 X-5.715 Y44.276 Z-20.885
N18090 X-5.765 Y44.225 Z-20.824
N18095 X-5.808 Y44.182 Z-20.753
N18100 X-5.843 Y44.147 Z-20.672
N18105 X-5.869 Y44.122 Z-20.585
N18110 X-5.884 Y44.106 Z-20.494
N18115 X-5.889 Y44.101 Z-20.4
N18120 G0 Z40.
N18125 X425.889
N18130 Z5.
N18135 G1 Z1. F333.33
N18140 Z-20.4
N18145 X425.884 Y44.106 Z-20.494 F1000.
N18150 X425.869 Y44.122 Z-20.585
N18155 X425.843 Y44.147 Z-20.672
N18160 X425.808 Y44.182 Z-20.753
N18165 X425.765 Y44.225 Z-20.824
N18170 X425.715 Y44.276 Z-20.885
N18175 X425.658 Y44.333 Z-20.935
N18180 X425.596 Y44.394 Z-20.971
N18185 X425.532 Y44.459 Z-20.993
N18190 X425.465 Y44.525 Z-21.
N18195 X425.041 Y44.95
N18200 G3 X424.192 I-0.424 J-0.424
N18205 G1 X370.05 Y-9.192
N18210 G3 Y-10.041 I0.424 J-0.424
N18215 G1 X370.475 Y-10.465
N18220 X370.541 Y-10.532 Z-20.993
N18225 X370.606 Y-10.596 Z-20.971
N18230 X370.667 Y-10.658 Z-20.935
N18235 X370.724 Y-10.715 Z-20.885
N18240 X370.775 Y-10.765 Z-20.824
N18245 X370.818 Y-10.808 Z-20.753
N18250 X370.853 Y-10.843 Z-20.672
N18255 X370.878 Y-10.869 Z-20.585
N18260 X370.894 Y-10.884 Z-20.494
N18265 X370.899 Y-10.889 Z-20.4
N18270 G0 Z90.
(2D CONTOUR2 2)
N18275 G0 X395.6 Y5.2
N18280 Z15.
N18285 Z5.
N18290 G1 Z1. F333.33
N18295 Z-11.4
N18300 G19 G3 Y5.8 Z-12. J0.6 K0. F1000.
N18305 G1 Y6.4
N18310 G17 G3 X395. Y7. I-0.6 J0.
N18315 G1 X25.
N18320 G3 X24.4 Y6.4 I0. J-0.6
N18325 G1 Y5.8
N18330 G19 G2 Y5.2 Z-11.4 J0. K0.6
N18335 G0 Z15.
N18340 G17
N18345 G53 G0 Z0.
N18350 M30
%
