%
(FRAME_LONG_V1)
(T10  D=6. CR=0. - ZMIN=-22. - FLAT END MILL)
N10 G90 G94 G17 G91.1
N15 G21
N20 G53 G0 Z0.
(2D ADAPTIVE2)
N25 T10 M6
N30 S20000 M3
N35 G54
N40 G64 P0.1 Q0.1
N45 G0 X413.804 Y45.543
N50 G43 Z45. H10
N55 G0 Z15.
N60 Z-20.8
N65 G1 Z-21.4 F1600.
N70 X413.809 Y45.538 Z-21.494
N75 X413.824 Y45.522 Z-21.585
N80 X413.849 Y45.496 Z-21.672
N85 X413.884 Y45.461 Z-21.753
N90 X413.926 Y45.417 Z-21.824
N95 X413.976 Y45.366 Z-21.885
N100 X414.032 Y45.309 Z-21.935
N105 X414.093 Y45.246 Z-21.971
N110 X414.157 Y45.181 Z-21.993
N115 X414.223 Y45.114 Z-22.
N120 G3 X416.768 Y43.014 I10.964 J10.697
N125 G1 X416.934 Y42.913
N130 X416.986 Y42.878
N135 X417.204 Y42.714
N140 X417.226 Y42.695
N145 X417.421 Y42.527
N150 X417.468 Y42.478
N155 X417.562 Y42.378
N160 X417.682 Y42.262
N165 X418.422 Y41.655
N170 X419.055 Y40.935
N175 X419.504 Y40.089
N180 X419.817 Y39.185
N185 X420.034 Y38.252
N190 X420.183 Y37.306
N195 X420.285 Y36.353
N200 X420.354 Y35.398
N205 X420.401 Y34.442
N210 X420.433 Y33.485
N215 X420.455 Y32.527
N220 X420.469 Y31.569
N225 X420.479 Y30.612
N230 X420.486 Y29.654
N235 X420.491 Y28.696
N240 X420.496 Y26.781
N245 X420.499 Y23.908
N250 X420.5 Y15.289
N255 Y2.839
N260 X420.423 Y2.366
N265 X420.195 Y1.945
N270 X419.58 Y1.211
N275 X418.78 Y0.684
N280 X417.897 Y0.313
N285 X416.975 Y0.056
N290 X416.034 Y-0.121
N295 X415.084 Y-0.243
N300 X414.13 Y-0.325
N305 X413.173 Y-0.382
N310 X412.217 Y-0.42
N315 X411.259 Y-0.446
N320 X410.302 Y-0.463
N325 X409.344 Y-0.475
N330 X408.386 Y-0.483
N335 X407.429 Y-0.489
N340 X406.471 Y-0.492
N345 X404.556 Y-0.496
N350 X401.683 Y-0.499
N355 X391.148 Y-0.5
N360 X380.002
N365 X379.742 Y-0.526
N370 X379.492 Y-0.601
N375 X379.261 Y-0.725
N380 X379.059 Y-0.891
N385 X377.906 Y-2.044
N390 G0 Z15.
N395 X417.082 Y43.666
N400 Z-20.8
N405 G1 Z-21.4 F1600.
N410 X417.083 Y43.658 Z-21.494
N415 X417.088 Y43.637 Z-21.585
N420 X417.096 Y43.602 Z-21.672
N425 X417.106 Y43.554 Z-21.753
N430 X417.119 Y43.494 Z-21.824
N435 X417.134 Y43.424 Z-21.885
N440 X417.151 Y43.346 Z-21.935
N445 X417.17 Y43.261 Z-21.971
N450 X417.189 Y43.171 Z-21.993
N455 X417.209 Y43.079 Z-22.
N460 G3 X417.562 Y42.378 I1.546 J0.337
N465 G1 X417.671 Y42.261
N470 X417.856 Y42.02
N475 X417.979 Y41.827
N480 X418.074 Y41.668
N485 X418.21 Y41.392
N490 X418.293 Y41.175
N495 X418.362 Y40.958
N500 X418.419 Y40.741
N505 X418.458 Y40.524
N510 X418.483 Y40.306
N515 X418.496 Y40.089
N520 Y39.872
N525 X418.479 Y39.655
N530 X418.451 Y39.438
N535 X418.411 Y39.221
N540 X418.352 Y39.003
N545 X418.313 Y38.859
N550 X418.144 Y37.916
N555 X418.054 Y36.962
N560 X418.008 Y36.006
N565 X417.987 Y35.048
N570 X417.978 Y34.091
N575 X417.977 Y33.133
N580 X417.979 Y32.175
N585 X417.991 Y28.344
N590 X417.996 Y25.471
N595 X417.999 Y21.641
N600 X418. Y9.191
N605 Y6.317
N610 X417.986 Y5.839
N615 X417.863 Y5.376
N620 X417.439 Y4.517
N625 X416.765 Y3.838
N630 X415.956 Y3.324
N635 X415.076 Y2.946
N640 X414.159 Y2.672
N645 X413.221 Y2.475
N650 X412.274 Y2.335
N655 X411.321 Y2.235
N660 X410.366 Y2.165
N665 X409.41 Y2.115
N670 X408.453 Y2.081
N675 X407.495 Y2.056
N680 X406.538 Y2.039
N685 X405.58 Y2.027
N690 X404.623 Y2.019
N695 X403.665 Y2.013
N700 X402.707 Y2.009
N705 X401.75 Y2.006
N710 X399.834 Y2.003
N715 X396.003 Y2.001
N720 X382.596 Y2.
N725 X382.492 Y1.999
N730 X382.234 Y1.972
N735 X381.987 Y1.896
N740 X381.759 Y1.773
N745 X381.559 Y1.609
N750 X379.059 Y-0.891
N755 G0 Z15.
N760 X419.254 Y40.041
N765 Z-20.8
N770 G1 Z-21.4 F1600.
N775 X419.248 Y40.036 Z-21.494
N780 X419.231 Y40.022 Z-21.585
N785 X419.204 Y39.998 Z-21.672
N790 X419.167 Y39.966 Z-21.753
N795 X419.121 Y39.926 Z-21.824
N800 X419.067 Y39.879 Z-21.885
N805 X419.006 Y39.827 Z-21.935
N810 X418.94 Y39.77 Z-21.971
N815 X418.871 Y39.71 Z-21.993
N820 X418.8 Y39.648 Z-22.
N825 G3 X418.352 Y39.003 I1.035 J-1.197
N830 G1 X418.292 Y38.823
N835 X418.278 Y38.786
N840 X418.191 Y38.569
N845 X418.074 Y38.33
N850 X417.955 Y38.135
N855 X417.856 Y37.981
N860 X417.637 Y37.7
N865 X417.421 Y37.471
N870 X417.308 Y37.358
N875 X417.181 Y37.218
N880 X416.999 Y36.979
N885 X416.803 Y36.673
N890 X416.596 Y36.281
N895 X416.38 Y35.772
N900 X416.156 Y35.094
N905 X415.932 Y34.163
N910 X415.784 Y33.216
N915 X415.686 Y32.264
N920 X415.622 Y31.308
N925 X415.579 Y30.351
N930 X415.551 Y29.394
N935 X415.533 Y28.437
N940 X415.521 Y27.479
N945 X415.513 Y26.521
N950 X415.508 Y25.564
N955 X415.505 Y24.606
N960 X415.502 Y22.691
N965 X415.5 Y18.86
N970 Y9.283
N975 X415.498 Y8.804
N980 X415.418 Y8.332
N985 X415.085 Y7.434
N990 X414.48 Y6.692
N995 X413.717 Y6.113
N1000 X412.864 Y5.676
N1005 X411.963 Y5.352
N1010 X411.036 Y5.114
N1015 X410.094 Y4.941
N1020 X409.144 Y4.816
N1025 X408.191 Y4.725
N1030 X407.235 Y4.661
N1035 X406.279 Y4.614
N1040 X405.322 Y4.581
N1045 X404.364 Y4.558
N1050 X403.407 Y4.541
N1055 X402.449 Y4.529
N1060 X401.491 Y4.52
N1065 X400.534 Y4.514
N1070 X399.576 Y4.51
N1075 X397.661 Y4.505
N1080 X395.745 Y4.502
N1085 X390.957 Y4.5
N1090 X385.211
N1095 X384.997 Y4.499
N1100 X384.738 Y4.473
N1105 X384.489 Y4.397
N1110 X384.26 Y4.274
N1115 X384.059 Y4.109
N1120 X381.559 Y1.609
N1125 G0 Z15.
N1130 X418.579 Y37.883
N1135 Z-20.8
N1140 G1 Z-21.4 F1600.
N1145 X418.572 Y37.881 Z-21.494
N1150 X418.551 Y37.875 Z-21.585
N1155 X418.516 Y37.866 Z-21.672
N1160 X418.468 Y37.854 Z-21.753
N1165 X418.409 Y37.839 Z-21.824
N1170 X418.339 Y37.822 Z-21.885
N1175 X418.261 Y37.802 Z-21.935
N1180 X418.177 Y37.78 Z-21.971
N1185 X418.088 Y37.758 Z-21.993
N1190 X417.997 Y37.735 Z-22.
N1195 G3 X417.308 Y37.358 I0.39 J-1.534
N1200 G1 X415.245 Y35.295
N1205 X414.928 Y34.945
N1210 X414.705 Y34.653
N1215 X414.479 Y34.299
N1220 X414.237 Y33.841
N1225 X413.99 Y33.261
N1230 X413.737 Y32.494
N1235 X413.513 Y31.563
N1240 X413.357 Y30.618
N1245 X413.248 Y29.666
N1250 X413.172 Y28.712
N1255 X413.119 Y27.756
N1260 X413.082 Y26.799
N1265 X413.057 Y25.841
N1270 X413.039 Y24.884
N1275 X413.027 Y23.926
N1280 X413.018 Y22.968
N1285 X413.012 Y22.011
N1290 X413.008 Y21.053
N1295 X413.004 Y19.138
N1300 X413.001 Y16.265
N1305 X413. Y11.476
N1310 X412.926 Y11.003
N1315 X412.614 Y10.098
N1320 X412.032 Y9.337
N1325 X411.285 Y8.738
N1330 X410.443 Y8.28
N1335 X409.549 Y7.937
N1340 X408.626 Y7.682
N1345 X407.687 Y7.494
N1350 X406.739 Y7.358
N1355 X405.787 Y7.258
N1360 X404.832 Y7.186
N1365 X403.876 Y7.133
N1370 X402.919 Y7.096
N1375 X401.961 Y7.069
N1380 X401.004 Y7.049
N1385 X400.046 Y7.035
N1390 X399.089 Y7.025
N1395 X398.131 Y7.018
N1400 X397.173 Y7.013
N1405 X396.215 Y7.009
N1410 X394.3 Y7.005
N1415 X391.427 Y7.002
N1420 X388.554 Y7.001
N1425 X387.596 Y7.
N1430 X387.492
N1435 X387.234 Y6.973
N1440 X386.987 Y6.896
N1445 X386.759 Y6.774
N1450 X386.559 Y6.609
N1455 X384.059 Y4.109
N1460 G0 Z15.
N1465 X416.516 Y35.819
N1470 Z-20.8
N1475 G1 Z-21.4 F1600.
N1480 X416.508 Y35.817 Z-21.494
N1485 X416.487 Y35.812 Z-21.585
N1490 X416.452 Y35.803 Z-21.672
N1495 X416.404 Y35.791 Z-21.753
N1500 X416.345 Y35.776 Z-21.824
N1505 X416.276 Y35.758 Z-21.885
N1510 X416.198 Y35.738 Z-21.935
N1515 X416.114 Y35.717 Z-21.971
N1520 X416.025 Y35.694 Z-21.993
N1525 X415.934 Y35.671 Z-22.
N1530 G3 X415.245 Y35.295 I0.39 J-1.534
N1535 G1 X412.85 Y32.901
N1540 X412.514 Y32.529
N1545 X412.282 Y32.224
N1550 X412.046 Y31.856
N1555 X411.794 Y31.378
N1560 X411.538 Y30.776
N1565 X411.273 Y29.976
N1570 X411.05 Y29.045
N1575 X410.891 Y28.1
N1580 X410.778 Y27.149
N1585 X410.697 Y26.195
N1590 X410.64 Y25.239
N1595 X410.599 Y24.282
N1600 X410.57 Y23.325
N1605 X410.549 Y22.368
N1610 X410.535 Y21.41
N1615 X410.524 Y20.452
N1620 X410.517 Y19.495
N1625 X410.512 Y18.537
N1630 X410.508 Y17.579
N1635 X410.504 Y15.664
N1640 X410.502 Y13.749
N1645 X410.245 Y12.826
N1650 X409.704 Y12.035
N1655 X408.987 Y11.401
N1660 X408.165 Y10.911
N1665 X407.282 Y10.54
N1670 X406.365 Y10.262
N1675 X405.43 Y10.057
N1680 X404.484 Y9.905
N1685 X403.533 Y9.795
N1690 X402.578 Y9.714
N1695 X401.623 Y9.655
N1700 X400.666 Y9.612
N1705 X399.709 Y9.581
N1710 X398.751 Y9.558
N1715 X397.794 Y9.542
N1720 X396.836 Y9.53
N1725 X395.878 Y9.522
N1730 X394.921 Y9.516
N1735 X393.963 Y9.511
N1740 X392.048 Y9.506
N1745 X390.132 Y9.503
N1750 X389.995 Y9.502
N1755 X389.737 Y9.475
N1760 X389.49 Y9.399
N1765 X389.261 Y9.276
N1770 X389.061 Y9.112
N1775 X386.559 Y6.609
N1780 G0 Z15.
N1785 X414.121 Y33.425
N1790 Z-20.8
N1795 G1 Z-21.4 F1600.
N1800 X414.114 Y33.423 Z-21.494
N1805 X414.093 Y33.418 Z-21.585
N1810 X414.058 Y33.409 Z-21.672
N1815 X414.01 Y33.397 Z-21.753
N1820 X413.951 Y33.382 Z-21.824
N1825 X413.882 Y33.364 Z-21.885
N1830 X413.804 Y33.344 Z-21.935
N1835 X413.72 Y33.323 Z-21.971
N1840 X413.631 Y33.3 Z-21.993
N1845 X413.54 Y33.277 Z-22.
N1850 G3 X412.85 Y32.901 I0.39 J-1.534
N1855 G1 X410.266 Y30.316
N1860 X410.054 Y30.082
N1865 X409.819 Y29.774
N1870 X409.578 Y29.398
N1875 X409.321 Y28.911
N1880 X409.061 Y28.3
N1885 X408.792 Y27.485
N1890 X408.569 Y26.554
N1895 X408.408 Y25.61
N1900 X408.293 Y24.659
N1905 X408.211 Y23.705
N1910 X408.151 Y22.749
N1915 X408.108 Y21.792
N1920 X408.078 Y20.835
N1925 X408.056 Y19.878
N1930 X408.04 Y18.92
N1935 X408.028 Y17.962
N1940 X408.02 Y17.005
N1945 X407.999 Y16.047
N1950 X407.659 Y15.152
N1955 X407.069 Y14.398
N1960 X406.322 Y13.799
N1965 X405.483 Y13.337
N1970 X404.591 Y12.987
N1975 X403.67 Y12.725
N1980 X402.732 Y12.531
N1985 X401.785 Y12.388
N1990 X400.833 Y12.283
N1995 X399.879 Y12.206
N2000 X398.923 Y12.15
N2005 X397.966 Y12.109
N2010 X397.009 Y12.079
N2015 X396.051 Y12.057
N2020 X395.094 Y12.041
N2025 X394.136 Y12.03
N2030 X393.178 Y12.022
N2035 X392.511 Y12.017
N2040 X392.253 Y11.991
N2045 X392.005 Y11.914
N2050 X391.777 Y11.792
N2055 X391.577 Y11.627
N2060 X389.061 Y9.112
N2065 G0 Z15.
N2070 X411.537 Y30.84
N2075 Z-20.8
N2080 G1 Z-21.4 F1600.
N2085 X411.53 Y30.839 Z-21.494
N2090 X411.508 Y30.833 Z-21.585
N2095 X411.473 Y30.824 Z-21.672
N2100 X411.426 Y30.812 Z-21.753
N2105 X411.366 Y30.797 Z-21.824
N2110 X411.297 Y30.779 Z-21.885
N2115 X411.219 Y30.76 Z-21.935
N2120 X411.135 Y30.738 Z-21.971
N2125 X411.046 Y30.716 Z-21.993
N2130 X410.955 Y30.692 Z-22.
N2135 G3 X410.266 Y30.316 I0.39 J-1.534
N2140 G1 X407.877 Y27.927
N2145 X407.571 Y27.589
N2150 X407.334 Y27.279
N2155 X407.093 Y26.901
N2160 X406.834 Y26.412
N2165 X406.572 Y25.796
N2170 X406.301 Y24.976
N2175 X406.078 Y24.045
N2180 X405.917 Y23.101
N2185 X405.801 Y22.15
N2190 X405.717 Y21.196
N2195 X405.657 Y20.24
N2200 X405.613 Y19.284
N2205 X405.503 Y18.332
N2210 X405.086 Y17.47
N2215 X404.448 Y16.756
N2220 X403.674 Y16.192
N2225 X402.82 Y15.758
N2230 X401.92 Y15.43
N2235 X400.995 Y15.185
N2240 X400.054 Y15.002
N2245 X399.106 Y14.868
N2250 X398.154 Y14.769
N2255 X397.199 Y14.696
N2260 X396.243 Y14.643
N2265 X395.286 Y14.604
N2270 X395.058 Y14.597
N2275 X394.809 Y14.565
N2280 X394.57 Y14.488
N2285 X394.35 Y14.367
N2290 X394.157 Y14.207
N2295 X391.577 Y11.627
N2300 G0 Z15.
N2305 X409.148 Y28.451
N2310 Z-20.8
N2315 G1 Z-21.4 F1600.
N2320 X409.141 Y28.45 Z-21.494
N2325 X409.119 Y28.444 Z-21.585
N2330 X409.084 Y28.435 Z-21.672
N2335 X409.037 Y28.423 Z-21.753
N2340 X408.977 Y28.408 Z-21.824
N2345 X408.908 Y28.39 Z-21.885
N2350 X408.83 Y28.371 Z-21.935
N2355 X408.746 Y28.349 Z-21.971
N2360 X408.657 Y28.327 Z-21.993
N2365 X408.566 Y28.303 Z-22.
N2370 G3 X407.877 Y27.927 I0.39 J-1.534
N2375 G1 X405.271 Y25.321
N2380 X405.083 Y25.114
N2385 X404.846 Y24.803
N2390 X404.603 Y24.423
N2395 X404.343 Y23.93
N2400 X404.08 Y23.313
N2405 X403.808 Y22.488
N2410 X403.584 Y21.557
N2415 X403.308 Y20.64
N2420 X402.799 Y19.829
N2425 X402.115 Y19.158
N2430 X401.318 Y18.628
N2435 X400.452 Y18.218
N2440 X399.547 Y17.906
N2445 X398.618 Y17.671
N2450 X397.798 Y17.518
N2455 X397.542 Y17.443
N2460 X397.306 Y17.319
N2465 X397.1 Y17.15
N2470 X394.157 Y14.207
N2475 G0 Z15.
N2480 X406.542 Y25.845
N2485 Z-20.8
N2490 G1 Z-21.4 F1600.
N2495 X406.534 Y25.843 Z-21.494
N2500 X406.513 Y25.838 Z-21.585
N2505 X406.478 Y25.829 Z-21.672
N2510 X406.43 Y25.817 Z-21.753
N2515 X406.371 Y25.802 Z-21.824
N2520 X406.302 Y25.784 Z-21.885
N2525 X406.224 Y25.764 Z-21.935
N2530 X406.14 Y25.743 Z-21.971
N2535 X406.051 Y25.72 Z-21.993
N2540 X405.96 Y25.697 Z-22.
N2545 G3 X405.271 Y25.321 I0.39 J-1.534
N2550 G1 X397.1 Y17.15
N2555 G0 Z15.
N2560 X46.173 Y-5.541
N2565 Z-20.8
N2570 G1 Z-21.4 F1600.
N2575 X46.168 Y-5.536 Z-21.494
N2580 X46.152 Y-5.52 Z-21.585
N2585 X46.127 Y-5.494 Z-21.672
N2590 X46.093 Y-5.459 Z-21.753
N2595 X46.05 Y-5.415 Z-21.824
N2600 X46.001 Y-5.364 Z-21.885
N2605 X45.945 Y-5.306 Z-21.935
N2610 X45.884 Y-5.244 Z-21.971
N2615 X45.82 Y-5.178 Z-21.993
N2620 X45.755 Y-5.111 Z-22.
N2625 G3 X43.215 Y-3.003 I-10.994 J-10.667
N2630 G1 X43.067 Y-2.913
N2635 X42.781 Y-2.695
N2640 X42.627 Y-2.569
N2645 X42.532 Y-2.478
N2650 X42.409 Y-2.359
N2655 X42.225 Y-2.193
N2660 X41.992 Y-2.015
N2665 X41.692 Y-1.823
N2670 X41.305 Y-1.618
N2675 X40.798 Y-1.403
N2680 X40.115 Y-1.177
N2685 X39.184 Y-0.953
N2690 X38.238 Y-0.805
N2695 X37.286 Y-0.705
N2700 X36.33 Y-0.638
N2705 X35.374 Y-0.593
N2710 X34.416 Y-0.563
N2715 X33.459 Y-0.543
N2720 X32.501 Y-0.529
N2725 X31.544 Y-0.519
N2730 X30.586 Y-0.513
N2735 X29.628 Y-0.509
N2740 X27.713 Y-0.504
N2745 X24.84 Y-0.501
N2750 X16.221 Y-0.5
N2755 X2.813
N2760 X2.342 Y-0.411
N2765 X1.924 Y-0.178
N2770 X1.196 Y0.444
N2775 X0.673 Y1.247
N2780 X0.306 Y2.131
N2785 X0.051 Y3.054
N2790 X-0.125 Y3.996
N2795 X-0.245 Y4.946
N2800 X-0.327 Y5.9
N2805 X-0.383 Y6.856
N2810 X-0.421 Y7.813
N2815 X-0.446 Y8.77
N2820 X-0.464 Y9.728
N2825 X-0.475 Y10.685
N2830 X-0.483 Y11.643
N2835 X-0.489 Y12.601
N2840 X-0.492 Y13.559
N2845 X-0.497 Y15.474
N2850 X-0.499 Y18.347
N2855 X-0.5 Y29.839
N2860 Y37.262
N2865 X-0.457 Y37.497
N2870 X-0.289 Y37.945
N2875 X0.29 Y38.708
N2880 X0.945 Y39.169
N2885 X1.169 Y39.367
N2890 X1.343 Y39.609
N2895 X1.458 Y39.885
N2900 X1.51 Y40.179
N2905 G3 X1.08 Y40.769 I-0.6 J0.016
N2910 G1 X0.99 Y40.796 Z-21.993
N2915 X0.902 Y40.822 Z-21.971
N2920 X0.819 Y40.847 Z-21.935
N2925 X0.742 Y40.87 Z-21.885
N2930 X0.673 Y40.89 Z-21.824
N2935 X0.615 Y40.907 Z-21.753
N2940 X0.568 Y40.921 Z-21.672
N2945 X0.533 Y40.931 Z-21.585
N2950 X0.512 Y40.938 Z-21.494
N2955 X0.505 Y40.94 Z-21.4
N2960 G0 Z15.
N2965 X42.933 Y-3.63
N2970 Z-20.8
N2975 G1 Z-21.4 F1600.
N2980 X42.931 Y-3.622 Z-21.494
N2985 X42.926 Y-3.601 Z-21.585
N2990 X42.917 Y-3.566 Z-21.672
N2995 X42.905 Y-3.518 Z-21.753
N3000 X42.89 Y-3.459 Z-21.824
N3005 X42.872 Y-3.39 Z-21.885
N3010 X42.852 Y-3.312 Z-21.935
N3015 X42.831 Y-3.228 Z-21.971
N3020 X42.808 Y-3.139 Z-21.993
N3025 X42.785 Y-3.048 Z-22.
N3030 G3 X42.409 Y-2.359 I-1.534 J-0.39
N3035 G1 X40.232 Y-0.182
N3040 X39.974 Y0.052
N3045 X39.681 Y0.275
N3050 X39.324 Y0.503
N3055 X38.864 Y0.746
N3060 X38.279 Y0.995
N3065 X37.506 Y1.251
N3070 X36.574 Y1.475
N3075 X35.63 Y1.631
N3080 X34.678 Y1.741
N3085 X33.724 Y1.819
N3090 X32.767 Y1.873
N3095 X31.811 Y1.911
N3100 X30.853 Y1.938
N3105 X29.896 Y1.957
N3110 X28.938 Y1.97
N3115 X27.98 Y1.979
N3120 X27.023 Y1.985
N3125 X26.065 Y1.99
N3130 X24.15 Y1.995
N3135 X21.277 Y1.998
N3140 X14.573 Y2.
N3145 X5.953
N3150 X5.484 Y2.097
N3155 X4.607 Y2.48
N3160 X3.908 Y3.135
N3165 X3.377 Y3.932
N3170 X2.986 Y4.806
N3175 X2.701 Y5.72
N3180 X2.496 Y6.656
N3185 X2.35 Y7.602
N3190 X2.246 Y8.554
N3195 X2.172 Y9.509
N3200 X2.121 Y10.466
N3205 X2.084 Y11.423
N3210 X2.059 Y12.38
N3215 X2.041 Y13.338
N3220 X2.029 Y14.295
N3225 X2.02 Y15.253
N3230 X2.014 Y16.211
N3235 X2.01 Y17.168
N3240 X2.005 Y19.084
N3245 X2.002 Y21.957
N3250 X2. Y29.618
N3255 Y34.407
N3260 X2.231 Y35.336
N3265 X2.589 Y36.224
N3270 X2.611 Y36.274
N3275 X2.7 Y36.567
N3280 X2.719 Y36.872
N3285 X2.666 Y37.174
N3290 X2.545 Y37.455
N3295 X2.363 Y37.7
N3300 X2.144 Y37.981
N3305 X2.045 Y38.135
N3310 X1.926 Y38.33
N3315 X1.809 Y38.569
N3320 G3 X1.145 Y38.873 I-0.53 J-0.281
N3325 G1 X1.053 Y38.851 Z-21.993
N3330 X0.964 Y38.831 Z-21.971
N3335 X0.879 Y38.811 Z-21.935
N3340 X0.801 Y38.793 Z-21.885
N3345 X0.731 Y38.777 Z-21.824
N3350 X0.672 Y38.764 Z-21.753
N3355 X0.624 Y38.753 Z-21.672
N3360 X0.589 Y38.745 Z-21.585
N3365 X0.567 Y38.74 Z-21.494
N3370 X0.56 Y38.738 Z-21.4
N3375 G0 Z15.
N3380 X40.757 Y-1.453
N3385 Z-20.8
N3390 G1 Z-21.4 F1600.
N3395 X40.755 Y-1.446 Z-21.494
N3400 X40.749 Y-1.425 Z-21.585
N3405 X40.741 Y-1.39 Z-21.672
N3410 X40.728 Y-1.342 Z-21.753
N3415 X40.713 Y-1.283 Z-21.824
N3420 X40.696 Y-1.213 Z-21.885
N3425 X40.676 Y-1.136 Z-21.935
N3430 X40.654 Y-1.051 Z-21.971
N3435 X40.632 Y-0.962 Z-21.993
N3440 X40.609 Y-0.872 Z-22.
N3445 G3 X40.232 Y-0.182 I-1.534 J-0.39
N3450 G1 X37.838 Y2.212
N3455 X37.549 Y2.474
N3460 X37.243 Y2.707
N3465 X36.873 Y2.944
N3470 X36.393 Y3.197
N3475 X35.789 Y3.454
N3480 X34.985 Y3.72
N3485 X34.054 Y3.943
N3490 X33.11 Y4.103
N3495 X32.159 Y4.217
N3500 X31.204 Y4.298
N3505 X30.248 Y4.356
N3510 X29.292 Y4.397
N3515 X28.334 Y4.427
N3520 X27.377 Y4.448
N3525 X26.419 Y4.463
N3530 X25.462 Y4.474
N3535 X24.504 Y4.481
N3540 X23.546 Y4.487
N3545 X22.589 Y4.491
N3550 X20.673 Y4.495
N3555 X17.8 Y4.498
N3560 X10.139 Y4.5
N3565 X9.181
N3570 X8.702 Y4.511
N3575 X8.234 Y4.61
N3580 X7.349 Y4.976
N3585 X6.623 Y5.601
N3590 X6.061 Y6.377
N3595 X5.638 Y7.236
N3600 X5.324 Y8.14
N3605 X5.093 Y9.07
N3610 X4.926 Y10.013
N3615 X4.805 Y10.963
N3620 X4.717 Y11.917
N3625 X4.655 Y12.872
N3630 X4.61 Y13.829
N3635 X4.578 Y14.786
N3640 X4.555 Y15.744
N3645 X4.539 Y16.701
N3650 X4.528 Y17.659
N3655 X4.52 Y18.616
N3660 X4.514 Y19.574
N3665 X4.51 Y20.532
N3670 X4.505 Y22.447
N3675 X4.503 Y23.405
N3680 X4.501 Y27.236
N3685 X4.5 Y32.024
N3690 X4.597 Y32.977
N3695 X4.763 Y33.92
N3700 X4.843 Y34.431
N3705 X4.855 Y34.744
N3710 X4.794 Y35.051
N3715 X4.663 Y35.335
N3720 X4.469 Y35.581
N3725 X2.568 Y37.483
N3730 X2.363 Y37.7
N3735 G3 X1.638 Y37.791 I-0.422 J-0.427
N3740 G1 X1.557 Y37.744 Z-21.993
N3745 X1.478 Y37.698 Z-21.971
N3750 X1.403 Y37.654 Z-21.935
N3755 X1.333 Y37.613 Z-21.885
N3760 X1.272 Y37.577 Z-21.824
N3765 X1.219 Y37.546 Z-21.753
N3770 X1.176 Y37.521 Z-21.672
N3775 X1.145 Y37.503 Z-21.585
N3780 X1.126 Y37.492 Z-21.494
N3785 X1.12 Y37.488 Z-21.4
N3790 G0 Z15.
N3795 X38.362 Y0.941
N3800 Z-20.8
N3805 G1 Z-21.4 F1600.
N3810 X38.361 Y0.948 Z-21.494
N3815 X38.355 Y0.97 Z-21.585
N3820 X38.346 Y1.005 Z-21.672
N3825 X38.334 Y1.052 Z-21.753
N3830 X38.319 Y1.111 Z-21.824
N3835 X38.302 Y1.181 Z-21.885
N3840 X38.282 Y1.259 Z-21.935
N3845 X38.26 Y1.343 Z-21.971
N3850 X38.238 Y1.432 Z-21.993
N3855 X38.215 Y1.523 Z-22.
N3860 G3 X37.838 Y2.212 I-1.534 J-0.39
N3865 G1 X35.444 Y4.606
N3870 X35.073 Y4.942
N3875 X34.764 Y5.177
N3880 X34.389 Y5.418
N3885 X33.902 Y5.675
N3890 X33.29 Y5.935
N3895 X32.474 Y6.205
N3900 X31.543 Y6.428
N3905 X30.599 Y6.589
N3910 X29.648 Y6.704
N3915 X28.694 Y6.787
N3920 X27.738 Y6.847
N3925 X26.781 Y6.89
N3930 X25.824 Y6.921
N3935 X24.867 Y6.943
N3940 X23.909 Y6.959
N3945 X22.951 Y6.971
N3950 X21.994 Y6.979
N3955 X21.036 Y6.985
N3960 X20.078 Y6.989
N3965 X18.163 Y6.994
N3970 X15.29 Y6.998
N3975 X11.459 Y6.999
N3980 X10.986 Y7.077
N3985 X10.083 Y7.395
N3990 X9.326 Y7.982
N3995 X8.73 Y8.731
N4000 X8.274 Y9.573
N4005 X7.932 Y10.468
N4010 X7.678 Y11.392
N4015 X7.492 Y12.331
N4020 X7.356 Y13.279
N4025 X7.257 Y14.231
N4030 X7.185 Y15.186
N4035 X7.133 Y16.143
N4040 X7.095 Y17.1
N4045 X7.068 Y18.057
N4050 X7.049 Y19.014
N4055 X7.035 Y19.972
N4060 X7.025 Y20.93
N4065 X7.018 Y21.887
N4070 X7.013 Y22.845
N4075 X7.009 Y23.803
N4080 X7.005 Y25.718
N4085 X7.002 Y28.591
N4090 X7.001 Y29.549
N4095 X7.021 Y30.506
N4100 X7.087 Y31.462
N4105 X7.17 Y32.416
N4110 X7.157 Y32.625
N4115 X7.102 Y32.827
N4120 X7.006 Y33.014
N4125 X6.873 Y33.177
N4130 X4.469 Y35.581
N4135 G0 Z15.
N4140 X35.968 Y3.335
N4145 Z-20.8
N4150 G1 Z-21.4 F1600.
N4155 X35.966 Y3.342 Z-21.494
N4160 X35.961 Y3.364 Z-21.585
N4165 X35.952 Y3.399 Z-21.672
N4170 X35.94 Y3.446 Z-21.753
N4175 X35.925 Y3.506 Z-21.824
N4180 X35.907 Y3.575 Z-21.885
N4185 X35.888 Y3.653 Z-21.935
N4190 X35.866 Y3.737 Z-21.971
N4195 X35.844 Y3.826 Z-21.993
N4200 X35.82 Y3.917 Z-22.
N4205 G3 X35.444 Y4.606 I-1.534 J-0.39
N4210 G1 X32.832 Y7.218
N4215 X32.606 Y7.423
N4220 X32.296 Y7.66
N4225 X31.916 Y7.902
N4230 X31.425 Y8.162
N4235 X30.809 Y8.424
N4240 X29.986 Y8.695
N4245 X29.055 Y8.919
N4250 X28.111 Y9.08
N4255 X27.16 Y9.196
N4260 X26.206 Y9.28
N4265 X25.251 Y9.341
N4270 X24.294 Y9.385
N4275 X23.337 Y9.417
N4280 X22.379 Y9.44
N4285 X21.422 Y9.457
N4290 X20.464 Y9.469
N4295 X19.506 Y9.477
N4300 X18.549 Y9.484
N4305 X17.591 Y9.488
N4310 X15.676 Y9.494
N4315 X13.76 Y9.497
N4320 X12.837 Y9.751
N4325 X12.044 Y10.289
N4330 X11.408 Y11.004
N4335 X10.916 Y11.826
N4340 X10.544 Y12.708
N4345 X10.265 Y13.625
N4350 X10.059 Y14.56
N4355 X9.907 Y15.505
N4360 X9.796 Y16.457
N4365 X9.715 Y17.411
N4370 X9.655 Y18.367
N4375 X9.612 Y19.323
N4380 X9.581 Y20.281
N4385 X9.559 Y21.238
N4390 X9.542 Y22.196
N4395 X9.53 Y23.153
N4400 X9.522 Y24.111
N4405 X9.516 Y25.069
N4410 X9.511 Y26.026
N4415 X9.508 Y26.984
N4420 X9.509 Y27.942
N4425 X9.524 Y28.899
N4430 X9.56 Y29.895
N4435 X9.541 Y30.166
N4440 X9.467 Y30.428
N4445 X9.342 Y30.67
N4450 X9.17 Y30.88
N4455 X6.873 Y33.177
N4460 G0 Z15.
N4465 X33.356 Y5.947
N4470 Z-20.8
N4475 G1 Z-21.4 F1600.
N4480 X33.355 Y5.954 Z-21.494
N4485 X33.349 Y5.976 Z-21.585
N4490 X33.34 Y6.01 Z-21.672
N4495 X33.328 Y6.058 Z-21.753
N4500 X33.313 Y6.117 Z-21.824
N4505 X33.296 Y6.187 Z-21.885
N4510 X33.276 Y6.265 Z-21.935
N4515 X33.254 Y6.349 Z-21.971
N4520 X33.232 Y6.438 Z-21.993
N4525 X33.209 Y6.529 Z-22.
N4530 G3 X32.832 Y7.218 I-1.534 J-0.39
N4535 G1 X30.438 Y9.612
N4540 X30.101 Y9.917
N4545 X29.79 Y10.154
N4550 X29.411 Y10.397
N4555 X28.92 Y10.656
N4560 X28.302 Y10.919
N4565 X27.477 Y11.191
N4570 X26.546 Y11.415
N4575 X25.602 Y11.576
N4580 X24.651 Y11.693
N4585 X23.697 Y11.777
N4590 X22.742 Y11.838
N4595 X21.785 Y11.883
N4600 X20.828 Y11.915
N4605 X19.87 Y11.938
N4610 X18.913 Y11.955
N4615 X17.955 Y11.967
N4620 X16.997 Y11.976
N4625 X16.04 Y12.001
N4630 X15.146 Y12.343
N4635 X14.393 Y12.935
N4640 X13.795 Y13.683
N4645 X13.334 Y14.522
N4650 X12.985 Y15.414
N4655 X12.724 Y16.336
N4660 X12.53 Y17.274
N4665 X12.387 Y18.221
N4670 X12.282 Y19.172
N4675 X12.205 Y20.127
N4680 X12.149 Y21.083
N4685 X12.108 Y22.04
N4690 X12.079 Y22.997
N4695 X12.057 Y23.955
N4700 X12.041 Y24.912
N4705 X12.031 Y25.87
N4710 X12.028 Y26.828
N4715 X12.034 Y27.45
N4720 X12.011 Y27.714
N4725 X11.936 Y27.968
N4730 X11.812 Y28.201
N4735 X11.644 Y28.406
N4740 X9.17 Y30.88
N4745 G0 Z15.
N4750 X30.962 Y8.341
N4755 Z-20.8
N4760 G1 Z-21.4 F1600.
N4765 X30.961 Y8.348 Z-21.494
N4770 X30.955 Y8.37 Z-21.585
N4775 X30.946 Y8.405 Z-21.672
N4780 X30.934 Y8.452 Z-21.753
N4785 X30.919 Y8.512 Z-21.824
N4790 X30.901 Y8.581 Z-21.885
N4795 X30.882 Y8.659 Z-21.935
N4800 X30.86 Y8.743 Z-21.971
N4805 X30.838 Y8.832 Z-21.993
N4810 X30.814 Y8.923 Z-22.
N4815 G3 X30.438 Y9.612 I-1.534 J-0.39
N4820 G1 X27.977 Y12.073
N4825 X27.603 Y12.412
N4830 X27.291 Y12.649
N4835 X26.911 Y12.893
N4840 X26.419 Y13.152
N4845 X25.8 Y13.416
N4850 X24.974 Y13.689
N4855 X24.043 Y13.912
N4860 X23.098 Y14.074
N4865 X22.148 Y14.19
N4870 X21.194 Y14.275
N4875 X20.238 Y14.336
N4880 X19.282 Y14.381
N4885 X18.331 Y14.494
N4890 X17.469 Y14.911
N4895 X16.755 Y15.549
N4900 X16.191 Y16.324
N4905 X15.758 Y17.178
N4910 X15.43 Y18.078
N4915 X15.185 Y19.003
N4920 X15.002 Y19.944
N4925 X14.868 Y20.892
N4930 X14.769 Y21.844
N4935 X14.696 Y22.799
N4940 X14.643 Y23.756
N4945 X14.606 Y24.713
N4950 X14.6 Y24.934
N4955 X14.569 Y25.184
N4960 X14.492 Y25.424
N4965 X14.371 Y25.646
N4970 X14.21 Y25.84
N4975 X11.644 Y28.406
N4980 G0 Z15.
N4985 X28.502 Y10.802
N4990 Z-20.8
N4995 G1 Z-21.4 F1600.
N5000 X28.5 Y10.809 Z-21.494
N5005 X28.494 Y10.83 Z-21.585
N5010 X28.485 Y10.865 Z-21.672
N5015 X28.473 Y10.913 Z-21.753
N5020 X28.458 Y10.972 Z-21.824
N5025 X28.441 Y11.042 Z-21.885
N5030 X28.421 Y11.12 Z-21.935
N5035 X28.399 Y11.204 Z-21.971
N5040 X28.377 Y11.293 Z-21.993
N5045 X28.354 Y11.384 Z-22.
N5050 G3 X27.977 Y12.073 I-1.534 J-0.39
N5055 G1 X25.432 Y14.618
N5060 X25.112 Y14.908
N5065 X24.801 Y15.146
N5070 X24.419 Y15.389
N5075 X23.926 Y15.65
N5080 X23.306 Y15.913
N5085 X22.479 Y16.187
N5090 X21.548 Y16.41
N5095 X20.631 Y16.689
N5100 X19.822 Y17.201
N5105 X19.153 Y17.886
N5110 X18.624 Y18.685
N5115 X18.215 Y19.551
N5120 X17.904 Y20.456
N5125 X17.669 Y21.385
N5130 X17.518 Y22.201
N5135 X17.443 Y22.457
N5140 X17.319 Y22.694
N5145 X17.15 Y22.9
N5150 X14.21 Y25.84
N5155 G0 Z15.
N5160 X25.956 Y13.347
N5165 Z-20.8
N5170 G1 Z-21.4 F1600.
N5175 X25.955 Y13.354 Z-21.494
N5180 X25.949 Y13.376 Z-21.585
N5185 X25.94 Y13.411 Z-21.672
N5190 X25.928 Y13.458 Z-21.753
N5195 X25.913 Y13.518 Z-21.824
N5200 X25.895 Y13.587 Z-21.885
N5205 X25.876 Y13.665 Z-21.935
N5210 X25.854 Y13.749 Z-21.971
N5215 X25.832 Y13.838 Z-21.993
N5220 X25.809 Y13.929 Z-22.
N5225 G3 X25.432 Y14.618 I-1.534 J-0.39
N5230 G1 X17.15 Y22.9
N5235 G3 X16.741 Y23.062 I-0.409 J-0.439
N5240 X16.423 Y22.97 I0. J-0.6
N5245 G1 X16.343 Y22.921 Z-21.993
N5250 X16.265 Y22.872 Z-21.971
N5255 X16.192 Y22.826 Z-21.935
N5260 X16.124 Y22.784 Z-21.885
N5265 X16.063 Y22.746 Z-21.824
N5270 X16.011 Y22.713 Z-21.753
N5275 X15.969 Y22.687 Z-21.672
N5280 X15.939 Y22.668 Z-21.585
N5285 X15.92 Y22.656 Z-21.494
N5290 X15.914 Y22.652 Z-21.4
N5295 G0 Z45.
(2D ADAPTIVE2 2)
N5300 G0 X426.281 Y6.03
N5305 Z15.
N5310 Z5.
N5315 Z-9.4
N5320 G1 Z-10. F1600.
N5325 Z-12.
N5330 G3 X423.014 Y6.5 I-3.801 J-14.839
N5335 G1 X422.689
N5340 X422.651 Y6.498
N5345 X422.525 Y6.402
N5350 X422.382 Y6.271
N5355 X422.222 Y6.1
N5360 X422.047 Y5.877
N5365 X421.857 Y5.59
N5370 X421.655 Y5.219
N5375 X421.441 Y4.736
N5380 X421.217 Y4.091
N5385 X420.985 Y3.182
N5390 X420.905 Y2.71
N5395 X420.775 Y2.249
N5400 X420.27 Y1.436
N5405 X419.517 Y0.844
N5410 X418.656 Y0.425
N5415 X417.744 Y0.133
N5420 X416.807 Y-0.068
N5425 X415.86 Y-0.206
N5430 X414.907 Y-0.301
N5435 X413.951 Y-0.365
N5440 X412.994 Y-0.408
N5445 X412.037 Y-0.438
N5450 X411.08 Y-0.458
N5455 X410.122 Y-0.472
N5460 X409.164 Y-0.481
N5465 X408.207 Y-0.487
N5470 X407.249 Y-0.491
N5475 X405.334 Y-0.496
N5480 X402.46 Y-0.499
N5485 X392.883 Y-0.5
N5490 X375.645
N5495 X324.887
N5500 X274.129
N5505 X223.371
N5510 X172.613
N5515 X121.855
N5520 X71.097
N5525 X20.339
N5530 X2.622
N5535 X2.171 Y-0.34
N5540 X1.377 Y0.196
N5545 X0.802 Y0.962
N5550 X0.396 Y1.829
N5555 X0.113 Y2.744
N5560 X-0.082 Y3.682
N5565 X-0.216 Y4.63
N5570 X-0.279 Y5.294
N5575 X-0.335 Y5.569
N5580 X-0.448 Y5.826
N5585 X-0.611 Y6.054
N5590 X-0.819 Y6.242
N5595 X-1.061 Y6.383
N5600 X-1.328 Y6.47
N5605 X-1.607 Y6.5
N5610 G3 X-2.17 Y6.035 I0.021 J-0.6
N5615 G1 X-2.191 Y5.944 Z-11.993
N5620 X-2.212 Y5.855 Z-11.971
N5625 X-2.232 Y5.77 Z-11.935
N5630 X-2.25 Y5.692 Z-11.885
N5635 X-2.266 Y5.622 Z-11.824
N5640 X-2.28 Y5.562 Z-11.753
N5645 X-2.291 Y5.514 Z-11.672
N5650 X-2.299 Y5.479 Z-11.585
N5655 X-2.304 Y5.458 Z-11.494
N5660 X-2.305 Y5.451 Z-11.4
N5665 G0 Z5.
N5670 X423.958 Y5.972
N5675 Z-10.8
N5680 G1 Z-11.4 F1600.
N5685 X423.952 Y5.976 Z-11.494
N5690 X423.933 Y5.987 Z-11.585
N5695 X423.902 Y6.005 Z-11.672
N5700 X423.86 Y6.031 Z-11.753
N5705 X423.807 Y6.062 Z-11.824
N5710 X423.746 Y6.098 Z-11.885
N5715 X423.677 Y6.139 Z-11.935
N5720 X423.602 Y6.184 Z-11.971
N5725 X423.523 Y6.231 Z-11.993
N5730 X423.442 Y6.279 Z-12.
N5735 G3 X422.689 Y6.5 I-0.809 J-1.36
N5740 G1 X421.818
N5745 X421.668 Y6.492
N5750 X421.496 Y6.432
N5755 X421.312 Y6.349
N5760 X421.099 Y6.232
N5765 X420.889 Y6.092
N5770 X420.658 Y5.908
N5775 X420.401 Y5.666
N5780 X419.76 Y4.954
N5785 X419.099 Y4.261
N5790 X418.326 Y3.695
N5795 X417.477 Y3.252
N5800 X416.581 Y2.916
N5805 X415.657 Y2.664
N5810 X414.717 Y2.479
N5815 X413.769 Y2.344
N5820 X412.816 Y2.246
N5825 X411.861 Y2.175
N5830 X410.905 Y2.124
N5835 X409.948 Y2.088
N5840 X408.99 Y2.062
N5845 X408.033 Y2.044
N5850 X407.075 Y2.031
N5855 X406.118 Y2.022
N5860 X405.16 Y2.015
N5865 X404.202 Y2.011
N5870 X402.287 Y2.005
N5875 X399.414 Y2.002
N5880 X392.71 Y2.
N5885 X372.598
N5890 X321.84
N5895 X271.082
N5900 X220.325
N5905 X169.567
N5910 X118.809
N5915 X68.051
N5920 X17.293
N5925 X5.801
N5930 X5.339 Y2.129
N5935 X4.487 Y2.565
N5940 X3.813 Y3.245
N5945 X3.296 Y4.052
N5950 X2.849 Y4.899
N5955 X2.402 Y5.72
N5960 X2.284 Y5.899
N5965 X2.118 Y6.104
N5970 X1.916 Y6.272
N5975 X1.684 Y6.397
N5980 X1.432 Y6.474
N5985 X1.17 Y6.5
N5990 X0.065
N5995 G3 X-0.499 Y6.035 I0.021 J-0.6
N6000 G1 X-0.52 Y5.944 Z-11.993
N6005 X-0.54 Y5.855 Z-11.971
N6010 X-0.56 Y5.77 Z-11.935
N6015 X-0.578 Y5.692 Z-11.885
N6020 X-0.594 Y5.622 Z-11.824
N6025 X-0.608 Y5.562 Z-11.753
N6030 X-0.619 Y5.514 Z-11.672
N6035 X-0.627 Y5.479 Z-11.585
N6040 X-0.632 Y5.458 Z-11.494
N6045 X-0.634 Y5.451 Z-11.4
N6050 G0 Z5.
N6055 X423.088 Y5.972
N6060 Z-10.8
N6065 G1 Z-11.4 F1600.
N6070 X423.081 Y5.976 Z-11.494
N6075 X423.062 Y5.987 Z-11.585
N6080 X423.031 Y6.005 Z-11.672
N6085 X422.989 Y6.031 Z-11.753
N6090 X422.936 Y6.062 Z-11.824
N6095 X422.875 Y6.098 Z-11.885
N6100 X422.806 Y6.139 Z-11.935
N6105 X422.731 Y6.184 Z-11.971
N6110 X422.652 Y6.231 Z-11.993
N6115 X422.572 Y6.279 Z-12.
N6120 G3 X421.818 Y6.5 I-0.809 J-1.36
N6125 G1 X420.468
N6130 X420.17 Y6.485
N6135 X419.782 Y6.433
N6140 X418.847 Y6.227
N6145 X417.93 Y5.951
N6150 X417.012 Y5.677
N6155 X416.086 Y5.434
N6160 X415.15 Y5.229
N6165 X414.207 Y5.062
N6170 X413.259 Y4.928
N6175 X412.307 Y4.824
N6180 X411.353 Y4.743
N6185 X410.397 Y4.681
N6190 X409.441 Y4.634
N6195 X408.484 Y4.599
N6200 X407.526 Y4.573
N6205 X406.569 Y4.553
N6210 X405.611 Y4.539
N6215 X404.653 Y4.528
N6220 X403.696 Y4.52
N6225 X402.738 Y4.515
N6230 X401.78 Y4.511
N6235 X399.865 Y4.506
N6240 X396.992 Y4.502
N6245 X391.246 Y4.5
N6250 X370.176
N6255 X319.419
N6260 X268.661
N6265 X217.903
N6270 X167.145
N6275 X116.387
N6280 X65.629
N6285 X14.871
N6290 X9.125
N6295 X8.168 Y4.536
N6300 X7.279 Y4.892
N6305 X6.491 Y5.436
N6310 X5.777 Y6.075
N6315 X5.711 Y6.137
N6320 X5.513 Y6.291
N6325 X5.289 Y6.406
N6330 X5.047 Y6.476
N6335 X4.797 Y6.5
N6340 X1.17
N6345 G3 X0.606 Y6.035 I0.021 J-0.6
N6350 G1 X0.585 Y5.944 Z-11.993
N6355 X0.564 Y5.855 Z-11.971
N6360 X0.545 Y5.77 Z-11.935
N6365 X0.527 Y5.692 Z-11.885
N6370 X0.511 Y5.622 Z-11.824
N6375 X0.497 Y5.562 Z-11.753
N6380 X0.486 Y5.514 Z-11.672
N6385 X0.478 Y5.479 Z-11.585
N6390 X0.473 Y5.458 Z-11.494
N6395 X0.471 Y5.451 Z-11.4
N6400 G0 Z5.
N6405 X421.738 Y5.972
N6410 Z-10.8
N6415 G1 Z-11.4 F1600.
N6420 X421.731 Y5.976 Z-11.494
N6425 X421.712 Y5.987 Z-11.585
N6430 X421.681 Y6.005 Z-11.672
N6435 X421.639 Y6.031 Z-11.753
N6440 X421.587 Y6.062 Z-11.824
N6445 X421.525 Y6.098 Z-11.885
N6450 X421.456 Y6.139 Z-11.935
N6455 X421.381 Y6.184 Z-11.971
N6460 X421.303 Y6.231 Z-11.993
N6465 X421.222 Y6.279 Z-12.
N6470 G3 X420.468 Y6.5 I-0.809 J-1.36
N6475 G1 X4.797
N6480 G3 X4.233 Y6.035 I0.021 J-0.6
N6485 G1 X4.212 Y5.944 Z-11.993
N6490 X4.191 Y5.855 Z-11.971
N6495 X4.172 Y5.77 Z-11.935
N6500 X4.154 Y5.692 Z-11.885
N6505 X4.137 Y5.622 Z-11.824
N6510 X4.124 Y5.562 Z-11.753
N6515 X4.113 Y5.514 Z-11.672
N6520 X4.105 Y5.479 Z-11.585
N6525 X4.1 Y5.458 Z-11.494
N6530 X4.098 Y5.451 Z-11.4
N6535 G0 Z15.
(2D ADAPTIVE1)
N6540 G0 Z45.
N6545 X64.163 Y-6.203
N6550 Z15.
N6555 Z-5.4
N6560 G1 Z-6. F1000.
N6565 Z-8.
N6570 G3 X63.347 Y-3.005 I-15.164 J-2.167
N6575 G1 X63.217 Y-2.69
N6580 X63.153 Y-2.555
N6585 X63.027 Y-2.42
N6590 X62.861 Y-2.27
N6595 X62.648 Y-2.106
N6600 X62.374 Y-1.927
N6605 X62.022 Y-1.737
N6610 X61.565 Y-1.535
N6615 X60.957 Y-1.323
N6620 X60.113 Y-1.103
N6625 X59.17 Y-0.936
N6630 X58.219 Y-0.825
N6635 X57.264 Y-0.751
N6640 X56.308 Y-0.702
N6645 X55.35 Y-0.668
N6650 X54.393 Y-0.646
N6655 X53.435 Y-0.631
N6660 X52.478 Y-0.621
N6665 X51.52 Y-0.614
N6670 X50.562 Y-0.61
N6675 X49.605 Y-0.606
N6680 X47.689 Y-0.603
N6685 X43.859 Y-0.601
N6690 X33.465 Y-0.6
N6695 X33.192 Y-0.627
N6700 X32.929 Y-0.707
N6705 X32.687 Y-0.836
N6710 X32.475 Y-1.01
N6715 X31.447 Y-2.039
N6720 G0 Z15.
N6725 X63.215 Y-4.065
N6730 Z-6.8
N6735 G1 Z-7.4 F1000.
N6740 X63.216 Y-4.058 Z-7.494
N6745 X63.219 Y-4.036 Z-7.585
N6750 X63.224 Y-4. Z-7.672
N6755 X63.231 Y-3.952 Z-7.753
N6760 X63.24 Y-3.891 Z-7.824
N6765 X63.25 Y-3.82 Z-7.885
N6770 X63.262 Y-3.741 Z-7.935
N6775 X63.274 Y-3.655 Z-7.971
N6780 X63.287 Y-3.564 Z-7.993
N6785 X63.301 Y-3.471 Z-8.
N6790 G3 X63.217 Y-2.69 I-1.566 J0.227
N6795 G1 X62.677 Y-1.387
N6800 X62.613 Y-1.252
N6805 X62.515 Y-1.082
N6810 X62.38 Y-0.886
N6815 X62.211 Y-0.68
N6820 X62.012 Y-0.473
N6825 X61.751 Y-0.241
N6830 X61.442 Y-0.009
N6835 X61.058 Y0.235
N6840 X60.584 Y0.484
N6845 X59.98 Y0.743
N6850 X59.209 Y1.002
N6855 X58.279 Y1.232
N6860 X57.336 Y1.397
N6865 X56.385 Y1.514
N6870 X55.431 Y1.598
N6875 X54.475 Y1.657
N6880 X53.518 Y1.699
N6885 X52.561 Y1.729
N6890 X51.604 Y1.75
N6895 X50.646 Y1.765
N6900 X49.689 Y1.775
N6905 X48.731 Y1.783
N6910 X47.773 Y1.788
N6915 X46.816 Y1.792
N6920 X44.9 Y1.796
N6925 X42.027 Y1.799
N6930 X36.281 Y1.8
N6935 X35.863
N6940 X35.591 Y1.772
N6945 X35.328 Y1.693
N6950 X35.087 Y1.563
N6955 X34.875 Y1.389
N6960 X32.475 Y-1.01
N6965 G0 Z15.
N6970 X62.675 Y-2.762
N6975 Z-6.8
N6980 G1 Z-7.4 F1000.
N6985 X62.676 Y-2.754 Z-7.494
N6990 X62.679 Y-2.733 Z-7.585
N6995 X62.684 Y-2.697 Z-7.672
N7000 X62.691 Y-2.648 Z-7.753
N7005 X62.7 Y-2.588 Z-7.824
N7010 X62.71 Y-2.517 Z-7.885
N7015 X62.722 Y-2.438 Z-7.935
N7020 X62.734 Y-2.351 Z-7.971
N7025 X62.747 Y-2.261 Z-7.993
N7030 X62.761 Y-2.168 Z-8.
N7035 G3 X62.677 Y-1.387 I-1.566 J0.227
N7040 G1 X61.867 Y0.568
N7045 X61.767 Y0.78
N7050 X61.652 Y0.979
N7055 X61.494 Y1.208
N7060 X61.313 Y1.43
N7065 X61.079 Y1.674
N7070 X60.781 Y1.939
N7075 X60.441 Y2.195
N7080 X60. Y2.475
N7085 X59.48 Y2.75
N7090 X58.817 Y3.034
N7095 X57.963 Y3.321
N7100 X57.034 Y3.553
N7105 X56.092 Y3.724
N7110 X55.142 Y3.851
N7115 X54.189 Y3.945
N7120 X53.234 Y4.014
N7125 X52.278 Y4.065
N7130 X51.321 Y4.102
N7135 X50.363 Y4.129
N7140 X49.406 Y4.149
N7145 X48.448 Y4.163
N7150 X47.491 Y4.173
N7155 X46.533 Y4.181
N7160 X45.575 Y4.186
N7165 X44.618 Y4.19
N7170 X42.702 Y4.195
N7175 X39.829 Y4.198
N7180 X38.264 Y4.199
N7185 X37.991 Y4.172
N7190 X37.728 Y4.092
N7195 X37.486 Y3.963
N7200 X37.274 Y3.789
N7205 X34.875 Y1.389
N7210 G3 X34.904 Y0.542 Z-7.8 I0.439 J-0.409
N7215 X35.299 Y0.38 I0.41 J0.438
N7220 G1 X61.291 Y-0.242
N7225 X61.367 Y-0.239
N7230 X61.443 Y-0.226
N7235 X61.516 Y-0.204
N7240 G3 X61.867 Y0.568 Z-8. I-0.211 J0.562
N7245 G1 X60.967 Y2.74
N7250 X60.852 Y2.984
N7255 X60.734 Y3.188
N7260 X60.576 Y3.418
N7265 X60.367 Y3.674
N7270 X60.131 Y3.92
N7275 X59.82 Y4.196
N7280 X59.454 Y4.473
N7285 X58.992 Y4.766
N7290 X58.44 Y5.057
N7295 X57.734 Y5.36
N7300 X56.829 Y5.665
N7305 X55.899 Y5.896
N7310 X54.958 Y6.072
N7315 X54.009 Y6.204
N7320 X53.057 Y6.304
N7325 X52.102 Y6.379
N7330 X51.146 Y6.436
N7335 X50.189 Y6.478
N7340 X49.232 Y6.51
N7345 X48.275 Y6.534
N7350 X47.317 Y6.551
N7355 X46.36 Y6.564
N7360 X45.402 Y6.574
N7365 X44.444 Y6.581
N7370 X43.487 Y6.586
N7375 X42.529 Y6.59
N7380 X40.663 Y6.594
N7385 X40.389 Y6.568
N7390 X40.125 Y6.488
N7395 X39.882 Y6.359
N7400 X39.67 Y6.184
N7405 X37.274 Y3.789
N7410 G3 X37.303 Y2.941 Z-7.8 I0.439 J-0.409
N7415 X37.69 Y2.78 I0.41 J0.438
N7420 G1 X60.383 Y1.931
N7425 X60.462 Y1.933
N7430 X60.54 Y1.945
N7435 X60.616 Y1.968
N7440 G3 X60.967 Y2.74 Z-8. I-0.211 J0.562
N7445 G1 X60.018 Y5.032
N7450 X59.915 Y5.249
N7455 X59.789 Y5.468
N7460 X59.631 Y5.698
N7465 X59.417 Y5.96
N7470 X59.167 Y6.221
N7475 X58.856 Y6.497
N7480 X58.468 Y6.79
N7485 X58. Y7.087
N7490 X57.423 Y7.391
N7495 X56.69 Y7.705
N7500 X55.782 Y8.011
N7505 X54.854 Y8.245
N7510 X53.913 Y8.425
N7515 X52.965 Y8.563
N7520 X52.014 Y8.668
N7525 X51.059 Y8.749
N7530 X50.104 Y8.81
N7535 X49.147 Y8.857
N7540 X48.19 Y8.892
N7545 X47.233 Y8.919
N7550 X46.275 Y8.94
N7555 X45.318 Y8.955
N7560 X44.36 Y8.966
N7565 X43.402 Y8.975
N7570 X43.048 Y8.977
N7575 X42.773 Y8.951
N7580 X42.509 Y8.871
N7585 X42.265 Y8.742
N7590 X42.052 Y8.567
N7595 X39.67 Y6.184
N7600 G3 X39.699 Y5.337 Z-7.8 I0.439 J-0.409
N7605 X40.079 Y5.176 I0.41 J0.438
N7610 G1 X59.427 Y4.223
N7615 X59.508 Y4.224
N7620 X59.589 Y4.237
N7625 X59.667 Y4.26
N7630 G3 X60.018 Y5.032 Z-8. I-0.211 J0.562
N7635 G1 X59.101 Y7.246
N7640 X58.952 Y7.56
N7645 X58.821 Y7.788
N7650 X58.663 Y8.018
N7655 X58.449 Y8.28
N7660 X58.189 Y8.551
N7665 X57.876 Y8.829
N7670 X57.479 Y9.129
N7675 X57.004 Y9.43
N7680 X56.413 Y9.742
N7685 X55.663 Y10.063
N7690 X54.755 Y10.369
N7695 X53.827 Y10.605
N7700 X52.887 Y10.788
N7705 X51.94 Y10.929
N7710 X50.988 Y11.039
N7715 X50.034 Y11.123
N7720 X49.079 Y11.188
N7725 X48.122 Y11.239
N7730 X47.165 Y11.277
N7735 X46.208 Y11.307
N7740 X45.424 Y11.325
N7745 X45.142 Y11.303
N7750 X44.87 Y11.225
N7755 X44.62 Y11.094
N7760 X44.401 Y10.915
N7765 X42.052 Y8.567
N7770 G3 X42.081 Y7.719 Z-7.8 I0.439 J-0.409
N7775 X42.449 Y7.559 I0.41 J0.438
N7780 G1 X58.497 Y6.437
N7785 G3 X58.75 Y6.474 I0.042 J0.599
N7790 X59.101 Y7.246 Z-8. I-0.211 J0.562
N7795 G1 X58.088 Y9.692
N7800 X58.005 Y9.871
N7805 X57.871 Y10.105
N7810 X57.715 Y10.334
N7815 X57.506 Y10.594
N7820 X57.242 Y10.874
N7825 X56.934 Y11.151
N7830 X56.533 Y11.457
N7835 X56.064 Y11.759
N7840 X55.469 Y12.077
N7845 X54.719 Y12.404
N7850 X53.813 Y12.716
N7855 X52.886 Y12.958
N7860 X51.947 Y13.146
N7865 X51.001 Y13.293
N7870 X50.05 Y13.407
N7875 X49.096 Y13.496
N7880 X48.141 Y13.566
N7885 X47.728 Y13.587
N7890 X47.436 Y13.572
N7895 X47.153 Y13.496
N7900 X46.892 Y13.364
N7905 X46.665 Y13.179
N7910 X44.401 Y10.915
N7915 G3 X44.43 Y10.068 Z-7.8 I0.439 J-0.409
N7920 X44.791 Y9.908 I0.41 J0.438
N7925 G1 X57.477 Y8.887
N7930 G3 X57.732 Y8.922 I0.048 J0.598
N7935 X58.088 Y9.692 Z-8. I-0.207 J0.563
N7940 G1 X58. Y9.909
N7945 X57.913 Y10.126
N7950 X57.835 Y10.343
N7955 X57.769 Y10.56
N7960 X57.725 Y10.778
N7965 X57.692 Y10.995
N7970 X57.671 Y11.212
N7975 X57.656 Y11.361
N7980 X57.616 Y11.531
N7985 X57.551 Y11.729
N7990 X57.461 Y11.946
N7995 X57.345 Y12.171
N8000 X57.184 Y12.431
N8005 X56.992 Y12.691
N8010 X56.748 Y12.972
N8015 X56.434 Y13.28
N8020 X56.074 Y13.579
N8025 X55.611 Y13.906
N8030 X55.057 Y14.233
N8035 X54.37 Y14.567
N8040 X53.493 Y14.91
N8045 X52.576 Y15.186
N8050 X51.644 Y15.404
N8055 X50.702 Y15.576
N8060 X49.958 Y15.682
N8065 X49.634 Y15.69
N8070 X49.318 Y15.624
N8075 X49.024 Y15.486
N8080 X48.771 Y15.285
N8085 X46.665 Y13.179
N8090 G3 X46.694 Y12.332 Z-7.8 I0.439 J-0.409
N8095 X47.011 Y12.177 I0.41 J0.438
N8100 G1 X56.979 Y10.627
N8105 X57.064 Y10.619
N8110 G3 X57.671 Y11.212 Z-8. I0.007 J0.6
N8115 G1 X57.666 Y11.429
N8120 X57.675 Y11.647
N8125 X57.695 Y11.864
N8130 X57.729 Y12.081
N8135 X57.781 Y12.298
N8140 X57.81 Y12.445
N8145 X57.821 Y12.6
N8150 X57.82 Y12.763
N8155 X57.803 Y12.957
N8160 X57.77 Y13.155
N8165 X57.711 Y13.386
N8170 X57.63 Y13.625
N8175 X57.516 Y13.889
N8180 X57.367 Y14.17
N8185 X57.178 Y14.465
N8190 X56.935 Y14.786
N8195 X56.647 Y15.107
N8200 X56.271 Y15.465
N8205 X55.849 Y15.807
N8210 X55.314 Y16.173
N8215 X54.66 Y16.547
N8220 X53.88 Y16.914
N8225 X52.983 Y17.251
N8230 X52.167 Y17.492
N8235 X51.924 Y17.542
N8240 X51.649 Y17.572
N8245 X51.373 Y17.547
N8250 X51.107 Y17.468
N8255 X50.862 Y17.338
N8260 X50.647 Y17.162
N8265 X48.771 Y15.285
N8270 G3 X48.8 Y14.438 Z-7.8 I0.439 J-0.409
N8275 X49.036 Y14.302 I0.41 J0.438
N8280 G1 X57.031 Y11.89
N8285 X57.039 Y11.887
N8290 G3 X57.781 Y12.298 Z-8. I0.165 J0.577
N8295 G1 X57.795 Y12.358
N8300 X57.845 Y12.516
N8305 X57.922 Y12.733
N8310 X58.02 Y12.95
N8315 X58.142 Y13.167
N8320 X58.211 Y13.302
N8325 X58.269 Y13.441
N8330 X58.313 Y13.584
N8335 X58.349 Y13.744
N8340 X58.373 Y13.922
N8345 X58.384 Y14.12
N8350 X58.379 Y14.338
N8355 X58.354 Y14.577
N8360 X58.305 Y14.839
N8365 X58.229 Y15.12
N8370 X58.121 Y15.419
N8375 X57.975 Y15.742
N8380 X57.788 Y16.078
N8385 X57.547 Y16.441
N8390 X57.258 Y16.809
N8395 X56.884 Y17.212
N8400 X56.465 Y17.597
N8405 X55.925 Y18.019
N8410 X55.305 Y18.427
N8415 X54.672 Y18.775
N8420 X54.125 Y19.021
N8425 X53.669 Y19.183
N8430 X53.66 Y19.185
N8435 X53.371 Y19.231
N8440 X53.079 Y19.216
N8445 X52.796 Y19.14
N8450 X52.535 Y19.007
N8455 X52.308 Y18.823
N8460 X50.647 Y17.162
N8465 G3 X50.677 Y16.314 Z-7.8 I0.439 J-0.409
N8470 G1 X50.744 Y16.26
N8475 X50.818 Y16.216
N8480 X57.314 Y12.974
N8485 X57.366 Y12.949 Z-7.812
N8490 G3 X58.142 Y13.167 Z-8. I0.268 J0.537
N8495 G1 X58.231 Y13.32
N8500 X58.273 Y13.384
N8505 X58.432 Y13.602
N8510 X58.666 Y13.866
N8515 X58.759 Y13.96
N8520 X58.859 Y14.071
N8525 X58.947 Y14.193
N8530 X59.022 Y14.323
N8535 X59.092 Y14.469
N8540 X59.153 Y14.63
N8545 X59.208 Y14.82
N8550 X59.25 Y15.021
N8555 X59.278 Y15.257
N8560 X59.289 Y15.502
N8565 X59.278 Y15.785
N8570 X59.243 Y16.075
N8575 X59.176 Y16.406
N8580 X59.079 Y16.744
N8585 X58.94 Y17.111
N8590 X58.756 Y17.503
N8595 X58.525 Y17.905
N8600 X58.222 Y18.347
N8605 X57.876 Y18.774
N8610 X57.454 Y19.215
N8615 X56.975 Y19.643
N8620 X56.468 Y20.027
N8625 X56.034 Y20.304
N8630 X55.644 Y20.51
N8635 X55.365 Y20.631
N8640 X55.1 Y20.715
N8645 X54.824 Y20.745
N8650 X54.547 Y20.72
N8655 X54.281 Y20.641
N8660 X54.035 Y20.511
N8665 X53.821 Y20.335
N8670 X52.308 Y18.823
N8675 G3 X52.337 Y17.975 Z-7.8 I0.439 J-0.409
N8680 G1 X52.397 Y17.926
N8685 X57.904 Y13.979
N8690 X58. Y13.91 Z-7.825
N8695 G3 X58.759 Y13.96 Z-8. I0.35 J0.488
N8700 G1 X59.704 Y14.905
N8705 X59.845 Y15.06
N8710 X59.936 Y15.179
N8715 X60.027 Y15.321
N8720 X60.111 Y15.477
N8725 X60.192 Y15.663
N8730 X60.261 Y15.863
N8735 X60.322 Y16.1
N8740 X60.365 Y16.348
N8745 X60.391 Y16.636
N8750 X60.394 Y16.937
N8755 X60.37 Y17.276
N8760 X60.316 Y17.638
N8765 X60.226 Y18.018
N8770 X60.09 Y18.441
N8775 X59.916 Y18.863
N8780 X59.684 Y19.317
N8785 X59.391 Y19.794
N8790 X59.052 Y20.256
N8795 X58.67 Y20.698
N8800 X58.26 Y21.102
N8805 X57.856 Y21.441
N8810 X57.497 Y21.695
N8815 X57.135 Y21.911
N8820 X56.806 Y22.072
N8825 X56.765 Y22.088
N8830 X56.452 Y22.172
N8835 X56.127 Y22.181
N8840 X55.81 Y22.115
N8845 X55.516 Y21.977
N8850 X55.261 Y21.776
N8855 X53.821 Y20.335
N8860 G3 X53.85 Y19.488 Z-7.8 I0.439 J-0.409
N8865 G1 X53.856 Y19.482
N8870 X58.855 Y14.933
N8875 X58.891 Y14.9 Z-7.81
N8880 G3 X59.704 Y14.905 Z-8. I0.404 J0.444
N8885 G1 X60.842 Y16.043
N8890 X60.999 Y16.217
N8895 X61.097 Y16.344
N8900 X61.199 Y16.501
N8905 X61.291 Y16.672
N8910 X61.382 Y16.88
N8915 X61.459 Y17.101
N8920 X61.527 Y17.363
N8925 X61.575 Y17.638
N8930 X61.604 Y17.956
N8935 X61.608 Y18.293
N8940 X61.583 Y18.665
N8945 X61.522 Y19.074
N8950 X61.425 Y19.489
N8955 X61.28 Y19.944
N8960 X61.085 Y20.419
N8965 X60.847 Y20.888
N8970 X60.558 Y21.36
N8975 X60.226 Y21.814
N8980 X59.858 Y22.242
N8985 X59.482 Y22.613
N8990 X59.129 Y22.91
N8995 X58.798 Y23.146
N9000 X58.47 Y23.342
N9005 X58.269 Y23.441
N9010 X57.964 Y23.55
N9015 X57.642 Y23.585
N9020 X57.321 Y23.546
N9025 X57.017 Y23.434
N9030 X56.747 Y23.256
N9035 X56.708 Y23.222
N9040 X55.261 Y21.776
N9045 G3 X55.269 Y20.949 Z-7.806 I0.439 J-0.409
N9050 G1 X55.29 Y20.928 Z-7.8
N9055 X59.994 Y16.072
N9060 X60.002 Y16.064 Z-7.802
N9065 G3 X60.842 Y16.043 Z-8. I0.431 J0.417
N9070 G1 X62.094 Y17.295
N9075 X62.237 Y17.453
N9080 X62.346 Y17.596
N9085 X62.45 Y17.756
N9090 X62.553 Y17.947
N9095 X62.646 Y18.158
N9100 X62.731 Y18.404
N9105 X62.801 Y18.674
N9110 X62.854 Y18.978
N9115 X62.885 Y19.315
N9120 X62.89 Y19.672
N9125 X62.862 Y20.076
N9130 X62.801 Y20.489
N9135 X62.697 Y20.934
N9140 X62.544 Y21.411
N9145 X62.347 Y21.893
N9150 X62.104 Y22.37
N9155 X61.816 Y22.84
N9160 X61.49 Y23.287
N9165 X61.137 Y23.698
N9170 X60.791 Y24.04
N9175 X60.564 Y24.231
N9180 X60.363 Y24.371
N9185 X60.142 Y24.475
N9190 X59.906 Y24.538
N9195 X59.662 Y24.559
N9200 G3 X59.084 Y23.939 Z-7.8 I0.021 J-0.6
N9205 G1 X59.092 Y23.857
N9210 X59.112 Y23.776
N9215 X61.113 Y17.55
N9220 G3 X61.246 Y17.324 I0.571 J0.184
N9225 X62.094 Y17.295 Z-8. I0.438 J0.41
N9230 G1 X62.365 Y17.566
N9235 X62.506 Y17.729
N9240 X63.03 Y18.381
N9245 X63.112 Y18.489
N9250 X63.169 Y18.598
N9255 X63.482 Y19.25
N9260 X63.518 Y19.358
N9265 X63.67 Y20.025
N9270 X63.691 Y20.119
N9275 X63.702 Y20.227
N9280 Y20.987
N9285 X63.692 Y21.088
N9290 X63.667 Y21.205
N9295 X63.518 Y21.856
N9300 X63.491 Y21.941
N9305 X63.453 Y22.025
N9310 X63.22 Y22.508
N9315 X63.11 Y22.725
N9320 X63.018 Y22.847
N9325 X62.595 Y23.377
N9330 X62.582 Y23.391
N9335 X62.365 Y23.576
N9340 X61.93 Y23.923
N9345 X61.841 Y23.984
N9350 X61.753 Y24.029
N9355 X61.277 Y24.258
N9360 X61.059 Y24.358
N9365 X60.842 Y24.412
N9370 X60.407 Y24.511
N9375 X60.189 Y24.556
N9380 X59.971 Y24.559
N9385 X59.536
N9390 X59.319 Y24.557
N9395 X59.101 Y24.513
N9400 X58.666 Y24.414
N9405 X58.448 Y24.361
N9410 X58.231 Y24.263
N9415 X57.744 Y24.029
N9420 X57.661 Y23.987
N9425 X57.578 Y23.931
N9430 X57.143 Y23.584
N9435 X56.891 Y23.377
N9440 X56.747 Y23.256
N9445 X56.683 Y23.188
N9450 X56.631 Y23.112
N9455 X56.606 Y23.043 Z-7.995
N9460 X56.581 Y22.974 Z-7.982
N9465 X56.558 Y22.908 Z-7.959
N9470 X56.554 Y22.858 Z-7.937
N9475 X56.55 Y22.811 Z-7.91
N9480 X56.562 Y22.746 Z-7.863
N9485 X56.572 Y22.688 Z-7.807
N9490 X56.581 Y22.638 Z-7.743
N9495 X56.589 Y22.597 Z-7.674
N9500 X56.604 Y22.564 Z-7.586
N9505 X56.613 Y22.544 Z-7.494
N9510 X56.616 Y22.537 Z-7.4
N9515 G0 Z15.
N9520 X391.802 Y-6.163
N9525 Z-6.8
N9530 G1 Z-7.4 F1000.
N9535 X391.798 Y-6.156 Z-7.494
N9540 X391.787 Y-6.137 Z-7.585
N9545 X391.769 Y-6.106 Z-7.672
N9550 X391.744 Y-6.064 Z-7.753
N9555 X391.712 Y-6.011 Z-7.824
N9560 X391.676 Y-5.95 Z-7.885
N9565 X391.635 Y-5.881 Z-7.935
N9570 X391.591 Y-5.806 Z-7.971
N9575 X391.544 Y-5.727 Z-7.993
N9580 X391.496 Y-5.646 Z-8.
N9585 G3 X389.519 Y-3.004 I-13.18 J-7.805
N9590 G1 X388.987 Y-2.473
N9595 X388.759 Y-2.266
N9600 X388.544 Y-2.101
N9605 X388.268 Y-1.923
N9610 X387.914 Y-1.732
N9615 X387.454 Y-1.53
N9620 X386.842 Y-1.318
N9625 X385.99 Y-1.097
N9630 X385.047 Y-0.932
N9635 X384.095 Y-0.823
N9640 X383.14 Y-0.75
N9645 X382.184 Y-0.701
N9650 X381.227 Y-0.668
N9655 X380.269 Y-0.646
N9660 X379.312 Y-0.631
N9665 X378.354 Y-0.621
N9670 X377.396 Y-0.614
N9675 X376.439 Y-0.609
N9680 X374.523 Y-0.604
N9685 X371.65 Y-0.601
N9690 X363.031 Y-0.6
N9695 X358.584
N9700 X358.311 Y-0.627
N9705 X358.049 Y-0.707
N9710 X357.806 Y-0.836
N9715 X357.594 Y-1.01
N9720 X357.42 Y-1.222
N9725 X357.291 Y-1.464
N9730 G3 X357.504 Y-2.163 I0.562 J-0.21
N9735 G1 X357.581 Y-2.217 Z-7.993
N9740 X357.655 Y-2.271 Z-7.971
N9745 X357.726 Y-2.321 Z-7.935
N9750 X357.792 Y-2.368 Z-7.885
N9755 X357.85 Y-2.409 Z-7.824
N9760 X357.9 Y-2.445 Z-7.753
N9765 X357.94 Y-2.473 Z-7.672
N9770 X357.969 Y-2.494 Z-7.585
N9775 X357.987 Y-2.507 Z-7.494
N9780 X357.993 Y-2.511 Z-7.4
N9785 G0 Z15.
N9790 X389.418 Y-3.572
N9795 Z-6.8
N9800 G1 Z-7.4 F1000.
N9805 X389.416 Y-3.565 Z-7.494
N9810 X389.41 Y-3.543 Z-7.585
N9815 X389.401 Y-3.508 Z-7.672
N9820 X389.389 Y-3.461 Z-7.753
N9825 X389.374 Y-3.401 Z-7.824
N9830 X389.357 Y-3.332 Z-7.885
N9835 X389.337 Y-3.254 Z-7.935
N9840 X389.315 Y-3.17 Z-7.971
N9845 X389.293 Y-3.081 Z-7.993
N9850 X389.27 Y-2.99 Z-8.
N9855 G3 X388.987 Y-2.473 I-1.15 J-0.292
N9860 G1 X386.815 Y-0.301
N9865 X386.632 Y-0.135
N9870 X386.358 Y0.075
N9875 X386.023 Y0.292
N9880 X385.596 Y0.522
N9885 X385.058 Y0.759
N9890 X384.357 Y1.002
N9895 X383.43 Y1.242
N9900 X382.487 Y1.409
N9905 X381.537 Y1.526
N9910 X380.583 Y1.609
N9915 X379.627 Y1.666
N9920 X378.67 Y1.706
N9925 X377.713 Y1.735
N9930 X376.755 Y1.754
N9935 X375.797 Y1.768
N9940 X374.84 Y1.778
N9945 X373.882 Y1.785
N9950 X372.924 Y1.789
N9955 X371.009 Y1.795
N9960 X368.136 Y1.798
N9965 X361.432 Y1.8
N9970 X360.474 Y1.799
N9975 X359.727 Y1.765
N9980 X359.374 Y1.72
N9985 X359.088 Y1.653
N9990 X358.822 Y1.527
N9995 X358.588 Y1.349
N10000 X358.397 Y1.126
N10005 X358.257 Y0.867
N10010 X357.291 Y-1.464
N10015 G3 X357.642 Y-2.236 Z-7.8 I0.562 J-0.21
N10020 G1 X357.72 Y-2.26
N10025 X357.8 Y-2.272
N10030 X357.882 Y-2.274
N10035 X387.284 Y-0.866
N10040 X387.321 Y-0.871
N10045 X387.354 Y-0.89
N10050 X387.377 Y-0.919
N10055 X387.388 Y-0.955
N10060 X387.385 Y-0.993
N10065 X387.368 Y-1.026
N10070 X387.34 Y-1.051
N10075 X387.305 Y-1.064
N10080 X387.268 Y-1.063 Z-7.808
N10085 X387.234 Y-1.049 Z-7.816
N10090 X387.207 Y-1.024 Z-7.824
N10095 X387.192 Y-0.99 Z-7.831
N10100 X387.185 Y-0.966 Z-7.837
N10105 G3 X386.815 Y-0.301 Z-8. I-1.527 J-0.415
N10110 G1 X384.643 Y1.871
N10115 X384.296 Y2.185
N10120 X384.007 Y2.407
N10125 X383.663 Y2.63
N10130 X383.215 Y2.871
N10135 X382.661 Y3.115
N10140 X381.931 Y3.368
N10145 X381.004 Y3.608
N10150 X380.062 Y3.778
N10155 X379.112 Y3.899
N10160 X378.158 Y3.986
N10165 X377.202 Y4.047
N10170 X376.245 Y4.091
N10175 X375.288 Y4.123
N10180 X374.331 Y4.145
N10185 X373.373 Y4.161
N10190 X372.416 Y4.172
N10195 X371.458 Y4.18
N10200 X370.5 Y4.186
N10205 X369.543 Y4.19
N10210 X367.627 Y4.195
N10215 X364.754 Y4.198
N10220 X362.839 Y4.199
N10225 X361.881 Y4.192
N10230 X360.924 Y4.157
N10235 X360.298 Y4.087
N10240 X360.265 Y4.08
N10245 X360.001 Y4.001
N10250 X359.758 Y3.872
N10255 X359.545 Y3.697
N10260 X359.37 Y3.485
N10265 X359.24 Y3.242
N10270 X358.257 Y0.867
N10275 G3 X358.608 Y0.095 Z-7.8 I0.562 J-0.21
N10280 G1 X358.683 Y0.073
N10285 X358.76 Y0.06
N10290 X358.838 Y0.058
N10295 X384.223 Y0.862
N10300 G3 X384.614 Y1.024 I-0.019 J0.6
N10305 X384.643 Y1.871 Z-8. I-0.41 J0.438
N10310 G1 X382.253 Y4.261
N10315 X381.936 Y4.548
N10320 X381.644 Y4.772
N10325 X381.292 Y5.
N10330 X380.837 Y5.245
N10335 X380.275 Y5.492
N10340 X379.532 Y5.75
N10345 X378.605 Y5.99
N10350 X377.663 Y6.162
N10355 X376.713 Y6.285
N10360 X375.759 Y6.373
N10365 X374.804 Y6.437
N10370 X373.847 Y6.483
N10375 X372.89 Y6.516
N10380 X371.933 Y6.539
N10385 X370.975 Y6.557
N10390 X370.017 Y6.569
N10395 X369.06 Y6.578
N10400 X368.102 Y6.584
N10405 X367.144 Y6.589
N10410 X365.229 Y6.594
N10415 X364.271
N10420 X363.314 Y6.588
N10425 X362.356 Y6.563
N10430 X361.591 Y6.507
N10435 X361.302 Y6.463
N10440 X361.025 Y6.39
N10445 X360.769 Y6.263
N10450 X360.544 Y6.086
N10455 X360.359 Y5.867
N10460 X360.223 Y5.615
N10465 X359.24 Y3.242
N10470 G3 X359.592 Y2.47 Z-7.8 I0.562 J-0.21
N10475 G1 X359.667 Y2.447
N10480 X359.745 Y2.434
N10485 X359.824 Y2.432
N10490 X381.837 Y3.252
N10495 G3 X382.224 Y3.413 I-0.022 J0.6
N10500 G1 X382.283 Y3.477 Z-7.818
N10505 X382.332 Y3.548 Z-7.837
N10510 G3 X382.253 Y4.261 Z-8. I-0.518 J0.303
N10515 G1 X379.864 Y6.65
N10520 X379.555 Y6.93
N10525 X379.261 Y7.156
N10530 X378.907 Y7.385
N10535 X378.449 Y7.632
N10540 X377.882 Y7.881
N10545 X377.134 Y8.14
N10550 X376.206 Y8.38
N10555 X375.264 Y8.552
N10560 X374.315 Y8.677
N10565 X373.361 Y8.766
N10570 X372.406 Y8.831
N10575 X371.449 Y8.878
N10580 X370.492 Y8.911
N10585 X369.535 Y8.936
N10590 X368.577 Y8.954
N10595 X367.62 Y8.967
N10600 X366.662 Y8.976
N10605 X365.704 Y8.981
N10610 X364.747 Y8.979
N10615 X363.789 Y8.963
N10620 X362.832 Y8.918
N10625 X362.33 Y8.855
N10630 X362.044 Y8.788
N10635 X361.778 Y8.662
N10640 X361.544 Y8.484
N10645 X361.352 Y8.26
N10650 X361.212 Y8.002
N10655 X360.223 Y5.615
N10660 G3 X360.574 Y4.843 Z-7.8 I0.562 J-0.21
N10665 G1 X360.652 Y4.82
N10670 X360.731 Y4.807
N10675 X360.812 Y4.805
N10680 X379.452 Y5.642
N10685 G3 X379.835 Y5.803 I-0.027 J0.599
N10690 X379.864 Y6.65 Z-8. I-0.41 J0.438
N10695 G1 X377.474 Y9.04
N10700 X377.165 Y9.32
N10705 X376.87 Y9.546
N10710 X376.515 Y9.776
N10715 X376.055 Y10.024
N10720 X375.487 Y10.274
N10725 X374.735 Y10.535
N10730 X373.808 Y10.775
N10735 X372.866 Y10.947
N10740 X371.916 Y11.072
N10745 X370.963 Y11.162
N10750 X370.007 Y11.227
N10755 X369.051 Y11.274
N10760 X368.094 Y11.308
N10765 X367.136 Y11.332
N10770 X366.179 Y11.344
N10775 X365.221 Y11.343
N10780 X364.264 Y11.319
N10785 X363.534 Y11.263
N10790 X363.25 Y11.218
N10795 X362.962 Y11.14
N10800 X362.697 Y11.002
N10805 X362.467 Y10.812
N10810 X362.283 Y10.577
N10815 X362.153 Y10.308
N10820 X362.087 Y10.126
N10825 X361.987 Y9.876
N10830 X361.912 Y9.692
N10835 X361.212 Y8.002
N10840 G3 X361.563 Y7.23 Z-7.8 I0.562 J-0.21
N10845 G1 X361.642 Y7.206
N10850 X361.724 Y7.193
N10855 X361.807 Y7.192
N10860 X377.069 Y8.032
N10865 G3 X377.445 Y8.192 I-0.033 J0.599
N10870 X377.474 Y9.04 Z-8. I-0.41 J0.438
N10875 G1 X375.085 Y11.429
N10880 X374.77 Y11.714
N10885 X374.475 Y11.941
N10890 X374.119 Y12.172
N10895 X373.658 Y12.42
N10900 X373.089 Y12.67
N10905 X372.336 Y12.931
N10910 X371.408 Y13.171
N10915 X370.466 Y13.344
N10920 X369.517 Y13.468
N10925 X368.563 Y13.557
N10930 X367.608 Y13.618
N10935 X366.651 Y13.655
N10940 X365.693 Y13.665
N10945 X364.79 Y13.637
N10950 X364.195 Y13.57
N10955 X363.719 Y13.478
N10960 X363.344 Y13.373
N10965 X363.038 Y13.248
N10970 X362.769 Y13.056
N10975 X362.551 Y12.807
N10980 X362.396 Y12.515
N10985 X362.313 Y12.195
N10990 X362.305 Y11.864
N10995 X362.325 Y11.647
N11000 G3 X362.884 Y11.124 Z-7.824 I0.595 J0.076
N11005 G1 X362.996 Y11.117 Z-7.8
N11010 X374.61 Y10.421
N11015 G3 X375.056 Y10.582 I0.036 J0.599
N11020 X375.085 Y11.429 Z-8. I-0.41 J0.438
N11025 G1 X372.696 Y13.819
N11030 X372.373 Y14.111
N11035 X372.078 Y14.338
N11040 X371.723 Y14.568
N11045 X371.264 Y14.815
N11050 X370.702 Y15.062
N11055 X369.97 Y15.316
N11060 X369.042 Y15.556
N11065 X368.099 Y15.723
N11070 X367.148 Y15.832
N11075 X366.192 Y15.885
N11080 X365.295 Y15.872
N11085 X364.604 Y15.806
N11090 X364.1 Y15.717
N11095 X363.635 Y15.595
N11100 X363.26 Y15.464
N11105 X362.898 Y15.304
N11110 X362.601 Y15.143
N11115 X362.304 Y14.949
N11120 X362.252 Y14.909
N11125 X362.046 Y14.714
N11130 X361.883 Y14.48
N11135 X361.771 Y14.218
N11140 X361.714 Y13.94
N11145 X361.715 Y13.655
N11150 X361.774 Y13.376
N11155 X361.887 Y13.116
N11160 G3 X362.398 Y12.828 Z-7.87 I0.512 J0.312
N11165 G1 X362.553 Y12.827 Z-7.837
N11170 X362.727 Z-7.8
N11175 X372.256 Y12.81
N11180 G3 X372.666 Y12.971 I0.001 J0.6
N11185 X372.696 Y13.819 Z-8. I-0.41 J0.438
N11190 G1 X370.306 Y16.208
N11195 X370.003 Y16.483
N11200 X369.72 Y16.7
N11205 X369.385 Y16.917
N11210 X368.973 Y17.139
N11215 X368.49 Y17.352
N11220 X367.908 Y17.553
N11225 X367.292 Y17.713
N11230 X366.615 Y17.831
N11235 X365.934 Y17.894
N11240 X365.259 Y17.903
N11245 X364.615 Y17.859
N11250 X364.009 Y17.768
N11255 X363.439 Y17.636
N11260 X362.962 Y17.483
N11265 X362.539 Y17.31
N11270 X362.179 Y17.127
N11275 X361.864 Y16.934
N11280 X361.578 Y16.725
N11285 X361.33 Y16.512
N11290 X361.104 Y16.284
N11295 X360.909 Y16.052
N11300 X360.864 Y15.989
N11305 X360.707 Y15.702
N11310 X360.621 Y15.387
N11315 X360.609 Y15.06
N11320 X360.674 Y14.739
N11325 X360.812 Y14.443
N11330 X361.015 Y14.186
N11335 X361.334 Y13.866
N11340 G3 X361.853 Y13.714 Z-7.881 I0.41 J0.438
N11345 G1 X362.057 Y13.752 Z-7.837
N11350 X362.228 Y13.783 Z-7.8
N11355 X369.976 Y15.209
N11360 G3 X370.277 Y15.361 I-0.109 J0.59
N11365 X370.306 Y16.208 Z-8. I-0.41 J0.438
N11370 G1 X368.134 Y18.381
N11375 X367.86 Y18.629
N11380 X367.639 Y18.799
N11385 X367.369 Y18.974
N11390 X367.07 Y19.134
N11395 X366.715 Y19.291
N11400 X366.322 Y19.427
N11405 X365.889 Y19.539
N11410 X365.399 Y19.625
N11415 X364.885 Y19.672
N11420 X364.355 Y19.679
N11425 X363.815 Y19.642
N11430 X363.275 Y19.561
N11435 X362.749 Y19.439
N11440 X362.243 Y19.277
N11445 X361.762 Y19.08
N11450 X361.309 Y18.85
N11455 X360.927 Y18.616
N11460 X360.574 Y18.358
N11465 X360.294 Y18.118
N11470 X360.033 Y17.853
N11475 X359.819 Y17.599
N11480 X359.633 Y17.338
N11485 X359.531 Y17.167
N11490 X359.403 Y16.886
N11495 X359.339 Y16.584
N11500 X359.343 Y16.276
N11505 X359.415 Y15.976
N11510 X359.55 Y15.699
N11515 X359.743 Y15.458
N11520 X361.015 Y14.186
N11525 G3 X361.706 Y14.096 Z-7.842 I0.409 J0.439
N11530 G1 X361.727 Y14.107 Z-7.837
N11535 X361.881 Y14.189 Z-7.8
N11540 X367.978 Y17.442
N11545 X368.044 Y17.483
N11550 X368.105 Y17.533
N11555 X368.164 Y17.597 Z-7.818
N11560 X368.213 Y17.668 Z-7.837
N11565 G3 X368.134 Y18.381 Z-8. I-0.518 J0.303
N11570 G1 X366.339 Y20.176
N11575 X366.088 Y20.403
N11580 X365.905 Y20.544
N11585 X365.683 Y20.688
N11590 X365.437 Y20.82
N11595 X365.148 Y20.947
N11600 X364.828 Y21.058
N11605 X364.473 Y21.15
N11610 X364.07 Y21.22
N11615 X363.652 Y21.259
N11620 X363.197 Y21.265
N11625 X362.709 Y21.232
N11630 X362.207 Y21.157
N11635 X361.703 Y21.039
N11640 X361.204 Y20.88
N11645 X360.719 Y20.681
N11650 X360.255 Y20.445
N11655 X359.818 Y20.178
N11660 X359.429 Y19.894
N11665 X359.082 Y19.595
N11670 X358.808 Y19.318
N11675 X358.559 Y19.022
N11680 X358.363 Y18.746
N11685 X358.188 Y18.454
N11690 X358.156 Y18.389
N11695 X358.055 Y18.117
N11700 X358.013 Y17.831
N11705 X358.03 Y17.542
N11710 X358.107 Y17.262
N11715 X358.239 Y17.004
N11720 X358.422 Y16.78
N11725 X359.743 Y15.458
N11730 G3 X360.487 Y15.399 Z-7.829 I0.409 J0.439
N11735 G1 X360.6 Y15.476 Z-7.8
N11740 X366.235 Y19.269
N11745 X366.309 Y19.329
N11750 G3 X366.339 Y20.176 Z-8. I-0.41 J0.438
N11755 G1 X364.659 Y21.856
N11760 X364.541 Y21.963
N11765 X364.373 Y22.092
N11770 X364.179 Y22.218
N11775 X363.951 Y22.341
N11780 X363.695 Y22.453
N11785 X363.405 Y22.554
N11790 X363.077 Y22.639
N11795 X362.726 Y22.7
N11800 X362.327 Y22.737
N11805 X361.91 Y22.742
N11810 X361.467 Y22.712
N11815 X360.991 Y22.641
N11820 X360.497 Y22.526
N11825 X360.003 Y22.368
N11830 X359.514 Y22.167
N11835 X359.041 Y21.927
N11840 X358.589 Y21.65
N11845 X358.167 Y21.342
N11850 X357.813 Y21.037
N11855 X357.499 Y20.72
N11860 X357.256 Y20.431
N11865 X357.037 Y20.123
N11870 X356.868 Y19.84
N11875 X356.85 Y19.803
N11880 X356.756 Y19.557
N11885 X356.71 Y19.297
N11890 X356.713 Y19.034
N11895 X356.766 Y18.775
N11900 X356.866 Y18.532
N11905 X356.889 Y18.489
N11910 X356.982 Y18.366
N11915 X357.494 Y17.729
N11920 X357.635 Y17.566
N11925 X358.422 Y16.78
N11930 G3 X359.201 Y16.746 Z-7.82 I0.409 J0.439
N11935 G1 X359.274 Y16.803 Z-7.8
N11940 X364.59 Y20.975
N11945 X364.629 Y21.009
N11950 G3 X364.659 Y21.856 Z-8. I-0.41 J0.438
N11955 G1 X363.292 Y23.223
N11960 X363.109 Y23.377
N11965 X362.868 Y23.558
N11970 X362.675 Y23.679
N11975 X362.464 Y23.789
N11980 X362.21 Y23.896
N11985 X361.937 Y23.987
N11990 X361.623 Y24.064
N11995 X361.277 Y24.12
N12000 X360.906 Y24.149
N12005 X360.49
N12010 X360.059 Y24.114
N12015 X359.604 Y24.039
N12020 X359.121 Y23.92
N12025 X358.628 Y23.755
N12030 X358.139 Y23.547
N12035 X357.666 Y23.299
N12040 X357.214 Y23.014
N12045 X357.188 Y22.994
N12050 X357.021 Y22.846
N12055 X356.879 Y22.674
N12060 X356.767 Y22.482
N12065 G3 X357.075 Y21.691 Z-7.8 I0.549 J-0.241
N12070 X357.393 Y21.645 I0.242 J0.549
N12075 G1 X362.783 Y22.337
N12080 G3 X363.152 Y22.53 I-0.076 J0.595
N12085 X363.109 Y23.377 Z-8. I-0.445 J0.402
N12090 G1 X362.845 Y23.594
N12095 X362.422 Y23.932
N12100 X362.339 Y23.987
N12105 X362.256 Y24.029
N12110 X361.769 Y24.263
N12115 X361.552 Y24.361
N12120 X361.334 Y24.414
N12125 X360.899 Y24.513
N12130 X360.681 Y24.557
N12135 X360.464 Y24.559
N12140 X360.029
N12145 X359.811 Y24.556
N12150 X359.593 Y24.511
N12155 X359.158 Y24.412
N12160 X358.941 Y24.358
N12165 X358.698 Y24.246
N12170 X358.247 Y24.029
N12175 X358.159 Y23.984
N12180 X358.07 Y23.923
N12185 X357.635 Y23.576
N12190 X357.418 Y23.391
N12195 X357.405 Y23.377
N12200 X356.982 Y22.847
N12205 X356.89 Y22.725
N12210 X356.78 Y22.508
N12215 X356.547 Y22.025
N12220 X356.509 Y21.941
N12225 X356.482 Y21.856
N12230 X356.33 Y21.19
N12235 X356.307 Y21.089
N12240 X356.298 Y20.987
N12245 Y20.227
N12250 X356.308 Y20.119
N12255 X356.357 Y19.901
N12260 X356.482 Y19.358
N12265 X356.518 Y19.25
N12270 X356.831 Y18.598
N12275 X356.866 Y18.532
N12280 G3 X357.386 Y18.229 I0.521 J0.298
N12285 G1 X357.387
N12290 X357.464 Y18.234
N12295 X357.54 Y18.249
N12300 X357.631 Y18.273 Z-7.993
N12305 X357.719 Y18.297 Z-7.971
N12310 X357.803 Y18.319 Z-7.935
N12315 X357.881 Y18.339 Z-7.885
N12320 X357.95 Y18.357 Z-7.824
N12325 X358.009 Y18.373 Z-7.753
N12330 X358.057 Y18.386 Z-7.672
N12335 X358.092 Y18.395 Z-7.585
N12340 X358.113 Y18.4 Z-7.494
N12345 X358.12 Y18.402 Z-7.4
N12350 G0 Z45.
(2D CONTOUR1)
N12355 G64 P0.01 Q0.01
N12360 G0 X57.544 Y7.609
N12365 Z15.
N12370 Z5.
N12375 G1 Z1. F333.33
N12380 Z-7.4
N12385 X57.55 Y7.612 Z-7.494 F1000.
N12390 X57.571 Y7.62 Z-7.585
N12395 X57.604 Y7.634 Z-7.672
N12400 X57.649 Y7.653 Z-7.753
N12405 X57.706 Y7.676 Z-7.824
N12410 X57.772 Y7.704 Z-7.885
N12415 X57.846 Y7.734 Z-7.935
N12420 X57.927 Y7.768 Z-7.971
N12425 X58.011 Y7.803 Z-7.993
N12430 X58.098 Y7.839 Z-8.
N12435 X58.652 Y8.068
N12440 G3 X58.977 Y8.852 I-0.23 J0.554
N12445 G1 X58.391 Y10.266
N12450 G2 X59.042 Y13.535 I2.772 J1.148
N12455 G1 X62.931 Y17.425
N12460 G3 Y23.789 I-3.182 J3.182
N12465 X56.567 I-3.182 J-3.182
N12470 G1 X40.657 Y7.879
N12475 G3 Y7.03 I0.424 J-0.424
N12480 G1 X41.081 Y6.606
N12485 X41.147 Y6.54 Z-7.993
N12490 X41.212 Y6.475 Z-7.971
N12495 X41.274 Y6.413 Z-7.935
N12500 X41.33 Y6.357 Z-7.885
N12505 X41.381 Y6.306 Z-7.824
N12510 X41.424 Y6.263 Z-7.753
N12515 X41.459 Y6.228 Z-7.672
N12520 X41.485 Y6.202 Z-7.585
N12525 X41.5 Y6.187 Z-7.494
N12530 X41.505 Y6.182 Z-7.4
N12535 G0 Z5.
N12540 X378.494
N12545 G1 Z1. F333.33
N12550 Z-7.4
N12555 X378.499 Y6.187 Z-7.494 F1000.
N12560 X378.515 Y6.202 Z-7.585
N12565 X378.54 Y6.228 Z-7.672
N12570 X378.575 Y6.263 Z-7.753
N12575 X378.618 Y6.306 Z-7.824
N12580 X378.669 Y6.357 Z-7.885
N12585 X378.726 Y6.413 Z-7.935
N12590 X378.787 Y6.475 Z-7.971
N12595 X378.852 Y6.54 Z-7.993
N12600 X378.918 Y6.606 Z-8.
N12605 X379.343 Y7.03
N12610 G3 Y7.879 I-0.424 J0.424
N12615 G1 X363.434 Y23.789
N12620 G3 X357.069 I-3.182 J-3.182
N12625 Y17.425 I3.182 J-3.182
N12630 G1 X360.958 Y13.535
N12635 G2 X361.608 Y10.266 I-2.121 J-2.121
N12640 G1 X361.022 Y8.852
N12645 G3 X361.347 Y8.068 I0.554 J-0.23
N12650 G1 X361.901 Y7.838
N12655 X361.988 Y7.802 Z-7.993
N12660 X362.073 Y7.767 Z-7.971
N12665 X362.153 Y7.734 Z-7.935
N12670 X362.227 Y7.703 Z-7.885
N12675 X362.293 Y7.676 Z-7.824
N12680 X362.35 Y7.652 Z-7.753
N12685 X362.395 Y7.633 Z-7.672
N12690 X362.429 Y7.619 Z-7.585
N12695 X362.449 Y7.611 Z-7.494
N12700 X362.456 Y7.608 Z-7.4
N12705 G0 Z15.
(2D CONTOUR2)
N12710 G0 Z90.
N12715 X49.101 Y-10.889
N12720 Z5.
N12725 G1 Z1. F333.33
N12730 Z-21.4
N12735 X49.106 Y-10.884 Z-21.494 F1000.
N12740 X49.122 Y-10.869 Z-21.585
N12745 X49.147 Y-10.843 Z-21.672
N12750 X49.182 Y-10.808 Z-21.753
N12755 X49.225 Y-10.765 Z-21.824
N12760 X49.276 Y-10.715 Z-21.885
N12765 X49.333 Y-10.658 Z-21.935
N12770 X49.394 Y-10.596 Z-21.971
N12775 X49.459 Y-10.532 Z-21.993
N12780 X49.525 Y-10.465 Z-22.
N12785 X49.95 Y-10.041
N12790 G3 Y-9.192 I-0.424 J0.424
N12795 G1 X-4.192 Y44.95
N12800 G3 X-5.041 I-0.424 J-0.424
N12805 G1 X-5.465 Y44.525
N12810 X-5.532 Y44.459 Z-21.993
N12815 X-5.596 Y44.394 Z-21.971
N12820 X-5.658 Y44.333 Z-21.935
N12825 X-5.715 Y44.276 Z-21.885
N12830 X-5.765 Y44.225 Z-21.824
N12835 X-5.808 Y44.182 Z-21.753
N12840 X-5.843 Y44.147 Z-21.672
N12845 X-5.869 Y44.122 Z-21.585
N12850 X-5.884 Y44.106 Z-21.494
N12855 X-5.889 Y44.101 Z-21.4
N12860 G0 Z40.
N12865 X425.889
N12870 Z5.
N12875 G1 Z1. F333.33
N12880 Z-21.4
N12885 X425.884 Y44.106 Z-21.494 F1000.
N12890 X425.869 Y44.122 Z-21.585
N12895 X425.843 Y44.147 Z-21.672
N12900 X425.808 Y44.182 Z-21.753
N12905 X425.765 Y44.225 Z-21.824
N12910 X425.715 Y44.276 Z-21.885
N12915 X425.658 Y44.333 Z-21.935
N12920 X425.596 Y44.394 Z-21.971
N12925 X425.532 Y44.459 Z-21.993
N12930 X425.465 Y44.525 Z-22.
N12935 X425.041 Y44.95
N12940 G3 X424.192 I-0.424 J-0.424
N12945 G1 X370.05 Y-9.192
N12950 G3 Y-10.041 I0.424 J-0.424
N12955 G1 X370.475 Y-10.465
N12960 X370.541 Y-10.532 Z-21.993
N12965 X370.606 Y-10.596 Z-21.971
N12970 X370.667 Y-10.658 Z-21.935
N12975 X370.724 Y-10.715 Z-21.885
N12980 X370.775 Y-10.765 Z-21.824
N12985 X370.818 Y-10.808 Z-21.753
N12990 X370.853 Y-10.843 Z-21.672
N12995 X370.878 Y-10.869 Z-21.585
N13000 X370.894 Y-10.884 Z-21.494
N13005 X370.899 Y-10.889 Z-21.4
N13010 G0 Z90.
(2D CONTOUR2 2)
N13015 G0 X395.6 Y5.2
N13020 Z15.
N13025 Z5.
N13030 G1 Z1. F333.33
N13035 Z-11.4
N13040 G19 G3 Y5.8 Z-12. J0.6 K0. F1000.
N13045 G1 Y6.4
N13050 G17 G3 X395. Y7. I-0.6 J0.
N13055 G1 X25.
N13060 G3 X24.4 Y6.4 I0. J-0.6
N13065 G1 Y5.8
N13070 G19 G2 Y5.2 Z-11.4 J0. K0.6
N13075 G0 Z15.
N13080 G17
N13085 G53 G0 Z0.
N13090 M30
%
