%
(FRAME_SHORT_V1)
(T10  D=6. CR=0. - ZMIN=-21. - FLAT END MILL)
N10 G90 G94 G17 G91.1
N15 G21
N20 G53 G0 Z0.
(2D ADAPTIVE2)
N25 T10 M6
N30 S20000 M3
N35 G54
N40 G64 P0.1 Q0.1
N45 G0 X313.825 Y45.551
N50 G43 Z80. H10
N55 G0 Z30.
N60 Z-9.8
N65 G1 Z-10.4 F1600.
N70 X313.831 Y45.546 Z-10.494
N75 X313.846 Y45.53 Z-10.585
N80 X313.871 Y45.504 Z-10.672
N85 X313.905 Y45.469 Z-10.753
N90 X313.947 Y45.425 Z-10.824
N95 X313.997 Y45.373 Z-10.885
N100 X314.053 Y45.316 Z-10.935
N105 X314.113 Y45.253 Z-10.971
N110 X314.177 Y45.187 Z-10.993
N115 X314.242 Y45.12 Z-11.
N120 G3 X316.776 Y43.005 I11.023 J10.636
N125 G1 X316.927 Y42.913
N130 X317.217 Y42.695
N135 X317.429 Y42.518
N140 X317.47 Y42.478
N145 X317.523 Y42.415
N150 X317.625 Y42.305
N155 X317.821 Y42.137
N160 X318.597 Y41.576
N165 X319.18 Y40.816
N170 X319.592 Y39.951
N175 X319.878 Y39.038
N180 X320.076 Y38.101
N185 X320.212 Y37.153
N190 X320.304 Y36.199
N195 X320.367 Y35.244
N200 X320.41 Y34.287
N205 X320.439 Y33.33
N210 X320.459 Y32.372
N215 X320.472 Y31.415
N220 X320.481 Y30.457
N225 X320.487 Y29.499
N230 X320.491 Y28.542
N235 X320.496 Y26.626
N240 X320.499 Y23.753
N245 X320.5 Y14.176
N250 Y2.684
N255 X320.36 Y2.226
N260 X319.846 Y1.418
N265 X319.089 Y0.831
N270 X318.226 Y0.416
N275 X317.313 Y0.127
N280 X316.376 Y-0.072
N285 X315.428 Y-0.209
N290 X314.475 Y-0.303
N295 X313.52 Y-0.366
N300 X312.563 Y-0.409
N305 X311.606 Y-0.439
N310 X310.648 Y-0.458
N315 X309.691 Y-0.472
N320 X308.733 Y-0.481
N325 X307.775 Y-0.487
N330 X306.818 Y-0.491
N335 X304.902 Y-0.496
N340 X302.029 Y-0.499
N345 X292.452 Y-0.5
N350 X280.002
N355 X279.742 Y-0.526
N360 X279.492 Y-0.601
N365 X279.261 Y-0.725
N370 X279.059 Y-0.891
N375 X277.906 Y-2.044
N380 G0 Z30.
N385 X317.112 Y43.726
N390 Z-9.8
N395 G1 Z-10.4 F1600.
N400 X317.113 Y43.719 Z-10.494
N405 X317.117 Y43.697 Z-10.585
N410 X317.122 Y43.662 Z-10.672
N415 X317.13 Y43.613 Z-10.753
N420 X317.14 Y43.553 Z-10.824
N425 X317.152 Y43.482 Z-10.885
N430 X317.164 Y43.403 Z-10.935
N435 X317.178 Y43.317 Z-10.971
N440 X317.193 Y43.227 Z-10.993
N445 X317.208 Y43.134 Z-11.
N450 G3 X317.523 Y42.415 I1.562 J0.255
N455 G1 X317.864 Y42.008
N460 X318.082 Y41.654
N465 X318.107 Y41.61
N470 X318.21 Y41.392
N475 X318.299 Y41.158
N480 X318.362 Y40.958
N485 X318.419 Y40.741
N490 X318.458 Y40.524
N495 X318.483 Y40.306
N500 X318.496 Y40.089
N505 Y39.872
N510 X318.479 Y39.655
N515 X318.451 Y39.438
N520 X318.411 Y39.221
N525 X318.352 Y39.003
N530 X318.313 Y38.859
N535 X318.146 Y37.915
N540 X318.058 Y36.962
N545 X318.012 Y36.005
N550 X317.99 Y35.048
N555 X317.981 Y34.09
N560 X317.979 Y33.132
N565 X317.98 Y32.175
N570 X317.991 Y28.344
N575 X317.996 Y25.471
N580 X317.999 Y21.64
N585 X318. Y8.232
N590 Y6.317
N595 X317.991 Y5.838
N600 X317.871 Y5.375
N605 X317.449 Y4.515
N610 X316.775 Y3.834
N615 X315.966 Y3.322
N620 X315.086 Y2.944
N625 X314.168 Y2.671
N630 X313.231 Y2.474
N635 X312.283 Y2.334
N640 X311.331 Y2.235
N645 X310.376 Y2.165
N650 X309.419 Y2.115
N655 X308.462 Y2.08
N660 X307.505 Y2.056
N665 X306.547 Y2.039
N670 X305.59 Y2.027
N675 X304.632 Y2.019
N680 X303.674 Y2.013
N685 X302.717 Y2.009
N690 X301.759 Y2.006
N695 X299.844 Y2.003
N700 X296.013 Y2.001
N705 X282.605 Y2.
N710 X282.492 Y1.999
N715 X282.234 Y1.972
N720 X281.987 Y1.896
N725 X281.759 Y1.773
N730 X281.558 Y1.609
N735 X279.059 Y-0.891
N740 G0 Z30.
N745 X319.246 Y40.047
N750 Z-9.8
N755 G1 Z-10.4 F1600.
N760 X319.241 Y40.042 Z-10.494
N765 X319.224 Y40.028 Z-10.585
N770 X319.197 Y40.004 Z-10.672
N775 X319.16 Y39.972 Z-10.753
N780 X319.114 Y39.931 Z-10.824
N785 X319.06 Y39.884 Z-10.885
N790 X319. Y39.831 Z-10.935
N795 X318.935 Y39.774 Z-10.971
N800 X318.866 Y39.713 Z-10.993
N805 X318.795 Y39.652 Z-11.
N810 G3 X318.352 Y39.003 I1.044 J-1.19
N815 G1 X318.299 Y38.841
N820 X318.279 Y38.786
N825 X318.19 Y38.569
N830 X318.087 Y38.352
N835 X318.082 Y38.341
N840 X317.955 Y38.135
N845 X317.864 Y37.992
N850 X317.637 Y37.7
N855 X317.429 Y37.479
N860 X317.184 Y37.209
N865 X317.001 Y36.969
N870 X316.805 Y36.663
N875 X316.598 Y36.271
N880 X316.381 Y35.761
N885 X316.157 Y35.082
N890 X315.933 Y34.15
N895 X315.786 Y33.204
N900 X315.688 Y32.251
N905 X315.623 Y31.296
N910 X315.58 Y30.339
N915 X315.552 Y29.382
N920 X315.533 Y28.424
N925 X315.521 Y27.467
N930 X315.514 Y26.509
N935 X315.508 Y25.551
N940 X315.505 Y24.594
N945 X315.502 Y22.678
N950 X315.5 Y18.848
N955 Y9.271
N960 X315.498 Y8.792
N965 X315.418 Y8.32
N970 X315.082 Y7.423
N975 X314.474 Y6.682
N980 X313.71 Y6.106
N985 X312.857 Y5.671
N990 X311.955 Y5.348
N995 X311.027 Y5.111
N1000 X310.085 Y4.939
N1005 X309.135 Y4.814
N1010 X308.182 Y4.724
N1015 X307.226 Y4.66
N1020 X306.27 Y4.614
N1025 X305.313 Y4.581
N1030 X304.355 Y4.557
N1035 X303.398 Y4.541
N1040 X302.44 Y4.529
N1045 X301.482 Y4.52
N1050 X300.525 Y4.514
N1055 X299.567 Y4.51
N1060 X297.652 Y4.505
N1065 X295.736 Y4.502
N1070 X290.948 Y4.5
N1075 X285.202
N1080 X284.996 Y4.499
N1085 X284.737 Y4.473
N1090 X284.489 Y4.397
N1095 X284.259 Y4.274
N1100 X284.059 Y4.109
N1105 X281.558 Y1.609
N1110 G0 Z30.
N1115 X318.7 Y38.003
N1120 Z-9.8
N1125 G1 Z-10.4 F1600.
N1130 X318.692 Y38.001 Z-10.494
N1135 X318.671 Y37.996 Z-10.585
N1140 X318.636 Y37.987 Z-10.672
N1145 X318.589 Y37.975 Z-10.753
N1150 X318.529 Y37.96 Z-10.824
N1155 X318.46 Y37.942 Z-10.885
N1160 X318.382 Y37.922 Z-10.935
N1165 X318.298 Y37.901 Z-10.971
N1170 X318.209 Y37.878 Z-10.993
N1175 X318.118 Y37.855 Z-11.
N1180 G3 X317.429 Y37.479 I0.39 J-1.534
N1185 G1 X315.138 Y35.188
N1190 X314.932 Y34.961
N1195 X314.708 Y34.668
N1200 X314.482 Y34.313
N1205 X314.24 Y33.854
N1210 X313.992 Y33.273
N1215 X313.738 Y32.505
N1220 X313.515 Y31.573
N1225 X313.358 Y30.629
N1230 X313.249 Y29.677
N1235 X313.173 Y28.722
N1240 X313.12 Y27.766
N1245 X313.083 Y26.809
N1250 X313.057 Y25.852
N1255 X313.039 Y24.894
N1260 X313.027 Y23.937
N1265 X313.019 Y22.979
N1270 X313.013 Y22.021
N1275 X313.009 Y21.064
N1280 X313.004 Y19.148
N1285 X313.001 Y16.275
N1290 X313. Y11.487
N1295 X312.929 Y11.013
N1300 X312.621 Y10.106
N1305 X312.041 Y9.344
N1310 X311.295 Y8.743
N1315 X310.455 Y8.284
N1320 X309.562 Y7.939
N1325 X308.639 Y7.684
N1330 X307.7 Y7.496
N1335 X306.752 Y7.359
N1340 X305.799 Y7.259
N1345 X304.844 Y7.186
N1350 X303.888 Y7.134
N1355 X302.931 Y7.096
N1360 X301.974 Y7.069
N1365 X301.016 Y7.049
N1370 X300.059 Y7.035
N1375 X299.101 Y7.025
N1380 X298.143 Y7.018
N1385 X297.186 Y7.013
N1390 X296.228 Y7.009
N1395 X294.313 Y7.005
N1400 X291.44 Y7.002
N1405 X288.566 Y7.001
N1410 X287.609 Y7.
N1415 X287.492
N1420 X287.235 Y6.973
N1425 X286.987 Y6.896
N1430 X286.759 Y6.774
N1435 X286.559 Y6.609
N1440 X284.059 Y4.109
N1445 G0 Z30.
N1450 X316.409 Y35.712
N1455 Z-9.8
N1460 G1 Z-10.4 F1600.
N1465 X316.402 Y35.711 Z-10.494
N1470 X316.38 Y35.705 Z-10.585
N1475 X316.345 Y35.696 Z-10.672
N1480 X316.298 Y35.684 Z-10.753
N1485 X316.238 Y35.669 Z-10.824
N1490 X316.169 Y35.651 Z-10.885
N1495 X316.091 Y35.632 Z-10.935
N1500 X316.007 Y35.61 Z-10.971
N1505 X315.918 Y35.588 Z-10.993
N1510 X315.827 Y35.564 Z-11.
N1515 G3 X315.138 Y35.188 I0.39 J-1.534
N1520 G1 X312.655 Y32.705
N1525 X312.517 Y32.553
N1530 X312.284 Y32.248
N1535 X312.048 Y31.878
N1540 X311.795 Y31.399
N1545 X311.539 Y30.797
N1550 X311.274 Y29.996
N1555 X311.051 Y29.065
N1560 X310.892 Y28.121
N1565 X310.778 Y27.17
N1570 X310.698 Y26.215
N1575 X310.64 Y25.259
N1580 X310.599 Y24.303
N1585 X310.57 Y23.345
N1590 X310.55 Y22.388
N1595 X310.535 Y21.43
N1600 X310.525 Y20.473
N1605 X310.517 Y19.515
N1610 X310.512 Y18.557
N1615 X310.509 Y17.6
N1620 X310.504 Y15.684
N1625 X310.502 Y13.769
N1630 X310.252 Y12.844
N1635 X309.717 Y12.05
N1640 X309.003 Y11.412
N1645 X308.182 Y10.919
N1650 X307.3 Y10.546
N1655 X306.384 Y10.267
N1660 X305.449 Y10.06
N1665 X304.503 Y9.908
N1670 X303.552 Y9.796
N1675 X302.598 Y9.715
N1680 X301.642 Y9.656
N1685 X300.685 Y9.612
N1690 X299.728 Y9.581
N1695 X298.771 Y9.559
N1700 X297.813 Y9.542
N1705 X296.855 Y9.53
N1710 X295.898 Y9.522
N1715 X294.94 Y9.516
N1720 X293.982 Y9.511
N1725 X292.067 Y9.506
N1730 X290.152 Y9.503
N1735 X289.996 Y9.502
N1740 X289.738 Y9.475
N1745 X289.49 Y9.399
N1750 X289.262 Y9.276
N1755 X289.061 Y9.112
N1760 X286.559 Y6.609
N1765 G0 Z30.
N1770 X313.926 Y33.229
N1775 Z-9.8
N1780 G1 Z-10.4 F1600.
N1785 X313.919 Y33.227 Z-10.494
N1790 X313.897 Y33.222 Z-10.585
N1795 X313.862 Y33.213 Z-10.672
N1800 X313.815 Y33.201 Z-10.753
N1805 X313.755 Y33.186 Z-10.824
N1810 X313.686 Y33.168 Z-10.885
N1815 X313.608 Y33.149 Z-10.935
N1820 X313.524 Y33.127 Z-10.971
N1825 X313.435 Y33.105 Z-10.993
N1830 X313.344 Y33.081 Z-11.
N1835 G3 X312.655 Y32.705 I0.39 J-1.534
N1840 G1 X310.266 Y30.316
N1845 X310.052 Y30.08
N1850 X309.817 Y29.772
N1855 X309.577 Y29.397
N1860 X309.321 Y28.911
N1865 X309.061 Y28.3
N1870 X308.792 Y27.486
N1875 X308.568 Y26.555
N1880 X308.408 Y25.611
N1885 X308.293 Y24.66
N1890 X308.21 Y23.706
N1895 X308.151 Y22.75
N1900 X308.108 Y21.793
N1905 X308.078 Y20.836
N1910 X308.056 Y19.878
N1915 X308.04 Y18.921
N1920 X308.028 Y17.963
N1925 X308.02 Y17.006
N1930 X307.999 Y16.048
N1935 X307.66 Y15.152
N1940 X307.07 Y14.398
N1945 X306.322 Y13.799
N1950 X305.484 Y13.337
N1955 X304.592 Y12.987
N1960 X303.671 Y12.725
N1965 X302.733 Y12.531
N1970 X301.786 Y12.388
N1975 X300.834 Y12.283
N1980 X299.88 Y12.206
N1985 X298.924 Y12.149
N1990 X297.967 Y12.108
N1995 X297.01 Y12.079
N2000 X296.052 Y12.057
N2005 X295.095 Y12.041
N2010 X294.137 Y12.03
N2015 X293.179 Y12.022
N2020 X292.511 Y12.017
N2025 X292.253 Y11.991
N2030 X292.005 Y11.914
N2035 X291.777 Y11.792
N2040 X291.577 Y11.627
N2045 X289.061 Y9.112
N2050 G0 Z30.
N2055 X311.537 Y30.84
N2060 Z-9.8
N2065 G1 Z-10.4 F1600.
N2070 X311.53 Y30.839 Z-10.494
N2075 X311.508 Y30.833 Z-10.585
N2080 X311.473 Y30.824 Z-10.672
N2085 X311.426 Y30.812 Z-10.753
N2090 X311.366 Y30.797 Z-10.824
N2095 X311.297 Y30.779 Z-10.885
N2100 X311.219 Y30.76 Z-10.935
N2105 X311.135 Y30.738 Z-10.971
N2110 X311.046 Y30.716 Z-10.993
N2115 X310.955 Y30.692 Z-11.
N2120 G3 X310.266 Y30.316 I0.39 J-1.534
N2125 G1 X307.877 Y27.927
N2130 X307.57 Y27.588
N2135 X307.334 Y27.278
N2140 X307.092 Y26.901
N2145 X306.834 Y26.411
N2150 X306.572 Y25.796
N2155 X306.301 Y24.976
N2160 X306.078 Y24.045
N2165 X305.917 Y23.101
N2170 X305.801 Y22.15
N2175 X305.717 Y21.196
N2180 X305.657 Y20.24
N2185 X305.613 Y19.284
N2190 X305.503 Y18.332
N2195 X305.086 Y17.47
N2200 X304.448 Y16.756
N2205 X303.674 Y16.192
N2210 X302.82 Y15.758
N2215 X301.921 Y15.43
N2220 X300.995 Y15.185
N2225 X300.055 Y15.002
N2230 X299.107 Y14.868
N2235 X298.154 Y14.769
N2240 X297.199 Y14.696
N2245 X296.243 Y14.643
N2250 X295.286 Y14.604
N2255 X295.058 Y14.597
N2260 X294.809 Y14.565
N2265 X294.57 Y14.488
N2270 X294.35 Y14.367
N2275 X294.157 Y14.207
N2280 X291.577 Y11.627
N2285 G0 Z30.
N2290 X309.148 Y28.451
N2295 Z-9.8
N2300 G1 Z-10.4 F1600.
N2305 X309.141 Y28.45 Z-10.494
N2310 X309.119 Y28.444 Z-10.585
N2315 X309.084 Y28.435 Z-10.672
N2320 X309.037 Y28.423 Z-10.753
N2325 X308.977 Y28.408 Z-10.824
N2330 X308.908 Y28.39 Z-10.885
N2335 X308.83 Y28.371 Z-10.935
N2340 X308.746 Y28.349 Z-10.971
N2345 X308.657 Y28.327 Z-10.993
N2350 X308.566 Y28.303 Z-11.
N2355 G3 X307.877 Y27.927 I0.39 J-1.534
N2360 G1 X305.271 Y25.321
N2365 X305.083 Y25.113
N2370 X304.846 Y24.803
N2375 X304.603 Y24.422
N2380 X304.343 Y23.93
N2385 X304.08 Y23.313
N2390 X303.808 Y22.488
N2395 X303.584 Y21.557
N2400 X303.308 Y20.64
N2405 X302.799 Y19.829
N2410 X302.115 Y19.158
N2415 X301.318 Y18.628
N2420 X300.452 Y18.218
N2425 X299.547 Y17.906
N2430 X298.618 Y17.671
N2435 X297.798 Y17.518
N2440 X297.542 Y17.443
N2445 X297.306 Y17.319
N2450 X297.1 Y17.15
N2455 X294.157 Y14.207
N2460 G0 Z30.
N2465 X306.542 Y25.845
N2470 Z-9.8
N2475 G1 Z-10.4 F1600.
N2480 X306.534 Y25.843 Z-10.494
N2485 X306.513 Y25.838 Z-10.585
N2490 X306.478 Y25.829 Z-10.672
N2495 X306.43 Y25.817 Z-10.753
N2500 X306.371 Y25.802 Z-10.824
N2505 X306.302 Y25.784 Z-10.885
N2510 X306.224 Y25.764 Z-10.935
N2515 X306.14 Y25.743 Z-10.971
N2520 X306.051 Y25.72 Z-10.993
N2525 X305.96 Y25.697 Z-11.
N2530 G3 X305.271 Y25.321 I0.39 J-1.534
N2535 G1 X297.1 Y17.15
N2540 G0 Z30.
N2545 X46.172 Y-5.568
N2550 Z-9.8
N2555 G1 Z-10.4 F1600.
N2560 X46.167 Y-5.563 Z-10.494
N2565 X46.151 Y-5.547 Z-10.585
N2570 X46.126 Y-5.521 Z-10.672
N2575 X46.092 Y-5.486 Z-10.753
N2580 X46.05 Y-5.441 Z-10.824
N2585 X46. Y-5.39 Z-10.885
N2590 X45.945 Y-5.332 Z-10.935
N2595 X45.885 Y-5.269 Z-10.971
N2600 X45.821 Y-5.203 Z-10.993
N2605 X45.756 Y-5.135 Z-11.
N2610 G3 X43.229 Y-3.013 I-11.055 J-10.603
N2615 G1 X43.044 Y-2.899
N2620 X42.826 Y-2.734
N2625 X42.776 Y-2.695
N2630 X42.608 Y-2.55
N2635 X42.391 Y-2.339
N2640 X42.21 Y-2.178
N2645 X41.972 Y-1.999
N2650 X41.665 Y-1.806
N2655 X41.269 Y-1.6
N2660 X40.749 Y-1.384
N2665 X40.048 Y-1.157
N2670 X39.115 Y-0.94
N2675 X38.168 Y-0.796
N2680 X37.216 Y-0.699
N2685 X36.26 Y-0.634
N2690 X35.303 Y-0.591
N2695 X34.346 Y-0.561
N2700 X33.389 Y-0.541
N2705 X32.431 Y-0.528
N2710 X31.473 Y-0.519
N2715 X30.516 Y-0.513
N2720 X29.558 Y-0.509
N2725 X27.643 Y-0.504
N2730 X24.77 Y-0.501
N2735 X15.193 Y-0.5
N2740 X2.743
N2745 X2.279 Y-0.382
N2750 X1.868 Y-0.135
N2755 X1.155 Y0.504
N2760 X0.644 Y1.314
N2765 X0.286 Y2.202
N2770 X0.037 Y3.127
N2775 X-0.134 Y4.07
N2780 X-0.252 Y5.02
N2785 X-0.331 Y5.974
N2790 X-0.386 Y6.931
N2795 X-0.423 Y7.888
N2800 X-0.448 Y8.845
N2805 X-0.465 Y9.802
N2810 X-0.476 Y10.76
N2815 X-0.484 Y11.718
N2820 X-0.489 Y12.675
N2825 X-0.493 Y13.633
N2830 X-0.497 Y15.548
N2835 X-0.499 Y19.379
N2840 X-0.5 Y37.097
N2845 X-0.479 Y37.335
N2850 X-0.353 Y37.797
N2855 X0.171 Y38.599
N2860 X0.931 Y39.181
N2865 X1.163 Y39.402
N2870 X1.343 Y39.666
N2875 X1.462 Y39.963
N2880 X1.516 Y40.279
N2885 G3 X1.086 Y40.87 I-0.6 J0.016
N2890 G1 X0.996 Y40.896 Z-10.993
N2895 X0.909 Y40.922 Z-10.971
N2900 X0.825 Y40.947 Z-10.935
N2905 X0.748 Y40.97 Z-10.885
N2910 X0.679 Y40.99 Z-10.824
N2915 X0.621 Y41.008 Z-10.753
N2920 X0.574 Y41.022 Z-10.672
N2925 X0.539 Y41.032 Z-10.585
N2930 X0.518 Y41.038 Z-10.494
N2935 X0.511 Y41.04 Z-10.4
N2940 G0 Z30.
N2945 X42.924 Y-3.607
N2950 Z-9.8
N2955 G1 Z-10.4 F1600.
N2960 X42.922 Y-3.599 Z-10.494
N2965 X42.917 Y-3.578 Z-10.585
N2970 X42.908 Y-3.543 Z-10.672
N2975 X42.895 Y-3.496 Z-10.753
N2980 X42.88 Y-3.437 Z-10.824
N2985 X42.861 Y-3.367 Z-10.885
N2990 X42.841 Y-3.29 Z-10.935
N2995 X42.819 Y-3.205 Z-10.971
N3000 X42.796 Y-3.117 Z-10.993
N3005 X42.772 Y-3.026 Z-11.
N3010 G3 X42.391 Y-2.339 I-1.531 J-0.401
N3015 G1 X42.311 Y-2.261
N3020 X40.215 Y-0.165
N3025 X39.976 Y0.051
N3030 X39.682 Y0.276
N3035 X39.326 Y0.503
N3040 X38.865 Y0.747
N3045 X38.282 Y0.995
N3050 X37.508 Y1.251
N3055 X36.577 Y1.474
N3060 X35.632 Y1.631
N3065 X34.681 Y1.741
N3070 X33.726 Y1.819
N3075 X32.77 Y1.873
N3080 X31.813 Y1.911
N3085 X30.856 Y1.938
N3090 X29.898 Y1.956
N3095 X28.941 Y1.97
N3100 X27.983 Y1.979
N3105 X27.025 Y1.985
N3110 X26.068 Y1.99
N3115 X24.152 Y1.995
N3120 X21.279 Y1.998
N3125 X14.575 Y2.
N3130 X5.956
N3135 X5.487 Y2.098
N3140 X4.61 Y2.482
N3145 X3.91 Y3.136
N3150 X3.379 Y3.933
N3155 X2.987 Y4.807
N3160 X2.702 Y5.721
N3165 X2.497 Y6.656
N3170 X2.35 Y7.603
N3175 X2.246 Y8.555
N3180 X2.173 Y9.51
N3185 X2.121 Y10.466
N3190 X2.085 Y11.423
N3195 X2.059 Y12.38
N3200 X2.041 Y13.338
N3205 X2.029 Y14.295
N3210 X2.02 Y15.253
N3215 X2.014 Y16.211
N3220 X2.01 Y17.168
N3225 X2.005 Y19.084
N3230 X2.002 Y21.957
N3235 X2. Y29.618
N3240 Y34.407
N3245 X2.221 Y35.339
N3250 X2.573 Y36.229
N3255 X2.607 Y36.307
N3260 X2.693 Y36.593
N3265 X2.711 Y36.892
N3270 X2.659 Y37.186
N3275 X2.541 Y37.46
N3280 X2.363 Y37.7
N3285 X2.136 Y37.992
N3290 X2.045 Y38.135
N3295 X1.975 Y38.248
N3300 G3 X1.285 Y38.486 I-0.5 J-0.331
N3305 G1 X1.196 Y38.456 Z-10.993
N3310 X1.109 Y38.427 Z-10.971
N3315 X1.026 Y38.399 Z-10.935
N3320 X0.95 Y38.374 Z-10.885
N3325 X0.882 Y38.351 Z-10.824
N3330 X0.824 Y38.332 Z-10.753
N3335 X0.778 Y38.316 Z-10.672
N3340 X0.743 Y38.305 Z-10.585
N3345 X0.723 Y38.298 Z-10.494
N3350 X0.716 Y38.295 Z-10.4
N3355 G0 Z30.
N3360 X40.739 Y-1.435
N3365 Z-9.8
N3370 G1 Z-10.4 F1600.
N3375 X40.737 Y-1.428 Z-10.494
N3380 X40.732 Y-1.407 Z-10.585
N3385 X40.723 Y-1.372 Z-10.672
N3390 X40.711 Y-1.324 Z-10.753
N3395 X40.696 Y-1.265 Z-10.824
N3400 X40.678 Y-1.196 Z-10.885
N3405 X40.658 Y-1.118 Z-10.935
N3410 X40.637 Y-1.034 Z-10.971
N3415 X40.614 Y-0.945 Z-10.993
N3420 X40.591 Y-0.854 Z-11.
N3425 G3 X40.215 Y-0.165 I-1.534 J-0.39
N3430 G1 X37.821 Y2.229
N3435 X37.551 Y2.473
N3440 X37.245 Y2.707
N3445 X36.875 Y2.943
N3450 X36.395 Y3.197
N3455 X35.791 Y3.454
N3460 X34.987 Y3.72
N3465 X34.056 Y3.943
N3470 X33.111 Y4.103
N3475 X32.16 Y4.216
N3480 X31.206 Y4.298
N3485 X30.25 Y4.356
N3490 X29.293 Y4.397
N3495 X28.336 Y4.427
N3500 X27.379 Y4.448
N3505 X26.421 Y4.463
N3510 X25.463 Y4.474
N3515 X24.506 Y4.481
N3520 X23.548 Y4.487
N3525 X22.59 Y4.491
N3530 X20.675 Y4.495
N3535 X17.802 Y4.498
N3540 X10.14 Y4.5
N3545 X9.183
N3550 X8.704 Y4.511
N3555 X8.236 Y4.61
N3560 X7.351 Y4.977
N3565 X6.625 Y5.601
N3570 X6.063 Y6.377
N3575 X5.639 Y7.235
N3580 X5.324 Y8.14
N3585 X5.094 Y9.07
N3590 X4.926 Y10.013
N3595 X4.805 Y10.963
N3600 X4.718 Y11.916
N3605 X4.655 Y12.872
N3610 X4.61 Y13.829
N3615 X4.578 Y14.786
N3620 X4.556 Y15.743
N3625 X4.539 Y16.701
N3630 X4.528 Y17.658
N3635 X4.52 Y18.616
N3640 X4.514 Y19.574
N3645 X4.51 Y20.531
N3650 X4.505 Y22.447
N3655 X4.503 Y23.404
N3660 X4.501 Y27.235
N3665 X4.5 Y32.024
N3670 X4.592 Y32.977
N3675 X4.755 Y33.921
N3680 X4.836 Y34.439
N3685 X4.848 Y34.751
N3690 X4.787 Y35.058
N3695 X4.656 Y35.343
N3700 X4.462 Y35.588
N3705 X2.567 Y37.483
N3710 X2.363 Y37.7
N3715 G3 X1.638 Y37.792 I-0.422 J-0.426
N3720 G1 X1.557 Y37.745 Z-10.993
N3725 X1.478 Y37.699 Z-10.971
N3730 X1.403 Y37.655 Z-10.935
N3735 X1.333 Y37.614 Z-10.885
N3740 X1.272 Y37.578 Z-10.824
N3745 X1.219 Y37.548 Z-10.753
N3750 X1.176 Y37.523 Z-10.672
N3755 X1.145 Y37.505 Z-10.585
N3760 X1.126 Y37.493 Z-10.494
N3765 X1.12 Y37.49 Z-10.4
N3770 G0 Z30.
N3775 X38.346 Y0.958
N3780 Z-9.8
N3785 G1 Z-10.4 F1600.
N3790 X38.344 Y0.965 Z-10.494
N3795 X38.338 Y0.986 Z-10.585
N3800 X38.329 Y1.021 Z-10.672
N3805 X38.317 Y1.069 Z-10.753
N3810 X38.302 Y1.128 Z-10.824
N3815 X38.285 Y1.198 Z-10.885
N3820 X38.265 Y1.276 Z-10.935
N3825 X38.243 Y1.36 Z-10.971
N3830 X38.221 Y1.449 Z-10.993
N3835 X38.198 Y1.54 Z-11.
N3840 G3 X37.821 Y2.229 I-1.534 J-0.39
N3845 G1 X35.428 Y4.622
N3850 X35.075 Y4.942
N3855 X34.766 Y5.177
N3860 X34.391 Y5.418
N3865 X33.904 Y5.675
N3870 X33.291 Y5.935
N3875 X32.476 Y6.204
N3880 X31.544 Y6.428
N3885 X30.6 Y6.589
N3890 X29.65 Y6.704
N3895 X28.695 Y6.787
N3900 X27.74 Y6.847
N3905 X26.783 Y6.89
N3910 X25.826 Y6.921
N3915 X24.868 Y6.943
N3920 X23.911 Y6.959
N3925 X22.953 Y6.971
N3930 X21.995 Y6.979
N3935 X21.038 Y6.985
N3940 X20.08 Y6.989
N3945 X18.165 Y6.994
N3950 X15.292 Y6.998
N3955 X11.461 Y6.999
N3960 X10.988 Y7.077
N3965 X10.085 Y7.395
N3970 X9.328 Y7.982
N3975 X8.731 Y8.73
N3980 X8.275 Y9.573
N3985 X7.933 Y10.467
N3990 X7.679 Y11.39
N3995 X7.492 Y12.33
N4000 X7.356 Y13.278
N4005 X7.257 Y14.23
N4010 X7.185 Y15.185
N4015 X7.133 Y16.142
N4020 X7.095 Y17.099
N4025 X7.068 Y18.056
N4030 X7.049 Y19.013
N4035 X7.035 Y19.971
N4040 X7.025 Y20.929
N4045 X7.018 Y21.886
N4050 X7.013 Y22.844
N4055 X7.009 Y23.802
N4060 X7.005 Y25.717
N4065 X7.002 Y28.59
N4070 X7.001 Y29.548
N4075 X7.02 Y30.505
N4080 X7.083 Y31.461
N4085 X7.165 Y32.415
N4090 X7.152 Y32.627
N4095 X7.096 Y32.832
N4100 X6.999 Y33.02
N4105 X6.865 Y33.185
N4110 X4.462 Y35.588
N4115 G0 Z30.
N4120 X35.952 Y3.352
N4125 Z-9.8
N4130 G1 Z-10.4 F1600.
N4135 X35.95 Y3.359 Z-10.494
N4140 X35.945 Y3.38 Z-10.585
N4145 X35.936 Y3.415 Z-10.672
N4150 X35.924 Y3.463 Z-10.753
N4155 X35.909 Y3.522 Z-10.824
N4160 X35.891 Y3.591 Z-10.885
N4165 X35.871 Y3.669 Z-10.935
N4170 X35.85 Y3.753 Z-10.971
N4175 X35.827 Y3.842 Z-10.993
N4180 X35.804 Y3.933 Z-11.
N4185 G3 X35.428 Y4.622 I-1.534 J-0.39
N4190 G1 X32.817 Y7.234
N4195 X32.607 Y7.423
N4200 X32.297 Y7.66
N4205 X31.918 Y7.902
N4210 X31.427 Y8.162
N4215 X30.811 Y8.424
N4220 X29.988 Y8.695
N4225 X29.057 Y8.919
N4230 X28.113 Y9.08
N4235 X27.162 Y9.196
N4240 X26.208 Y9.28
N4245 X25.252 Y9.341
N4250 X24.295 Y9.385
N4255 X23.338 Y9.417
N4260 X22.381 Y9.44
N4265 X21.423 Y9.457
N4270 X20.466 Y9.469
N4275 X19.508 Y9.477
N4280 X18.55 Y9.484
N4285 X17.593 Y9.488
N4290 X15.677 Y9.494
N4295 X13.762 Y9.497
N4300 X12.838 Y9.751
N4305 X12.046 Y10.288
N4310 X11.409 Y11.003
N4315 X10.917 Y11.825
N4320 X10.544 Y12.707
N4325 X10.266 Y13.623
N4330 X10.059 Y14.559
N4335 X9.907 Y15.504
N4340 X9.796 Y16.455
N4345 X9.715 Y17.41
N4350 X9.656 Y18.366
N4355 X9.612 Y19.322
N4360 X9.581 Y20.279
N4365 X9.559 Y21.237
N4370 X9.542 Y22.194
N4375 X9.53 Y23.152
N4380 X9.522 Y24.11
N4385 X9.516 Y25.067
N4390 X9.511 Y26.025
N4395 X9.508 Y26.983
N4400 X9.509 Y27.94
N4405 X9.523 Y28.898
N4410 X9.558 Y29.898
N4415 X9.538 Y30.169
N4420 X9.465 Y30.431
N4425 X9.339 Y30.672
N4430 X9.168 Y30.882
N4435 X6.865 Y33.185
N4440 G0 Z30.
N4445 X33.341 Y5.963
N4450 Z-9.8
N4455 G1 Z-10.4 F1600.
N4460 X33.339 Y5.97 Z-10.494
N4465 X33.334 Y5.991 Z-10.585
N4470 X33.325 Y6.026 Z-10.672
N4475 X33.313 Y6.074 Z-10.753
N4480 X33.298 Y6.133 Z-10.824
N4485 X33.28 Y6.202 Z-10.885
N4490 X33.26 Y6.28 Z-10.935
N4495 X33.239 Y6.364 Z-10.971
N4500 X33.216 Y6.453 Z-10.993
N4505 X33.193 Y6.544 Z-11.
N4510 G3 X32.817 Y7.234 I-1.534 J-0.39
N4515 G1 X30.423 Y9.627
N4520 X30.103 Y9.917
N4525 X29.792 Y10.154
N4530 X29.413 Y10.397
N4535 X28.921 Y10.656
N4540 X28.303 Y10.919
N4545 X27.479 Y11.191
N4550 X26.547 Y11.415
N4555 X25.603 Y11.576
N4560 X24.653 Y11.693
N4565 X23.699 Y11.777
N4570 X22.743 Y11.838
N4575 X21.786 Y11.883
N4580 X20.829 Y11.915
N4585 X19.872 Y11.938
N4590 X18.914 Y11.955
N4595 X17.957 Y11.967
N4600 X16.999 Y11.976
N4605 X16.042 Y12.001
N4610 X15.147 Y12.342
N4615 X14.394 Y12.934
N4620 X13.796 Y13.682
N4625 X13.335 Y14.521
N4630 X12.986 Y15.413
N4635 X12.724 Y16.334
N4640 X12.53 Y17.272
N4645 X12.387 Y18.219
N4650 X12.282 Y19.171
N4655 X12.205 Y20.126
N4660 X12.149 Y21.082
N4665 X12.108 Y22.039
N4670 X12.079 Y22.996
N4675 X12.057 Y23.953
N4680 X12.041 Y24.911
N4685 X12.031 Y25.869
N4690 X12.028 Y26.826
N4695 X12.034 Y27.452
N4700 X12.01 Y27.715
N4705 X11.935 Y27.969
N4710 X11.811 Y28.202
N4715 X11.643 Y28.407
N4720 X9.168 Y30.882
N4725 G0 Z30.
N4730 X30.947 Y8.356
N4735 Z-9.8
N4740 G1 Z-10.4 F1600.
N4745 X30.946 Y8.363 Z-10.494
N4750 X30.94 Y8.385 Z-10.585
N4755 X30.931 Y8.42 Z-10.672
N4760 X30.919 Y8.467 Z-10.753
N4765 X30.904 Y8.527 Z-10.824
N4770 X30.886 Y8.596 Z-10.885
N4775 X30.867 Y8.674 Z-10.935
N4780 X30.845 Y8.758 Z-10.971
N4785 X30.823 Y8.847 Z-10.993
N4790 X30.8 Y8.938 Z-11.
N4795 G3 X30.423 Y9.627 I-1.534 J-0.39
N4800 G1 X27.977 Y12.073
N4805 X27.602 Y12.412
N4810 X27.291 Y12.65
N4815 X26.911 Y12.893
N4820 X26.419 Y13.153
N4825 X25.8 Y13.416
N4830 X24.974 Y13.689
N4835 X24.043 Y13.913
N4840 X23.099 Y14.074
N4845 X22.148 Y14.191
N4850 X21.194 Y14.275
N4855 X20.238 Y14.336
N4860 X19.282 Y14.381
N4865 X18.331 Y14.494
N4870 X17.469 Y14.911
N4875 X16.755 Y15.55
N4880 X16.191 Y16.324
N4885 X15.758 Y17.178
N4890 X15.43 Y18.078
N4895 X15.185 Y19.004
N4900 X15.002 Y19.944
N4905 X14.868 Y20.892
N4910 X14.769 Y21.845
N4915 X14.696 Y22.799
N4920 X14.643 Y23.756
N4925 X14.606 Y24.713
N4930 X14.6 Y24.934
N4935 X14.569 Y25.184
N4940 X14.492 Y25.425
N4945 X14.371 Y25.646
N4950 X14.21 Y25.84
N4955 X11.643 Y28.407
N4960 G0 Z30.
N4965 X28.502 Y10.802
N4970 Z-9.8
N4975 G1 Z-10.4 F1600.
N4980 X28.5 Y10.809 Z-10.494
N4985 X28.494 Y10.83 Z-10.585
N4990 X28.485 Y10.865 Z-10.672
N4995 X28.473 Y10.913 Z-10.753
N5000 X28.458 Y10.972 Z-10.824
N5005 X28.441 Y11.042 Z-10.885
N5010 X28.421 Y11.12 Z-10.935
N5015 X28.399 Y11.204 Z-10.971
N5020 X28.377 Y11.293 Z-10.993
N5025 X28.354 Y11.384 Z-11.
N5030 G3 X27.977 Y12.073 I-1.534 J-0.39
N5035 G1 X25.419 Y14.632
N5040 X25.113 Y14.908
N5045 X24.802 Y15.145
N5050 X24.421 Y15.389
N5055 X23.927 Y15.65
N5060 X23.308 Y15.913
N5065 X22.48 Y16.187
N5070 X21.549 Y16.41
N5075 X20.633 Y16.689
N5080 X19.823 Y17.201
N5085 X19.154 Y17.886
N5090 X18.624 Y18.684
N5095 X18.215 Y19.55
N5100 X17.904 Y20.455
N5105 X17.67 Y21.384
N5110 X17.518 Y22.201
N5115 X17.443 Y22.457
N5120 X17.319 Y22.694
N5125 X17.15 Y22.9
N5130 X14.21 Y25.84
N5135 G0 Z30.
N5140 X25.943 Y13.361
N5145 Z-9.8
N5150 G1 Z-10.4 F1600.
N5155 X25.941 Y13.368 Z-10.494
N5160 X25.936 Y13.389 Z-10.585
N5165 X25.927 Y13.424 Z-10.672
N5170 X25.915 Y13.472 Z-10.753
N5175 X25.899 Y13.531 Z-10.824
N5180 X25.882 Y13.601 Z-10.885
N5185 X25.862 Y13.678 Z-10.935
N5190 X25.841 Y13.763 Z-10.971
N5195 X25.818 Y13.851 Z-10.993
N5200 X25.795 Y13.942 Z-11.
N5205 G3 X25.419 Y14.632 I-1.534 J-0.39
N5210 G1 X17.15 Y22.9
N5215 X17.077 Y22.958
N5220 X16.997 Y23.004
N5225 X16.926 Y23.023 Z-10.995
N5230 X16.855 Y23.042 Z-10.982
N5235 X16.787 Y23.06 Z-10.959
N5240 X16.741 Y23.062 Z-10.939
N5245 Z-10.938
N5250 X16.66 Y23.047 Z-10.889
N5255 X16.589 Y23.034 Z-10.828
N5260 X16.527 Y23.022 Z-10.756
N5265 X16.482 Y23. Z-10.675
N5270 X16.45 Y22.984 Z-10.587
N5275 X16.429 Y22.974 Z-10.495
N5280 X16.423 Y22.97 Z-10.4
N5285 G0 Z30.
N5290 X313.825 Y45.551
N5295 Z-19.8
N5300 G1 Z-20.4 F1600.
N5305 X313.831 Y45.546 Z-20.494
N5310 X313.846 Y45.53 Z-20.585
N5315 X313.871 Y45.504 Z-20.672
N5320 X313.905 Y45.469 Z-20.753
N5325 X313.947 Y45.425 Z-20.824
N5330 X313.997 Y45.373 Z-20.885
N5335 X314.053 Y45.316 Z-20.935
N5340 X314.113 Y45.253 Z-20.971
N5345 X314.177 Y45.187 Z-20.993
N5350 X314.242 Y45.12 Z-21.
N5355 G3 X316.776 Y43.005 I11.023 J10.636
N5360 G1 X316.927 Y42.913
N5365 X317.217 Y42.695
N5370 X317.429 Y42.518
N5375 X317.47 Y42.478
N5380 X317.523 Y42.415
N5385 X317.625 Y42.305
N5390 X317.821 Y42.137
N5395 X318.597 Y41.576
N5400 X319.18 Y40.816
N5405 X319.592 Y39.951
N5410 X319.878 Y39.038
N5415 X320.076 Y38.101
N5420 X320.212 Y37.153
N5425 X320.304 Y36.199
N5430 X320.367 Y35.244
N5435 X320.41 Y34.287
N5440 X320.439 Y33.33
N5445 X320.459 Y32.372
N5450 X320.472 Y31.415
N5455 X320.481 Y30.457
N5460 X320.487 Y29.499
N5465 X320.491 Y28.542
N5470 X320.496 Y26.626
N5475 X320.499 Y23.753
N5480 X320.5 Y14.176
N5485 Y2.684
N5490 X320.36 Y2.226
N5495 X319.846 Y1.418
N5500 X319.089 Y0.831
N5505 X318.226 Y0.416
N5510 X317.313 Y0.127
N5515 X316.376 Y-0.072
N5520 X315.428 Y-0.209
N5525 X314.475 Y-0.303
N5530 X313.52 Y-0.366
N5535 X312.563 Y-0.409
N5540 X311.606 Y-0.439
N5545 X310.648 Y-0.458
N5550 X309.691 Y-0.472
N5555 X308.733 Y-0.481
N5560 X307.775 Y-0.487
N5565 X306.818 Y-0.491
N5570 X304.902 Y-0.496
N5575 X302.029 Y-0.499
N5580 X292.452 Y-0.5
N5585 X280.002
N5590 X279.742 Y-0.526
N5595 X279.492 Y-0.601
N5600 X279.261 Y-0.725
N5605 X279.059 Y-0.891
N5610 X277.906 Y-2.044
N5615 G0 Z30.
N5620 X317.112 Y43.726
N5625 Z-19.8
N5630 G1 Z-20.4 F1600.
N5635 X317.113 Y43.719 Z-20.494
N5640 X317.117 Y43.697 Z-20.585
N5645 X317.122 Y43.662 Z-20.672
N5650 X317.13 Y43.613 Z-20.753
N5655 X317.14 Y43.553 Z-20.824
N5660 X317.152 Y43.482 Z-20.885
N5665 X317.164 Y43.403 Z-20.935
N5670 X317.178 Y43.317 Z-20.971
N5675 X317.193 Y43.227 Z-20.993
N5680 X317.208 Y43.134 Z-21.
N5685 G3 X317.523 Y42.415 I1.562 J0.255
N5690 G1 X317.864 Y42.008
N5695 X318.082 Y41.654
N5700 X318.107 Y41.61
N5705 X318.21 Y41.392
N5710 X318.299 Y41.158
N5715 X318.362 Y40.958
N5720 X318.419 Y40.741
N5725 X318.458 Y40.524
N5730 X318.483 Y40.306
N5735 X318.496 Y40.089
N5740 Y39.872
N5745 X318.479 Y39.655
N5750 X318.451 Y39.438
N5755 X318.411 Y39.221
N5760 X318.352 Y39.003
N5765 X318.313 Y38.859
N5770 X318.146 Y37.915
N5775 X318.058 Y36.962
N5780 X318.012 Y36.005
N5785 X317.99 Y35.048
N5790 X317.981 Y34.09
N5795 X317.979 Y33.132
N5800 X317.98 Y32.175
N5805 X317.991 Y28.344
N5810 X317.996 Y25.471
N5815 X317.999 Y21.64
N5820 X318. Y8.232
N5825 Y6.317
N5830 X317.991 Y5.838
N5835 X317.871 Y5.375
N5840 X317.449 Y4.515
N5845 X316.775 Y3.834
N5850 X315.966 Y3.322
N5855 X315.086 Y2.944
N5860 X314.168 Y2.671
N5865 X313.231 Y2.474
N5870 X312.283 Y2.334
N5875 X311.331 Y2.235
N5880 X310.376 Y2.165
N5885 X309.419 Y2.115
N5890 X308.462 Y2.08
N5895 X307.505 Y2.056
N5900 X306.547 Y2.039
N5905 X305.59 Y2.027
N5910 X304.632 Y2.019
N5915 X303.674 Y2.013
N5920 X302.717 Y2.009
N5925 X301.759 Y2.006
N5930 X299.844 Y2.003
N5935 X296.013 Y2.001
N5940 X282.605 Y2.
N5945 X282.492 Y1.999
N5950 X282.234 Y1.972
N5955 X281.987 Y1.896
N5960 X281.759 Y1.773
N5965 X281.558 Y1.609
N5970 X279.059 Y-0.891
N5975 G0 Z30.
N5980 X319.246 Y40.047
N5985 Z-19.8
N5990 G1 Z-20.4 F1600.
N5995 X319.241 Y40.042 Z-20.494
N6000 X319.224 Y40.028 Z-20.585
N6005 X319.197 Y40.004 Z-20.672
N6010 X319.16 Y39.972 Z-20.753
N6015 X319.114 Y39.931 Z-20.824
N6020 X319.06 Y39.884 Z-20.885
N6025 X319. Y39.831 Z-20.935
N6030 X318.935 Y39.774 Z-20.971
N6035 X318.866 Y39.713 Z-20.993
N6040 X318.795 Y39.652 Z-21.
N6045 G3 X318.352 Y39.003 I1.044 J-1.19
N6050 G1 X318.299 Y38.841
N6055 X318.279 Y38.786
N6060 X318.19 Y38.569
N6065 X318.087 Y38.352
N6070 X318.082 Y38.341
N6075 X317.955 Y38.135
N6080 X317.864 Y37.992
N6085 X317.637 Y37.7
N6090 X317.429 Y37.479
N6095 X317.184 Y37.209
N6100 X317.001 Y36.969
N6105 X316.805 Y36.663
N6110 X316.598 Y36.271
N6115 X316.381 Y35.761
N6120 X316.157 Y35.082
N6125 X315.933 Y34.15
N6130 X315.786 Y33.204
N6135 X315.688 Y32.251
N6140 X315.623 Y31.296
N6145 X315.58 Y30.339
N6150 X315.552 Y29.382
N6155 X315.533 Y28.424
N6160 X315.521 Y27.467
N6165 X315.514 Y26.509
N6170 X315.508 Y25.551
N6175 X315.505 Y24.594
N6180 X315.502 Y22.678
N6185 X315.5 Y18.848
N6190 Y9.271
N6195 X315.498 Y8.792
N6200 X315.418 Y8.32
N6205 X315.082 Y7.423
N6210 X314.474 Y6.682
N6215 X313.71 Y6.106
N6220 X312.857 Y5.671
N6225 X311.955 Y5.348
N6230 X311.027 Y5.111
N6235 X310.085 Y4.939
N6240 X309.135 Y4.814
N6245 X308.182 Y4.724
N6250 X307.226 Y4.66
N6255 X306.27 Y4.614
N6260 X305.313 Y4.581
N6265 X304.355 Y4.557
N6270 X303.398 Y4.541
N6275 X302.44 Y4.529
N6280 X301.482 Y4.52
N6285 X300.525 Y4.514
N6290 X299.567 Y4.51
N6295 X297.652 Y4.505
N6300 X295.736 Y4.502
N6305 X290.948 Y4.5
N6310 X285.202
N6315 X284.996 Y4.499
N6320 X284.737 Y4.473
N6325 X284.489 Y4.397
N6330 X284.259 Y4.274
N6335 X284.059 Y4.109
N6340 X281.558 Y1.609
N6345 G0 Z30.
N6350 X318.7 Y38.003
N6355 Z-19.8
N6360 G1 Z-20.4 F1600.
N6365 X318.692 Y38.001 Z-20.494
N6370 X318.671 Y37.996 Z-20.585
N6375 X318.636 Y37.987 Z-20.672
N6380 X318.589 Y37.975 Z-20.753
N6385 X318.529 Y37.96 Z-20.824
N6390 X318.46 Y37.942 Z-20.885
N6395 X318.382 Y37.922 Z-20.935
N6400 X318.298 Y37.901 Z-20.971
N6405 X318.209 Y37.878 Z-20.993
N6410 X318.118 Y37.855 Z-21.
N6415 G3 X317.429 Y37.479 I0.39 J-1.534
N6420 G1 X315.138 Y35.188
N6425 X314.932 Y34.961
N6430 X314.708 Y34.668
N6435 X314.482 Y34.313
N6440 X314.24 Y33.854
N6445 X313.992 Y33.273
N6450 X313.738 Y32.505
N6455 X313.515 Y31.573
N6460 X313.358 Y30.629
N6465 X313.249 Y29.677
N6470 X313.173 Y28.722
N6475 X313.12 Y27.766
N6480 X313.083 Y26.809
N6485 X313.057 Y25.852
N6490 X313.039 Y24.894
N6495 X313.027 Y23.937
N6500 X313.019 Y22.979
N6505 X313.013 Y22.021
N6510 X313.009 Y21.064
N6515 X313.004 Y19.148
N6520 X313.001 Y16.275
N6525 X313. Y11.487
N6530 X312.929 Y11.013
N6535 X312.621 Y10.106
N6540 X312.041 Y9.344
N6545 X311.295 Y8.743
N6550 X310.455 Y8.284
N6555 X309.562 Y7.939
N6560 X308.639 Y7.684
N6565 X307.7 Y7.496
N6570 X306.752 Y7.359
N6575 X305.799 Y7.259
N6580 X304.844 Y7.186
N6585 X303.888 Y7.134
N6590 X302.931 Y7.096
N6595 X301.974 Y7.069
N6600 X301.016 Y7.049
N6605 X300.059 Y7.035
N6610 X299.101 Y7.025
N6615 X298.143 Y7.018
N6620 X297.186 Y7.013
N6625 X296.228 Y7.009
N6630 X294.313 Y7.005
N6635 X291.44 Y7.002
N6640 X288.566 Y7.001
N6645 X287.609 Y7.
N6650 X287.492
N6655 X287.235 Y6.973
N6660 X286.987 Y6.896
N6665 X286.759 Y6.774
N6670 X286.559 Y6.609
N6675 X284.059 Y4.109
N6680 G0 Z30.
N6685 X316.409 Y35.712
N6690 Z-19.8
N6695 G1 Z-20.4 F1600.
N6700 X316.402 Y35.711 Z-20.494
N6705 X316.38 Y35.705 Z-20.585
N6710 X316.345 Y35.696 Z-20.672
N6715 X316.298 Y35.684 Z-20.753
N6720 X316.238 Y35.669 Z-20.824
N6725 X316.169 Y35.651 Z-20.885
N6730 X316.091 Y35.632 Z-20.935
N6735 X316.007 Y35.61 Z-20.971
N6740 X315.918 Y35.588 Z-20.993
N6745 X315.827 Y35.564 Z-21.
N6750 G3 X315.138 Y35.188 I0.39 J-1.534
N6755 G1 X312.655 Y32.705
N6760 X312.517 Y32.553
N6765 X312.284 Y32.248
N6770 X312.048 Y31.878
N6775 X311.795 Y31.399
N6780 X311.539 Y30.797
N6785 X311.274 Y29.996
N6790 X311.051 Y29.065
N6795 X310.892 Y28.121
N6800 X310.778 Y27.17
N6805 X310.698 Y26.215
N6810 X310.64 Y25.259
N6815 X310.599 Y24.303
N6820 X310.57 Y23.345
N6825 X310.55 Y22.388
N6830 X310.535 Y21.43
N6835 X310.525 Y20.473
N6840 X310.517 Y19.515
N6845 X310.512 Y18.557
N6850 X310.509 Y17.6
N6855 X310.504 Y15.684
N6860 X310.502 Y13.769
N6865 X310.252 Y12.844
N6870 X309.717 Y12.05
N6875 X309.003 Y11.412
N6880 X308.182 Y10.919
N6885 X307.3 Y10.546
N6890 X306.384 Y10.267
N6895 X305.449 Y10.06
N6900 X304.503 Y9.908
N6905 X303.552 Y9.796
N6910 X302.598 Y9.715
N6915 X301.642 Y9.656
N6920 X300.685 Y9.612
N6925 X299.728 Y9.581
N6930 X298.771 Y9.559
N6935 X297.813 Y9.542
N6940 X296.855 Y9.53
N6945 X295.898 Y9.522
N6950 X294.94 Y9.516
N6955 X293.982 Y9.511
N6960 X292.067 Y9.506
N6965 X290.152 Y9.503
N6970 X289.996 Y9.502
N6975 X289.738 Y9.475
N6980 X289.49 Y9.399
N6985 X289.262 Y9.276
N6990 X289.061 Y9.112
N6995 X286.559 Y6.609
N7000 G0 Z30.
N7005 X313.926 Y33.229
N7010 Z-19.8
N7015 G1 Z-20.4 F1600.
N7020 X313.919 Y33.227 Z-20.494
N7025 X313.897 Y33.222 Z-20.585
N7030 X313.862 Y33.213 Z-20.672
N7035 X313.815 Y33.201 Z-20.753
N7040 X313.755 Y33.186 Z-20.824
N7045 X313.686 Y33.168 Z-20.885
N7050 X313.608 Y33.149 Z-20.935
N7055 X313.524 Y33.127 Z-20.971
N7060 X313.435 Y33.105 Z-20.993
N7065 X313.344 Y33.081 Z-21.
N7070 G3 X312.655 Y32.705 I0.39 J-1.534
N7075 G1 X310.266 Y30.316
N7080 X310.052 Y30.08
N7085 X309.817 Y29.772
N7090 X309.577 Y29.397
N7095 X309.321 Y28.911
N7100 X309.061 Y28.3
N7105 X308.792 Y27.486
N7110 X308.568 Y26.555
N7115 X308.408 Y25.611
N7120 X308.293 Y24.66
N7125 X308.21 Y23.706
N7130 X308.151 Y22.75
N7135 X308.108 Y21.793
N7140 X308.078 Y20.836
N7145 X308.056 Y19.878
N7150 X308.04 Y18.921
N7155 X308.028 Y17.963
N7160 X308.02 Y17.006
N7165 X307.999 Y16.048
N7170 X307.66 Y15.152
N7175 X307.07 Y14.398
N7180 X306.322 Y13.799
N7185 X305.484 Y13.337
N7190 X304.592 Y12.987
N7195 X303.671 Y12.725
N7200 X302.733 Y12.531
N7205 X301.786 Y12.388
N7210 X300.834 Y12.283
N7215 X299.88 Y12.206
N7220 X298.924 Y12.149
N7225 X297.967 Y12.108
N7230 X297.01 Y12.079
N7235 X296.052 Y12.057
N7240 X295.095 Y12.041
N7245 X294.137 Y12.03
N7250 X293.179 Y12.022
N7255 X292.511 Y12.017
N7260 X292.253 Y11.991
N7265 X292.005 Y11.914
N7270 X291.777 Y11.792
N7275 X291.577 Y11.627
N7280 X289.061 Y9.112
N7285 G0 Z30.
N7290 X311.537 Y30.84
N7295 Z-19.8
N7300 G1 Z-20.4 F1600.
N7305 X311.53 Y30.839 Z-20.494
N7310 X311.508 Y30.833 Z-20.585
N7315 X311.473 Y30.824 Z-20.672
N7320 X311.426 Y30.812 Z-20.753
N7325 X311.366 Y30.797 Z-20.824
N7330 X311.297 Y30.779 Z-20.885
N7335 X311.219 Y30.76 Z-20.935
N7340 X311.135 Y30.738 Z-20.971
N7345 X311.046 Y30.716 Z-20.993
N7350 X310.955 Y30.692 Z-21.
N7355 G3 X310.266 Y30.316 I0.39 J-1.534
N7360 G1 X307.877 Y27.927
N7365 X307.57 Y27.588
N7370 X307.334 Y27.278
N7375 X307.092 Y26.901
N7380 X306.834 Y26.411
N7385 X306.572 Y25.796
N7390 X306.301 Y24.976
N7395 X306.078 Y24.045
N7400 X305.917 Y23.101
N7405 X305.801 Y22.15
N7410 X305.717 Y21.196
N7415 X305.657 Y20.24
N7420 X305.613 Y19.284
N7425 X305.503 Y18.332
N7430 X305.086 Y17.47
N7435 X304.448 Y16.756
N7440 X303.674 Y16.192
N7445 X302.82 Y15.758
N7450 X301.921 Y15.43
N7455 X300.995 Y15.185
N7460 X300.055 Y15.002
N7465 X299.107 Y14.868
N7470 X298.154 Y14.769
N7475 X297.199 Y14.696
N7480 X296.243 Y14.643
N7485 X295.286 Y14.604
N7490 X295.058 Y14.597
N7495 X294.809 Y14.565
N7500 X294.57 Y14.488
N7505 X294.35 Y14.367
N7510 X294.157 Y14.207
N7515 X291.577 Y11.627
N7520 G0 Z30.
N7525 X309.148 Y28.451
N7530 Z-19.8
N7535 G1 Z-20.4 F1600.
N7540 X309.141 Y28.45 Z-20.494
N7545 X309.119 Y28.444 Z-20.585
N7550 X309.084 Y28.435 Z-20.672
N7555 X309.037 Y28.423 Z-20.753
N7560 X308.977 Y28.408 Z-20.824
N7565 X308.908 Y28.39 Z-20.885
N7570 X308.83 Y28.371 Z-20.935
N7575 X308.746 Y28.349 Z-20.971
N7580 X308.657 Y28.327 Z-20.993
N7585 X308.566 Y28.303 Z-21.
N7590 G3 X307.877 Y27.927 I0.39 J-1.534
N7595 G1 X305.271 Y25.321
N7600 X305.083 Y25.113
N7605 X304.846 Y24.803
N7610 X304.603 Y24.422
N7615 X304.343 Y23.93
N7620 X304.08 Y23.313
N7625 X303.808 Y22.488
N7630 X303.584 Y21.557
N7635 X303.308 Y20.64
N7640 X302.799 Y19.829
N7645 X302.115 Y19.158
N7650 X301.318 Y18.628
N7655 X300.452 Y18.218
N7660 X299.547 Y17.906
N7665 X298.618 Y17.671
N7670 X297.798 Y17.518
N7675 X297.542 Y17.443
N7680 X297.306 Y17.319
N7685 X297.1 Y17.15
N7690 X294.157 Y14.207
N7695 G0 Z30.
N7700 X306.542 Y25.845
N7705 Z-19.8
N7710 G1 Z-20.4 F1600.
N7715 X306.534 Y25.843 Z-20.494
N7720 X306.513 Y25.838 Z-20.585
N7725 X306.478 Y25.829 Z-20.672
N7730 X306.43 Y25.817 Z-20.753
N7735 X306.371 Y25.802 Z-20.824
N7740 X306.302 Y25.784 Z-20.885
N7745 X306.224 Y25.764 Z-20.935
N7750 X306.14 Y25.743 Z-20.971
N7755 X306.051 Y25.72 Z-20.993
N7760 X305.96 Y25.697 Z-21.
N7765 G3 X305.271 Y25.321 I0.39 J-1.534
N7770 G1 X297.1 Y17.15
N7775 G0 Z30.
N7780 X46.172 Y-5.568
N7785 Z-19.8
N7790 G1 Z-20.4 F1600.
N7795 X46.167 Y-5.563 Z-20.494
N7800 X46.151 Y-5.547 Z-20.585
N7805 X46.126 Y-5.521 Z-20.672
N7810 X46.092 Y-5.486 Z-20.753
N7815 X46.05 Y-5.441 Z-20.824
N7820 X46. Y-5.39 Z-20.885
N7825 X45.945 Y-5.332 Z-20.935
N7830 X45.885 Y-5.269 Z-20.971
N7835 X45.821 Y-5.203 Z-20.993
N7840 X45.756 Y-5.135 Z-21.
N7845 G3 X43.229 Y-3.013 I-11.055 J-10.603
N7850 G1 X43.044 Y-2.899
N7855 X42.826 Y-2.734
N7860 X42.776 Y-2.695
N7865 X42.608 Y-2.55
N7870 X42.391 Y-2.339
N7875 X42.21 Y-2.178
N7880 X41.972 Y-1.999
N7885 X41.665 Y-1.806
N7890 X41.269 Y-1.6
N7895 X40.749 Y-1.384
N7900 X40.048 Y-1.157
N7905 X39.115 Y-0.94
N7910 X38.168 Y-0.796
N7915 X37.216 Y-0.699
N7920 X36.26 Y-0.634
N7925 X35.303 Y-0.591
N7930 X34.346 Y-0.561
N7935 X33.389 Y-0.541
N7940 X32.431 Y-0.528
N7945 X31.473 Y-0.519
N7950 X30.516 Y-0.513
N7955 X29.558 Y-0.509
N7960 X27.643 Y-0.504
N7965 X24.77 Y-0.501
N7970 X15.193 Y-0.5
N7975 X2.743
N7980 X2.279 Y-0.382
N7985 X1.868 Y-0.135
N7990 X1.155 Y0.504
N7995 X0.644 Y1.314
N8000 X0.286 Y2.202
N8005 X0.037 Y3.127
N8010 X-0.134 Y4.07
N8015 X-0.252 Y5.02
N8020 X-0.331 Y5.974
N8025 X-0.386 Y6.931
N8030 X-0.423 Y7.888
N8035 X-0.448 Y8.845
N8040 X-0.465 Y9.802
N8045 X-0.476 Y10.76
N8050 X-0.484 Y11.718
N8055 X-0.489 Y12.675
N8060 X-0.493 Y13.633
N8065 X-0.497 Y15.548
N8070 X-0.499 Y19.379
N8075 X-0.5 Y37.097
N8080 X-0.479 Y37.335
N8085 X-0.353 Y37.797
N8090 X0.171 Y38.599
N8095 X0.931 Y39.181
N8100 X1.163 Y39.402
N8105 X1.343 Y39.666
N8110 X1.462 Y39.963
N8115 X1.516 Y40.279
N8120 G3 X1.086 Y40.87 I-0.6 J0.016
N8125 G1 X0.996 Y40.896 Z-20.993
N8130 X0.909 Y40.922 Z-20.971
N8135 X0.825 Y40.947 Z-20.935
N8140 X0.748 Y40.97 Z-20.885
N8145 X0.679 Y40.99 Z-20.824
N8150 X0.621 Y41.008 Z-20.753
N8155 X0.574 Y41.022 Z-20.672
N8160 X0.539 Y41.032 Z-20.585
N8165 X0.518 Y41.038 Z-20.494
N8170 X0.511 Y41.04 Z-20.4
N8175 G0 Z30.
N8180 X42.924 Y-3.607
N8185 Z-19.8
N8190 G1 Z-20.4 F1600.
N8195 X42.922 Y-3.599 Z-20.494
N8200 X42.917 Y-3.578 Z-20.585
N8205 X42.908 Y-3.543 Z-20.672
N8210 X42.895 Y-3.496 Z-20.753
N8215 X42.88 Y-3.437 Z-20.824
N8220 X42.861 Y-3.367 Z-20.885
N8225 X42.841 Y-3.29 Z-20.935
N8230 X42.819 Y-3.205 Z-20.971
N8235 X42.796 Y-3.117 Z-20.993
N8240 X42.772 Y-3.026 Z-21.
N8245 G3 X42.391 Y-2.339 I-1.531 J-0.401
N8250 G1 X42.311 Y-2.261
N8255 X40.215 Y-0.165
N8260 X39.976 Y0.051
N8265 X39.682 Y0.276
N8270 X39.326 Y0.503
N8275 X38.865 Y0.747
N8280 X38.282 Y0.995
N8285 X37.508 Y1.251
N8290 X36.577 Y1.474
N8295 X35.632 Y1.631
N8300 X34.681 Y1.741
N8305 X33.726 Y1.819
N8310 X32.77 Y1.873
N8315 X31.813 Y1.911
N8320 X30.856 Y1.938
N8325 X29.898 Y1.956
N8330 X28.941 Y1.97
N8335 X27.983 Y1.979
N8340 X27.025 Y1.985
N8345 X26.068 Y1.99
N8350 X24.152 Y1.995
N8355 X21.279 Y1.998
N8360 X14.575 Y2.
N8365 X5.956
N8370 X5.487 Y2.098
N8375 X4.61 Y2.482
N8380 X3.91 Y3.136
N8385 X3.379 Y3.933
N8390 X2.987 Y4.807
N8395 X2.702 Y5.721
N8400 X2.497 Y6.656
N8405 X2.35 Y7.603
N8410 X2.246 Y8.555
N8415 X2.173 Y9.51
N8420 X2.121 Y10.466
N8425 X2.085 Y11.423
N8430 X2.059 Y12.38
N8435 X2.041 Y13.338
N8440 X2.029 Y14.295
N8445 X2.02 Y15.253
N8450 X2.014 Y16.211
N8455 X2.01 Y17.168
N8460 X2.005 Y19.084
N8465 X2.002 Y21.957
N8470 X2. Y29.618
N8475 Y34.407
N8480 X2.221 Y35.339
N8485 X2.573 Y36.229
N8490 X2.607 Y36.307
N8495 X2.693 Y36.593
N8500 X2.711 Y36.892
N8505 X2.659 Y37.186
N8510 X2.541 Y37.46
N8515 X2.363 Y37.7
N8520 X2.136 Y37.992
N8525 X2.045 Y38.135
N8530 X1.975 Y38.248
N8535 G3 X1.285 Y38.486 I-0.5 J-0.331
N8540 G1 X1.196 Y38.456 Z-20.993
N8545 X1.109 Y38.427 Z-20.971
N8550 X1.026 Y38.399 Z-20.935
N8555 X0.95 Y38.374 Z-20.885
N8560 X0.882 Y38.351 Z-20.824
N8565 X0.824 Y38.332 Z-20.753
N8570 X0.778 Y38.316 Z-20.672
N8575 X0.743 Y38.305 Z-20.585
N8580 X0.723 Y38.298 Z-20.494
N8585 X0.716 Y38.295 Z-20.4
N8590 G0 Z30.
N8595 X40.739 Y-1.435
N8600 Z-19.8
N8605 G1 Z-20.4 F1600.
N8610 X40.737 Y-1.428 Z-20.494
N8615 X40.732 Y-1.407 Z-20.585
N8620 X40.723 Y-1.372 Z-20.672
N8625 X40.711 Y-1.324 Z-20.753
N8630 X40.696 Y-1.265 Z-20.824
N8635 X40.678 Y-1.196 Z-20.885
N8640 X40.658 Y-1.118 Z-20.935
N8645 X40.637 Y-1.034 Z-20.971
N8650 X40.614 Y-0.945 Z-20.993
N8655 X40.591 Y-0.854 Z-21.
N8660 G3 X40.215 Y-0.165 I-1.534 J-0.39
N8665 G1 X37.821 Y2.229
N8670 X37.551 Y2.473
N8675 X37.245 Y2.707
N8680 X36.875 Y2.943
N8685 X36.395 Y3.197
N8690 X35.791 Y3.454
N8695 X34.987 Y3.72
N8700 X34.056 Y3.943
N8705 X33.111 Y4.103
N8710 X32.16 Y4.216
N8715 X31.206 Y4.298
N8720 X30.25 Y4.356
N8725 X29.293 Y4.397
N8730 X28.336 Y4.427
N8735 X27.379 Y4.448
N8740 X26.421 Y4.463
N8745 X25.463 Y4.474
N8750 X24.506 Y4.481
N8755 X23.548 Y4.487
N8760 X22.59 Y4.491
N8765 X20.675 Y4.495
N8770 X17.802 Y4.498
N8775 X10.14 Y4.5
N8780 X9.183
N8785 X8.704 Y4.511
N8790 X8.236 Y4.61
N8795 X7.351 Y4.977
N8800 X6.625 Y5.601
N8805 X6.063 Y6.377
N8810 X5.639 Y7.235
N8815 X5.324 Y8.14
N8820 X5.094 Y9.07
N8825 X4.926 Y10.013
N8830 X4.805 Y10.963
N8835 X4.718 Y11.916
N8840 X4.655 Y12.872
N8845 X4.61 Y13.829
N8850 X4.578 Y14.786
N8855 X4.556 Y15.743
N8860 X4.539 Y16.701
N8865 X4.528 Y17.658
N8870 X4.52 Y18.616
N8875 X4.514 Y19.574
N8880 X4.51 Y20.531
N8885 X4.505 Y22.447
N8890 X4.503 Y23.404
N8895 X4.501 Y27.235
N8900 X4.5 Y32.024
N8905 X4.592 Y32.977
N8910 X4.755 Y33.921
N8915 X4.836 Y34.439
N8920 X4.848 Y34.751
N8925 X4.787 Y35.058
N8930 X4.656 Y35.343
N8935 X4.462 Y35.588
N8940 X2.567 Y37.483
N8945 X2.363 Y37.7
N8950 G3 X1.638 Y37.792 I-0.422 J-0.426
N8955 G1 X1.557 Y37.745 Z-20.993
N8960 X1.478 Y37.699 Z-20.971
N8965 X1.403 Y37.655 Z-20.935
N8970 X1.333 Y37.614 Z-20.885
N8975 X1.272 Y37.578 Z-20.824
N8980 X1.219 Y37.548 Z-20.753
N8985 X1.176 Y37.523 Z-20.672
N8990 X1.145 Y37.505 Z-20.585
N8995 X1.126 Y37.493 Z-20.494
N9000 X1.12 Y37.49 Z-20.4
N9005 G0 Z30.
N9010 X38.346 Y0.958
N9015 Z-19.8
N9020 G1 Z-20.4 F1600.
N9025 X38.344 Y0.965 Z-20.494
N9030 X38.338 Y0.986 Z-20.585
N9035 X38.329 Y1.021 Z-20.672
N9040 X38.317 Y1.069 Z-20.753
N9045 X38.302 Y1.128 Z-20.824
N9050 X38.285 Y1.198 Z-20.885
N9055 X38.265 Y1.276 Z-20.935
N9060 X38.243 Y1.36 Z-20.971
N9065 X38.221 Y1.449 Z-20.993
N9070 X38.198 Y1.54 Z-21.
N9075 G3 X37.821 Y2.229 I-1.534 J-0.39
N9080 G1 X35.428 Y4.622
N9085 X35.075 Y4.942
N9090 X34.766 Y5.177
N9095 X34.391 Y5.418
N9100 X33.904 Y5.675
N9105 X33.291 Y5.935
N9110 X32.476 Y6.204
N9115 X31.544 Y6.428
N9120 X30.6 Y6.589
N9125 X29.65 Y6.704
N9130 X28.695 Y6.787
N9135 X27.74 Y6.847
N9140 X26.783 Y6.89
N9145 X25.826 Y6.921
N9150 X24.868 Y6.943
N9155 X23.911 Y6.959
N9160 X22.953 Y6.971
N9165 X21.995 Y6.979
N9170 X21.038 Y6.985
N9175 X20.08 Y6.989
N9180 X18.165 Y6.994
N9185 X15.292 Y6.998
N9190 X11.461 Y6.999
N9195 X10.988 Y7.077
N9200 X10.085 Y7.395
N9205 X9.328 Y7.982
N9210 X8.731 Y8.73
N9215 X8.275 Y9.573
N9220 X7.933 Y10.467
N9225 X7.679 Y11.39
N9230 X7.492 Y12.33
N9235 X7.356 Y13.278
N9240 X7.257 Y14.23
N9245 X7.185 Y15.185
N9250 X7.133 Y16.142
N9255 X7.095 Y17.099
N9260 X7.068 Y18.056
N9265 X7.049 Y19.013
N9270 X7.035 Y19.971
N9275 X7.025 Y20.929
N9280 X7.018 Y21.886
N9285 X7.013 Y22.844
N9290 X7.009 Y23.802
N9295 X7.005 Y25.717
N9300 X7.002 Y28.59
N9305 X7.001 Y29.548
N9310 X7.02 Y30.505
N9315 X7.083 Y31.461
N9320 X7.165 Y32.415
N9325 X7.152 Y32.627
N9330 X7.096 Y32.832
N9335 X6.999 Y33.02
N9340 X6.865 Y33.185
N9345 X4.462 Y35.588
N9350 G0 Z30.
N9355 X35.952 Y3.352
N9360 Z-19.8
N9365 G1 Z-20.4 F1600.
N9370 X35.95 Y3.359 Z-20.494
N9375 X35.945 Y3.38 Z-20.585
N9380 X35.936 Y3.415 Z-20.672
N9385 X35.924 Y3.463 Z-20.753
N9390 X35.909 Y3.522 Z-20.824
N9395 X35.891 Y3.591 Z-20.885
N9400 X35.871 Y3.669 Z-20.935
N9405 X35.85 Y3.753 Z-20.971
N9410 X35.827 Y3.842 Z-20.993
N9415 X35.804 Y3.933 Z-21.
N9420 G3 X35.428 Y4.622 I-1.534 J-0.39
N9425 G1 X32.817 Y7.234
N9430 X32.607 Y7.423
N9435 X32.297 Y7.66
N9440 X31.918 Y7.902
N9445 X31.427 Y8.162
N9450 X30.811 Y8.424
N9455 X29.988 Y8.695
N9460 X29.057 Y8.919
N9465 X28.113 Y9.08
N9470 X27.162 Y9.196
N9475 X26.208 Y9.28
N9480 X25.252 Y9.341
N9485 X24.295 Y9.385
N9490 X23.338 Y9.417
N9495 X22.381 Y9.44
N9500 X21.423 Y9.457
N9505 X20.466 Y9.469
N9510 X19.508 Y9.477
N9515 X18.55 Y9.484
N9520 X17.593 Y9.488
N9525 X15.677 Y9.494
N9530 X13.762 Y9.497
N9535 X12.838 Y9.751
N9540 X12.046 Y10.288
N9545 X11.409 Y11.003
N9550 X10.917 Y11.825
N9555 X10.544 Y12.707
N9560 X10.266 Y13.623
N9565 X10.059 Y14.559
N9570 X9.907 Y15.504
N9575 X9.796 Y16.455
N9580 X9.715 Y17.41
N9585 X9.656 Y18.366
N9590 X9.612 Y19.322
N9595 X9.581 Y20.279
N9600 X9.559 Y21.237
N9605 X9.542 Y22.194
N9610 X9.53 Y23.152
N9615 X9.522 Y24.11
N9620 X9.516 Y25.067
N9625 X9.511 Y26.025
N9630 X9.508 Y26.983
N9635 X9.509 Y27.94
N9640 X9.523 Y28.898
N9645 X9.558 Y29.898
N9650 X9.538 Y30.169
N9655 X9.465 Y30.431
N9660 X9.339 Y30.672
N9665 X9.168 Y30.882
N9670 X6.865 Y33.185
N9675 G0 Z30.
N9680 X33.341 Y5.963
N9685 Z-19.8
N9690 G1 Z-20.4 F1600.
N9695 X33.339 Y5.97 Z-20.494
N9700 X33.334 Y5.991 Z-20.585
N9705 X33.325 Y6.026 Z-20.672
N9710 X33.313 Y6.074 Z-20.753
N9715 X33.298 Y6.133 Z-20.824
N9720 X33.28 Y6.202 Z-20.885
N9725 X33.26 Y6.28 Z-20.935
N9730 X33.239 Y6.364 Z-20.971
N9735 X33.216 Y6.453 Z-20.993
N9740 X33.193 Y6.544 Z-21.
N9745 G3 X32.817 Y7.234 I-1.534 J-0.39
N9750 G1 X30.423 Y9.627
N9755 X30.103 Y9.917
N9760 X29.792 Y10.154
N9765 X29.413 Y10.397
N9770 X28.921 Y10.656
N9775 X28.303 Y10.919
N9780 X27.479 Y11.191
N9785 X26.547 Y11.415
N9790 X25.603 Y11.576
N9795 X24.653 Y11.693
N9800 X23.699 Y11.777
N9805 X22.743 Y11.838
N9810 X21.786 Y11.883
N9815 X20.829 Y11.915
N9820 X19.872 Y11.938
N9825 X18.914 Y11.955
N9830 X17.957 Y11.967
N9835 X16.999 Y11.976
N9840 X16.042 Y12.001
N9845 X15.147 Y12.342
N9850 X14.394 Y12.934
N9855 X13.796 Y13.682
N9860 X13.335 Y14.521
N9865 X12.986 Y15.413
N9870 X12.724 Y16.334
N9875 X12.53 Y17.272
N9880 X12.387 Y18.219
N9885 X12.282 Y19.171
N9890 X12.205 Y20.126
N9895 X12.149 Y21.082
N9900 X12.108 Y22.039
N9905 X12.079 Y22.996
N9910 X12.057 Y23.953
N9915 X12.041 Y24.911
N9920 X12.031 Y25.869
N9925 X12.028 Y26.826
N9930 X12.034 Y27.452
N9935 X12.01 Y27.715
N9940 X11.935 Y27.969
N9945 X11.811 Y28.202
N9950 X11.643 Y28.407
N9955 X9.168 Y30.882
N9960 G0 Z30.
N9965 X30.947 Y8.356
N9970 Z-19.8
N9975 G1 Z-20.4 F1600.
N9980 X30.946 Y8.363 Z-20.494
N9985 X30.94 Y8.385 Z-20.585
N9990 X30.931 Y8.42 Z-20.672
N9995 X30.919 Y8.467 Z-20.753
N10000 X30.904 Y8.527 Z-20.824
N10005 X30.886 Y8.596 Z-20.885
N10010 X30.867 Y8.674 Z-20.935
N10015 X30.845 Y8.758 Z-20.971
N10020 X30.823 Y8.847 Z-20.993
N10025 X30.8 Y8.938 Z-21.
N10030 G3 X30.423 Y9.627 I-1.534 J-0.39
N10035 G1 X27.977 Y12.073
N10040 X27.602 Y12.412
N10045 X27.291 Y12.65
N10050 X26.911 Y12.893
N10055 X26.419 Y13.153
N10060 X25.8 Y13.416
N10065 X24.974 Y13.689
N10070 X24.043 Y13.913
N10075 X23.099 Y14.074
N10080 X22.148 Y14.191
N10085 X21.194 Y14.275
N10090 X20.238 Y14.336
N10095 X19.282 Y14.381
N10100 X18.331 Y14.494
N10105 X17.469 Y14.911
N10110 X16.755 Y15.55
N10115 X16.191 Y16.324
N10120 X15.758 Y17.178
N10125 X15.43 Y18.078
N10130 X15.185 Y19.004
N10135 X15.002 Y19.944
N10140 X14.868 Y20.892
N10145 X14.769 Y21.845
N10150 X14.696 Y22.799
N10155 X14.643 Y23.756
N10160 X14.606 Y24.713
N10165 X14.6 Y24.934
N10170 X14.569 Y25.184
N10175 X14.492 Y25.425
N10180 X14.371 Y25.646
N10185 X14.21 Y25.84
N10190 X11.643 Y28.407
N10195 G0 Z30.
N10200 X28.502 Y10.802
N10205 Z-19.8
N10210 G1 Z-20.4 F1600.
N10215 X28.5 Y10.809 Z-20.494
N10220 X28.494 Y10.83 Z-20.585
N10225 X28.485 Y10.865 Z-20.672
N10230 X28.473 Y10.913 Z-20.753
N10235 X28.458 Y10.972 Z-20.824
N10240 X28.441 Y11.042 Z-20.885
N10245 X28.421 Y11.12 Z-20.935
N10250 X28.399 Y11.204 Z-20.971
N10255 X28.377 Y11.293 Z-20.993
N10260 X28.354 Y11.384 Z-21.
N10265 G3 X27.977 Y12.073 I-1.534 J-0.39
N10270 G1 X25.419 Y14.632
N10275 X25.113 Y14.908
N10280 X24.802 Y15.145
N10285 X24.421 Y15.389
N10290 X23.927 Y15.65
N10295 X23.308 Y15.913
N10300 X22.48 Y16.187
N10305 X21.549 Y16.41
N10310 X20.633 Y16.689
N10315 X19.823 Y17.201
N10320 X19.154 Y17.886
N10325 X18.624 Y18.684
N10330 X18.215 Y19.55
N10335 X17.904 Y20.455
N10340 X17.67 Y21.384
N10345 X17.518 Y22.201
N10350 X17.443 Y22.457
N10355 X17.319 Y22.694
N10360 X17.15 Y22.9
N10365 X14.21 Y25.84
N10370 G0 Z30.
N10375 X25.943 Y13.361
N10380 Z-19.8
N10385 G1 Z-20.4 F1600.
N10390 X25.941 Y13.368 Z-20.494
N10395 X25.936 Y13.389 Z-20.585
N10400 X25.927 Y13.424 Z-20.672
N10405 X25.915 Y13.472 Z-20.753
N10410 X25.899 Y13.531 Z-20.824
N10415 X25.882 Y13.601 Z-20.885
N10420 X25.862 Y13.678 Z-20.935
N10425 X25.841 Y13.763 Z-20.971
N10430 X25.818 Y13.851 Z-20.993
N10435 X25.795 Y13.942 Z-21.
N10440 G3 X25.419 Y14.632 I-1.534 J-0.39
N10445 G1 X17.15 Y22.9
N10450 G3 X16.741 Y23.062 I-0.409 J-0.439
N10455 X16.423 Y22.97 I0. J-0.6
N10460 G1 X16.343 Y22.921 Z-20.993
N10465 X16.265 Y22.872 Z-20.971
N10470 X16.192 Y22.826 Z-20.935
N10475 X16.124 Y22.784 Z-20.885
N10480 X16.063 Y22.746 Z-20.824
N10485 X16.011 Y22.713 Z-20.753
N10490 X15.969 Y22.687 Z-20.672
N10495 X15.939 Y22.668 Z-20.585
N10500 X15.92 Y22.656 Z-20.494
N10505 X15.914 Y22.652 Z-20.4
N10510 G0 Z80.
(2D ADAPTIVE2 2)
N10515 G0 X326.287 Y6.03
N10520 Z80.
N10525 Z30.
N10530 Z-9.4
N10535 G1 Z-10. F1600.
N10540 Z-12.
N10545 G3 X323.02 Y6.5 I-3.801 J-14.839
N10550 G1 X322.695
N10555 X322.658 Y6.498
N10560 X322.533 Y6.403
N10565 X322.39 Y6.275
N10570 X322.231 Y6.106
N10575 X322.056 Y5.886
N10580 X321.868 Y5.602
N10585 X321.666 Y5.237
N10590 X321.453 Y4.761
N10595 X321.229 Y4.126
N10600 X320.998 Y3.236
N10605 X320.916 Y2.764
N10610 X320.806 Y2.298
N10615 X320.563 Y1.885
N10620 X319.929 Y1.167
N10625 X319.121 Y0.653
N10630 X318.234 Y0.292
N10635 X317.31 Y0.041
N10640 X316.368 Y-0.132
N10645 X315.418 Y-0.25
N10650 X314.463 Y-0.33
N10655 X313.507 Y-0.385
N10660 X312.55 Y-0.422
N10665 X311.593 Y-0.447
N10670 X310.635 Y-0.464
N10675 X309.678 Y-0.476
N10680 X308.72 Y-0.484
N10685 X307.762 Y-0.489
N10690 X306.805 Y-0.493
N10695 X304.889 Y-0.497
N10700 X302.016 Y-0.499
N10705 X290.524 Y-0.5
N10710 X276.158
N10715 X225.4
N10720 X174.642
N10725 X123.885
N10730 X73.127
N10735 X22.369
N10740 X2.736
N10745 X2.273 Y-0.379
N10750 X1.863 Y-0.131
N10755 X1.151 Y0.51
N10760 X0.642 Y1.321
N10765 X0.284 Y2.209
N10770 X0.035 Y3.134
N10775 X-0.135 Y4.076
N10780 X-0.252 Y5.027
N10785 X-0.273 Y5.278
N10790 X-0.326 Y5.555
N10795 X-0.437 Y5.816
N10800 X-0.6 Y6.047
N10805 X-0.808 Y6.238
N10810 X-1.052 Y6.381
N10815 X-1.321 Y6.47
N10820 X-1.602 Y6.5
N10825 G3 X-2.165 Y6.035 I0.021 J-0.6
N10830 G1 X-2.187 Y5.944 Z-11.993
N10835 X-2.207 Y5.855 Z-11.971
N10840 X-2.227 Y5.77 Z-11.935
N10845 X-2.245 Y5.692 Z-11.885
N10850 X-2.261 Y5.622 Z-11.824
N10855 X-2.275 Y5.562 Z-11.753
N10860 X-2.286 Y5.514 Z-11.672
N10865 X-2.294 Y5.479 Z-11.585
N10870 X-2.299 Y5.458 Z-11.494
N10875 X-2.3 Y5.451 Z-11.4
N10880 G0 Z30.
N10885 X323.964 Y5.972
N10890 Z-10.8
N10895 G1 Z-11.4 F1600.
N10900 X323.958 Y5.976 Z-11.494
N10905 X323.939 Y5.987 Z-11.585
N10910 X323.908 Y6.005 Z-11.672
N10915 X323.866 Y6.031 Z-11.753
N10920 X323.813 Y6.062 Z-11.824
N10925 X323.752 Y6.098 Z-11.885
N10930 X323.683 Y6.139 Z-11.935
N10935 X323.608 Y6.184 Z-11.971
N10940 X323.529 Y6.231 Z-11.993
N10945 X323.449 Y6.279 Z-12.
N10950 G3 X322.695 Y6.5 I-0.809 J-1.36
N10955 G1 X321.781
N10960 X321.631 Y6.492
N10965 X321.46 Y6.428
N10970 X321.266 Y6.337
N10975 X321.051 Y6.212
N10980 X320.839 Y6.064
N10985 X320.598 Y5.864
N10990 X320.345 Y5.616
N10995 X319.719 Y4.891
N11000 X319.045 Y4.211
N11005 X318.262 Y3.659
N11010 X317.408 Y3.227
N11015 X316.508 Y2.898
N11020 X315.583 Y2.652
N11025 X314.642 Y2.47
N11030 X313.694 Y2.337
N11035 X312.741 Y2.241
N11040 X311.786 Y2.172
N11045 X310.83 Y2.122
N11050 X309.872 Y2.086
N11055 X308.915 Y2.061
N11060 X307.958 Y2.043
N11065 X307. Y2.03
N11070 X306.042 Y2.021
N11075 X305.085 Y2.015
N11080 X304.127 Y2.01
N11085 X302.212 Y2.005
N11090 X299.339 Y2.002
N11095 X292.635 Y2.
N11100 X272.523
N11105 X221.765
N11110 X171.007
N11115 X120.249
N11120 X69.491
N11125 X18.733
N11130 X6.283
N11135 X5.805 Y2.023
N11140 X5.344 Y2.154
N11145 X4.491 Y2.589
N11150 X3.818 Y3.271
N11155 X3.3 Y4.076
N11160 X2.85 Y4.921
N11165 X2.403 Y5.737
N11170 X2.293 Y5.903
N11175 X2.127 Y6.106
N11180 X1.925 Y6.273
N11185 X1.693 Y6.398
N11190 X1.442 Y6.474
N11195 X1.181 Y6.5
N11200 X0.058
N11205 G3 X-0.506 Y6.035 I0.021 J-0.6
N11210 G1 X-0.527 Y5.944 Z-11.993
N11215 X-0.547 Y5.855 Z-11.971
N11220 X-0.567 Y5.77 Z-11.935
N11225 X-0.585 Y5.692 Z-11.885
N11230 X-0.601 Y5.622 Z-11.824
N11235 X-0.615 Y5.562 Z-11.753
N11240 X-0.626 Y5.514 Z-11.672
N11245 X-0.634 Y5.479 Z-11.585
N11250 X-0.639 Y5.458 Z-11.494
N11255 X-0.641 Y5.451 Z-11.4
N11260 G0 Z30.
N11265 X323.05 Y5.972
N11270 Z-10.8
N11275 G1 Z-11.4 F1600.
N11280 X323.044 Y5.976 Z-11.494
N11285 X323.025 Y5.987 Z-11.585
N11290 X322.994 Y6.005 Z-11.672
N11295 X322.951 Y6.031 Z-11.753
N11300 X322.899 Y6.062 Z-11.824
N11305 X322.837 Y6.098 Z-11.885
N11310 X322.768 Y6.139 Z-11.935
N11315 X322.694 Y6.184 Z-11.971
N11320 X322.615 Y6.231 Z-11.993
N11325 X322.534 Y6.279 Z-12.
N11330 G3 X321.781 Y6.5 I-0.809 J-1.36
N11335 G1 X320.475
N11340 X320.175 Y6.485
N11345 X319.777 Y6.432
N11350 X318.841 Y6.226
N11355 X317.924 Y5.951
N11360 X317.006 Y5.678
N11365 X316.079 Y5.435
N11370 X315.144 Y5.23
N11375 X314.201 Y5.063
N11380 X313.253 Y4.929
N11385 X312.301 Y4.824
N11390 X311.346 Y4.743
N11395 X310.391 Y4.682
N11400 X309.434 Y4.635
N11405 X308.477 Y4.599
N11410 X307.52 Y4.573
N11415 X306.562 Y4.553
N11420 X305.605 Y4.539
N11425 X304.647 Y4.528
N11430 X303.689 Y4.521
N11435 X302.732 Y4.515
N11440 X301.774 Y4.511
N11445 X299.859 Y4.506
N11450 X296.986 Y4.502
N11455 X291.239 Y4.5
N11460 X270.17
N11465 X219.412
N11470 X168.654
N11475 X117.896
N11480 X67.138
N11485 X16.38
N11490 X8.719
N11495 X7.779 Y4.684
N11500 X6.933 Y5.133
N11505 X6.182 Y5.728
N11510 X5.738 Y6.142
N11515 X5.54 Y6.294
N11520 X5.317 Y6.407
N11525 X5.077 Y6.477
N11530 X4.829 Y6.5
N11535 X1.181
N11540 G3 X0.618 Y6.035 I0.021 J-0.6
N11545 G1 X0.596 Y5.944 Z-11.993
N11550 X0.576 Y5.855 Z-11.971
N11555 X0.556 Y5.77 Z-11.935
N11560 X0.538 Y5.692 Z-11.885
N11565 X0.522 Y5.622 Z-11.824
N11570 X0.508 Y5.562 Z-11.753
N11575 X0.497 Y5.514 Z-11.672
N11580 X0.489 Y5.479 Z-11.585
N11585 X0.484 Y5.458 Z-11.494
N11590 X0.483 Y5.451 Z-11.4
N11595 G0 Z30.
N11600 X321.744 Y5.972
N11605 Z-10.8
N11610 G1 Z-11.4 F1600.
N11615 X321.738 Y5.976 Z-11.494
N11620 X321.719 Y5.987 Z-11.585
N11625 X321.688 Y6.005 Z-11.672
N11630 X321.646 Y6.031 Z-11.753
N11635 X321.593 Y6.062 Z-11.824
N11640 X321.532 Y6.098 Z-11.885
N11645 X321.463 Y6.139 Z-11.935
N11650 X321.388 Y6.184 Z-11.971
N11655 X321.309 Y6.231 Z-11.993
N11660 X321.229 Y6.279 Z-12.
N11665 G3 X320.475 Y6.5 I-0.809 J-1.36
N11670 G1 X4.829
N11675 G3 X4.265 Y6.035 I0.021 J-0.6
N11680 G1 X4.244 Y5.944 Z-11.993
N11685 X4.223 Y5.855 Z-11.971
N11690 X4.204 Y5.77 Z-11.935
N11695 X4.186 Y5.692 Z-11.885
N11700 X4.169 Y5.622 Z-11.824
N11705 X4.156 Y5.562 Z-11.753
N11710 X4.145 Y5.514 Z-11.672
N11715 X4.137 Y5.479 Z-11.585
N11720 X4.132 Y5.458 Z-11.494
N11725 X4.13 Y5.451 Z-11.4
N11730 G0 Z80.
(2D ADAPTIVE1)
N11735 G0 X64.163 Y-6.203
N11740 Z80.
N11745 Z30.
N11750 Z-5.4
N11755 G1 Z-6. F1000.
N11760 Z-8.
N11765 G3 X63.347 Y-3.005 I-15.164 J-2.167
N11770 G1 X63.217 Y-2.69
N11775 X63.153 Y-2.555
N11780 X63.027 Y-2.42
N11785 X62.861 Y-2.27
N11790 X62.648 Y-2.106
N11795 X62.374 Y-1.927
N11800 X62.022 Y-1.737
N11805 X61.565 Y-1.535
N11810 X60.957 Y-1.323
N11815 X60.113 Y-1.103
N11820 X59.17 Y-0.936
N11825 X58.219 Y-0.825
N11830 X57.264 Y-0.751
N11835 X56.308 Y-0.702
N11840 X55.35 Y-0.668
N11845 X54.393 Y-0.646
N11850 X53.435 Y-0.631
N11855 X52.478 Y-0.621
N11860 X51.52 Y-0.614
N11865 X50.562 Y-0.61
N11870 X49.605 Y-0.606
N11875 X47.689 Y-0.603
N11880 X43.859 Y-0.601
N11885 X33.465 Y-0.6
N11890 X33.192 Y-0.627
N11895 X32.929 Y-0.707
N11900 X32.687 Y-0.836
N11905 X32.475 Y-1.01
N11910 X31.447 Y-2.039
N11915 G0 Z30.
N11920 X63.215 Y-4.065
N11925 Z-6.8
N11930 G1 Z-7.4 F1000.
N11935 X63.216 Y-4.058 Z-7.494
N11940 X63.219 Y-4.036 Z-7.585
N11945 X63.224 Y-4. Z-7.672
N11950 X63.231 Y-3.952 Z-7.753
N11955 X63.24 Y-3.891 Z-7.824
N11960 X63.25 Y-3.82 Z-7.885
N11965 X63.262 Y-3.741 Z-7.935
N11970 X63.274 Y-3.655 Z-7.971
N11975 X63.287 Y-3.564 Z-7.993
N11980 X63.301 Y-3.471 Z-8.
N11985 G3 X63.217 Y-2.69 I-1.566 J0.227
N11990 G1 X62.677 Y-1.387
N11995 X62.613 Y-1.252
N12000 X62.515 Y-1.082
N12005 X62.38 Y-0.886
N12010 X62.211 Y-0.68
N12015 X62.012 Y-0.473
N12020 X61.751 Y-0.241
N12025 X61.442 Y-0.009
N12030 X61.058 Y0.235
N12035 X60.584 Y0.484
N12040 X59.98 Y0.743
N12045 X59.209 Y1.002
N12050 X58.279 Y1.232
N12055 X57.336 Y1.397
N12060 X56.385 Y1.514
N12065 X55.431 Y1.598
N12070 X54.475 Y1.657
N12075 X53.518 Y1.699
N12080 X52.561 Y1.729
N12085 X51.604 Y1.75
N12090 X50.646 Y1.765
N12095 X49.689 Y1.775
N12100 X48.731 Y1.783
N12105 X47.773 Y1.788
N12110 X46.816 Y1.792
N12115 X44.9 Y1.796
N12120 X42.027 Y1.799
N12125 X36.281 Y1.8
N12130 X35.863
N12135 X35.591 Y1.772
N12140 X35.328 Y1.693
N12145 X35.087 Y1.563
N12150 X34.875 Y1.389
N12155 X32.475 Y-1.01
N12160 G0 Z30.
N12165 X62.675 Y-2.762
N12170 Z-6.8
N12175 G1 Z-7.4 F1000.
N12180 X62.676 Y-2.754 Z-7.494
N12185 X62.679 Y-2.733 Z-7.585
N12190 X62.684 Y-2.697 Z-7.672
N12195 X62.691 Y-2.648 Z-7.753
N12200 X62.7 Y-2.588 Z-7.824
N12205 X62.71 Y-2.517 Z-7.885
N12210 X62.722 Y-2.438 Z-7.935
N12215 X62.734 Y-2.351 Z-7.971
N12220 X62.747 Y-2.261 Z-7.993
N12225 X62.761 Y-2.168 Z-8.
N12230 G3 X62.677 Y-1.387 I-1.566 J0.227
N12235 G1 X61.867 Y0.568
N12240 X61.767 Y0.78
N12245 X61.652 Y0.979
N12250 X61.494 Y1.208
N12255 X61.313 Y1.43
N12260 X61.079 Y1.674
N12265 X60.781 Y1.939
N12270 X60.441 Y2.195
N12275 X60. Y2.475
N12280 X59.48 Y2.75
N12285 X58.817 Y3.034
N12290 X57.963 Y3.321
N12295 X57.034 Y3.553
N12300 X56.092 Y3.724
N12305 X55.142 Y3.851
N12310 X54.189 Y3.945
N12315 X53.234 Y4.014
N12320 X52.278 Y4.065
N12325 X51.321 Y4.102
N12330 X50.363 Y4.129
N12335 X49.406 Y4.149
N12340 X48.448 Y4.163
N12345 X47.491 Y4.173
N12350 X46.533 Y4.181
N12355 X45.575 Y4.186
N12360 X44.618 Y4.19
N12365 X42.702 Y4.195
N12370 X39.829 Y4.198
N12375 X38.264 Y4.199
N12380 X37.991 Y4.172
N12385 X37.728 Y4.092
N12390 X37.486 Y3.963
N12395 X37.274 Y3.789
N12400 X34.875 Y1.389
N12405 G3 X34.904 Y0.542 Z-7.8 I0.439 J-0.409
N12410 X35.299 Y0.38 I0.41 J0.438
N12415 G1 X61.291 Y-0.242
N12420 X61.367 Y-0.239
N12425 X61.443 Y-0.226
N12430 X61.516 Y-0.204
N12435 G3 X61.867 Y0.568 Z-8. I-0.211 J0.562
N12440 G1 X60.967 Y2.74
N12445 X60.852 Y2.984
N12450 X60.734 Y3.188
N12455 X60.576 Y3.418
N12460 X60.367 Y3.674
N12465 X60.131 Y3.92
N12470 X59.82 Y4.196
N12475 X59.454 Y4.473
N12480 X58.992 Y4.766
N12485 X58.44 Y5.057
N12490 X57.734 Y5.36
N12495 X56.829 Y5.665
N12500 X55.899 Y5.896
N12505 X54.958 Y6.072
N12510 X54.009 Y6.204
N12515 X53.057 Y6.304
N12520 X52.102 Y6.379
N12525 X51.146 Y6.436
N12530 X50.189 Y6.478
N12535 X49.232 Y6.51
N12540 X48.275 Y6.534
N12545 X47.317 Y6.551
N12550 X46.36 Y6.564
N12555 X45.402 Y6.574
N12560 X44.444 Y6.581
N12565 X43.487 Y6.586
N12570 X42.529 Y6.59
N12575 X40.663 Y6.594
N12580 X40.389 Y6.568
N12585 X40.125 Y6.488
N12590 X39.882 Y6.359
N12595 X39.67 Y6.184
N12600 X37.274 Y3.789
N12605 G3 X37.303 Y2.941 Z-7.8 I0.439 J-0.409
N12610 X37.69 Y2.78 I0.41 J0.438
N12615 G1 X60.383 Y1.931
N12620 X60.462 Y1.933
N12625 X60.54 Y1.945
N12630 X60.616 Y1.968
N12635 G3 X60.967 Y2.74 Z-8. I-0.211 J0.562
N12640 G1 X59.991 Y5.099
N12645 X59.92 Y5.247
N12650 X59.794 Y5.466
N12655 X59.636 Y5.696
N12660 X59.422 Y5.958
N12665 X59.171 Y6.22
N12670 X58.86 Y6.496
N12675 X58.472 Y6.789
N12680 X58.004 Y7.086
N12685 X57.426 Y7.391
N12690 X56.693 Y7.705
N12695 X55.785 Y8.01
N12700 X54.857 Y8.245
N12705 X53.916 Y8.425
N12710 X52.968 Y8.562
N12715 X52.017 Y8.668
N12720 X51.062 Y8.748
N12725 X50.107 Y8.81
N12730 X49.15 Y8.857
N12735 X48.193 Y8.892
N12740 X47.236 Y8.919
N12745 X46.278 Y8.94
N12750 X45.321 Y8.955
N12755 X44.363 Y8.966
N12760 X43.405 Y8.975
N12765 X43.048 Y8.977
N12770 X42.773 Y8.951
N12775 X42.509 Y8.871
N12780 X42.265 Y8.742
N12785 X42.052 Y8.567
N12790 X39.67 Y6.184
N12795 G3 X39.699 Y5.337 Z-7.8 I0.439 J-0.409
N12800 X40.081 Y5.176 I0.41 J0.438
N12805 G1 X59.401 Y4.289
N12810 X59.482 Y4.291
N12815 X59.562 Y4.303
N12820 X59.639 Y4.327
N12825 G3 X59.991 Y5.099 Z-8. I-0.211 J0.562
N12830 G1 X59.078 Y7.302
N12835 X58.956 Y7.56
N12840 X58.824 Y7.787
N12845 X58.666 Y8.017
N12850 X58.452 Y8.28
N12855 X58.193 Y8.55
N12860 X57.88 Y8.829
N12865 X57.482 Y9.128
N12870 X57.007 Y9.429
N12875 X56.416 Y9.741
N12880 X55.666 Y10.063
N12885 X54.758 Y10.369
N12890 X53.83 Y10.605
N12895 X52.89 Y10.788
N12900 X51.943 Y10.929
N12905 X50.991 Y11.039
N12910 X50.037 Y11.123
N12915 X49.082 Y11.188
N12920 X48.126 Y11.238
N12925 X47.169 Y11.277
N12930 X46.211 Y11.307
N12935 X45.424 Y11.325
N12940 X45.142 Y11.303
N12945 X44.87 Y11.225
N12950 X44.62 Y11.094
N12955 X44.401 Y10.915
N12960 X42.052 Y8.567
N12965 G3 X42.081 Y7.719 Z-7.8 I0.439 J-0.409
N12970 X42.451 Y7.559 I0.41 J0.438
N12975 G1 X58.476 Y6.493
N12980 G3 X58.726 Y6.53 I0.04 J0.599
N12985 X59.078 Y7.302 Z-8. I-0.211 J0.562
N12990 G1 X58.088 Y9.692
N12995 X58. Y9.879
N13000 X57.866 Y10.113
N13005 X57.709 Y10.343
N13010 X57.498 Y10.604
N13015 X57.233 Y10.882
N13020 X56.922 Y11.161
N13025 X56.52 Y11.466
N13030 X56.047 Y11.769
N13035 X55.449 Y12.087
N13040 X54.694 Y12.414
N13045 X53.787 Y12.723
N13050 X52.86 Y12.963
N13055 X51.921 Y13.151
N13060 X50.974 Y13.296
N13065 X50.023 Y13.41
N13070 X49.07 Y13.498
N13075 X48.114 Y13.567
N13080 X47.726 Y13.587
N13085 X47.434 Y13.572
N13090 X47.152 Y13.496
N13095 X46.891 Y13.363
N13100 X46.664 Y13.179
N13105 X44.401 Y10.915
N13110 G3 X44.43 Y10.068 Z-7.8 I0.439 J-0.409
N13115 X44.791 Y9.908 I0.41 J0.438
N13120 G1 X57.477 Y8.885
N13125 G3 X57.734 Y8.921 I0.048 J0.598
N13130 X58.088 Y9.692 Z-8. I-0.208 J0.563
N13135 G1 X58. Y9.909
N13140 X57.913 Y10.126
N13145 X57.835 Y10.343
N13150 X57.769 Y10.56
N13155 X57.725 Y10.778
N13160 X57.692 Y10.995
N13165 X57.671 Y11.212
N13170 X57.656 Y11.361
N13175 X57.616 Y11.531
N13180 X57.552 Y11.728
N13185 X57.461 Y11.947
N13190 X57.346 Y12.17
N13195 X57.186 Y12.428
N13200 X56.992 Y12.691
N13205 X56.749 Y12.971
N13210 X56.434 Y13.28
N13215 X56.076 Y13.578
N13220 X55.612 Y13.905
N13225 X55.061 Y14.231
N13230 X54.374 Y14.566
N13235 X53.497 Y14.909
N13240 X52.58 Y15.185
N13245 X51.648 Y15.403
N13250 X50.706 Y15.575
N13255 X49.958 Y15.682
N13260 X49.634 Y15.69
N13265 X49.318 Y15.624
N13270 X49.024 Y15.486
N13275 X48.771 Y15.285
N13280 X46.664 Y13.179
N13285 G3 X46.694 Y12.331 Z-7.8 I0.439 J-0.409
N13290 X47.011 Y12.177 I0.41 J0.438
N13295 G1 X56.979 Y10.627
N13300 X57.064 Y10.619
N13305 G3 X57.671 Y11.212 Z-8. I0.007 J0.6
N13310 G1 X57.666 Y11.429
N13315 X57.675 Y11.647
N13320 X57.695 Y11.864
N13325 X57.729 Y12.081
N13330 X57.781 Y12.298
N13335 X57.811 Y12.445
N13340 X57.822 Y12.6
N13345 X57.821 Y12.763
N13350 X57.804 Y12.957
N13355 X57.771 Y13.155
N13360 X57.712 Y13.387
N13365 X57.631 Y13.626
N13370 X57.516 Y13.891
N13375 X57.367 Y14.171
N13380 X57.178 Y14.466
N13385 X56.935 Y14.787
N13390 X56.646 Y15.109
N13395 X56.271 Y15.466
N13400 X55.847 Y15.809
N13405 X55.313 Y16.174
N13410 X54.657 Y16.549
N13415 X53.876 Y16.916
N13420 X52.979 Y17.252
N13425 X52.164 Y17.492
N13430 X51.924 Y17.543
N13435 X51.648 Y17.572
N13440 X51.372 Y17.547
N13445 X51.107 Y17.468
N13450 X50.862 Y17.338
N13455 X50.647 Y17.162
N13460 X48.771 Y15.285
N13465 G3 X48.8 Y14.438 Z-7.8 I0.439 J-0.409
N13470 X49.037 Y14.302 I0.41 J0.438
N13475 G1 X57.032 Y11.894
N13480 X57.035
N13485 G3 X57.781 Y12.298 Z-8. I0.17 J0.575
N13490 G1 X57.814 Y12.427
N13495 X57.922 Y12.733
N13500 X58.02 Y12.95
N13505 X58.032 Y12.975
N13510 X58.142 Y13.167
N13515 X58.211 Y13.301
N13520 X58.269 Y13.439
N13525 X58.314 Y13.582
N13530 X58.349 Y13.742
N13535 X58.373 Y13.919
N13540 X58.385 Y14.117
N13545 X58.38 Y14.335
N13550 X58.355 Y14.574
N13555 X58.307 Y14.836
N13560 X58.231 Y15.115
N13565 X58.123 Y15.415
N13570 X57.978 Y15.736
N13575 X57.792 Y16.073
N13580 X57.552 Y16.435
N13585 X57.263 Y16.804
N13590 X56.891 Y17.206
N13595 X56.473 Y17.591
N13600 X55.933 Y18.014
N13605 X55.317 Y18.421
N13610 X54.68 Y18.771
N13615 X54.132 Y19.018
N13620 X53.676 Y19.181
N13625 X53.661 Y19.185
N13630 X53.372 Y19.231
N13635 X53.08 Y19.216
N13640 X52.797 Y19.14
N13645 X52.536 Y19.007
N13650 X52.308 Y18.823
N13655 X50.647 Y17.162
N13660 G3 X50.677 Y16.315 Z-7.8 I0.439 J-0.409
N13665 G1 X50.744 Y16.26
N13670 X50.818 Y16.216
N13675 X57.314 Y12.976
N13680 X57.366 Y12.95 Z-7.812
N13685 G3 X58.142 Y13.167 Z-8. I0.268 J0.537
N13690 G1 X58.249 Y13.352
N13695 X58.432 Y13.602
N13700 X58.623 Y13.819
N13705 X58.685 Y13.885
N13710 X58.767 Y13.968
N13715 X58.868 Y14.08
N13720 X58.954 Y14.202
N13725 X59.029 Y14.332
N13730 X59.099 Y14.482
N13735 X59.159 Y14.643
N13740 X59.213 Y14.835
N13745 X59.253 Y15.038
N13750 X59.281 Y15.276
N13755 X59.29 Y15.523
N13760 X59.277 Y15.807
N13765 X59.24 Y16.1
N13770 X59.171 Y16.43
N13775 X59.07 Y16.774
N13780 X58.929 Y17.14
N13785 X58.738 Y17.538
N13790 X58.505 Y17.938
N13795 X58.197 Y18.38
N13800 X57.843 Y18.812
N13805 X57.419 Y19.25
N13810 X56.937 Y19.675
N13815 X56.433 Y20.051
N13820 X55.999 Y20.324
N13825 X55.615 Y20.524
N13830 X55.356 Y20.634
N13835 X55.092 Y20.716
N13840 X54.817 Y20.745
N13845 X54.542 Y20.719
N13850 X54.278 Y20.64
N13855 X54.034 Y20.51
N13860 X53.82 Y20.335
N13865 X52.308 Y18.823
N13870 G3 X52.337 Y17.975 Z-7.8 I0.439 J-0.409
N13875 G1 X52.398 Y17.925
N13880 X57.912 Y13.987
N13885 X58.009 Y13.918 Z-7.825
N13890 G3 X58.767 Y13.968 Z-8. I0.349 J0.488
N13895 G1 X59.704 Y14.905
N13900 X59.845 Y15.06
N13905 X59.936 Y15.179
N13910 X60.026 Y15.319
N13915 X60.111 Y15.476
N13920 X60.192 Y15.661
N13925 X60.261 Y15.862
N13930 X60.322 Y16.097
N13935 X60.365 Y16.346
N13940 X60.391 Y16.634
N13945 X60.395 Y16.932
N13950 X60.371 Y17.274
N13955 X60.318 Y17.63
N13960 X60.228 Y18.015
N13965 X60.093 Y18.436
N13970 X59.92 Y18.856
N13975 X59.687 Y19.315
N13980 X59.396 Y19.788
N13985 X59.06 Y20.247
N13990 X58.677 Y20.691
N13995 X58.265 Y21.097
N14000 X57.862 Y21.436
N14005 X57.502 Y21.692
N14010 X57.139 Y21.908
N14015 X56.811 Y22.069
N14020 X56.766 Y22.087
N14025 X56.452 Y22.171
N14030 X56.128 Y22.18
N14035 X55.81 Y22.114
N14040 X55.516 Y21.977
N14045 X55.261 Y21.776
N14050 X53.82 Y20.335
N14055 G3 X53.849 Y19.487 Z-7.8 I0.439 J-0.409
N14060 G1 X53.855 Y19.482
N14065 X58.855 Y14.933
N14070 X58.891 Y14.9 Z-7.81
N14075 G3 X59.704 Y14.905 Z-8. I0.404 J0.444
N14080 G1 X60.861 Y16.062
N14085 X61. Y16.216
N14090 X61.098 Y16.343
N14095 X61.2 Y16.5
N14100 X61.292 Y16.671
N14105 X61.383 Y16.879
N14110 X61.46 Y17.1
N14115 X61.528 Y17.362
N14120 X61.576 Y17.638
N14125 X61.605 Y17.956
N14130 X61.609 Y18.294
N14135 X61.584 Y18.665
N14140 X61.523 Y19.073
N14145 X61.426 Y19.488
N14150 X61.281 Y19.942
N14155 X61.086 Y20.418
N14160 X60.848 Y20.888
N14165 X60.559 Y21.359
N14170 X60.227 Y21.813
N14175 X59.858 Y22.242
N14180 X59.484 Y22.612
N14185 X59.129 Y22.91
N14190 X58.799 Y23.145
N14195 X58.47 Y23.342
N14200 X58.268 Y23.441
N14205 X57.965 Y23.55
N14210 X57.645 Y23.586
N14215 X57.325 Y23.548
N14220 X57.022 Y23.438
N14225 X56.753 Y23.262
N14230 X56.726 Y23.239
N14235 X56.645 Y23.16
N14240 X55.261 Y21.776
N14245 G3 X55.27 Y20.947 Z-7.806 I0.439 J-0.409
N14250 G1 X55.29 Y20.927 Z-7.8
N14255 X60.013 Y16.091
N14260 X60.023 Y16.082 Z-7.803
N14265 G3 X60.861 Y16.062 Z-8. I0.429 J0.419
N14270 G1 X62.094 Y17.295
N14275 X62.238 Y17.454
N14280 X62.347 Y17.596
N14285 X62.451 Y17.757
N14290 X62.554 Y17.947
N14295 X62.647 Y18.159
N14300 X62.732 Y18.404
N14305 X62.802 Y18.674
N14310 X62.855 Y18.978
N14315 X62.886 Y19.315
N14320 X62.89 Y19.672
N14325 X62.863 Y20.076
N14330 X62.801 Y20.489
N14335 X62.698 Y20.934
N14340 X62.545 Y21.411
N14345 X62.348 Y21.892
N14350 X62.105 Y22.37
N14355 X61.817 Y22.84
N14360 X61.491 Y23.287
N14365 X61.137 Y23.698
N14370 X60.791 Y24.04
N14375 X60.564 Y24.231
N14380 X60.364 Y24.371
N14385 X60.142 Y24.475
N14390 X59.906 Y24.538
N14395 X59.663 Y24.559
N14400 G3 X59.084 Y23.939 Z-7.8 I0.021 J-0.6
N14405 G1 X59.093 Y23.857
N14410 X59.112 Y23.776
N14415 X61.113 Y17.55
N14420 G3 X61.246 Y17.324 I0.571 J0.184
N14425 X62.094 Y17.295 Z-8. I0.438 J0.41
N14430 G1 X62.385 Y17.586
N14435 X62.506 Y17.729
N14440 X63.038 Y18.391
N14445 X63.114 Y18.494
N14450 X63.169 Y18.598
N14455 X63.482 Y19.25
N14460 X63.518 Y19.358
N14465 X63.691 Y20.119
N14470 X63.702 Y20.227
N14475 Y20.987
N14480 X63.699 Y21.042
N14485 X63.691 Y21.097
N14490 X63.617 Y21.422
N14495 X63.518 Y21.856
N14500 X63.499 Y21.92
N14505 X63.473 Y21.984
N14510 X63.22 Y22.508
N14515 X63.11 Y22.725
N14520 X63.038 Y22.822
N14525 X62.595 Y23.377
N14530 X62.542 Y23.431
N14535 X62.49 Y23.477
N14540 X61.949 Y23.907
N14545 X61.851 Y23.978
N14550 X61.732 Y24.039
N14555 X61.296 Y24.249
N14560 X61.079 Y24.351
N14565 X60.861 Y24.407
N14570 X60.426 Y24.507
N14575 X60.208 Y24.553
N14580 X59.991 Y24.559
N14585 X59.555
N14590 X59.338 Y24.558
N14595 X59.12 Y24.518
N14600 X58.685 Y24.418
N14605 X58.467 Y24.367
N14610 X58.249 Y24.272
N14615 X57.744 Y24.029
N14620 X57.596 Y23.945
N14625 X57.155 Y23.594
N14630 X56.891 Y23.377
N14635 X56.753 Y23.262
N14640 X56.689 Y23.195
N14645 X56.636 Y23.119
N14650 X56.61 Y23.05 Z-7.995
N14655 X56.585 Y22.981 Z-7.982
N14660 X56.561 Y22.915 Z-7.959
N14665 X56.557 Y22.864 Z-7.936
N14670 X56.553 Y22.814 Z-7.908
N14675 X56.565 Y22.749 Z-7.859
N14680 X56.575 Y22.691 Z-7.802
N14685 X56.584 Y22.642 Z-7.737
N14690 X56.592 Y22.601 Z-7.666
N14695 X56.606 Y22.57 Z-7.581
N14700 X56.614 Y22.551 Z-7.492
N14705 X56.617 Y22.544 Z-7.4
N14710 G0 Z30.
N14715 X291.814 Y-6.175
N14720 Z-6.8
N14725 G1 Z-7.4 F1000.
N14730 X291.811 Y-6.169 Z-7.494
N14735 X291.799 Y-6.15 Z-7.585
N14740 X291.781 Y-6.119 Z-7.672
N14745 X291.756 Y-6.076 Z-7.753
N14750 X291.725 Y-6.024 Z-7.824
N14755 X291.688 Y-5.962 Z-7.885
N14760 X291.647 Y-5.893 Z-7.935
N14765 X291.603 Y-5.818 Z-7.971
N14770 X291.556 Y-5.739 Z-7.993
N14775 X291.509 Y-5.659 Z-8.
N14780 G3 X289.531 Y-3.017 I-13.18 J-7.805
N14785 G1 X288.987 Y-2.473
N14790 X288.759 Y-2.266
N14795 X288.544 Y-2.101
N14800 X288.268 Y-1.923
N14805 X287.914 Y-1.732
N14810 X287.454 Y-1.53
N14815 X286.842 Y-1.318
N14820 X285.99 Y-1.097
N14825 X285.047 Y-0.932
N14830 X284.095 Y-0.823
N14835 X283.14 Y-0.75
N14840 X282.184 Y-0.701
N14845 X281.227 Y-0.668
N14850 X280.269 Y-0.646
N14855 X279.312 Y-0.631
N14860 X278.354 Y-0.621
N14865 X277.396 Y-0.614
N14870 X276.439 Y-0.609
N14875 X274.523 Y-0.604
N14880 X271.65 Y-0.601
N14885 X263.031 Y-0.6
N14890 X258.584
N14895 X258.311 Y-0.627
N14900 X258.049 Y-0.707
N14905 X257.806 Y-0.836
N14910 X257.594 Y-1.01
N14915 X257.42 Y-1.222
N14920 X257.291 Y-1.464
N14925 G3 X257.504 Y-2.163 I0.562 J-0.21
N14930 G1 X257.581 Y-2.217 Z-7.993
N14935 X257.655 Y-2.271 Z-7.971
N14940 X257.726 Y-2.321 Z-7.935
N14945 X257.792 Y-2.368 Z-7.885
N14950 X257.85 Y-2.409 Z-7.824
N14955 X257.9 Y-2.445 Z-7.753
N14960 X257.94 Y-2.473 Z-7.672
N14965 X257.969 Y-2.494 Z-7.585
N14970 X257.987 Y-2.507 Z-7.494
N14975 X257.993 Y-2.511 Z-7.4
N14980 G0 Z30.
N14985 X289.418 Y-3.572
N14990 Z-6.8
N14995 G1 Z-7.4 F1000.
N15000 X289.416 Y-3.565 Z-7.494
N15005 X289.41 Y-3.543 Z-7.585
N15010 X289.401 Y-3.508 Z-7.672
N15015 X289.389 Y-3.461 Z-7.753
N15020 X289.374 Y-3.401 Z-7.824
N15025 X289.357 Y-3.332 Z-7.885
N15030 X289.337 Y-3.254 Z-7.935
N15035 X289.315 Y-3.17 Z-7.971
N15040 X289.293 Y-3.081 Z-7.993
N15045 X289.27 Y-2.99 Z-8.
N15050 G3 X288.987 Y-2.473 I-1.15 J-0.292
N15055 G1 X286.815 Y-0.301
N15060 X286.632 Y-0.135
N15065 X286.358 Y0.075
N15070 X286.023 Y0.292
N15075 X285.596 Y0.522
N15080 X285.058 Y0.759
N15085 X284.357 Y1.002
N15090 X283.43 Y1.242
N15095 X282.487 Y1.409
N15100 X281.537 Y1.526
N15105 X280.583 Y1.609
N15110 X279.627 Y1.666
N15115 X278.67 Y1.706
N15120 X277.713 Y1.735
N15125 X276.755 Y1.754
N15130 X275.797 Y1.768
N15135 X274.84 Y1.778
N15140 X273.882 Y1.785
N15145 X272.924 Y1.789
N15150 X271.009 Y1.795
N15155 X268.136 Y1.798
N15160 X261.432 Y1.8
N15165 X260.474 Y1.799
N15170 X259.727 Y1.765
N15175 X259.374 Y1.72
N15180 X259.088 Y1.653
N15185 X258.822 Y1.527
N15190 X258.588 Y1.349
N15195 X258.397 Y1.126
N15200 X258.257 Y0.867
N15205 X257.291 Y-1.464
N15210 G3 X257.642 Y-2.236 Z-7.8 I0.562 J-0.21
N15215 G1 X257.72 Y-2.26
N15220 X257.8 Y-2.272
N15225 X257.882 Y-2.274
N15230 X287.284 Y-0.866
N15235 X287.321 Y-0.871
N15240 X287.354 Y-0.89
N15245 X287.377 Y-0.919
N15250 X287.388 Y-0.955
N15255 X287.385 Y-0.993
N15260 X287.368 Y-1.026
N15265 X287.34 Y-1.051
N15270 X287.305 Y-1.064
N15275 X287.268 Y-1.063 Z-7.808
N15280 X287.234 Y-1.049 Z-7.816
N15285 X287.207 Y-1.024 Z-7.824
N15290 X287.192 Y-0.99 Z-7.831
N15295 X287.185 Y-0.966 Z-7.837
N15300 G3 X286.815 Y-0.301 Z-8. I-1.527 J-0.415
N15305 G1 X284.643 Y1.871
N15310 X284.296 Y2.185
N15315 X284.007 Y2.407
N15320 X283.663 Y2.63
N15325 X283.215 Y2.871
N15330 X282.661 Y3.115
N15335 X281.931 Y3.368
N15340 X281.004 Y3.608
N15345 X280.062 Y3.778
N15350 X279.112 Y3.899
N15355 X278.158 Y3.986
N15360 X277.202 Y4.047
N15365 X276.245 Y4.091
N15370 X275.288 Y4.123
N15375 X274.331 Y4.145
N15380 X273.373 Y4.161
N15385 X272.416 Y4.172
N15390 X271.458 Y4.18
N15395 X270.5 Y4.186
N15400 X269.543 Y4.19
N15405 X267.627 Y4.195
N15410 X264.754 Y4.198
N15415 X262.839 Y4.199
N15420 X261.881 Y4.192
N15425 X260.924 Y4.157
N15430 X260.298 Y4.087
N15435 X260.265 Y4.08
N15440 X260.001 Y4.001
N15445 X259.758 Y3.872
N15450 X259.545 Y3.697
N15455 X259.37 Y3.485
N15460 X259.24 Y3.242
N15465 X258.257 Y0.867
N15470 G3 X258.608 Y0.095 Z-7.8 I0.562 J-0.21
N15475 G1 X258.683 Y0.073
N15480 X258.76 Y0.06
N15485 X258.838 Y0.058
N15490 X284.223 Y0.862
N15495 G3 X284.614 Y1.024 I-0.019 J0.6
N15500 X284.643 Y1.871 Z-8. I-0.41 J0.438
N15505 G1 X282.253 Y4.261
N15510 X281.936 Y4.548
N15515 X281.644 Y4.772
N15520 X281.292 Y5.
N15525 X280.837 Y5.245
N15530 X280.275 Y5.492
N15535 X279.532 Y5.75
N15540 X278.605 Y5.99
N15545 X277.663 Y6.162
N15550 X276.713 Y6.285
N15555 X275.759 Y6.373
N15560 X274.804 Y6.437
N15565 X273.847 Y6.483
N15570 X272.89 Y6.516
N15575 X271.933 Y6.539
N15580 X270.975 Y6.557
N15585 X270.017 Y6.569
N15590 X269.06 Y6.578
N15595 X268.102 Y6.584
N15600 X267.144 Y6.589
N15605 X265.229 Y6.594
N15610 X264.271
N15615 X263.314 Y6.588
N15620 X262.356 Y6.563
N15625 X261.591 Y6.507
N15630 X261.302 Y6.463
N15635 X261.025 Y6.39
N15640 X260.769 Y6.263
N15645 X260.544 Y6.086
N15650 X260.359 Y5.867
N15655 X260.223 Y5.615
N15660 X259.24 Y3.242
N15665 G3 X259.592 Y2.47 Z-7.8 I0.562 J-0.21
N15670 G1 X259.667 Y2.447
N15675 X259.745 Y2.434
N15680 X259.824 Y2.432
N15685 X281.837 Y3.252
N15690 G3 X282.224 Y3.413 I-0.022 J0.6
N15695 G1 X282.283 Y3.477 Z-7.818
N15700 X282.332 Y3.548 Z-7.837
N15705 G3 X282.253 Y4.261 Z-8. I-0.518 J0.303
N15710 G1 X279.864 Y6.65
N15715 X279.555 Y6.93
N15720 X279.261 Y7.156
N15725 X278.907 Y7.385
N15730 X278.449 Y7.632
N15735 X277.882 Y7.881
N15740 X277.134 Y8.14
N15745 X276.206 Y8.38
N15750 X275.264 Y8.552
N15755 X274.315 Y8.677
N15760 X273.361 Y8.766
N15765 X272.406 Y8.831
N15770 X271.449 Y8.878
N15775 X270.492 Y8.911
N15780 X269.535 Y8.936
N15785 X268.577 Y8.954
N15790 X267.62 Y8.967
N15795 X266.662 Y8.976
N15800 X265.704 Y8.981
N15805 X264.747 Y8.979
N15810 X263.789 Y8.963
N15815 X262.832 Y8.918
N15820 X262.33 Y8.855
N15825 X262.044 Y8.788
N15830 X261.778 Y8.662
N15835 X261.544 Y8.484
N15840 X261.352 Y8.26
N15845 X261.212 Y8.002
N15850 X260.223 Y5.615
N15855 G3 X260.574 Y4.843 Z-7.8 I0.562 J-0.21
N15860 G1 X260.652 Y4.82
N15865 X260.731 Y4.807
N15870 X260.812 Y4.805
N15875 X279.452 Y5.642
N15880 G3 X279.835 Y5.803 I-0.027 J0.599
N15885 X279.864 Y6.65 Z-8. I-0.41 J0.438
N15890 G1 X277.474 Y9.04
N15895 X277.165 Y9.32
N15900 X276.87 Y9.546
N15905 X276.515 Y9.776
N15910 X276.055 Y10.024
N15915 X275.487 Y10.274
N15920 X274.735 Y10.535
N15925 X273.808 Y10.775
N15930 X272.866 Y10.947
N15935 X271.916 Y11.072
N15940 X270.963 Y11.162
N15945 X270.007 Y11.227
N15950 X269.051 Y11.274
N15955 X268.094 Y11.308
N15960 X267.136 Y11.332
N15965 X266.179 Y11.344
N15970 X265.221 Y11.343
N15975 X264.264 Y11.319
N15980 X263.534 Y11.263
N15985 X263.25 Y11.218
N15990 X262.962 Y11.14
N15995 X262.697 Y11.002
N16000 X262.467 Y10.812
N16005 X262.283 Y10.577
N16010 X262.153 Y10.308
N16015 X262.087 Y10.126
N16020 X261.968 Y9.829
N16025 X261.212 Y8.002
N16030 G3 X261.563 Y7.23 Z-7.8 I0.562 J-0.21
N16035 G1 X261.642 Y7.206
N16040 X261.724 Y7.193
N16045 X261.807 Y7.192
N16050 X277.069 Y8.032
N16055 G3 X277.445 Y8.192 I-0.033 J0.599
N16060 X277.474 Y9.04 Z-8. I-0.41 J0.438
N16065 G1 X275.085 Y11.429
N16070 X274.77 Y11.714
N16075 X274.475 Y11.941
N16080 X274.119 Y12.172
N16085 X273.658 Y12.42
N16090 X273.089 Y12.67
N16095 X272.336 Y12.931
N16100 X271.408 Y13.171
N16105 X270.466 Y13.344
N16110 X269.517 Y13.468
N16115 X268.563 Y13.557
N16120 X267.608 Y13.618
N16125 X266.651 Y13.655
N16130 X265.693 Y13.665
N16135 X264.79 Y13.637
N16140 X264.195 Y13.57
N16145 X263.719 Y13.478
N16150 X263.344 Y13.373
N16155 X263.038 Y13.248
N16160 X262.769 Y13.056
N16165 X262.551 Y12.807
N16170 X262.396 Y12.515
N16175 X262.313 Y12.195
N16180 X262.305 Y11.864
N16185 X262.325 Y11.647
N16190 G3 X262.884 Y11.124 Z-7.824 I0.595 J0.076
N16195 G1 X262.996 Y11.117 Z-7.8
N16200 X274.61 Y10.421
N16205 G3 X275.056 Y10.582 I0.036 J0.599
N16210 X275.085 Y11.429 Z-8. I-0.41 J0.438
N16215 G1 X272.696 Y13.819
N16220 X272.373 Y14.111
N16225 X272.078 Y14.338
N16230 X271.723 Y14.568
N16235 X271.264 Y14.815
N16240 X270.702 Y15.062
N16245 X269.97 Y15.316
N16250 X269.042 Y15.556
N16255 X268.099 Y15.723
N16260 X267.148 Y15.832
N16265 X266.192 Y15.885
N16270 X265.295 Y15.872
N16275 X264.604 Y15.806
N16280 X264.1 Y15.717
N16285 X263.635 Y15.595
N16290 X263.26 Y15.464
N16295 X262.898 Y15.304
N16300 X262.601 Y15.143
N16305 X262.304 Y14.949
N16310 X262.252 Y14.91
N16315 X262.044 Y14.712
N16320 X261.881 Y14.476
N16325 X261.77 Y14.212
N16330 X261.714 Y13.931
N16335 X261.717 Y13.644
N16340 X261.778 Y13.364
N16345 X261.895 Y13.102
N16350 G3 X262.404 Y12.82 Z-7.871 I0.509 J0.318
N16355 G1 X262.565 Z-7.837
N16360 X262.738 Z-7.8
N16365 X272.257 Y12.81
N16370 G3 X272.666 Y12.971 I0. J0.6
N16375 X272.696 Y13.819 Z-8. I-0.41 J0.438
N16380 G1 X270.306 Y16.208
N16385 X270.003 Y16.483
N16390 X269.72 Y16.7
N16395 X269.385 Y16.917
N16400 X268.973 Y17.139
N16405 X268.49 Y17.352
N16410 X267.908 Y17.553
N16415 X267.292 Y17.713
N16420 X266.615 Y17.831
N16425 X265.934 Y17.894
N16430 X265.259 Y17.903
N16435 X264.615 Y17.859
N16440 X264.009 Y17.768
N16445 X263.439 Y17.636
N16450 X262.963 Y17.484
N16455 X262.538 Y17.309
N16460 X262.179 Y17.127
N16465 X261.864 Y16.934
N16470 X261.578 Y16.725
N16475 X261.33 Y16.511
N16480 X261.106 Y16.285
N16485 X260.909 Y16.051
N16490 X260.865 Y15.988
N16495 X260.707 Y15.702
N16500 X260.621 Y15.387
N16505 X260.61 Y15.06
N16510 X260.675 Y14.739
N16515 X260.812 Y14.443
N16520 X261.015 Y14.186
N16525 X261.315 Y13.885
N16530 G3 X261.832 Y13.733 Z-7.881 I0.41 J0.438
N16535 G1 X262.038 Y13.77 Z-7.837
N16540 X262.209 Y13.801 Z-7.8
N16545 X269.975 Y15.209
N16550 G3 X270.277 Y15.361 I-0.107 J0.59
N16555 X270.306 Y16.208 Z-8. I-0.41 J0.438
N16560 G1 X268.134 Y18.381
N16565 X267.86 Y18.629
N16570 X267.639 Y18.799
N16575 X267.369 Y18.974
N16580 X267.07 Y19.134
N16585 X266.715 Y19.291
N16590 X266.322 Y19.427
N16595 X265.889 Y19.539
N16600 X265.399 Y19.625
N16605 X264.885 Y19.672
N16610 X264.356 Y19.679
N16615 X263.815 Y19.642
N16620 X263.275 Y19.561
N16625 X262.749 Y19.439
N16630 X262.243 Y19.277
N16635 X261.762 Y19.08
N16640 X261.309 Y18.85
N16645 X260.928 Y18.616
N16650 X260.574 Y18.358
N16655 X260.295 Y18.118
N16660 X260.033 Y17.853
N16665 X259.819 Y17.599
N16670 X259.633 Y17.338
N16675 X259.531 Y17.166
N16680 X259.403 Y16.886
N16685 X259.339 Y16.584
N16690 X259.343 Y16.276
N16695 X259.415 Y15.976
N16700 X259.55 Y15.699
N16705 X259.743 Y15.458
N16710 X261.015 Y14.186
N16715 G3 X261.706 Y14.096 Z-7.842 I0.409 J0.439
N16720 G1 X261.728 Y14.107 Z-7.837
N16725 X261.881 Y14.189 Z-7.8
N16730 X267.978 Y17.442
N16735 X268.044 Y17.483
N16740 X268.105 Y17.533
N16745 X268.164 Y17.597 Z-7.818
N16750 X268.213 Y17.668 Z-7.837
N16755 G3 X268.134 Y18.381 Z-8. I-0.518 J0.303
N16760 G1 X266.321 Y20.194
N16765 X266.089 Y20.404
N16770 X265.906 Y20.544
N16775 X265.685 Y20.688
N16780 X265.439 Y20.82
N16785 X265.149 Y20.947
N16790 X264.829 Y21.058
N16795 X264.474 Y21.15
N16800 X264.071 Y21.221
N16805 X263.653 Y21.26
N16810 X263.198 Y21.265
N16815 X262.709 Y21.232
N16820 X262.208 Y21.157
N16825 X261.703 Y21.039
N16830 X261.204 Y20.88
N16835 X260.719 Y20.681
N16840 X260.255 Y20.446
N16845 X259.819 Y20.178
N16850 X259.43 Y19.894
N16855 X259.082 Y19.595
N16860 X258.808 Y19.318
N16865 X258.559 Y19.022
N16870 X258.363 Y18.746
N16875 X258.188 Y18.454
N16880 X258.156 Y18.389
N16885 X258.055 Y18.117
N16890 X258.013 Y17.831
N16895 X258.03 Y17.541
N16900 X258.107 Y17.262
N16905 X258.239 Y17.004
N16910 X258.422 Y16.779
N16915 X259.743 Y15.458
N16920 G3 X260.489 Y15.401 Z-7.828 I0.409 J0.439
N16925 G1 X260.6 Y15.476 Z-7.8
N16930 X266.219 Y19.288
N16935 X266.292 Y19.346
N16940 G3 X266.321 Y20.194 Z-8. I-0.41 J0.438
N16945 G1 X264.659 Y21.856
N16950 X264.541 Y21.963
N16955 X264.373 Y22.092
N16960 X264.179 Y22.218
N16965 X263.951 Y22.341
N16970 X263.695 Y22.453
N16975 X263.405 Y22.554
N16980 X263.077 Y22.639
N16985 X262.726 Y22.7
N16990 X262.327 Y22.737
N16995 X261.911 Y22.742
N17000 X261.467 Y22.712
N17005 X260.991 Y22.641
N17010 X260.497 Y22.526
N17015 X260.003 Y22.368
N17020 X259.514 Y22.168
N17025 X259.041 Y21.927
N17030 X258.589 Y21.65
N17035 X258.168 Y21.342
N17040 X257.813 Y21.037
N17045 X257.499 Y20.72
N17050 X257.257 Y20.431
N17055 X257.037 Y20.123
N17060 X256.868 Y19.84
N17065 X256.85 Y19.803
N17070 X256.756 Y19.557
N17075 X256.71 Y19.298
N17080 X256.713 Y19.035
N17085 X256.766 Y18.777
N17090 X256.865 Y18.533
N17095 X256.886 Y18.495
N17100 X256.971 Y18.381
N17105 X257.494 Y17.729
N17110 X257.615 Y17.586
N17115 X258.422 Y16.779
N17120 G3 X259.201 Y16.746 Z-7.82 I0.409 J0.439
N17125 G1 X259.274 Y16.803 Z-7.8
N17130 X264.59 Y20.975
N17135 X264.629 Y21.009
N17140 G3 X264.659 Y21.856 Z-8. I-0.41 J0.438
N17145 G1 X263.355 Y23.16
N17150 X263.274 Y23.24
N17155 X262.859 Y23.552
N17160 X262.668 Y23.672
N17165 X262.458 Y23.783
N17170 X262.206 Y23.89
N17175 X261.935 Y23.981
N17180 X261.622 Y24.058
N17185 X261.279 Y24.114
N17190 X260.91 Y24.144
N17195 X260.495 Y24.145
N17200 X260.067 Y24.111
N17205 X259.613 Y24.038
N17210 X259.131 Y23.92
N17215 X258.639 Y23.757
N17220 X258.151 Y23.551
N17225 X257.678 Y23.304
N17230 X257.226 Y23.021
N17235 X257.189 Y22.993
N17240 X257.021 Y22.845
N17245 X256.879 Y22.672
N17250 X256.766 Y22.479
N17255 G3 X257.073 Y21.689 Z-7.8 I0.549 J-0.241
N17260 X257.379 Y21.641 I0.242 J0.549
N17265 G1 X262.902 Y22.23
N17270 G3 X263.252 Y22.392 I-0.064 J0.597
N17275 X263.274 Y23.24 Z-8. I-0.413 J0.435
N17280 G1 X263.057 Y23.421
N17285 X262.839 Y23.599
N17290 X262.404 Y23.945
N17295 X262.256 Y24.029
N17300 X261.751 Y24.272
N17305 X261.533 Y24.367
N17310 X261.315 Y24.418
N17315 X260.88 Y24.518
N17320 X260.662 Y24.558
N17325 X260.445 Y24.559
N17330 X260.009
N17335 X259.792 Y24.553
N17340 X259.574 Y24.506
N17345 X259.139 Y24.407
N17350 X258.921 Y24.351
N17355 X258.698 Y24.246
N17360 X258.247 Y24.029
N17365 X258.149 Y23.978
N17370 X258.051 Y23.907
N17375 X257.51 Y23.477
N17380 X257.458 Y23.431
N17385 X257.405 Y23.377
N17390 X256.962 Y22.822
N17395 X256.89 Y22.725
N17400 X256.78 Y22.508
N17405 X256.527 Y21.984
N17410 X256.501 Y21.92
N17415 X256.482 Y21.856
N17420 X256.309 Y21.099
N17425 X256.301 Y21.043
N17430 X256.298 Y20.987
N17435 Y20.227
N17440 X256.309 Y20.113
N17445 X256.482 Y19.358
N17450 X256.518 Y19.25
N17455 X256.831 Y18.598
N17460 X256.865 Y18.533
N17465 G3 X257.539 Y18.25 I0.521 J0.297
N17470 G1 X257.63 Y18.274 Z-7.993
N17475 X257.718 Y18.297 Z-7.971
N17480 X257.802 Y18.319 Z-7.935
N17485 X257.88 Y18.339 Z-7.885
N17490 X257.949 Y18.357 Z-7.824
N17495 X258.008 Y18.373 Z-7.753
N17500 X258.056 Y18.385 Z-7.672
N17505 X258.091 Y18.395 Z-7.585
N17510 X258.112 Y18.4 Z-7.494
N17515 X258.119 Y18.402 Z-7.4
N17520 G0 Z80.
(2D CONTOUR1)
N17525 G64 P0.01 Q0.01
N17530 G0 X57.544 Y7.609
N17535 Z80.
N17540 Z5.
N17545 G1 Z1. F333.33
N17550 Z-7.4
N17555 X57.55 Y7.612 Z-7.494 F1000.
N17560 X57.571 Y7.62 Z-7.585
N17565 X57.604 Y7.634 Z-7.672
N17570 X57.649 Y7.653 Z-7.753
N17575 X57.706 Y7.676 Z-7.824
N17580 X57.772 Y7.704 Z-7.885
N17585 X57.846 Y7.734 Z-7.935
N17590 X57.927 Y7.768 Z-7.971
N17595 X58.011 Y7.803 Z-7.993
N17600 X58.098 Y7.839 Z-8.
N17605 X58.652 Y8.068
N17610 G3 X58.977 Y8.852 I-0.23 J0.554
N17615 G1 X58.391 Y10.266
N17620 G2 X59.042 Y13.535 I2.772 J1.148
N17625 G1 X62.931 Y17.425
N17630 G3 Y23.789 I-3.182 J3.182
N17635 X56.567 I-3.182 J-3.182
N17640 G1 X40.657 Y7.879
N17645 G3 Y7.03 I0.424 J-0.424
N17650 G1 X41.081 Y6.606
N17655 X41.147 Y6.54 Z-7.993
N17660 X41.212 Y6.475 Z-7.971
N17665 X41.274 Y6.413 Z-7.935
N17670 X41.33 Y6.357 Z-7.885
N17675 X41.381 Y6.306 Z-7.824
N17680 X41.424 Y6.263 Z-7.753
N17685 X41.459 Y6.228 Z-7.672
N17690 X41.485 Y6.202 Z-7.585
N17695 X41.5 Y6.187 Z-7.494
N17700 X41.505 Y6.182 Z-7.4
N17705 G0 Z30.
N17710 X278.494
N17715 Z5.
N17720 G1 Z1. F333.33
N17725 Z-7.4
N17730 X278.499 Y6.187 Z-7.494 F1000.
N17735 X278.515 Y6.202 Z-7.585
N17740 X278.54 Y6.228 Z-7.672
N17745 X278.575 Y6.263 Z-7.753
N17750 X278.618 Y6.306 Z-7.824
N17755 X278.669 Y6.357 Z-7.885
N17760 X278.726 Y6.413 Z-7.935
N17765 X278.787 Y6.475 Z-7.971
N17770 X278.852 Y6.54 Z-7.993
N17775 X278.918 Y6.606 Z-8.
N17780 X279.343 Y7.03
N17785 G3 Y7.879 I-0.424 J0.424
N17790 G1 X263.434 Y23.789
N17795 G3 X257.069 I-3.182 J-3.182
N17800 Y17.425 I3.182 J-3.182
N17805 G1 X260.958 Y13.535
N17810 G2 X261.608 Y10.266 I-2.121 J-2.121
N17815 G1 X261.022 Y8.852
N17820 G3 X261.347 Y8.068 I0.554 J-0.23
N17825 G1 X261.901 Y7.838
N17830 X261.988 Y7.802 Z-7.993
N17835 X262.073 Y7.767 Z-7.971
N17840 X262.153 Y7.734 Z-7.935
N17845 X262.227 Y7.703 Z-7.885
N17850 X262.293 Y7.676 Z-7.824
N17855 X262.35 Y7.652 Z-7.753
N17860 X262.395 Y7.633 Z-7.672
N17865 X262.429 Y7.619 Z-7.585
N17870 X262.449 Y7.611 Z-7.494
N17875 X262.456 Y7.608 Z-7.4
N17880 G0 Z80.
(2D CONTOUR2)
N17885 G0 Z90.
N17890 X49.101 Y-10.889
N17895 Z5.
N17900 G1 Z1. F333.33
N17905 Z-20.4
N17910 X49.106 Y-10.884 Z-20.494 F1000.
N17915 X49.122 Y-10.869 Z-20.585
N17920 X49.147 Y-10.843 Z-20.672
N17925 X49.182 Y-10.808 Z-20.753
N17930 X49.225 Y-10.765 Z-20.824
N17935 X49.276 Y-10.715 Z-20.885
N17940 X49.333 Y-10.658 Z-20.935
N17945 X49.394 Y-10.596 Z-20.971
N17950 X49.459 Y-10.532 Z-20.993
N17955 X49.525 Y-10.465 Z-21.
N17960 X49.95 Y-10.041
N17965 G3 Y-9.192 I-0.424 J0.424
N17970 G1 X-4.192 Y44.95
N17975 G3 X-5.041 I-0.424 J-0.424
N17980 G1 X-5.465 Y44.525
N17985 X-5.532 Y44.459 Z-20.993
N17990 X-5.596 Y44.394 Z-20.971
N17995 X-5.658 Y44.333 Z-20.935
N18000 X-5.715 Y44.276 Z-20.885
N18005 X-5.765 Y44.225 Z-20.824
N18010 X-5.808 Y44.182 Z-20.753
N18015 X-5.843 Y44.147 Z-20.672
N18020 X-5.869 Y44.122 Z-20.585
N18025 X-5.884 Y44.106 Z-20.494
N18030 X-5.889 Y44.101 Z-20.4
N18035 G0 Z40.
N18040 X325.889
N18045 Z5.
N18050 G1 Z1. F333.33
N18055 Z-20.4
N18060 X325.884 Y44.106 Z-20.494 F1000.
N18065 X325.869 Y44.122 Z-20.585
N18070 X325.843 Y44.147 Z-20.672
N18075 X325.808 Y44.182 Z-20.753
N18080 X325.765 Y44.225 Z-20.824
N18085 X325.715 Y44.276 Z-20.885
N18090 X325.658 Y44.333 Z-20.935
N18095 X325.596 Y44.394 Z-20.971
N18100 X325.532 Y44.459 Z-20.993
N18105 X325.465 Y44.525 Z-21.
N18110 X325.041 Y44.95
N18115 G3 X324.192 I-0.424 J-0.424
N18120 G1 X270.05 Y-9.192
N18125 G3 Y-10.041 I0.424 J-0.424
N18130 G1 X270.475 Y-10.465
N18135 X270.541 Y-10.532 Z-20.993
N18140 X270.606 Y-10.596 Z-20.971
N18145 X270.667 Y-10.658 Z-20.935
N18150 X270.724 Y-10.715 Z-20.885
N18155 X270.775 Y-10.765 Z-20.824
N18160 X270.818 Y-10.808 Z-20.753
N18165 X270.853 Y-10.843 Z-20.672
N18170 X270.878 Y-10.869 Z-20.585
N18175 X270.894 Y-10.884 Z-20.494
N18180 X270.899 Y-10.889 Z-20.4
N18185 G0 Z90.
(2D CONTOUR2 2)
N18190 G0 X295.6 Y5.2
N18195 Z15.
N18200 Z5.
N18205 G1 Z1. F333.33
N18210 Z-11.4
N18215 G19 G3 Y5.8 Z-12. J0.6 K0. F1000.
N18220 G1 Y6.4
N18225 G17 G3 X295. Y7. I-0.6 J0.
N18230 G1 X25.
N18235 G3 X24.4 Y6.4 I0. J-0.6
N18240 G1 Y5.8
N18245 G19 G2 Y5.2 Z-11.4 J0. K0.6
N18250 G0 Z15.
N18255 G17
N18260 G53 G0 Z0.
N18265 M30
%
