%
(LINK_S1_V1)
(T10  D=6. CR=0. - ZMIN=-9. - FLAT END MILL)
(T15  D=3. CR=0. TAPER=118DEG - ZMIN=-10.901 - DRILL)
N10 G90 G94 G17 G91.1
N15 G21
N20 G53 G0 Z0.
(FACE1)
N25 T10 M6
N30 T15
N35 S18000 M3
N40 G54
N45 G64 P0.01 Q0.01
N50 G0 X77.441 Y-8.768
N55 G43 Z15. H10
N60 G0 Z5.
N65 G1 Z-0.4 F600.
N70 G18 G3 X76.841 Z-1. I-0.6 K0. F1800.
N75 G1 X-1.841
N80 X-5.377
N85 G17 G2 Y-4.627 I0. J2.07
N90 G1 X80.377
N95 X82.231
N100 G3 Y-0.487 I0. J2.07
N105 G1 X-7.231
N110 X-7.939
N115 G2 Y3.654 I0. J2.07
N120 G1 X82.939
N125 X82.96
N130 G3 Y7.794 I0. J2.07
N135 G1 X-7.96
N140 G2 Y11.935 I0. J2.07
N145 G1 X-7.898
N150 X82.898
N155 G3 Y16.075 I0. J2.07
N160 G1 X82.042
N165 X-7.042
N170 G2 Y20.215 I0. J2.07
N175 G1 X-6.362
N180 X81.362
N185 X82.674
N190 G3 Y24.356 I0. J2.07
N195 G1 X-7.674
N200 X-7.96
N205 G2 Y28.496 I0. J2.07
N210 G1 X82.96
N215 G3 Y32.637 I0. J2.07
N220 G1 X-7.96
N225 G2 Y36.777 I0. J2.07
N230 G1 X-7.649
N235 X82.649
N240 G3 Y40.918 I0. J2.07
N245 G1 X81.301
N250 X-6.301
N255 G2 Y45.058 I0. J2.07
N260 G1 X-3.579
N265 X78.579
N270 G18 G2 X79.179 Z-0.4 I0. K0.6
N275 G0 Z15.
N280 G17
(2D ADAPTIVE1)
N285 G64 P0.1 Q0.1
N290 G0 X14.746 Y-4.076
N295 Z15.
N300 Z5.
N305 Z-7.8
N310 G1 Z-8.4 F1800.
N315 X14.74 Y-4.073 Z-8.494
N320 X14.719 Y-4.065 Z-8.585
N325 X14.685 Y-4.052 Z-8.672
N330 X14.64 Y-4.034 Z-8.753
N335 X14.583 Y-4.012 Z-8.824
N340 X14.516 Y-3.986 Z-8.885
N345 X14.441 Y-3.957 Z-8.935
N350 X14.36 Y-3.926 Z-8.971
N355 X14.275 Y-3.893 Z-8.993
N360 X14.187 Y-3.859 Z-9.
N365 G3 X11.001 Y-3.001 I-5.55 J-14.277
N370 G1 X10.377 Y-2.925
N375 X10.169 Y-2.88
N380 X9.753 Y-2.766
N385 X9.598 Y-2.718
N390 X8.41 Y-2.302
N395 X8.299 Y-2.261
N400 X8.123 Y-2.196
N405 X7.737 Y-2.078
N410 X7.229 Y-1.953
N415 X6.528 Y-1.821
N420 X5.62 Y-1.704
N425 X4.708 Y-1.63
N430 X3.794 Y-1.584
N435 X2.879 Y-1.554
N440 X1.963 Y-1.535
N445 X1.099 Y-1.235
N450 X0.382 Y-0.665
N455 X-0.173 Y0.063
N460 X-0.584 Y0.881
N465 X-0.879 Y1.748
N470 X-1.084 Y2.64
N475 X-1.224 Y3.544
N480 X-1.319 Y4.455
N485 X-1.381 Y5.368
N490 X-1.423 Y6.283
N495 X-1.45 Y7.198
N500 X-1.467 Y8.113
N505 X-1.479 Y9.028
N510 X-1.486 Y9.944
N515 X-1.491 Y10.859
N520 X-1.494 Y11.775
N525 X-1.498 Y13.605
N530 X-1.5 Y17.267
N535 Y35.576
N540 X-1.451 Y36.031
N545 X-1.154 Y36.896
N550 X-0.585 Y37.614
N555 X0.142 Y38.17
N560 X0.96 Y38.582
N565 X1.826 Y38.877
N570 X2.718 Y39.083
N575 X3.623 Y39.224
N580 X4.533 Y39.318
N585 X5.446 Y39.381
N590 X6.275 Y39.419
N595 X6.616 Y39.463
N600 X6.943 Y39.566
N605 X7.249 Y39.723
N610 X7.467 Y39.86
N615 X7.675 Y39.986
N620 X7.917 Y40.095
N625 X8.299 Y40.261
N630 X8.41 Y40.302
N635 X9.598 Y40.718
N640 X9.753 Y40.766
N645 X10.169 Y40.88
N650 X10.377 Y40.925
N655 X10.793 Y40.976
N660 G3 X11.295 Y41.507 I-0.094 J0.593
N665 G1 X11.305 Y41.6 Z-8.993
N670 X11.314 Y41.691 Z-8.971
N675 X11.323 Y41.778 Z-8.935
N680 X11.332 Y41.857 Z-8.885
N685 X11.339 Y41.929 Z-8.824
N690 X11.345 Y41.989 Z-8.753
N695 X11.35 Y42.038 Z-8.672
N700 X11.354 Y42.074 Z-8.585
N705 X11.356 Y42.096 Z-8.494
N710 X11.357 Y42.103 Z-8.4
N715 G0 Z5.
N720 X9.25 Y-3.253
N725 Z-7.8
N730 G1 Z-8.4 F1800.
N735 X9.246 Y-3.247 Z-8.494
N740 X9.233 Y-3.229 Z-8.585
N745 X9.212 Y-3.2 Z-8.672
N750 X9.183 Y-3.16 Z-8.753
N755 X9.148 Y-3.111 Z-8.824
N760 X9.106 Y-3.052 Z-8.885
N765 X9.059 Y-2.987 Z-8.935
N770 X9.009 Y-2.916 Z-8.971
N775 X8.955 Y-2.842 Z-8.993
N780 X8.9 Y-2.766 Z-9.
N785 G3 X8.299 Y-2.261 I-1.286 J-0.922
N790 G1 X7.883 Y-2.079
N795 X7.675 Y-1.986
N800 X7.467 Y-1.86
N805 X6.517 Y-1.263
N810 X6.239 Y-1.108
N815 X5.999 Y-0.99
N820 X5.703 Y-0.865
N825 X5.34 Y-0.736
N830 X4.878 Y-0.601
N835 X3.987 Y-0.393
N840 X3.147 Y-0.028
N845 X2.416 Y0.523
N850 X1.811 Y1.21
N855 X1.33 Y1.989
N860 X0.96 Y2.826
N865 X0.683 Y3.699
N870 X0.481 Y4.591
N875 X0.335 Y5.495
N880 X0.231 Y6.405
N885 X0.159 Y7.317
N890 X0.108 Y8.231
N895 X0.074 Y9.146
N900 X0.05 Y10.061
N905 X0.034 Y10.976
N910 X0.023 Y11.892
N915 X0.015 Y12.807
N920 X0.01 Y13.723
N925 X0.007 Y14.638
N930 X0.003 Y16.469
N935 X0.001 Y20.131
N940 X0. Y32.947
N945 X0.03 Y33.861
N950 X0.316 Y34.731
N955 X0.822 Y35.494
N960 X1.483 Y36.127
N965 X2.249 Y36.629
N970 X3.08 Y37.013
N975 X3.949 Y37.3
N980 X4.248 Y37.404
N985 X4.524 Y37.559
N990 X4.767 Y37.762
N995 X5.437 Y38.432
N1000 X5.597 Y38.59
N1005 X5.649 Y38.64
N1010 X5.805 Y38.767
N1015 X6.22 Y39.064
N1020 X6.428 Y39.207
N1025 X7.249 Y39.723
N1030 G3 X7.479 Y40.416 I-0.337 J0.497
N1035 G1 X7.448 Y40.505 Z-8.993
N1040 X7.418 Y40.592 Z-8.971
N1045 X7.39 Y40.674 Z-8.935
N1050 X7.363 Y40.75 Z-8.885
N1055 X7.34 Y40.817 Z-8.824
N1060 X7.32 Y40.875 Z-8.753
N1065 X7.304 Y40.921 Z-8.672
N1070 X7.292 Y40.955 Z-8.585
N1075 X7.285 Y40.976 Z-8.494
N1080 X7.282 Y40.983 Z-8.4
N1085 G0 Z5.
N1090 X7.311 Y-2.386
N1095 Z-7.8
N1100 G1 Z-8.4 F1800.
N1105 X7.308 Y-2.379 Z-8.494
N1110 X7.298 Y-2.359 Z-8.585
N1115 X7.281 Y-2.327 Z-8.672
N1120 X7.259 Y-2.284 Z-8.753
N1125 X7.231 Y-2.229 Z-8.824
N1130 X7.198 Y-2.165 Z-8.885
N1135 X7.162 Y-2.094 Z-8.935
N1140 X7.122 Y-2.017 Z-8.971
N1145 X7.08 Y-1.935 Z-8.993
N1150 X7.037 Y-1.852 Z-9.
N1155 G3 X6.517 Y-1.263 I-1.409 J-0.721
N1160 G1 X6.428 Y-1.207
N1165 X6.208 Y-1.055
N1170 X5.805 Y-0.767
N1175 X5.649 Y-0.64
N1180 X5.597 Y-0.59
N1185 X5.389 Y-0.384
N1190 X4.398 Y0.607
N1195 X4.35 Y0.66
N1200 X4.218 Y0.815
N1205 X3.929 Y1.231
N1210 X3.786 Y1.439
N1215 X3.103 Y2.526
N1220 X3.008 Y2.685
N1225 X2.913 Y2.893
N1230 X2.737 Y3.309
N1235 X2.687 Y3.44
N1240 X2.271 Y4.628
N1245 X2.229 Y4.764
N1250 X2.119 Y5.179
N1255 X2.072 Y5.387
N1260 X2.063 Y5.461
N1265 X1.909 Y6.363
N1270 X1.796 Y7.272
N1275 X1.712 Y8.183
N1280 X1.651 Y9.097
N1285 X1.607 Y10.011
N1290 X1.576 Y10.926
N1295 X1.553 Y11.841
N1300 X1.537 Y12.756
N1305 X1.526 Y13.672
N1310 X1.518 Y14.587
N1315 X1.512 Y15.503
N1320 X1.509 Y16.418
N1325 X1.504 Y18.249
N1330 X1.501 Y20.995
N1335 X1.5 Y29.234
N1340 Y31.065
N1345 X1.554 Y31.979
N1350 X1.824 Y32.853
N1355 X2.296 Y33.638
N1360 X2.398 Y33.822
N1365 X2.488 Y34.014
N1370 X2.565 Y34.21
N1375 X2.687 Y34.56
N1380 X2.737 Y34.691
N1385 X2.913 Y35.107
N1390 X3.008 Y35.315
N1395 X3.103 Y35.474
N1400 X3.786 Y36.561
N1405 X3.934 Y36.776
N1410 X4.218 Y37.185
N1415 X4.35 Y37.34
N1420 X4.398 Y37.393
N1425 X4.767 Y37.762
N1430 G0 Z5.
N1435 X1.691 Y4.138
N1440 Z-7.8
N1445 G1 Z-8.4 F1800.
N1450 X1.694 Y4.145 Z-8.494
N1455 X1.703 Y4.165 Z-8.585
N1460 X1.717 Y4.198 Z-8.672
N1465 X1.737 Y4.243 Z-8.753
N1470 X1.762 Y4.298 Z-8.824
N1475 X1.791 Y4.364 Z-8.885
N1480 X1.823 Y4.437 Z-8.935
N1485 X1.859 Y4.517 Z-8.971
N1490 X1.896 Y4.601 Z-8.993
N1495 X1.934 Y4.686 Z-9.
N1500 G3 X2.069 Y5.327 I-1.447 J0.641
N1505 G1 X2.063 Y5.461
N1510 X1.998 Y6.011
N1515 X1.927 Y6.634
N1520 X1.862 Y7.258
N1525 Y7.466
N1530 X1.877 Y7.881
N1535 X1.896 Y8.089
N1540 X2.013 Y9.128
N1545 X2.039 Y9.336
N1550 X2.103 Y9.752
N1555 X2.145 Y9.959
N1560 X2.278 Y10.375
N1565 X2.345 Y10.583
N1570 X2.478 Y11.034
N1575 X2.598 Y11.543
N1580 X2.723 Y12.258
N1585 X2.831 Y13.167
N1590 X2.896 Y14.08
N1595 X2.936 Y14.995
N1600 X2.961 Y15.91
N1605 X2.976 Y16.825
N1610 X2.985 Y17.74
N1615 X2.991 Y18.656
N1620 X2.995 Y19.571
N1625 X2.998 Y21.402
N1630 X3. Y25.252
N1635 X2.982 Y25.515
N1640 X2.93 Y25.774
N1645 X2.845 Y26.024
N1650 X2.784 Y26.17
N1655 X2.491 Y27.001
N1660 X2.345 Y27.417
N1665 X2.271 Y27.644
N1670 X2.145 Y28.041
N1675 X2.103 Y28.248
N1680 X2.039 Y28.664
N1685 X2.013 Y28.872
N1690 X1.896 Y29.911
N1695 X1.877 Y30.119
N1700 X1.862 Y30.534
N1705 Y30.742
N1710 X1.927 Y31.366
N1715 X1.998 Y31.989
N1720 X2.072 Y32.613
N1725 X2.119 Y32.821
N1730 X2.229 Y33.236
N1735 X2.271 Y33.372
N1740 X2.565 Y34.21
N1745 G3 X2.312 Y34.896 I-0.573 J0.178
N1750 G1 X2.233 Y34.946 Z-8.993
N1755 X2.156 Y34.995 Z-8.971
N1760 X2.082 Y35.041 Z-8.935
N1765 X2.014 Y35.084 Z-8.885
N1770 X1.954 Y35.123 Z-8.824
N1775 X1.902 Y35.155 Z-8.753
N1780 X1.86 Y35.182 Z-8.672
N1785 X1.83 Y35.201 Z-8.585
N1790 X1.811 Y35.213 Z-8.494
N1795 X1.805 Y35.216 Z-8.4
N1800 G0 Z5.
N1805 X1.428 Y9.559
N1810 Z-7.8
N1815 G1 Z-8.4 F1800.
N1820 X1.433 Y9.564 Z-8.494
N1825 X1.45 Y9.578 Z-8.585
N1830 X1.478 Y9.601 Z-8.672
N1835 X1.515 Y9.633 Z-8.753
N1840 X1.562 Y9.672 Z-8.824
N1845 X1.617 Y9.718 Z-8.885
N1850 X1.679 Y9.77 Z-8.935
N1855 X1.745 Y9.826 Z-8.971
N1860 X1.816 Y9.884 Z-8.993
N1865 X1.887 Y9.945 Z-9.
N1870 G3 X2.345 Y10.583 I-1.017 J1.213
N1875 G1 X2.637 Y11.414
N1880 X2.784 Y11.83
N1885 X2.871 Y12.038
N1890 X2.895 Y12.092
N1895 X2.973 Y12.246
N1900 X3.09 Y12.453
N1905 X3.31 Y12.804
N1910 X3.438 Y13.031
N1915 X3.549 Y13.259
N1920 X3.666 Y13.536
N1925 X3.79 Y13.887
N1930 X3.92 Y14.327
N1935 X4.055 Y14.907
N1940 X4.196 Y15.711
N1945 X4.302 Y16.62
N1950 X4.371 Y17.533
N1955 X4.415 Y18.447
N1960 X4.445 Y19.362
N1965 X4.464 Y20.277
N1970 X4.476 Y21.193
N1975 X4.485 Y22.108
N1980 X4.488 Y22.766
N1985 X4.466 Y23.075
N1990 X4.397 Y23.376
N1995 X4.281 Y23.664
N2000 X4.123 Y23.93
N2005 X4.009 Y24.092
N2010 X3.934 Y24.203
N2015 X3.09 Y25.547
N2020 X2.973 Y25.754
N2025 X2.895 Y25.908
N2030 X2.856 Y25.996
N2035 X2.845 Y26.024
N2040 G3 X2.049 Y26.318 Z-8.8 I-0.545 J-0.251
N2045 X1.7 Y25.749 I0.25 J-0.545
N2050 G1 X2.214 Y13.117
N2055 G3 X2.478 Y12.644 I0.6 J0.024
N2060 X3.31 Y12.804 Z-9. I0.336 J0.497
N2065 G1 X3.934 Y13.797
N2070 X4.009 Y13.908
N2075 X4.155 Y14.116
N2080 X4.337 Y14.324
N2085 X4.506 Y14.538
N2090 X4.618 Y14.698
N2095 X4.737 Y14.888
N2100 X4.856 Y15.107
N2105 X4.987 Y15.383
N2110 X5.12 Y15.709
N2115 X5.26 Y16.119
N2120 X5.404 Y16.629
N2125 X5.553 Y17.302
N2130 X5.7 Y18.206
N2135 X5.798 Y19.116
N2140 X5.863 Y20.029
N2145 X5.908 Y20.943
N2150 X5.91 Y21.25
N2155 X5.888 Y21.57
N2160 X5.814 Y21.882
N2165 X5.692 Y22.179
N2170 X5.523 Y22.452
N2175 X5.313 Y22.695
N2180 X5.161 Y22.845
N2185 X4.537 Y23.468
N2190 X4.35 Y23.662
N2195 X4.155 Y23.884
N2200 X4.123 Y23.93
N2205 G3 X3.283 Y24.046 Z-8.8 I-0.478 J-0.363
N2210 X3.045 Y23.55 I0.362 J-0.478
N2215 G1 X3.3 Y14.717
N2220 G3 X3.489 Y14.296 I0.6 J0.017
N2225 X4.337 Y14.324 Z-9. I0.41 J0.438
N2230 G1 X4.35 Y14.338
N2235 X4.558 Y14.553
N2240 X5.181 Y15.175
N2245 X5.583 Y15.571
N2250 X5.693 Y15.691
N2255 X5.806 Y15.828
N2260 X5.932 Y16.
N2265 X6.072 Y16.217
N2270 X6.206 Y16.452
N2275 X6.349 Y16.74
N2280 X6.5 Y17.091
N2285 X6.651 Y17.506
N2290 X6.808 Y18.026
N2295 X6.967 Y18.684
N2300 X7.078 Y19.293
N2305 X7.136 Y19.765
N2310 X7.162 Y20.15
N2315 X7.163 Y20.21
N2320 X7.14 Y20.538
N2325 X7.063 Y20.857
N2330 X6.935 Y21.16
N2335 X6.76 Y21.437
N2340 X6.541 Y21.683
N2345 X6.285 Y21.888
N2350 X6.22 Y21.933
N2355 X5.804 Y22.221
N2360 X5.583 Y22.429
N2365 X5.313 Y22.695
N2370 G3 X4.466 Y22.658 Z-8.8 I-0.406 J-0.442
N2375 X4.308 Y22.227 I0.442 J-0.406
N2380 G1 X4.578 Y15.987
N2385 G3 X4.736 Y15.607 I0.599 J0.026
N2390 X5.583 Y15.571 Z-9. I0.442 J0.406
N2395 G1 X5.805 Y15.779
N2400 X6.22 Y16.067
N2405 X6.407 Y16.194
N2410 X6.428 Y16.207
N2415 X6.587 Y16.319
N2420 X6.705 Y16.412
N2425 X6.822 Y16.516
N2430 X6.938 Y16.633
N2435 X7.069 Y16.78
N2440 X7.206 Y16.953
N2445 X7.344 Y17.149
N2450 X7.492 Y17.385
N2455 X7.633 Y17.643
N2460 X7.769 Y17.927
N2465 X7.896 Y18.237
N2470 X7.99 Y18.509
N2475 X8.072 Y18.796
N2480 X8.125 Y19.035
N2485 X8.168 Y19.292
N2490 X8.176 Y19.369
N2495 X8.181 Y19.742
N2500 X8.117 Y20.111
N2505 X7.985 Y20.461
N2510 X7.79 Y20.78
N2515 X7.54 Y21.057
N2520 X7.242 Y21.283
N2525 X7.052 Y21.401
N2530 X6.407 Y21.806
N2535 X6.285 Y21.888
N2540 G3 X5.458 Y21.7 Z-8.8 I-0.319 J-0.508
N2545 X5.367 Y21.36 I0.508 J-0.319
N2550 G1 X5.527 Y16.705
N2555 G3 X5.608 Y16.424 I0.6 J0.021
N2560 X6.428 Y16.207 Z-9. I0.519 J0.302
N2565 G1 X7.069 Y16.61
N2570 X7.675 Y16.985
N2575 X7.801 Y17.066
N2580 X7.922 Y17.156
N2585 X8.037 Y17.252
N2590 X8.147 Y17.357
N2595 X8.261 Y17.479
N2600 X8.371 Y17.61
N2605 X8.479 Y17.755
N2610 X8.572 Y17.895
N2615 X8.664 Y18.053
N2620 X8.75 Y18.222
N2625 X8.816 Y18.372
N2630 X8.876 Y18.533
N2635 X8.932 Y18.711
N2640 X8.972 Y18.869
N2645 X8.976 Y18.892
N2650 X9.009 Y19.244
N2655 X8.972 Y19.597
N2660 X8.867 Y19.935
N2665 X8.698 Y20.246
N2670 X8.472 Y20.519
N2675 X8.196 Y20.742
N2680 X7.883 Y20.907
N2685 X7.745 Y20.974
N2690 X7.675 Y21.015
N2695 X7.242 Y21.283
N2700 G3 X6.423 Y21.061 Z-8.8 I-0.298 J-0.521
N2705 X6.349 Y20.68 I0.52 J-0.299
N2710 G1 X6.801 Y17.433
N2715 X6.814 Y17.365
N2720 X6.836 Y17.299
N2725 X6.865 Y17.236
N2730 G3 X7.675 Y16.985 Z-9. I0.53 J0.28
N2735 G1 X7.745 Y17.026
N2740 X7.883 Y17.093
N2745 X8.299 Y17.262
N2750 X8.464 Y17.321
N2755 X8.603 Y17.378
N2760 X8.736 Y17.448
N2765 X8.862 Y17.53
N2770 X8.98 Y17.622
N2775 X9.091 Y17.723
N2780 X9.193 Y17.833
N2785 X9.287 Y17.95
N2790 X9.374 Y18.072
N2795 X9.451 Y18.201
N2800 X9.518 Y18.335
N2805 X9.578 Y18.472
N2810 X9.658 Y18.799
N2815 X9.672 Y19.134
N2820 X9.621 Y19.466
N2825 X9.506 Y19.782
N2830 X9.332 Y20.069
N2835 X9.104 Y20.316
N2840 X8.833 Y20.515
N2845 X8.529 Y20.656
N2850 X8.299 Y20.738
N2855 X7.883 Y20.907
N2860 G3 X7.113 Y20.55 Z-8.8 I-0.207 J-0.563
N2865 X7.094 Y20.199 I0.563 J-0.207
N2870 G1 X7.701 Y17.749
N2875 X7.712 Y17.712
N2880 G3 X8.464 Y17.321 Z-9. I0.572 J0.181
N2885 G1 X9.296 Y17.612
N2890 X9.435 Y17.669
N2895 X9.567 Y17.739
N2900 X9.69 Y17.825
N2905 X9.803 Y17.924
N2910 X9.904 Y18.035
N2915 X9.995 Y18.154
N2920 X10.143 Y18.465
N2925 X10.218 Y18.801
N2930 X10.217 Y19.145
N2935 X10.14 Y19.48
N2940 X9.99 Y19.79
N2945 X9.775 Y20.059
N2950 X9.505 Y20.274
N2955 X9.195 Y20.423
N2960 X8.529 Y20.656
N2965 G3 X7.778 Y20.262 Z-8.8 I-0.178 J-0.573
N2970 X7.794 Y19.858 I0.573 J-0.179
N2975 G1 X8.543 Y18.006
N2980 X8.561 Y17.96 Z-8.81
N2985 G3 X9.296 Y17.612 Z-9. I0.556 J0.225
N2990 G1 X9.546 Y17.7
N2995 X9.753 Y17.766
N3000 X9.919 Y17.811
N3005 X10.062 Y17.858
N3010 X10.194 Y17.929
N3015 X10.314 Y18.019
N3020 X10.421 Y18.124
N3025 X10.515 Y18.241
N3030 X10.596 Y18.368
N3035 X10.695 Y18.641
N3040 X10.733 Y18.93
N3045 X10.706 Y19.22
N3050 X10.616 Y19.498
N3055 X10.469 Y19.749
N3060 X10.269 Y19.961
N3065 X10.029 Y20.125
N3070 X9.758 Y20.233
N3075 X9.546 Y20.3
N3080 X9.195 Y20.423
N3085 G3 X8.444 Y20.029 Z-8.8 I-0.178 J-0.573
N3090 X8.486 Y19.571 I0.573 J-0.179
N3095 G1 X9.18 Y18.249
N3100 X9.25 Y18.116 Z-8.832
N3105 G3 X9.919 Y17.811 Z-9. I0.531 J0.279
N3110 G1 X10.169 Y17.88
N3115 X10.377 Y17.925
N3120 X10.412 Y17.929
N3125 X10.559 Y17.955
N3130 X10.695 Y18.02
N3135 X10.816 Y18.107
N3140 X10.925 Y18.211
N3145 X11.078 Y18.468
N3150 X11.163 Y18.755
N3155 X11.173 Y19.055
N3160 X11.107 Y19.347
N3165 X10.971 Y19.614
N3170 X10.772 Y19.838
N3175 X10.523 Y20.005
N3180 X10.241 Y20.105
N3185 X10.169 Y20.12
N3190 X9.758 Y20.233
N3195 G3 X9.086 Y19.928 Z-8.831 I-0.139 J-0.587
N3200 G1 X9.023 Y19.794 Z-8.8
N3205 G3 X9.518 Y18.164 I1.268 J-0.506
N3210 X10.412 Y17.929 Z-9. I0.773 J1.125
N3215 G1 X10.827 Y17.98
N3220 X10.975 Y18.006
N3225 X11.114 Y18.062
N3230 X11.241 Y18.143
N3235 X11.351 Y18.245
N3240 X11.446 Y18.36
N3245 X11.56 Y18.612
N3250 X11.608 Y18.885
N3255 X11.588 Y19.161
N3260 X11.499 Y19.423
N3265 X11.349 Y19.655
N3270 X11.146 Y19.843
N3275 X10.903 Y19.975
N3280 X10.634 Y20.043
N3285 X10.377 Y20.075
N3290 X10.241 Y20.105
N3295 G3 X9.674 Y19.851 Z-8.86 I-0.097 J-0.542
N3300 X9.555 Y19.595 Z-8.8 I1.049 J-0.644
N3305 X9.949 Y18.25 I1.168 J-0.389
N3310 X10.827 Y17.98 Z-9. I0.774 J0.957
N3315 G1 X11.001 Y18.001
N3320 X11.315 Y18.037
N3325 X11.463 Y18.061
N3330 X11.599 Y18.125
N3335 X11.719 Y18.215
N3340 X11.824 Y18.322
N3345 X11.954 Y18.563
N3350 X12.018 Y18.83
N3355 X12.012 Y19.104
N3360 X11.934 Y19.367
N3365 X11.792 Y19.601
N3370 X11.594 Y19.791
N3375 X11.354 Y19.923
N3380 X11.088 Y19.989
N3385 X10.793 Y20.024
N3390 X10.634 Y20.043
N3395 G3 X10.118 Y19.741 Z-8.864 I-0.046 J-0.515
N3400 X10.029 Y19.452 Z-8.8 I1.104 J-0.497
N3405 X10.441 Y18.318 I1.193 J-0.208
N3410 X11.315 Y18.037 Z-9. I0.781 J0.925
N3415 G1 X11.731 Y18.083
N3420 X11.879 Y18.106
N3425 X12.015 Y18.17
N3430 X12.136 Y18.258
N3435 X12.239 Y18.367
N3440 X12.326 Y18.489
N3445 X12.415 Y18.749
N3450 X12.43 Y19.024
N3455 X12.37 Y19.292
N3460 X12.24 Y19.534
N3465 X12.048 Y19.732
N3470 X11.81 Y19.87
N3475 X11.543 Y19.938
N3480 X11.088 Y19.989
N3485 G3 X10.605 Y19.704 I-0.038 J-0.488
N3490 X11.731 Y18.083 I1.044 J-0.476
N3495 G1 X12.154 Y18.128
N3500 X12.302 Y18.151
N3505 X12.438 Y18.215
N3510 X12.557 Y18.306
N3515 X12.659 Y18.416
N3520 X12.766 Y18.635
N3525 X12.814 Y18.875
N3530 X12.8 Y19.118
N3535 X12.724 Y19.35
N3540 X12.593 Y19.556
N3545 X12.413 Y19.721
N3550 X12.198 Y19.836
N3555 X11.96 Y19.893
N3560 X11.543 Y19.938
N3565 G3 X11.085 Y19.667 I-0.036 J-0.463
N3570 X12.154 Y18.128 I0.992 J-0.452
N3575 G1 X12.248 Y18.138
N3580 X12.455 Y18.144
N3585 X12.49 Y18.145
N3590 X12.64 Y18.154
N3595 X12.781 Y18.205
N3600 X12.906 Y18.288
N3605 X13.012 Y18.394
N3610 X13.101 Y18.514
N3615 X13.187 Y18.765
N3620 X13.198 Y19.03
N3625 X13.134 Y19.287
N3630 X12.999 Y19.515
N3635 X12.805 Y19.696
N3640 X12.568 Y19.814
N3645 X12.307 Y19.86
N3650 X12.242 Y19.855
N3655 X12.179 Y19.84
N3660 X12.118 Y19.816
N3665 G3 X12.49 Y18.145 I0.392 J-0.79
N3670 G1 X12.871 Y18.149
N3675 X13.021 Y18.157
N3680 X13.161 Y18.21
N3685 X13.288 Y18.29
N3690 X13.396 Y18.395
N3695 X13.485 Y18.515
N3700 X13.572 Y18.766
N3705 X13.583 Y19.032
N3710 X13.517 Y19.289
N3715 X13.381 Y19.517
N3720 X13.184 Y19.696
N3725 X12.945 Y19.812
N3730 X12.683 Y19.853
N3735 X12.455 Y19.856
N3740 X12.307 Y19.86
N3745 G3 X11.913 Y19.588 I0.002 J-0.423
N3750 X12.871 Y18.149 I0.99 J-0.379
N3755 G1 X13.245 Y18.15
N3760 X13.394 Y18.157
N3765 X13.536 Y18.207
N3770 X13.664 Y18.286
N3775 X13.773 Y18.389
N3780 X13.863 Y18.508
N3785 X13.945 Y18.727
N3790 X13.969 Y18.96
N3795 X13.933 Y19.191
N3800 X13.84 Y19.406
N3805 X13.695 Y19.589
N3810 X13.508 Y19.73
N3815 X13.292 Y19.819
N3820 X13.06 Y19.85
N3825 X12.767 Y19.852
N3830 X12.683 Y19.853
N3835 G3 X12.3 Y19.585 I0.01 J-0.421
N3840 X13.245 Y18.15 I0.981 J-0.383
N3845 G1 X13.637
N3850 X13.787 Y18.157
N3855 X13.928 Y18.209
N3860 X14.054 Y18.291
N3865 X14.162 Y18.394
N3870 X14.281 Y18.616
N3875 X14.335 Y18.861
N3880 X14.32 Y19.112
N3885 X14.238 Y19.349
N3890 X14.094 Y19.555
N3895 X13.9 Y19.715
N3900 X13.67 Y19.816
N3905 X13.421 Y19.85
N3910 X13.06
N3915 G3 X12.678 Y19.574 I0.013 J-0.42
N3920 X13.637 Y18.15 I0.996 J-0.364
N3925 G1 X14.017
N3930 X14.167 Y18.157
N3935 X14.307 Y18.21
N3940 X14.432 Y18.294
N3945 X14.538 Y18.4
N3950 X14.626 Y18.522
N3955 X14.708 Y18.774
N3960 X14.715 Y19.04
N3965 X14.645 Y19.297
N3970 X14.505 Y19.523
N3975 X14.306 Y19.699
N3980 X14.065 Y19.812
N3985 X13.802 Y19.85
N3990 X13.421
N3995 G3 X13.038 Y19.564 I0.015 J-0.42
N4000 X14.017 Y18.15 I1.016 J-0.342
N4005 G1 X14.389
N4010 X14.539 Y18.157
N4015 X14.68 Y18.209
N4020 X14.806 Y18.29
N4025 X14.914 Y18.394
N4030 X15.003 Y18.515
N4035 X15.082 Y18.734
N4040 X15.104 Y18.967
N4045 X15.065 Y19.198
N4050 X14.97 Y19.411
N4055 X14.824 Y19.593
N4060 X14.636 Y19.733
N4065 X14.42 Y19.82
N4070 X14.188 Y19.85
N4075 X13.802
N4080 G3 X13.421 Y19.57 I0.015 J-0.42
N4085 X14.389 Y18.15 I1.005 J-0.354
N4090 G1 X14.776
N4095 X14.926 Y18.157
N4100 X15.066 Y18.21
N4105 X15.192 Y18.292
N4110 X15.3 Y18.397
N4115 X15.417 Y18.618
N4120 X15.47 Y18.864
N4125 X15.454 Y19.114
N4130 X15.371 Y19.351
N4135 X15.228 Y19.556
N4140 X15.033 Y19.715
N4145 X14.803 Y19.816
N4150 X14.555 Y19.85
N4155 X14.188
N4160 G3 X13.806 Y19.569 I0.015 J-0.42
N4165 X14.776 Y18.15 I1.008 J-0.352
N4170 G1 X15.157
N4175 X15.307 Y18.157
N4180 X15.447 Y18.212
N4185 X15.571 Y18.296
N4190 X15.676 Y18.403
N4195 X15.763 Y18.525
N4200 X15.844 Y18.778
N4205 X15.85 Y19.043
N4210 X15.78 Y19.299
N4215 X15.639 Y19.524
N4220 X15.44 Y19.7
N4225 X15.2 Y19.812
N4230 X14.937 Y19.85
N4235 X14.555
N4240 G3 X14.17 Y19.56 I0.015 J-0.42
N4245 X15.157 Y18.15 I1.025 J-0.333
N4250 G1 X15.531
N4255 X15.681 Y18.157
N4260 X15.821 Y18.211
N4265 X15.947 Y18.293
N4270 X16.053 Y18.398
N4275 X16.142 Y18.519
N4280 X16.226 Y18.772
N4285 X16.235 Y19.038
N4290 X16.166 Y19.295
N4295 X16.027 Y19.522
N4300 X15.828 Y19.699
N4305 X15.587 Y19.811
N4310 X15.324 Y19.85
N4315 X14.937
N4320 G3 X14.554 Y19.565 I0.015 J-0.42
N4325 X15.531 Y18.15 I1.014 J-0.345
N4330 G1 X15.895
N4335 X16.045 Y18.157
N4340 X16.187 Y18.205
N4345 X16.315 Y18.284
N4350 X16.424 Y18.387
N4355 X16.515 Y18.506
N4360 X16.597 Y18.726
N4365 X16.621 Y18.96
N4370 X16.585 Y19.192
N4375 X16.49 Y19.407
N4380 X16.344 Y19.591
N4385 X16.156 Y19.731
N4390 X15.939 Y19.82
N4395 X15.706 Y19.85
N4400 X15.324
N4405 G3 X14.946 Y19.579 I0.015 J-0.42
N4410 X15.895 Y18.15 I0.986 J-0.375
N4415 G1 X16.303
N4420 X16.453 Y18.157
N4425 X16.593 Y18.212
N4430 X16.717 Y18.297
N4435 X16.823 Y18.402
N4440 X16.939 Y18.624
N4445 X16.99 Y18.869
N4450 X16.973 Y19.118
N4455 X16.889 Y19.354
N4460 X16.745 Y19.558
N4465 X16.551 Y19.716
N4470 X16.322 Y19.816
N4475 X16.074 Y19.85
N4480 X15.706
N4485 G3 X15.322 Y19.563 I0.015 J-0.42
N4490 X16.303 Y18.15 I1.019 J-0.34
N4495 G1 X16.675
N4500 X16.825 Y18.157
N4505 X16.965 Y18.211
N4510 X17.089 Y18.295
N4515 X17.194 Y18.402
N4520 X17.282 Y18.524
N4525 X17.363 Y18.777
N4530 X17.369 Y19.042
N4535 X17.299 Y19.298
N4540 X17.159 Y19.524
N4545 X16.96 Y19.7
N4550 X16.719 Y19.812
N4555 X16.456 Y19.85
N4560 X16.074
N4565 G3 X15.689 Y19.561 I0.015 J-0.42
N4570 X16.675 Y18.15 I1.023 J-0.335
N4575 G1 X17.062
N4580 X17.212 Y18.157
N4585 X17.351 Y18.214
N4590 X17.475 Y18.298
N4595 X17.581 Y18.405
N4600 X17.667 Y18.527
N4605 X17.749 Y18.779
N4610 X17.755 Y19.044
N4615 X17.686 Y19.3
N4620 X17.546 Y19.525
N4625 X17.348 Y19.7
N4630 X17.108 Y19.812
N4635 X16.846 Y19.85
N4640 X16.456
N4645 G3 X16.071 Y19.558 I0.015 J-0.42
N4650 X17.062 Y18.15 I1.029 J-0.328
N4655 G1 X17.444
N4660 X17.593 Y18.157
N4665 X17.733 Y18.213
N4670 X17.857 Y18.297
N4675 X17.963 Y18.403
N4680 X18.051 Y18.525
N4685 X18.134 Y18.776
N4690 X18.141 Y19.042
N4695 X18.072 Y19.298
N4700 X17.933 Y19.523
N4705 X17.735 Y19.7
N4710 X17.494 Y19.812
N4715 X17.232 Y19.85
N4720 X16.846
N4725 G3 X16.462 Y19.563 I0.015 J-0.42
N4730 X17.444 Y18.15 I1.019 J-0.339
N4735 G1 X17.817
N4740 X17.967 Y18.157
N4745 X18.107 Y18.21
N4750 X18.234 Y18.291
N4755 X18.341 Y18.396
N4760 X18.43 Y18.517
N4765 X18.509 Y18.736
N4770 X18.53 Y18.969
N4775 X18.492 Y19.199
N4780 X18.397 Y19.412
N4785 X18.251 Y19.594
N4790 X18.063 Y19.733
N4795 X17.847 Y19.82
N4800 X17.616 Y19.85
N4805 X17.232
N4810 G3 X16.851 Y19.571 I0.015 J-0.42
N4815 X17.817 Y18.15 I1.004 J-0.356
N4820 G1 X18.21
N4825 X18.359 Y18.157
N4830 X18.499 Y18.212
N4835 X18.624 Y18.296
N4840 X18.731 Y18.401
N4845 X18.847 Y18.622
N4850 X18.898 Y18.867
N4855 X18.881 Y19.117
N4860 X18.798 Y19.353
N4865 X18.654 Y19.558
N4870 X18.46 Y19.716
N4875 X18.23 Y19.816
N4880 X17.982 Y19.85
N4885 X17.616
N4890 G3 X17.232 Y19.565 I0.015 J-0.42
N4895 X18.21 Y18.15 I1.015 J-0.344
N4900 G1 X18.589
N4905 X18.739 Y18.157
N4910 X18.879 Y18.213
N4915 X19.002 Y18.298
N4920 X19.107 Y18.405
N4925 X19.193 Y18.528
N4930 X19.273 Y18.78
N4935 X19.278 Y19.045
N4940 X19.207 Y19.301
N4945 X19.067 Y19.525
N4950 X18.868 Y19.701
N4955 X18.627 Y19.812
N4960 X18.365 Y19.85
N4965 X17.982
N4970 G3 X17.597 Y19.557 I0.015 J-0.42
N4975 X18.589 Y18.15 I1.031 J-0.327
N4980 G1 X18.961
N4985 X19.111 Y18.157
N4990 X19.251 Y18.211
N4995 X19.377 Y18.293
N5000 X19.483 Y18.399
N5005 X19.571 Y18.52
N5010 X19.655 Y18.773
N5015 X19.663 Y19.039
N5020 X19.595 Y19.296
N5025 X19.455 Y19.522
N5030 X19.257 Y19.699
N5035 X19.016 Y19.811
N5040 X18.753 Y19.85
N5045 X18.365
N5050 G3 X17.982 Y19.564 I0.015 J-0.42
N5055 X18.961 Y18.15 I1.017 J-0.342
N5060 G1 X19.349
N5065 X19.498 Y18.157
N5070 X19.638 Y18.213
N5075 X19.763 Y18.296
N5080 X19.869 Y18.401
N5085 X19.957 Y18.523
N5090 X20.04 Y18.775
N5095 X20.048 Y19.04
N5100 X19.98 Y19.297
N5105 X19.841 Y19.523
N5110 X19.642 Y19.699
N5115 X19.402 Y19.812
N5120 X19.139 Y19.85
N5125 X18.753
N5130 G3 X18.369 Y19.564 I0.015 J-0.42
N5135 X19.349 Y18.15 I1.017 J-0.342
N5140 G1 X19.73
N5145 X19.88 Y18.157
N5150 X20.019 Y18.212
N5155 X20.145 Y18.294
N5160 X20.252 Y18.399
N5165 X20.34 Y18.521
N5170 X20.424 Y18.773
N5175 X20.433 Y19.038
N5180 X20.365 Y19.295
N5185 X20.226 Y19.522
N5190 X20.028 Y19.699
N5195 X19.787 Y19.811
N5200 X19.524 Y19.85
N5205 X19.139
N5210 G3 X18.757 Y19.567 I0.015 J-0.42
N5215 X19.73 Y18.15 I1.01 J-0.349
N5220 G1 X20.103
N5225 X20.253 Y18.157
N5230 X20.394 Y18.209
N5235 X20.521 Y18.289
N5240 X20.629 Y18.393
N5245 X20.718 Y18.513
N5250 X20.799 Y18.733
N5255 X20.821 Y18.966
N5260 X20.783 Y19.196
N5265 X20.689 Y19.41
N5270 X20.543 Y19.593
N5275 X20.355 Y19.732
N5280 X20.138 Y19.82
N5285 X19.907 Y19.85
N5290 X19.524
N5295 G3 X19.144 Y19.574 I0.015 J-0.42
N5300 X20.103 Y18.15 I0.997 J-0.364
N5305 G1 X20.496
N5310 X20.646 Y18.157
N5315 X20.786 Y18.211
N5320 X20.911 Y18.294
N5325 X21.019 Y18.398
N5330 X21.135 Y18.62
N5335 X21.188 Y18.865
N5340 X21.172 Y19.115
N5345 X21.089 Y19.352
N5350 X20.945 Y19.557
N5355 X20.751 Y19.716
N5360 X20.521 Y19.816
N5365 X20.273 Y19.85
N5370 X19.907
N5375 G3 X19.524 Y19.568 I0.015 J-0.42
N5380 X20.496 Y18.15 I1.009 J-0.351
N5385 G1 X20.876
N5390 X21.025 Y18.157
N5395 X21.165 Y18.212
N5400 X21.289 Y18.296
N5405 X21.394 Y18.403
N5410 X21.481 Y18.525
N5415 X21.562 Y18.778
N5420 X21.568 Y19.043
N5425 X21.498 Y19.299
N5430 X21.357 Y19.524
N5435 X21.158 Y19.7
N5440 X20.918 Y19.812
N5445 X20.655 Y19.85
N5450 X20.273
N5455 G3 X19.888 Y19.56 I0.015 J-0.42
N5460 X20.876 Y18.15 I1.025 J-0.333
N5465 G1 X21.248
N5470 X21.397 Y18.157
N5475 X21.538 Y18.21
N5480 X21.664 Y18.292
N5485 X21.771 Y18.397
N5490 X21.859 Y18.518
N5495 X21.944 Y18.771
N5500 X21.953 Y19.037
N5505 X21.884 Y19.294
N5510 X21.745 Y19.521
N5515 X21.546 Y19.699
N5520 X21.305 Y19.811
N5525 X21.042 Y19.85
N5530 X20.655
N5535 G3 X20.272 Y19.566 I0.015 J-0.42
N5540 X21.248 Y18.15 I1.013 J-0.347
N5545 G1 X21.635
N5550 X21.785 Y18.157
N5555 X21.924 Y18.212
N5560 X22.05 Y18.294
N5565 X22.156 Y18.4
N5570 X22.244 Y18.521
N5575 X22.329 Y18.773
N5580 X22.337 Y19.039
N5585 X22.269 Y19.296
N5590 X22.13 Y19.522
N5595 X21.931 Y19.699
N5600 X21.691 Y19.811
N5605 X21.428 Y19.85
N5610 X21.042
N5615 G3 X20.659 Y19.566 I0.015 J-0.42
N5620 X21.635 Y18.15 I1.013 J-0.346
N5625 G1 X22.016
N5630 X22.166 Y18.157
N5635 X22.306 Y18.211
N5640 X22.432 Y18.293
N5645 X22.539 Y18.398
N5650 X22.627 Y18.519
N5655 X22.712 Y18.771
N5660 X22.721 Y19.037
N5665 X22.654 Y19.294
N5670 X22.515 Y19.521
N5675 X22.316 Y19.699
N5680 X22.075 Y19.811
N5685 X21.812 Y19.85
N5690 X21.428
N5695 G3 X21.046 Y19.569 I0.015 J-0.42
N5700 X22.016 Y18.15 I1.007 J-0.352
N5705 G1 X22.39
N5710 X22.539 Y18.157
N5715 X22.681 Y18.208
N5720 X22.808 Y18.288
N5725 X22.916 Y18.392
N5730 X23.006 Y18.512
N5735 X23.086 Y18.732
N5740 X23.109 Y18.964
N5745 X23.072 Y19.195
N5750 X22.977 Y19.409
N5755 X22.831 Y19.592
N5760 X22.644 Y19.732
N5765 X22.427 Y19.82
N5770 X22.195 Y19.85
N5775 X21.812
N5780 G3 X21.433 Y19.576 I0.015 J-0.42
N5785 X22.39 Y18.15 I0.994 J-0.367
N5790 G1 X22.782
N5795 X22.932 Y18.157
N5800 X23.072 Y18.21
N5805 X23.198 Y18.293
N5810 X23.305 Y18.397
N5815 X23.423 Y18.619
N5820 X23.475 Y18.864
N5825 X23.46 Y19.114
N5830 X23.377 Y19.351
N5835 X23.233 Y19.557
N5840 X23.039 Y19.715
N5845 X22.809 Y19.816
N5850 X22.561 Y19.85
N5855 X22.195
N5860 G3 X21.813 Y19.569 I0.015 J-0.42
N5865 X22.782 Y18.15 I1.006 J-0.353
N5870 G1 X23.162
N5875 X23.312 Y18.157
N5880 X23.452 Y18.211
N5885 X23.576 Y18.296
N5890 X23.681 Y18.403
N5895 X23.768 Y18.524
N5900 X23.85 Y18.777
N5905 X23.856 Y19.043
N5910 X23.785 Y19.299
N5915 X23.645 Y19.524
N5920 X23.446 Y19.7
N5925 X23.205 Y19.812
N5930 X22.943 Y19.85
N5935 X22.561
N5940 G3 X22.176 Y19.561 I0.015 J-0.42
N5945 X23.162 Y18.15 I1.023 J-0.335
N5950 G1 X23.534
N5955 X23.684 Y18.157
N5960 X23.824 Y18.21
N5965 X23.95 Y18.291
N5970 X24.057 Y18.396
N5975 X24.146 Y18.517
N5980 X24.224 Y18.737
N5985 X24.245 Y18.969
N5990 X24.206 Y19.2
N5995 X24.111 Y19.412
N6000 X23.964 Y19.594
N6005 X23.777 Y19.733
N6010 X23.561 Y19.82
N6015 X23.329 Y19.85
N6020 X22.943
N6025 G3 X22.56 Y19.567 I0.015 J-0.42
N6030 X23.534 Y18.15 I1.011 J-0.348
N6035 G1 X23.921
N6040 X24.071 Y18.157
N6045 X24.211 Y18.211
N6050 X24.336 Y18.294
N6055 X24.444 Y18.398
N6060 X24.56 Y18.62
N6065 X24.612 Y18.866
N6070 X24.596 Y19.116
N6075 X24.513 Y19.352
N6080 X24.369 Y19.557
N6085 X24.175 Y19.716
N6090 X23.945 Y19.816
N6095 X23.696 Y19.85
N6100 X23.329
N6105 G3 X22.946 Y19.566 I0.015 J-0.42
N6110 X23.921 Y18.15 I1.012 J-0.347
N6115 G1 X24.302
N6120 X24.452 Y18.157
N6125 X24.592 Y18.212
N6130 X24.715 Y18.297
N6135 X24.82 Y18.405
N6140 X24.907 Y18.527
N6145 X24.987 Y18.78
N6150 X24.992 Y19.045
N6155 X24.922 Y19.3
N6160 X24.781 Y19.525
N6165 X24.582 Y19.7
N6170 X24.342 Y19.812
N6175 X24.079 Y19.85
N6180 X23.696
N6185 G3 X23.311 Y19.558 I0.015 J-0.42
N6190 X24.302 Y18.15 I1.029 J-0.329
N6195 G1 X24.676
N6200 X24.826 Y18.157
N6205 X24.966 Y18.211
N6210 X25.091 Y18.294
N6215 X25.198 Y18.399
N6220 X25.285 Y18.521
N6225 X25.369 Y18.773
N6230 X25.377 Y19.039
N6235 X25.309 Y19.296
N6240 X25.169 Y19.522
N6245 X24.971 Y19.699
N6250 X24.73 Y19.811
N6255 X24.467 Y19.85
N6260 X24.079
N6265 G3 X23.695 Y19.564 I0.015 J-0.42
N6270 X24.676 Y18.15 I1.018 J-0.341
N6275 G1 X25.04
N6280 X25.19 Y18.157
N6285 X25.332 Y18.206
N6290 X25.46 Y18.285
N6295 X25.568 Y18.388
N6300 X25.659 Y18.507
N6305 X25.741 Y18.727
N6310 X25.764 Y18.961
N6315 X25.727 Y19.193
N6320 X25.633 Y19.407
N6325 X25.487 Y19.591
N6330 X25.299 Y19.732
N6335 X25.081 Y19.82
N6340 X24.849 Y19.85
N6345 X24.467
N6350 G3 X24.088 Y19.578 I0.015 J-0.42
N6355 X25.04 Y18.15 I0.989 J-0.372
N6360 G1 X25.448
N6365 X25.598 Y18.157
N6370 X25.737 Y18.213
N6375 X25.861 Y18.298
N6380 X25.968 Y18.403
N6385 X26.082 Y18.625
N6390 X26.133 Y18.87
N6395 X26.116 Y19.119
N6400 X26.032 Y19.355
N6405 X25.888 Y19.559
N6410 X25.694 Y19.716
N6415 X25.465 Y19.816
N6420 X25.217 Y19.85
N6425 X24.849
N6430 G3 X24.465 Y19.562 I0.015 J-0.42
N6435 X25.448 Y18.15 I1.021 J-0.337
N6440 G1 X25.82
N6445 X25.97 Y18.157
N6450 X26.11 Y18.211
N6455 X26.234 Y18.296
N6460 X26.339 Y18.403
N6465 X26.426 Y18.525
N6470 X26.507 Y18.778
N6475 X26.513 Y19.043
N6480 X26.443 Y19.299
N6485 X26.302 Y19.524
N6490 X26.103 Y19.7
N6495 X25.862 Y19.812
N6500 X25.6 Y19.85
N6505 X25.217
N6510 G3 X24.832 Y19.56 I0.015 J-0.42
N6515 X25.82 Y18.15 I1.025 J-0.333
N6520 G1 X26.207
N6525 X26.357 Y18.157
N6530 X26.496 Y18.214
N6535 X26.62 Y18.299
N6540 X26.725 Y18.406
N6545 X26.84 Y18.627
N6550 X26.89 Y18.872
N6555 X26.873 Y19.121
N6560 X26.789 Y19.356
N6565 X26.645 Y19.559
N6570 X26.452 Y19.717
N6575 X26.223 Y19.816
N6580 X25.976 Y19.85
N6585 X25.6
N6590 G3 X25.214 Y19.557 I0.015 J-0.42
N6595 X26.207 Y18.15 I1.031 J-0.326
N6600 G1 X26.588
N6605 X26.738 Y18.157
N6610 X26.877 Y18.215
N6615 X27. Y18.301
N6620 X27.103 Y18.409
N6625 X27.189 Y18.532
N6630 X27.268 Y18.785
N6635 X27.271 Y19.049
N6640 X27.199 Y19.304
N6645 X27.059 Y19.527
N6650 X26.86 Y19.701
N6655 X26.62 Y19.812
N6660 X26.358 Y19.85
N6665 X25.976
N6670 G3 X25.589 Y19.554 I0.015 J-0.42
N6675 X26.588 Y18.15 I1.037 J-0.319
N6680 G1 X26.939
N6685 X27.089 Y18.157
N6690 X27.231 Y18.206
N6695 X27.358 Y18.285
N6700 X27.466 Y18.389
N6705 X27.556 Y18.509
N6710 X27.637 Y18.729
N6715 X27.659 Y18.963
N6720 X27.622 Y19.194
N6725 X27.527 Y19.409
N6730 X27.38 Y19.592
N6735 X27.192 Y19.732
N6740 X26.975 Y19.82
N6745 X26.742 Y19.85
N6750 X26.358
N6755 G3 X25.978 Y19.573 I0.015 J-0.42
N6760 X26.939 Y18.15 I0.998 J-0.362
N6765 G1 X27.326
N6770 X27.476 Y18.157
N6775 X27.617 Y18.208
N6780 X27.743 Y18.29
N6785 X27.852 Y18.393
N6790 X27.971 Y18.615
N6795 X28.025 Y18.86
N6800 X28.01 Y19.111
N6805 X27.927 Y19.349
N6810 X27.784 Y19.555
N6815 X27.589 Y19.715
N6820 X27.359 Y19.816
N6825 X27.11 Y19.85
N6830 X26.742
N6835 G3 X26.361 Y19.571 I0.015 J-0.42
N6840 X27.326 Y18.15 I1.003 J-0.358
N6845 G1 X27.734
N6850 X27.884 Y18.157
N6855 X28.021 Y18.218
N6860 X28.143 Y18.306
N6865 X28.245 Y18.416
N6870 X28.33 Y18.54
N6875 X28.406 Y18.792
N6880 X28.407 Y19.055
N6885 X28.334 Y19.308
N6890 X28.193 Y19.53
N6895 X27.994 Y19.703
N6900 X27.755 Y19.812
N6905 X27.494 Y19.85
N6910 X27.11
N6915 G3 X26.721 Y19.547 I0.015 J-0.42
N6920 X27.734 Y18.15 I1.051 J-0.303
N6925 G1 X28.078
N6930 X28.228 Y18.157
N6935 X28.37 Y18.206
N6940 X28.497 Y18.286
N6945 X28.605 Y18.39
N6950 X28.694 Y18.51
N6955 X28.774 Y18.73
N6960 X28.796 Y18.964
N6965 X28.758 Y19.195
N6970 X28.663 Y19.409
N6975 X28.516 Y19.592
N6980 X28.328 Y19.732
N6985 X28.111 Y19.82
N6990 X27.878 Y19.85
N6995 X27.494
N7000 G3 X27.113 Y19.572 I0.015 J-0.42
N7005 X28.078 Y18.15 I1.002 J-0.359
N7010 G1 X28.459
N7015 X28.609 Y18.157
N7020 X28.75 Y18.207
N7025 X28.877 Y18.288
N7030 X28.986 Y18.391
N7035 X29.106 Y18.612
N7040 X29.161 Y18.858
N7045 X29.146 Y19.109
N7050 X29.065 Y19.347
N7055 X28.921 Y19.554
N7060 X28.727 Y19.714
N7065 X28.496 Y19.815
N7070 X28.246 Y19.85
N7075 X27.878
N7080 G3 X27.498 Y19.573 I0.015 J-0.42
N7085 X28.459 Y18.15 I0.998 J-0.362
N7090 G1 X28.833
N7095 X28.982 Y18.157
N7100 X29.124 Y18.207
N7105 X29.25 Y18.289
N7110 X29.357 Y18.394
N7115 X29.446 Y18.514
N7120 X29.525 Y18.735
N7125 X29.545 Y18.968
N7130 X29.506 Y19.198
N7135 X29.41 Y19.411
N7140 X29.264 Y19.594
N7145 X29.076 Y19.733
N7150 X28.859 Y19.82
N7155 X28.627 Y19.85
N7160 X28.246
N7165 G3 X27.865 Y19.57 I0.015 J-0.42
N7170 X28.833 Y18.15 I1.005 J-0.355
N7175 G1 X29.225
N7180 X29.375 Y18.157
N7185 X29.515 Y18.212
N7190 X29.639 Y18.295
N7195 X29.746 Y18.4
N7200 X29.862 Y18.623
N7205 X29.913 Y18.868
N7210 X29.896 Y19.117
N7215 X29.812 Y19.353
N7220 X29.668 Y19.558
N7225 X29.474 Y19.716
N7230 X29.244 Y19.816
N7235 X28.996 Y19.85
N7240 X28.627
N7245 G3 X28.243 Y19.563 I0.015 J-0.42
N7250 X29.225 Y18.15 I1.019 J-0.339
N7255 G1 X29.605
N7260 X29.755 Y18.157
N7265 X29.894 Y18.213
N7270 X30.018 Y18.298
N7275 X30.122 Y18.406
N7280 X30.209 Y18.528
N7285 X30.288 Y18.781
N7290 X30.293 Y19.046
N7295 X30.222 Y19.301
N7300 X30.081 Y19.526
N7305 X29.883 Y19.701
N7310 X29.642 Y19.812
N7315 X29.38 Y19.85
N7320 X28.996
N7325 G3 X28.611 Y19.556 I0.015 J-0.42
N7330 X28.561 Y19.232 I1.032 J-0.325
N7335 G1 Y19.231
N7340 G3 X29.605 Y18.15 I1.082 J0.
N7345 G1 X29.977
N7350 X30.127 Y18.157
N7355 X30.267 Y18.211
N7360 X30.392 Y18.294
N7365 X30.499 Y18.399
N7370 X30.586 Y18.521
N7375 X30.67 Y18.773
N7380 X30.678 Y19.039
N7385 X30.61 Y19.296
N7390 X30.47 Y19.522
N7395 X30.272 Y19.699
N7400 X30.031 Y19.811
N7405 X29.767 Y19.85
N7410 X29.38
N7415 G3 X28.996 Y19.563 I0.015 J-0.42
N7420 X29.977 Y18.15 I1.018 J-0.341
N7425 G1 X30.364
N7430 X30.514 Y18.157
N7435 X30.653 Y18.213
N7440 X30.778 Y18.296
N7445 X30.885 Y18.402
N7450 X30.972 Y18.524
N7455 X31.056 Y18.775
N7460 X31.063 Y19.041
N7465 X30.995 Y19.297
N7470 X30.855 Y19.523
N7475 X30.657 Y19.699
N7480 X30.417 Y19.812
N7485 X30.154 Y19.85
N7490 X29.767
N7495 G3 X29.384 Y19.564 I0.015 J-0.42
N7500 X30.364 Y18.15 I1.018 J-0.341
N7505 G1 X30.745
N7510 X30.895 Y18.157
N7515 X31.035 Y18.212
N7520 X31.16 Y18.294
N7525 X31.267 Y18.4
N7530 X31.355 Y18.521
N7535 X31.44 Y18.773
N7540 X31.448 Y19.039
N7545 X31.38 Y19.295
N7550 X31.241 Y19.522
N7555 X31.043 Y19.699
N7560 X30.802 Y19.811
N7565 X30.539 Y19.85
N7570 X30.154
N7575 G3 X29.772 Y19.567 I0.015 J-0.42
N7580 X30.745 Y18.15 I1.011 J-0.348
N7585 G1 X31.119
N7590 X31.269 Y18.157
N7595 X31.41 Y18.209
N7600 X31.536 Y18.289
N7605 X31.644 Y18.393
N7610 X31.734 Y18.514
N7615 X31.814 Y18.733
N7620 X31.836 Y18.966
N7625 X31.799 Y19.197
N7630 X31.704 Y19.41
N7635 X31.558 Y19.593
N7640 X31.37 Y19.733
N7645 X31.154 Y19.82
N7650 X30.922 Y19.85
N7655 X30.539
N7660 G3 X30.159 Y19.574 I0.015 J-0.42
N7665 X31.119 Y18.15 I0.997 J-0.363
N7670 G1 X31.511
N7675 X31.661 Y18.157
N7680 X31.801 Y18.211
N7685 X31.926 Y18.294
N7690 X32.034 Y18.398
N7695 X32.151 Y18.62
N7700 X32.203 Y18.865
N7705 X32.187 Y19.115
N7710 X32.104 Y19.352
N7715 X31.96 Y19.557
N7720 X31.766 Y19.716
N7725 X31.536 Y19.816
N7730 X31.288 Y19.85
N7735 X30.922
N7740 G3 X30.54 Y19.568 I0.015 J-0.42
N7745 X31.511 Y18.15 I1.009 J-0.35
N7750 G1 X31.891
N7755 X32.041 Y18.157
N7760 X32.181 Y18.212
N7765 X32.305 Y18.296
N7770 X32.41 Y18.403
N7775 X32.497 Y18.526
N7780 X32.578 Y18.778
N7785 X32.583 Y19.044
N7790 X32.513 Y19.299
N7795 X32.372 Y19.524
N7800 X32.174 Y19.7
N7805 X31.933 Y19.812
N7810 X31.67 Y19.85
N7815 X31.288
N7820 G3 X30.903 Y19.56 I0.015 J-0.42
N7825 X31.891 Y18.15 I1.026 J-0.332
N7830 G1 X32.263
N7835 X32.413 Y18.157
N7840 X32.553 Y18.21
N7845 X32.679 Y18.292
N7850 X32.786 Y18.397
N7855 X32.874 Y18.518
N7860 X32.959 Y18.771
N7865 X32.968 Y19.037
N7870 X32.9 Y19.294
N7875 X32.76 Y19.521
N7880 X32.562 Y19.699
N7885 X32.32 Y19.811
N7890 X32.057 Y19.85
N7895 X31.67
N7900 G3 X31.287 Y19.566 I0.015 J-0.42
N7905 X32.263 Y18.15 I1.013 J-0.346
N7910 G1 X32.65
N7915 X32.8 Y18.157
N7920 X32.94 Y18.212
N7925 X33.065 Y18.295
N7930 X33.172 Y18.4
N7935 X33.26 Y18.522
N7940 X33.344 Y18.774
N7945 X33.352 Y19.039
N7950 X33.284 Y19.296
N7955 X33.145 Y19.522
N7960 X32.947 Y19.699
N7965 X32.706 Y19.811
N7970 X32.443 Y19.85
N7975 X32.057
N7980 G3 X31.674 Y19.566 I0.015 J-0.42
N7985 X32.65 Y18.15 I1.014 J-0.345
N7990 G1 X33.031
N7995 X33.181 Y18.157
N8000 X33.321 Y18.211
N8005 X33.447 Y18.293
N8010 X33.554 Y18.398
N8015 X33.643 Y18.519
N8020 X33.728 Y18.771
N8025 X33.737 Y19.037
N8030 X33.669 Y19.294
N8035 X33.53 Y19.521
N8040 X33.332 Y19.699
N8045 X33.091 Y19.811
N8050 X32.828 Y19.85
N8055 X32.443
N8060 G3 X32.061 Y19.569 I0.015 J-0.42
N8065 X33.031 Y18.15 I1.007 J-0.352
N8070 G1 X33.405
N8075 X33.555 Y18.157
N8080 X33.696 Y18.208
N8085 X33.823 Y18.288
N8090 X33.931 Y18.392
N8095 X34.021 Y18.512
N8100 X34.102 Y18.732
N8105 X34.124 Y18.965
N8110 X34.087 Y19.196
N8115 X33.992 Y19.409
N8120 X33.846 Y19.592
N8125 X33.659 Y19.732
N8130 X33.442 Y19.82
N8135 X33.21 Y19.85
N8140 X32.828
N8145 G3 X32.448 Y19.575 I0.015 J-0.42
N8150 X33.405 Y18.15 I0.994 J-0.367
N8155 G1 X33.798
N8160 X33.947 Y18.157
N8165 X34.088 Y18.21
N8170 X34.213 Y18.293
N8175 X34.321 Y18.397
N8180 X34.438 Y18.619
N8185 X34.491 Y18.864
N8190 X34.475 Y19.114
N8195 X34.392 Y19.351
N8200 X34.249 Y19.557
N8205 X34.055 Y19.715
N8210 X33.825 Y19.816
N8215 X33.576 Y19.85
N8220 X33.21
N8225 G3 X32.828 Y19.569 I0.015 J-0.42
N8230 X33.798 Y18.15 I1.007 J-0.353
N8235 G1 X34.177
N8240 X34.327 Y18.157
N8245 X34.467 Y18.211
N8250 X34.591 Y18.296
N8255 X34.696 Y18.403
N8260 X34.784 Y18.525
N8265 X34.865 Y18.777
N8270 X34.871 Y19.043
N8275 X34.801 Y19.299
N8280 X34.66 Y19.524
N8285 X34.462 Y19.7
N8290 X34.221 Y19.812
N8295 X33.958 Y19.85
N8300 X33.576
N8305 G3 X33.192 Y19.561 I0.015 J-0.42
N8310 X34.177 Y18.15 I1.023 J-0.335
N8315 G1 X34.549
N8320 X34.699 Y18.157
N8325 X34.84 Y18.21
N8330 X34.966 Y18.291
N8335 X35.073 Y18.396
N8340 X35.161 Y18.517
N8345 X35.24 Y18.737
N8350 X35.26 Y18.97
N8355 X35.222 Y19.2
N8360 X35.126 Y19.412
N8365 X34.98 Y19.594
N8370 X34.792 Y19.733
N8375 X34.576 Y19.82
N8380 X34.345 Y19.85
N8385 X33.958
N8390 G3 X33.575 Y19.567 I0.015 J-0.42
N8395 X34.549 Y18.15 I1.011 J-0.348
N8400 G1 X34.937
N8405 X35.086 Y18.157
N8410 X35.227 Y18.211
N8415 X35.352 Y18.294
N8420 X35.459 Y18.399
N8425 X35.575 Y18.62
N8430 X35.628 Y18.866
N8435 X35.611 Y19.116
N8440 X35.528 Y19.352
N8445 X35.384 Y19.557
N8450 X35.19 Y19.716
N8455 X34.96 Y19.816
N8460 X34.712 Y19.85
N8465 X34.345
N8470 G3 X33.962 Y19.566 I0.015 J-0.42
N8475 X34.937 Y18.15 I1.012 J-0.347
N8480 G1 X35.318
N8485 X35.468 Y18.157
N8490 X35.607 Y18.212
N8495 X35.731 Y18.297
N8500 X35.835 Y18.405
N8505 X35.922 Y18.527
N8510 X36.003 Y18.78
N8515 X36.008 Y19.045
N8520 X35.937 Y19.3
N8525 X35.796 Y19.525
N8530 X35.598 Y19.7
N8535 X35.357 Y19.812
N8540 X35.095 Y19.85
N8545 X34.712
N8550 G3 X34.326 Y19.558 I0.015 J-0.42
N8555 X35.318 Y18.15 I1.029 J-0.329
N8560 G1 X35.691
N8565 X35.841 Y18.157
N8570 X35.981 Y18.211
N8575 X36.106 Y18.294
N8580 X36.213 Y18.399
N8585 X36.301 Y18.521
N8590 X36.385 Y18.773
N8595 X36.393 Y19.039
N8600 X36.324 Y19.296
N8605 X36.185 Y19.522
N8610 X35.986 Y19.699
N8615 X35.745 Y19.811
N8620 X35.482 Y19.85
N8625 X35.095
N8630 G3 X34.711 Y19.564 I0.015 J-0.42
N8635 X35.691 Y18.15 I1.018 J-0.341
N8640 G1 X36.056
N8645 X36.205 Y18.157
N8650 X36.347 Y18.206
N8655 X36.475 Y18.285
N8660 X36.584 Y18.388
N8665 X36.674 Y18.507
N8670 X36.756 Y18.727
N8675 X36.78 Y18.961
N8680 X36.743 Y19.193
N8685 X36.648 Y19.407
N8690 X36.502 Y19.591
N8695 X36.314 Y19.732
N8700 X36.097 Y19.82
N8705 X35.864 Y19.85
N8710 X35.482
N8715 G3 X35.103 Y19.578 I0.015 J-0.42
N8720 X36.056 Y18.15 I0.989 J-0.372
N8725 G1 X36.464
N8730 X36.613 Y18.157
N8735 X36.753 Y18.213
N8740 X36.876 Y18.298
N8745 X36.983 Y18.403
N8750 X37.098 Y18.625
N8755 X37.148 Y18.87
N8760 X37.131 Y19.119
N8765 X37.047 Y19.355
N8770 X36.903 Y19.559
N8775 X36.709 Y19.716
N8780 X36.48 Y19.816
N8785 X36.233 Y19.85
N8790 X35.864
N8795 G3 X35.48 Y19.562 I0.015 J-0.42
N8800 X36.464 Y18.15 I1.021 J-0.337
N8805 G1 X36.835
N8810 X36.985 Y18.157
N8815 X37.125 Y18.211
N8820 X37.249 Y18.296
N8825 X37.354 Y18.403
N8830 X37.441 Y18.525
N8835 X37.523 Y18.778
N8840 X37.528 Y19.043
N8845 X37.458 Y19.299
N8850 X37.318 Y19.524
N8855 X37.119 Y19.7
N8860 X36.878 Y19.812
N8865 X36.615 Y19.85
N8870 X36.233
N8875 G3 X35.848 Y19.56 I0.015 J-0.42
N8880 X36.835 Y18.15 I1.025 J-0.333
N8885 G1 X37.223
N8890 X37.373 Y18.157
N8895 X37.511 Y18.214
N8900 X37.635 Y18.299
N8905 X37.741 Y18.406
N8910 X37.855 Y18.627
N8915 X37.906 Y18.872
N8920 X37.888 Y19.121
N8925 X37.805 Y19.356
N8930 X37.661 Y19.559
N8935 X37.467 Y19.717
N8940 X37.238 Y19.816
N8945 X36.991 Y19.85
N8950 X36.615
N8955 G3 X36.229 Y19.557 I0.015 J-0.42
N8960 X37.223 Y18.15 I1.031 J-0.326
N8965 G1 X37.604
N8970 X37.754 Y18.157
N8975 X37.892 Y18.215
N8980 X38.015 Y18.301
N8985 X38.119 Y18.409
N8990 X38.205 Y18.532
N8995 X38.283 Y18.785
N9000 X38.287 Y19.049
N9005 X38.215 Y19.304
N9010 X38.074 Y19.527
N9015 X37.875 Y19.701
N9020 X37.635 Y19.812
N9025 X37.374 Y19.85
N9030 X36.991
N9035 G3 X36.604 Y19.554 I0.015 J-0.42
N9040 X37.604 Y18.15 I1.037 J-0.319
N9045 G1 X37.954
N9050 X38.104 Y18.157
N9055 X38.246 Y18.206
N9060 X38.374 Y18.285
N9065 X38.482 Y18.389
N9070 X38.572 Y18.509
N9075 X38.653 Y18.729
N9080 X38.675 Y18.963
N9085 X38.637 Y19.194
N9090 X38.542 Y19.409
N9095 X38.396 Y19.592
N9100 X38.208 Y19.732
N9105 X37.99 Y19.82
N9110 X37.757 Y19.85
N9115 X37.374
N9120 G3 X36.993 Y19.573 I0.015 J-0.42
N9125 X37.954 Y18.15 I0.998 J-0.362
N9130 G1 X38.342
N9135 X38.492 Y18.157
N9140 X38.633 Y18.208
N9145 X38.759 Y18.29
N9150 X38.867 Y18.393
N9155 X38.986 Y18.615
N9160 X39.04 Y18.86
N9165 X39.025 Y19.111
N9170 X38.943 Y19.349
N9175 X38.799 Y19.555
N9180 X38.605 Y19.715
N9185 X38.375 Y19.816
N9190 X38.125 Y19.85
N9195 X37.757
N9200 G3 X37.376 Y19.571 I0.015 J-0.42
N9205 X38.342 Y18.15 I1.003 J-0.357
N9210 G1 X38.75
N9215 X38.9 Y18.157
N9220 X39.037 Y18.218
N9225 X39.158 Y18.306
N9230 X39.261 Y18.416
N9235 X39.345 Y18.54
N9240 X39.421 Y18.792
N9245 X39.423 Y19.055
N9250 X39.35 Y19.308
N9255 X39.208 Y19.53
N9260 X39.01 Y19.703
N9265 X38.77 Y19.812
N9270 X38.51 Y19.85
N9275 X38.125
N9280 G3 X37.737 Y19.547 I0.015 J-0.42
N9285 X38.75 Y18.15 I1.051 J-0.303
N9290 G1 X39.093
N9295 X39.243 Y18.157
N9300 X39.385 Y18.206
N9305 X39.512 Y18.286
N9310 X39.62 Y18.39
N9315 X39.71 Y18.51
N9320 X39.79 Y18.73
N9325 X39.812 Y18.964
N9330 X39.774 Y19.195
N9335 X39.678 Y19.409
N9340 X39.532 Y19.592
N9345 X39.344 Y19.732
N9350 X39.126 Y19.82
N9355 X38.894 Y19.85
N9360 X38.51
N9365 G3 X38.129 Y19.572 I0.015 J-0.42
N9370 X39.093 Y18.15 I1.002 J-0.359
N9375 G1 X39.474
N9380 X39.624 Y18.157
N9385 X39.766 Y18.207
N9390 X39.892 Y18.288
N9395 X40.002 Y18.391
N9400 X40.121 Y18.612
N9405 X40.176 Y18.858
N9410 X40.162 Y19.109
N9415 X40.08 Y19.347
N9420 X39.936 Y19.554
N9425 X39.742 Y19.714
N9430 X39.511 Y19.815
N9435 X39.262 Y19.85
N9440 X38.894
N9445 G3 X38.513 Y19.573 I0.015 J-0.42
N9450 X39.474 Y18.15 I0.998 J-0.362
N9455 G1 X39.848
N9460 X39.998 Y18.157
N9465 X40.139 Y18.207
N9470 X40.265 Y18.289
N9475 X40.372 Y18.394
N9480 X40.462 Y18.514
N9485 X40.54 Y18.735
N9490 X40.561 Y18.968
N9495 X40.522 Y19.198
N9500 X40.426 Y19.411
N9505 X40.279 Y19.594
N9510 X40.091 Y19.733
N9515 X39.874 Y19.82
N9520 X39.643 Y19.85
N9525 X39.262
N9530 G3 X38.88 Y19.57 I0.015 J-0.42
N9535 X39.848 Y18.15 I1.005 J-0.355
N9540 G1 X40.241
N9545 X40.39 Y18.157
N9550 X40.53 Y18.212
N9555 X40.655 Y18.295
N9560 X40.762 Y18.4
N9565 X40.877 Y18.623
N9570 X40.928 Y18.868
N9575 X40.912 Y19.117
N9580 X40.828 Y19.353
N9585 X40.684 Y19.558
N9590 X40.49 Y19.716
N9595 X40.26 Y19.816
N9600 X40.012 Y19.85
N9605 X39.643
N9610 G3 X39.259 Y19.563 I0.015 J-0.42
N9615 X40.241 Y18.15 I1.019 J-0.339
N9620 G1 X40.62
N9625 X40.77 Y18.157
N9630 X40.91 Y18.213
N9635 X41.033 Y18.298
N9640 X41.137 Y18.406
N9645 X41.224 Y18.528
N9650 X41.304 Y18.781
N9655 X41.309 Y19.046
N9660 X41.238 Y19.301
N9665 X41.097 Y19.526
N9670 X40.898 Y19.701
N9675 X40.658 Y19.812
N9680 X40.395 Y19.85
N9685 X40.012
N9690 G3 X39.626 Y19.556 I0.015 J-0.42
N9695 X39.576 Y19.232 I1.032 J-0.325
N9700 G1 Y19.231
N9705 G3 X40.62 Y18.15 I1.082 J0.
N9710 G1 X40.992
N9715 X41.142 Y18.157
N9720 X41.282 Y18.211
N9725 X41.407 Y18.294
N9730 X41.514 Y18.399
N9735 X41.602 Y18.521
N9740 X41.686 Y18.773
N9745 X41.694 Y19.039
N9750 X41.625 Y19.296
N9755 X41.486 Y19.522
N9760 X41.287 Y19.699
N9765 X41.046 Y19.811
N9770 X40.783 Y19.85
N9775 X40.395
N9780 G3 X40.012 Y19.563 I0.015 J-0.42
N9785 X40.992 Y18.15 I1.018 J-0.341
N9790 G1 X41.38
N9795 X41.529 Y18.157
N9800 X41.669 Y18.213
N9805 X41.794 Y18.296
N9810 X41.9 Y18.402
N9815 X41.988 Y18.524
N9820 X42.071 Y18.775
N9825 X42.079 Y19.041
N9830 X42.01 Y19.297
N9835 X41.871 Y19.523
N9840 X41.673 Y19.699
N9845 X41.432 Y19.812
N9850 X41.17 Y19.85
N9855 X40.783
N9860 G3 X40.399 Y19.564 I0.015 J-0.42
N9865 X41.38 Y18.15 I1.018 J-0.341
N9870 G1 X41.761
N9875 X41.911 Y18.157
N9880 X42.05 Y18.212
N9885 X42.176 Y18.294
N9890 X42.282 Y18.4
N9895 X42.371 Y18.521
N9900 X42.455 Y18.773
N9905 X42.464 Y19.039
N9910 X42.395 Y19.295
N9915 X42.256 Y19.522
N9920 X42.058 Y19.699
N9925 X41.817 Y19.811
N9930 X41.554 Y19.85
N9935 X41.17
N9940 G3 X40.787 Y19.567 I0.015 J-0.42
N9945 X41.761 Y18.15 I1.011 J-0.348
N9950 G1 X42.134
N9955 X42.284 Y18.157
N9960 X42.425 Y18.209
N9965 X42.552 Y18.289
N9970 X42.66 Y18.393
N9975 X42.749 Y18.514
N9980 X42.83 Y18.733
N9985 X42.852 Y18.966
N9990 X42.814 Y19.197
N9995 X42.719 Y19.41
N10000 X42.573 Y19.593
N10005 X42.386 Y19.733
N10010 X42.169 Y19.82
N10015 X41.937 Y19.85
N10020 X41.554
N10025 G3 X41.174 Y19.574 I0.015 J-0.42
N10030 X42.134 Y18.15 I0.997 J-0.363
N10035 G1 X42.527
N10040 X42.677 Y18.157
N10045 X42.817 Y18.211
N10050 X42.942 Y18.294
N10055 X43.049 Y18.398
N10060 X43.166 Y18.62
N10065 X43.219 Y18.865
N10070 X43.203 Y19.115
N10075 X43.12 Y19.352
N10080 X42.976 Y19.557
N10085 X42.782 Y19.716
N10090 X42.552 Y19.816
N10095 X42.304 Y19.85
N10100 X41.937
N10105 G3 X41.555 Y19.568 I0.015 J-0.42
N10110 X42.527 Y18.15 I1.009 J-0.35
N10115 G1 X42.907
N10120 X43.056 Y18.157
N10125 X43.196 Y18.212
N10130 X43.32 Y18.296
N10135 X43.425 Y18.403
N10140 X43.512 Y18.526
N10145 X43.593 Y18.778
N10150 X43.599 Y19.044
N10155 X43.528 Y19.299
N10160 X43.388 Y19.524
N10165 X43.189 Y19.7
N10170 X42.948 Y19.812
N10175 X42.686 Y19.85
N10180 X42.304
N10185 G3 X41.919 Y19.56 I0.015 J-0.42
N10190 X42.907 Y18.15 I1.026 J-0.332
N10195 G1 X43.278
N10200 X43.428 Y18.157
N10205 X43.569 Y18.21
N10210 X43.694 Y18.292
N10215 X43.801 Y18.397
N10220 X43.89 Y18.518
N10225 X43.975 Y18.771
N10230 X43.983 Y19.037
N10235 X43.915 Y19.294
N10240 X43.776 Y19.521
N10245 X43.577 Y19.699
N10250 X43.336 Y19.811
N10255 X43.072 Y19.85
N10260 X42.686
N10265 G3 X42.303 Y19.566 I0.015 J-0.42
N10270 X43.278 Y18.15 I1.013 J-0.346
N10275 G1 X43.666
N10280 X43.816 Y18.157
N10285 X43.955 Y18.212
N10290 X44.081 Y18.295
N10295 X44.187 Y18.4
N10300 X44.275 Y18.522
N10305 X44.359 Y18.774
N10310 X44.368 Y19.039
N10315 X44.3 Y19.296
N10320 X44.161 Y19.522
N10325 X43.962 Y19.699
N10330 X43.722 Y19.811
N10335 X43.459 Y19.85
N10340 X43.072
N10345 G3 X42.69 Y19.566 I0.015 J-0.42
N10350 X43.666 Y18.15 I1.014 J-0.345
N10355 G1 X44.047
N10360 X44.197 Y18.157
N10365 X44.337 Y18.211
N10370 X44.462 Y18.293
N10375 X44.57 Y18.398
N10380 X44.658 Y18.519
N10385 X44.743 Y18.771
N10390 X44.752 Y19.037
N10395 X44.684 Y19.294
N10400 X44.545 Y19.521
N10405 X44.347 Y19.699
N10410 X44.106 Y19.811
N10415 X43.843 Y19.85
N10420 X43.459
N10425 G3 X43.077 Y19.569 I0.015 J-0.42
N10430 X44.047 Y18.15 I1.007 J-0.352
N10435 G1 X44.421
N10440 X44.57 Y18.157
N10445 X44.711 Y18.208
N10450 X44.838 Y18.288
N10455 X44.947 Y18.392
N10460 X45.037 Y18.512
N10465 X45.117 Y18.732
N10470 X45.14 Y18.965
N10475 X45.102 Y19.196
N10480 X45.008 Y19.409
N10485 X44.862 Y19.592
N10490 X44.674 Y19.732
N10495 X44.457 Y19.82
N10500 X44.225 Y19.85
N10505 X43.843
N10510 G3 X43.463 Y19.575 I0.015 J-0.42
N10515 X44.421 Y18.15 I0.994 J-0.367
N10520 G1 X44.813
N10525 X44.963 Y18.157
N10530 X45.103 Y18.21
N10535 X45.228 Y18.293
N10540 X45.336 Y18.397
N10545 X45.454 Y18.619
N10550 X45.506 Y18.864
N10555 X45.491 Y19.114
N10560 X45.408 Y19.351
N10565 X45.264 Y19.557
N10570 X45.07 Y19.715
N10575 X44.84 Y19.816
N10580 X44.592 Y19.85
N10585 X44.225
N10590 G3 X43.844 Y19.569 I0.015 J-0.42
N10595 X44.813 Y18.15 I1.007 J-0.353
N10600 G1 X45.193
N10605 X45.343 Y18.157
N10610 X45.483 Y18.211
N10615 X45.607 Y18.296
N10620 X45.712 Y18.403
N10625 X45.799 Y18.525
N10630 X45.881 Y18.777
N10635 X45.887 Y19.043
N10640 X45.816 Y19.299
N10645 X45.676 Y19.524
N10650 X45.477 Y19.7
N10655 X45.236 Y19.812
N10660 X44.973 Y19.85
N10665 X44.592
N10670 G3 X44.207 Y19.561 I0.015 J-0.42
N10675 X45.193 Y18.15 I1.023 J-0.335
N10680 G1 X45.565
N10685 X45.714 Y18.157
N10690 X45.855 Y18.21
N10695 X45.981 Y18.291
N10700 X46.088 Y18.396
N10705 X46.177 Y18.517
N10710 X46.255 Y18.737
N10715 X46.276 Y18.97
N10720 X46.237 Y19.2
N10725 X46.141 Y19.412
N10730 X45.995 Y19.594
N10735 X45.808 Y19.733
N10740 X45.591 Y19.82
N10745 X45.36 Y19.85
N10750 X44.973
N10755 G3 X44.591 Y19.567 I0.015 J-0.42
N10760 X45.565 Y18.15 I1.011 J-0.348
N10765 G1 X45.952
N10770 X46.102 Y18.157
N10775 X46.242 Y18.211
N10780 X46.367 Y18.294
N10785 X46.475 Y18.399
N10790 X46.591 Y18.62
N10795 X46.643 Y18.866
N10800 X46.627 Y19.116
N10805 X46.544 Y19.352
N10810 X46.4 Y19.557
N10815 X46.205 Y19.716
N10820 X45.976 Y19.816
N10825 X45.727 Y19.85
N10830 X45.36
N10835 G3 X44.977 Y19.566 I0.015 J-0.42
N10840 X45.952 Y18.15 I1.012 J-0.347
N10845 G1 X46.333
N10850 X46.483 Y18.157
N10855 X46.623 Y18.212
N10860 X46.746 Y18.297
N10865 X46.851 Y18.405
N10870 X46.938 Y18.527
N10875 X47.018 Y18.78
N10880 X47.023 Y19.045
N10885 X46.952 Y19.3
N10890 X46.812 Y19.525
N10895 X46.613 Y19.7
N10900 X46.372 Y19.812
N10905 X46.11 Y19.85
N10910 X45.727
N10915 G3 X45.342 Y19.558 I0.015 J-0.42
N10920 X46.333 Y18.15 I1.029 J-0.329
N10925 G1 X46.707
N10930 X46.857 Y18.157
N10935 X46.997 Y18.211
N10940 X47.122 Y18.294
N10945 X47.229 Y18.399
N10950 X47.316 Y18.521
N10955 X47.4 Y18.773
N10960 X47.408 Y19.039
N10965 X47.34 Y19.296
N10970 X47.2 Y19.522
N10975 X47.002 Y19.699
N10980 X46.761 Y19.811
N10985 X46.498 Y19.85
N10990 X46.11
N10995 G3 X45.726 Y19.564 I0.015 J-0.42
N11000 X46.707 Y18.15 I1.018 J-0.341
N11005 G1 X47.071
N11010 X47.221 Y18.157
N11015 X47.363 Y18.206
N11020 X47.49 Y18.285
N11025 X47.599 Y18.388
N11030 X47.69 Y18.507
N11035 X47.772 Y18.727
N11040 X47.795 Y18.961
N11045 X47.758 Y19.193
N11050 X47.664 Y19.407
N11055 X47.518 Y19.591
N11060 X47.33 Y19.732
N11065 X47.112 Y19.82
N11070 X46.88 Y19.85
N11075 X46.498
N11080 G3 X46.119 Y19.578 I0.015 J-0.42
N11085 X47.071 Y18.15 I0.989 J-0.372
N11090 G1 X47.479
N11095 X47.629 Y18.157
N11100 X47.768 Y18.213
N11105 X47.892 Y18.298
N11110 X47.999 Y18.403
N11115 X48.113 Y18.625
N11120 X48.164 Y18.87
N11125 X48.147 Y19.119
N11130 X48.063 Y19.355
N11135 X47.919 Y19.559
N11140 X47.725 Y19.716
N11145 X47.496 Y19.816
N11150 X47.248 Y19.85
N11155 X46.88
N11160 G3 X46.495 Y19.562 I0.015 J-0.42
N11165 X47.479 Y18.15 I1.021 J-0.337
N11170 G1 X47.851
N11175 X48.001 Y18.157
N11180 X48.141 Y18.211
N11185 X48.265 Y18.296
N11190 X48.37 Y18.403
N11195 X48.457 Y18.525
N11200 X48.538 Y18.778
N11205 X48.544 Y19.043
N11210 X48.474 Y19.299
N11215 X48.333 Y19.524
N11220 X48.134 Y19.7
N11225 X47.893 Y19.812
N11230 X47.631 Y19.85
N11235 X47.248
N11240 G3 X46.863 Y19.56 I0.015 J-0.42
N11245 X47.851 Y18.15 I1.025 J-0.333
N11250 G1 X48.238
N11255 X48.388 Y18.157
N11260 X48.527 Y18.214
N11265 X48.651 Y18.299
N11270 X48.756 Y18.406
N11275 X48.871 Y18.627
N11280 X48.921 Y18.872
N11285 X48.904 Y19.121
N11290 X48.82 Y19.356
N11295 X48.676 Y19.559
N11300 X48.483 Y19.717
N11305 X48.254 Y19.816
N11310 X48.007 Y19.85
N11315 X47.631
N11320 G3 X47.245 Y19.557 I0.015 J-0.42
N11325 X48.238 Y18.15 I1.031 J-0.326
N11330 G1 X48.619
N11335 X48.769 Y18.157
N11340 X48.908 Y18.215
N11345 X49.031 Y18.301
N11350 X49.134 Y18.409
N11355 X49.22 Y18.532
N11360 X49.298 Y18.785
N11365 X49.302 Y19.049
N11370 X49.23 Y19.304
N11375 X49.089 Y19.527
N11380 X48.891 Y19.701
N11385 X48.651 Y19.812
N11390 X48.389 Y19.85
N11395 X48.007
N11400 G3 X47.62 Y19.554 I0.015 J-0.42
N11405 X48.619 Y18.15 I1.037 J-0.319
N11410 G1 X48.97
N11415 X49.12 Y18.157
N11420 X49.262 Y18.206
N11425 X49.389 Y18.285
N11430 X49.497 Y18.389
N11435 X49.587 Y18.509
N11440 X49.668 Y18.729
N11445 X49.69 Y18.963
N11450 X49.653 Y19.194
N11455 X49.557 Y19.409
N11460 X49.411 Y19.592
N11465 X49.223 Y19.732
N11470 X49.006 Y19.82
N11475 X48.773 Y19.85
N11480 X48.389
N11485 G3 X48.009 Y19.573 I0.015 J-0.42
N11490 X48.97 Y18.15 I0.998 J-0.362
N11495 G1 X49.357
N11500 X49.507 Y18.157
N11505 X49.648 Y18.208
N11510 X49.774 Y18.29
N11515 X49.883 Y18.393
N11520 X50.001 Y18.615
N11525 X50.055 Y18.86
N11530 X50.041 Y19.111
N11535 X49.958 Y19.349
N11540 X49.815 Y19.555
N11545 X49.62 Y19.715
N11550 X49.39 Y19.816
N11555 X49.141 Y19.85
N11560 X48.773
N11565 G3 X48.392 Y19.571 I0.015 J-0.42
N11570 X49.357 Y18.15 I1.003 J-0.357
N11575 G1 X49.765
N11580 X49.915 Y18.157
N11585 X50.052 Y18.218
N11590 X50.174 Y18.306
N11595 X50.276 Y18.416
N11600 X50.361 Y18.54
N11605 X50.436 Y18.792
N11610 X50.438 Y19.055
N11615 X50.365 Y19.308
N11620 X50.224 Y19.53
N11625 X50.025 Y19.703
N11630 X49.786 Y19.812
N11635 X49.525 Y19.85
N11640 X49.141
N11645 G3 X48.752 Y19.547 I0.015 J-0.42
N11650 X49.765 Y18.15 I1.051 J-0.303
N11655 G1 X50.109
N11660 X50.259 Y18.157
N11665 X50.401 Y18.206
N11670 X50.528 Y18.286
N11675 X50.635 Y18.39
N11680 X50.725 Y18.51
N11685 X50.805 Y18.73
N11690 X50.827 Y18.964
N11695 X50.789 Y19.195
N11700 X50.694 Y19.409
N11705 X50.547 Y19.592
N11710 X50.359 Y19.732
N11715 X50.142 Y19.82
N11720 X49.909 Y19.85
N11725 X49.525
N11730 G3 X49.144 Y19.572 I0.015 J-0.42
N11735 X50.109 Y18.15 I1.002 J-0.359
N11740 G1 X50.49
N11745 X50.64 Y18.157
N11750 X50.781 Y18.207
N11755 X50.908 Y18.288
N11760 X51.017 Y18.391
N11765 X51.137 Y18.612
N11770 X51.192 Y18.858
N11775 X51.177 Y19.109
N11780 X51.096 Y19.347
N11785 X50.952 Y19.554
N11790 X50.757 Y19.714
N11795 X50.527 Y19.815
N11800 X50.277 Y19.85
N11805 X49.909
N11810 G3 X49.529 Y19.573 I0.015 J-0.42
N11815 X50.49 Y18.15 I0.998 J-0.362
N11820 G1 X50.864
N11825 X51.013 Y18.157
N11830 X51.155 Y18.207
N11835 X51.281 Y18.289
N11840 X51.388 Y18.394
N11845 X51.477 Y18.514
N11850 X51.556 Y18.735
N11855 X51.576 Y18.968
N11860 X51.537 Y19.198
N11865 X51.441 Y19.411
N11870 X51.295 Y19.594
N11875 X51.107 Y19.733
N11880 X50.89 Y19.82
N11885 X50.658 Y19.85
N11890 X50.277
N11895 G3 X49.896 Y19.57 I0.015 J-0.42
N11900 X50.864 Y18.15 I1.005 J-0.355
N11905 G1 X51.256
N11910 X51.406 Y18.157
N11915 X51.546 Y18.212
N11920 X51.67 Y18.295
N11925 X51.777 Y18.4
N11930 X51.893 Y18.623
N11935 X51.944 Y18.868
N11940 X51.927 Y19.117
N11945 X51.843 Y19.353
N11950 X51.699 Y19.558
N11955 X51.505 Y19.716
N11960 X51.275 Y19.816
N11965 X51.027 Y19.85
N11970 X50.658
N11975 G3 X50.274 Y19.563 I0.015 J-0.42
N11980 X51.256 Y18.15 I1.019 J-0.339
N11985 G1 X51.636
N11990 X51.786 Y18.157
N11995 X51.925 Y18.213
N12000 X52.049 Y18.298
N12005 X52.153 Y18.406
N12010 X52.24 Y18.528
N12015 X52.319 Y18.781
N12020 X52.324 Y19.046
N12025 X52.253 Y19.301
N12030 X52.112 Y19.526
N12035 X51.913 Y19.701
N12040 X51.673 Y19.812
N12045 X51.411 Y19.85
N12050 X51.027
N12055 G3 X50.641 Y19.556 I0.015 J-0.42
N12060 X50.592 Y19.232 I1.032 J-0.325
N12065 G1 Y19.231
N12070 G3 X51.636 Y18.15 I1.082 J0.
N12075 G1 X52.008
N12080 X52.158 Y18.157
N12085 X52.298 Y18.211
N12090 X52.423 Y18.294
N12095 X52.529 Y18.399
N12100 X52.617 Y18.521
N12105 X52.701 Y18.773
N12110 X52.709 Y19.039
N12115 X52.641 Y19.296
N12120 X52.501 Y19.522
N12125 X52.302 Y19.699
N12130 X52.061 Y19.811
N12135 X51.798 Y19.85
N12140 X51.411
N12145 G3 X51.027 Y19.563 I0.015 J-0.42
N12150 X52.008 Y18.15 I1.018 J-0.341
N12155 G1 X52.395
N12160 X52.545 Y18.157
N12165 X52.684 Y18.213
N12170 X52.809 Y18.296
N12175 X52.916 Y18.402
N12180 X53.003 Y18.524
N12185 X53.087 Y18.775
N12190 X53.094 Y19.041
N12195 X53.026 Y19.297
N12200 X52.886 Y19.523
N12205 X52.688 Y19.699
N12210 X52.448 Y19.812
N12215 X52.185 Y19.85
N12220 X51.798
N12225 G3 X51.415 Y19.564 I0.015 J-0.42
N12230 X52.395 Y18.15 I1.018 J-0.341
N12235 G1 X52.776
N12240 X52.926 Y18.157
N12245 X53.066 Y18.212
N12250 X53.191 Y18.294
N12255 X53.298 Y18.4
N12260 X53.386 Y18.521
N12265 X53.471 Y18.773
N12270 X53.479 Y19.039
N12275 X53.411 Y19.295
N12280 X53.272 Y19.522
N12285 X53.074 Y19.699
N12290 X52.833 Y19.811
N12295 X52.57 Y19.85
N12300 X52.185
N12305 G3 X51.803 Y19.567 I0.015 J-0.42
N12310 X52.776 Y18.15 I1.011 J-0.348
N12315 G1 X53.15
N12320 X53.3 Y18.157
N12325 X53.44 Y18.209
N12330 X53.567 Y18.289
N12335 X53.675 Y18.393
N12340 X53.765 Y18.514
N12345 X53.845 Y18.733
N12350 X53.867 Y18.966
N12355 X53.829 Y19.197
N12360 X53.735 Y19.41
N12365 X53.589 Y19.593
N12370 X53.401 Y19.733
N12375 X53.185 Y19.82
N12380 X52.953 Y19.85
N12385 X52.57
N12390 G3 X52.19 Y19.574 I0.015 J-0.42
N12395 X53.15 Y18.15 I0.997 J-0.363
N12400 G1 X53.542
N12405 X53.692 Y18.157
N12410 X53.832 Y18.211
N12415 X53.957 Y18.294
N12420 X54.065 Y18.398
N12425 X54.182 Y18.62
N12430 X54.234 Y18.865
N12435 X54.218 Y19.115
N12440 X54.135 Y19.352
N12445 X53.991 Y19.557
N12450 X53.797 Y19.716
N12455 X53.567 Y19.816
N12460 X53.319 Y19.85
N12465 X52.953
N12470 G3 X52.571 Y19.568 I0.015 J-0.42
N12475 X53.542 Y18.15 I1.009 J-0.35
N12480 G1 X53.922
N12485 X54.072 Y18.157
N12490 X54.212 Y18.212
N12495 X54.336 Y18.296
N12500 X54.441 Y18.403
N12505 X54.528 Y18.526
N12510 X54.609 Y18.778
N12515 X54.614 Y19.044
N12520 X54.544 Y19.299
N12525 X54.403 Y19.524
N12530 X54.204 Y19.7
N12535 X53.964 Y19.812
N12540 X53.701 Y19.85
N12545 X53.319
N12550 G3 X52.934 Y19.56 I0.015 J-0.42
N12555 X53.922 Y18.15 I1.026 J-0.332
N12560 G1 X54.294
N12565 X54.444 Y18.157
N12570 X54.584 Y18.21
N12575 X54.71 Y18.292
N12580 X54.817 Y18.397
N12585 X54.905 Y18.518
N12590 X54.99 Y18.771
N12595 X54.999 Y19.037
N12600 X54.931 Y19.294
N12605 X54.791 Y19.521
N12610 X54.593 Y19.699
N12615 X54.351 Y19.811
N12620 X54.088 Y19.85
N12625 X53.701
N12630 G3 X53.318 Y19.566 I0.015 J-0.42
N12635 X54.294 Y18.15 I1.013 J-0.346
N12640 G1 X54.681
N12645 X54.831 Y18.157
N12650 X54.971 Y18.212
N12655 X55.096 Y18.295
N12660 X55.203 Y18.4
N12665 X55.291 Y18.522
N12670 X55.375 Y18.774
N12675 X55.383 Y19.039
N12680 X55.315 Y19.296
N12685 X55.176 Y19.522
N12690 X54.978 Y19.699
N12695 X54.737 Y19.811
N12700 X54.474 Y19.85
N12705 X54.088
N12710 G3 X53.705 Y19.566 I0.015 J-0.42
N12715 X54.681 Y18.15 I1.014 J-0.345
N12720 G1 X55.062
N12725 X55.212 Y18.157
N12730 X55.352 Y18.211
N12735 X55.478 Y18.293
N12740 X55.585 Y18.398
N12745 X55.673 Y18.519
N12750 X55.759 Y18.771
N12755 X55.768 Y19.037
N12760 X55.7 Y19.294
N12765 X55.561 Y19.521
N12770 X55.363 Y19.699
N12775 X55.122 Y19.811
N12780 X54.859 Y19.85
N12785 X54.474
N12790 G3 X54.092 Y19.569 I0.015 J-0.42
N12795 X55.062 Y18.15 I1.007 J-0.352
N12800 G1 X55.436
N12805 X55.586 Y18.157
N12810 X55.727 Y18.208
N12815 X55.854 Y18.288
N12820 X55.962 Y18.392
N12825 X56.052 Y18.512
N12830 X56.133 Y18.732
N12835 X56.155 Y18.965
N12840 X56.118 Y19.196
N12845 X56.023 Y19.409
N12850 X55.877 Y19.592
N12855 X55.69 Y19.732
N12860 X55.473 Y19.82
N12865 X55.241 Y19.85
N12870 X54.859
N12875 G3 X54.479 Y19.575 I0.015 J-0.42
N12880 X55.436 Y18.15 I0.994 J-0.367
N12885 G1 X55.829
N12890 X55.978 Y18.157
N12895 X56.119 Y18.21
N12900 X56.244 Y18.293
N12905 X56.352 Y18.397
N12910 X56.469 Y18.619
N12915 X56.522 Y18.864
N12920 X56.506 Y19.114
N12925 X56.423 Y19.351
N12930 X56.28 Y19.557
N12935 X56.085 Y19.715
N12940 X55.856 Y19.816
N12945 X55.607 Y19.85
N12950 X55.241
N12955 G3 X54.859 Y19.569 I0.015 J-0.42
N12960 X55.829 Y18.15 I1.007 J-0.353
N12965 G1 X56.208
N12970 X56.358 Y18.157
N12975 X56.498 Y18.211
N12980 X56.622 Y18.296
N12985 X56.727 Y18.403
N12990 X56.815 Y18.525
N12995 X56.896 Y18.777
N13000 X56.902 Y19.043
N13005 X56.832 Y19.299
N13010 X56.691 Y19.524
N13015 X56.492 Y19.7
N13020 X56.252 Y19.812
N13025 X55.989 Y19.85
N13030 X55.607
N13035 G3 X55.223 Y19.561 I0.015 J-0.42
N13040 X56.208 Y18.15 I1.023 J-0.335
N13045 G1 X56.58
N13050 X56.73 Y18.157
N13055 X56.87 Y18.21
N13060 X56.996 Y18.291
N13065 X57.104 Y18.396
N13070 X57.192 Y18.517
N13075 X57.271 Y18.737
N13080 X57.291 Y18.97
N13085 X57.253 Y19.2
N13090 X57.157 Y19.412
N13095 X57.011 Y19.594
N13100 X56.823 Y19.733
N13105 X56.607 Y19.82
N13110 X56.375 Y19.85
N13115 X55.989
N13120 G3 X55.606 Y19.567 I0.015 J-0.42
N13125 X56.58 Y18.15 I1.011 J-0.348
N13130 G1 X56.968
N13135 X57.117 Y18.157
N13140 X57.258 Y18.211
N13145 X57.382 Y18.294
N13150 X57.49 Y18.399
N13155 X57.606 Y18.62
N13160 X57.658 Y18.866
N13165 X57.642 Y19.116
N13170 X57.559 Y19.352
N13175 X57.415 Y19.557
N13180 X57.221 Y19.716
N13185 X56.991 Y19.816
N13190 X56.743 Y19.85
N13195 X56.375
N13200 G3 X55.993 Y19.566 I0.015 J-0.42
N13205 X56.968 Y18.15 I1.012 J-0.347
N13210 G1 X57.349
N13215 X57.498 Y18.157
N13220 X57.638 Y18.212
N13225 X57.762 Y18.297
N13230 X57.866 Y18.405
N13235 X57.953 Y18.527
N13240 X58.034 Y18.78
N13245 X58.039 Y19.045
N13250 X57.968 Y19.3
N13255 X57.827 Y19.525
N13260 X57.628 Y19.7
N13265 X57.388 Y19.812
N13270 X57.125 Y19.85
N13275 X56.743
N13280 G3 X56.357 Y19.558 I0.015 J-0.42
N13285 X57.349 Y18.15 I1.029 J-0.329
N13290 G1 X57.722
N13295 X57.872 Y18.157
N13300 X58.012 Y18.211
N13305 X58.137 Y18.294
N13310 X58.244 Y18.399
N13315 X58.332 Y18.521
N13320 X58.416 Y18.773
N13325 X58.424 Y19.039
N13330 X58.355 Y19.296
N13335 X58.216 Y19.522
N13340 X58.017 Y19.699
N13345 X57.776 Y19.811
N13350 X57.513 Y19.85
N13355 X57.125
N13360 G3 X56.742 Y19.564 I0.015 J-0.42
N13365 X57.722 Y18.15 I1.018 J-0.341
N13370 G1 X58.086
N13375 X58.236 Y18.157
N13380 X58.378 Y18.206
N13385 X58.506 Y18.285
N13390 X58.615 Y18.388
N13395 X58.705 Y18.507
N13400 X58.787 Y18.727
N13405 X58.81 Y18.961
N13410 X58.774 Y19.193
N13415 X58.679 Y19.407
N13420 X58.533 Y19.591
N13425 X58.345 Y19.732
N13430 X58.128 Y19.82
N13435 X57.895 Y19.85
N13440 X57.513
N13445 G3 X57.134 Y19.578 I0.015 J-0.42
N13450 X58.086 Y18.15 I0.989 J-0.372
N13455 G1 X58.495
N13460 X58.644 Y18.157
N13465 X58.784 Y18.213
N13470 X58.907 Y18.298
N13475 X59.014 Y18.403
N13480 X59.129 Y18.625
N13485 X59.179 Y18.87
N13490 X59.162 Y19.119
N13495 X59.078 Y19.355
N13500 X58.934 Y19.559
N13505 X58.74 Y19.716
N13510 X58.511 Y19.816
N13515 X58.263 Y19.85
N13520 X57.895
N13525 G3 X57.511 Y19.562 I0.015 J-0.42
N13530 X58.495 Y18.15 I1.021 J-0.337
N13535 G1 X58.866
N13540 X59.016 Y18.157
N13545 X59.156 Y18.211
N13550 X59.28 Y18.296
N13555 X59.385 Y18.403
N13560 X59.472 Y18.525
N13565 X59.554 Y18.778
N13570 X59.559 Y19.043
N13575 X59.489 Y19.299
N13580 X59.349 Y19.524
N13585 X59.15 Y19.7
N13590 X58.909 Y19.812
N13595 X58.646 Y19.85
N13600 X58.263
N13605 G3 X57.879 Y19.56 I0.015 J-0.42
N13610 X58.866 Y18.15 I1.025 J-0.333
N13615 G1 X59.254
N13620 X59.404 Y18.157
N13625 X59.542 Y18.214
N13630 X59.666 Y18.299
N13635 X59.772 Y18.406
N13640 X59.886 Y18.627
N13645 X59.937 Y18.872
N13650 X59.919 Y19.121
N13655 X59.836 Y19.356
N13660 X59.692 Y19.559
N13665 X59.498 Y19.717
N13670 X59.269 Y19.816
N13675 X59.022 Y19.85
N13680 X58.646
N13685 G3 X58.26 Y19.557 I0.015 J-0.42
N13690 X59.254 Y18.15 I1.031 J-0.326
N13695 G1 X59.635
N13700 X59.785 Y18.157
N13705 X59.923 Y18.215
N13710 X60.046 Y18.301
N13715 X60.15 Y18.409
N13720 X60.235 Y18.532
N13725 X60.314 Y18.785
N13730 X60.318 Y19.049
N13735 X60.246 Y19.304
N13740 X60.105 Y19.527
N13745 X59.906 Y19.701
N13750 X59.666 Y19.812
N13755 X59.405 Y19.85
N13760 X59.022
N13765 G3 X58.635 Y19.554 I0.015 J-0.42
N13770 X59.635 Y18.15 I1.037 J-0.319
N13775 G1 X59.985
N13780 X60.135 Y18.157
N13785 X60.277 Y18.206
N13790 X60.404 Y18.285
N13795 X60.513 Y18.389
N13800 X60.603 Y18.509
N13805 X60.684 Y18.729
N13810 X60.706 Y18.963
N13815 X60.668 Y19.194
N13820 X60.573 Y19.409
N13825 X60.427 Y19.592
N13830 X60.239 Y19.732
N13835 X60.021 Y19.82
N13840 X59.788 Y19.85
N13845 X59.405
N13850 G3 X59.024 Y19.573 I0.015 J-0.42
N13855 X59.985 Y18.15 I0.998 J-0.362
N13860 G1 X60.373
N13865 X60.523 Y18.157
N13870 X60.664 Y18.208
N13875 X60.79 Y18.29
N13880 X60.898 Y18.393
N13885 X61.017 Y18.615
N13890 X61.071 Y18.86
N13895 X61.056 Y19.111
N13900 X60.974 Y19.349
N13905 X60.83 Y19.555
N13910 X60.636 Y19.715
N13915 X60.405 Y19.816
N13920 X60.156 Y19.85
N13925 X59.788
N13930 G3 X59.407 Y19.571 I0.015 J-0.42
N13935 X60.373 Y18.15 I1.003 J-0.357
N13940 G1 X60.781
N13945 X60.931 Y18.157
N13950 X61.068 Y18.218
N13955 X61.189 Y18.306
N13960 X61.292 Y18.416
N13965 X61.376 Y18.54
N13970 X61.452 Y18.792
N13975 X61.453 Y19.055
N13980 X61.381 Y19.308
N13985 X61.239 Y19.53
N13990 X61.041 Y19.703
N13995 X60.801 Y19.812
N14000 X60.541 Y19.85
N14005 X60.156
N14010 G3 X59.768 Y19.547 I0.015 J-0.42
N14015 X60.781 Y18.15 I1.051 J-0.303
N14020 G1 X61.124
N14025 X61.274 Y18.157
N14030 X61.416 Y18.206
N14035 X61.543 Y18.286
N14040 X61.651 Y18.39
N14045 X61.741 Y18.51
N14050 X61.821 Y18.73
N14055 X61.843 Y18.964
N14060 X61.805 Y19.195
N14065 X61.709 Y19.409
N14070 X61.563 Y19.592
N14075 X61.375 Y19.732
N14080 X61.157 Y19.82
N14085 X60.925 Y19.85
N14090 X60.541
N14095 G3 X60.16 Y19.572 I0.015 J-0.42
N14100 X61.124 Y18.15 I1.002 J-0.359
N14105 G1 X61.505
N14110 X61.655 Y18.157
N14115 X61.797 Y18.207
N14120 X61.923 Y18.288
N14125 X62.033 Y18.391
N14130 X62.152 Y18.612
N14135 X62.207 Y18.858
N14140 X62.193 Y19.109
N14145 X62.111 Y19.347
N14150 X61.967 Y19.554
N14155 X61.773 Y19.714
N14160 X61.542 Y19.815
N14165 X61.293 Y19.85
N14170 X60.925
N14175 G3 X60.544 Y19.573 I0.015 J-0.42
N14180 X61.505 Y18.15 I0.998 J-0.362
N14185 G1 X61.879
N14190 X62.029 Y18.157
N14195 X62.17 Y18.207
N14200 X62.296 Y18.289
N14205 X62.403 Y18.394
N14210 X62.492 Y18.514
N14215 X62.571 Y18.735
N14220 X62.592 Y18.968
N14225 X62.553 Y19.198
N14230 X62.457 Y19.411
N14235 X62.31 Y19.594
N14240 X62.122 Y19.733
N14245 X61.905 Y19.82
N14250 X61.673 Y19.85
N14255 X61.293
N14260 G3 X60.911 Y19.57 I0.015 J-0.42
N14265 X61.879 Y18.15 I1.005 J-0.355
N14270 G1 X62.129 Y18.149
N14275 X62.243 Y18.148
N14280 X62.393 Y18.154
N14285 X62.536 Y18.2
N14290 X62.664 Y18.278
N14295 X62.774 Y18.38
N14300 X62.897 Y18.602
N14305 X62.955 Y18.849
N14310 X62.943 Y19.103
N14315 X62.861 Y19.344
N14320 X62.717 Y19.553
N14325 X62.521 Y19.715
N14330 X62.288 Y19.816
N14335 X62.037 Y19.851
N14340 X61.673 Y19.85
N14345 G3 X61.295 Y19.575 I0.015 J-0.419
N14350 X62.243 Y18.148 I0.998 J-0.366
N14355 G1 X62.545 Y18.144
N14360 X62.651 Y18.141
N14365 X62.801 Y18.144
N14370 X62.94 Y18.202
N14375 X63.063 Y18.287
N14380 X63.167 Y18.395
N14385 X63.254 Y18.518
N14390 X63.329 Y18.741
N14395 X63.346 Y18.976
N14400 X63.303 Y19.208
N14405 X63.203 Y19.422
N14410 X63.053 Y19.604
N14415 X62.862 Y19.742
N14420 X62.642 Y19.827
N14425 X62.407 Y19.854
N14430 X62.037 Y19.851
N14435 G3 X61.65 Y19.542 I0.016 J-0.417
N14440 X62.651 Y18.141 I1.074 J-0.291
N14445 G1 X62.752 Y18.138
N14450 X62.96 Y18.116
N14455 X63.11 Y18.107
N14460 X63.255 Y18.146
N14465 X63.387 Y18.218
N14470 X63.501 Y18.315
N14475 X63.598 Y18.429
N14480 X63.676 Y18.557
N14485 X63.735 Y18.695
N14490 X63.738 Y18.706
N14495 X63.77 Y18.959
N14500 X63.731 Y19.21
N14505 X63.626 Y19.441
N14510 X63.461 Y19.635
N14515 X63.249 Y19.776
N14520 X63.007 Y19.854
N14525 X62.752 Y19.862
N14530 X62.545 Y19.856
N14535 X62.407 Y19.854
N14540 G3 X62.028 Y19.555 I0.019 J-0.414
N14545 X62.96 Y18.116 I1.091 J-0.314
N14550 G1 X63.311 Y18.078
N14555 X63.46 Y18.07
N14560 X63.608 Y18.099
N14565 X63.745 Y18.16
N14570 X63.867 Y18.247
N14575 X63.973 Y18.353
N14580 X64.092 Y18.572
N14585 X64.152 Y18.814
N14590 X64.148 Y19.063
N14595 X64.081 Y19.304
N14600 X63.956 Y19.519
N14605 X63.78 Y19.696
N14610 X63.566 Y19.823
N14615 X63.326 Y19.891
N14620 X63.076 Y19.897
N14625 X62.752 Y19.862
N14630 G3 X62.409 Y19.583 I0.06 J-0.426
N14635 X63.311 Y18.078 I1.061 J-0.387
N14640 G1 X63.726 Y18.032
N14645 X63.876 Y18.023
N14650 X64.022 Y18.059
N14655 X64.155 Y18.128
N14660 X64.275 Y18.218
N14665 X64.378 Y18.327
N14670 X64.465 Y18.449
N14675 X64.555 Y18.71
N14680 X64.573 Y18.985
N14685 X64.517 Y19.255
N14690 X64.392 Y19.5
N14695 X64.206 Y19.703
N14700 X63.972 Y19.85
N14705 X63.708 Y19.929
N14710 X63.433 Y19.935
N14715 X63.076 Y19.897
N14720 G3 X62.707 Y19.565 I0.063 J-0.442
N14725 X63.726 Y18.032 I1.202 J-0.306
N14730 G1 X63.999 Y18.001
N14735 X64.114 Y17.988
N14740 X64.263 Y17.977
N14745 X64.41 Y18.008
N14750 X64.546 Y18.072
N14755 X64.668 Y18.158
N14760 X64.775 Y18.264
N14765 X64.866 Y18.383
N14770 X64.965 Y18.625
N14775 X65.002 Y18.884
N14780 X64.976 Y19.144
N14785 X64.888 Y19.39
N14790 X64.744 Y19.608
N14795 X64.551 Y19.784
N14800 X64.321 Y19.909
N14805 X64.068 Y19.974
N14810 X63.806 Y19.977
N14815 X63.433 Y19.935
N14820 G3 X63.049 Y19.585 I0.068 J-0.46
N14825 X64.114 Y17.988 I1.266 J-0.31
N14830 G1 X64.522 Y17.937
N14835 X64.671 Y17.926
N14840 X64.818 Y17.957
N14845 X64.955 Y18.018
N14850 X65.078 Y18.104
N14855 X65.188 Y18.206
N14860 X65.281 Y18.324
N14865 X65.358 Y18.452
N14870 X65.44 Y18.736
N14875 X65.445 Y19.031
N14880 X65.374 Y19.318
N14885 X65.23 Y19.576
N14890 X65.024 Y19.787
N14895 X64.771 Y19.938
N14900 X64.486 Y20.018
N14905 X64.191 Y20.022
N14910 X63.999 Y19.999
N14915 X63.806 Y19.977
N14920 G3 X63.404 Y19.608 I0.071 J-0.481
N14925 X64.522 Y17.937 I1.333 J-0.317
N14930 G1 X64.623 Y17.925
N14935 X64.831 Y17.88
N14940 X64.877 Y17.867
N14945 X65.023 Y17.835
N14950 X65.172 Y17.855
N14955 X65.314 Y17.903
N14960 X65.445 Y17.976
N14965 X65.564 Y18.068
N14970 X65.667 Y18.176
N14975 X65.758 Y18.296
N14980 X65.869 Y18.567
N14985 X65.911 Y18.856
N14990 X65.882 Y19.147
N14995 X65.783 Y19.422
N15000 X65.62 Y19.664
N15005 X65.403 Y19.86
N15010 X65.146 Y19.998
N15015 X64.862 Y20.069
N15020 X64.57
N15025 X64.191 Y20.022
N15030 G3 X63.784 Y19.612 I0.075 J-0.482
N15035 X64.877 Y17.867 I1.565 J-0.234
N15040 G1 X65.247 Y17.766
N15045 X65.392 Y17.728
N15050 X65.541 Y17.737
N15055 X65.686 Y17.774
N15060 X65.823 Y17.837
N15065 X65.948 Y17.92
N15070 X66.061 Y18.019
N15075 X66.16 Y18.131
N15080 X66.246 Y18.254
N15085 X66.317 Y18.386
N15090 X66.373 Y18.525
N15095 X66.415 Y18.669
N15100 X66.436 Y18.952
N15105 X66.392 Y19.233
N15110 X66.287 Y19.497
N15115 X66.126 Y19.731
N15120 X65.917 Y19.923
N15125 X65.671 Y20.063
N15130 X65.399 Y20.146
N15135 X65.116 Y20.165
N15140 X64.836 Y20.121
N15145 G3 X64.449 Y19.347 I0.179 J-0.573
N15150 G1 X64.798 Y18.369
N15155 X64.883 Y18.13
N15160 G3 X65.247 Y17.766 I0.565 J0.201
N15165 G1 X65.454 Y17.7
N15170 X65.599 Y17.649
N15175 X65.743 Y17.607
N15180 X65.893 Y17.6
N15185 X66.041 Y17.623
N15190 X66.184 Y17.669
N15195 X66.319 Y17.734
N15200 X66.444 Y17.816
N15205 X66.559 Y17.913
N15210 X66.662 Y18.022
N15215 X66.752 Y18.142
N15220 X66.829 Y18.271
N15225 X66.893 Y18.406
N15230 X66.944 Y18.548
N15235 X66.98 Y18.693
N15240 X67.004 Y18.841
N15245 X67.005 Y18.865
N15250 X66.992 Y19.155
N15255 X66.916 Y19.436
N15260 X66.782 Y19.694
N15265 X66.596 Y19.917
N15270 X66.367 Y20.096
N15275 X66.105 Y20.221
N15280 X65.822 Y20.288
N15285 X65.531 Y20.292
N15290 X65.247 Y20.234
N15295 X64.836 Y20.121
N15300 G3 X64.442 Y19.37 Z-8.8 I0.179 J-0.573
N15305 G1 X64.467 Y19.304
N15310 X64.5 Y19.24
N15315 X65.022 Y18.369
N15320 X65.111 Y18.219 Z-8.837
N15325 X65.302 Y17.9 Z-8.916
N15330 G3 X65.599 Y17.649 Z-9. I0.515 J0.308
N15335 G1 X66.036 Y17.496
N15340 X66.18 Y17.454
N15345 X66.329 Y17.444
N15350 X66.478 Y17.461
N15355 X66.623 Y17.5
N15360 X66.762 Y17.557
N15365 X66.893 Y17.63
N15370 X67.015 Y17.717
N15375 X67.127 Y17.816
N15380 X67.23 Y17.926
N15385 X67.321 Y18.045
N15390 X67.401 Y18.172
N15395 X67.47 Y18.305
N15400 X67.526 Y18.444
N15405 X67.57 Y18.588
N15410 X67.602 Y18.734
N15415 X67.621 Y18.883
N15420 X67.628 Y19.034
N15425 X67.585 Y19.338
N15430 X67.479 Y19.626
N15435 X67.317 Y19.886
N15440 X67.105 Y20.107
N15445 X66.852 Y20.279
N15450 X66.568 Y20.396
N15455 X66.267 Y20.451
N15460 X65.96 Y20.444
N15465 X65.662 Y20.373
N15470 X65.454 Y20.3
N15475 X65.247 Y20.234
N15480 G3 X64.883 Y19.468 Z-8.8 I0.202 J-0.565
N15485 G1 X64.911 Y19.401
N15490 X65.493 Y18.235
N15495 X65.571 Y18.08 Z-8.837
N15500 X65.717 Y17.787 Z-8.906
N15505 G3 X66.036 Y17.496 Z-9. I0.537 J0.268
N15510 G1 X66.494 Y17.336
N15515 X66.637 Y17.293
N15520 X66.786 Y17.277
N15525 X66.936 Y17.285
N15530 X67.083 Y17.314
N15535 X67.226 Y17.362
N15540 X67.362 Y17.425
N15545 X67.491 Y17.501
N15550 X67.611 Y17.59
N15555 X67.724 Y17.689
N15560 X67.827 Y17.798
N15565 X67.921 Y17.915
N15570 X68.006 Y18.039
N15575 X68.079 Y18.17
N15580 X68.142 Y18.306
N15585 X68.194 Y18.447
N15590 X68.234 Y18.591
N15595 X68.264 Y18.738
N15600 X68.283 Y18.887
N15605 X68.29 Y19.037
N15610 X68.286 Y19.187
N15615 X68.271 Y19.336
N15620 X68.245 Y19.484
N15625 X68.136 Y19.786
N15630 X67.967 Y20.059
N15635 X67.745 Y20.292
N15640 X67.48 Y20.473
N15645 X67.183 Y20.596
N15650 X66.867 Y20.655
N15655 X66.546 Y20.647
N15660 X66.233 Y20.573
N15665 X65.662 Y20.373
N15670 G3 X65.321 Y19.597 Z-8.8 I0.218 J-0.559
N15675 G1 X65.33 Y19.575
N15680 X65.976 Y18.087
N15685 X66.045 Y17.928 Z-8.837
N15690 X66.163 Y17.655 Z-8.9
N15695 G3 X66.494 Y17.336 Z-9. I0.55 J0.239
N15700 G1 X66.701 Y17.262
N15705 X66.972 Y17.152
N15710 X67.114 Y17.103
N15715 X67.262 Y17.079
N15720 X67.412 Y17.08
N15725 X67.56 Y17.101
N15730 X67.706 Y17.138
N15735 X67.846 Y17.191
N15740 X67.981 Y17.257
N15745 X68.109 Y17.335
N15750 X68.229 Y17.424
N15755 X68.343 Y17.523
N15760 X68.448 Y17.63
N15765 X68.545 Y17.744
N15770 X68.634 Y17.865
N15775 X68.713 Y17.992
N15780 X68.784 Y18.124
N15785 X68.846 Y18.261
N15790 X68.899 Y18.401
N15795 X68.942 Y18.545
N15800 X68.975 Y18.691
N15805 X68.999 Y18.839
N15810 X69.013 Y18.989
N15815 X69.017 Y19.139
N15820 X69.011 Y19.288
N15825 X68.995 Y19.438
N15830 X68.969 Y19.585
N15835 X68.934 Y19.731
N15840 X68.927 Y19.751
N15845 X68.795 Y20.058
N15850 X68.603 Y20.331
N15855 X68.359 Y20.558
N15860 X68.073 Y20.731
N15865 X67.757 Y20.842
N15870 X67.426 Y20.885
N15875 X67.093 Y20.86
N15880 X66.772 Y20.767
N15885 X66.701 Y20.738
N15890 X66.286 Y20.591
N15895 X66.233 Y20.573
N15900 G3 X65.882 Y19.825 Z-8.806 I0.218 J-0.559
N15905 G1 X65.891 Y19.796 Z-8.8
N15910 X66.508 Y17.933
N15915 X66.563 Y17.768 Z-8.837
N15920 X66.648 Y17.511 Z-8.894
N15925 G3 X66.972 Y17.152 Z-9. I0.57 J0.189
N15930 G1 X67.117 Y17.093
N15935 X67.255 Y17.026
N15940 X67.325 Y16.985
N15945 X67.359 Y16.964
N15950 X67.491 Y16.891
N15955 X67.634 Y16.847
N15960 X67.782 Y16.826
N15965 X67.932 Y16.825
N15970 X68.082 Y16.842
N15975 X68.228 Y16.875
N15980 X68.371 Y16.921
N15985 X68.509 Y16.98
N15990 X68.641 Y17.05
N15995 X68.768 Y17.13
N16000 X68.889 Y17.219
N16005 X69.003 Y17.316
N16010 X69.11 Y17.421
N16015 X69.21 Y17.533
N16020 X69.303 Y17.651
N16025 X69.388 Y17.774
N16030 X69.466 Y17.903
N16035 X69.536 Y18.035
N16040 X69.598 Y18.172
N16045 X69.652 Y18.312
N16050 X69.699 Y18.459
N16055 X69.737 Y18.604
N16060 X69.766 Y18.751
N16065 X69.788 Y18.909
N16070 X69.799 Y19.058
N16075 X69.803 Y19.208
N16080 X69.796 Y19.359
N16085 X69.781 Y19.508
N16090 X69.758 Y19.656
N16095 X69.725 Y19.803
N16100 X69.683 Y19.949
N16105 X69.633 Y20.091
N16110 X69.575 Y20.229
N16115 X69.506 Y20.365
N16120 X69.318 Y20.628
N16125 X69.083 Y20.85
N16130 X68.809 Y21.021
N16135 X68.506 Y21.136
N16140 X68.188 Y21.189
N16145 X67.865 Y21.179
N16150 X67.55 Y21.107
N16155 X67.255 Y20.974
N16160 X67.117 Y20.907
N16165 X66.772 Y20.767
N16170 G3 X66.435 Y20.076 Z-8.823 I0.245 J-0.548
N16175 G1 X66.461 Y19.971 Z-8.8
N16180 X66.992 Y17.803
N16185 X67.033 Y17.634 Z-8.837
N16190 X67.11 Y17.32 Z-8.906
N16195 G3 X67.359 Y16.964 Z-9. I0.583 J0.143
N16200 G1 X67.838 Y16.667
N16205 X67.969 Y16.595
N16210 X68.112 Y16.548
N16215 X68.26 Y16.522
N16220 X68.409 Y16.514
N16225 X68.559 Y16.522
N16230 X68.708 Y16.544
N16235 X68.853 Y16.58
N16240 X68.996 Y16.627
N16245 X69.134 Y16.685
N16250 X69.268 Y16.753
N16255 X69.397 Y16.83
N16260 X69.52 Y16.915
N16265 X69.638 Y17.008
N16270 X69.75 Y17.107
N16275 X69.856 Y17.213
N16280 X69.957 Y17.326
N16285 X70.055 Y17.449
N16290 X70.148 Y17.58
N16295 X70.234 Y17.718
N16300 X70.313 Y17.862
N16305 X70.386 Y18.012
N16310 X70.45 Y18.169
N16315 X70.506 Y18.33
N16320 X70.553 Y18.495
N16325 X70.592 Y18.666
N16330 X70.621 Y18.841
N16335 X70.641 Y19.018
N16340 X70.65 Y19.196
N16345 Y19.362
N16350 X70.64 Y19.52
N16355 X70.619 Y19.697
N16360 X70.592 Y19.854
N16365 X70.558 Y20.
N16370 X70.51 Y20.162
N16375 X70.458 Y20.31
N16380 X70.4 Y20.449
N16385 X70.329 Y20.591
N16390 X70.252 Y20.727
N16395 X70.171 Y20.854
N16400 X69.952 Y21.101
N16405 X69.69 Y21.303
N16410 X69.396 Y21.454
N16415 X69.079 Y21.547
N16420 X68.75 Y21.579
N16425 X68.421 Y21.55
N16430 X68.102 Y21.46
N16435 X67.806 Y21.313
N16440 X67.325 Y21.015
N16445 X67.255 Y20.974
N16450 G3 X66.981 Y20.357 Z-8.848 I0.316 J-0.51
N16455 G1 X66.99 Y20.307 Z-8.837
N16460 X67.021 Y20.136 Z-8.8
N16465 X67.499 Y17.512
N16470 X67.53 Y17.342 Z-8.837
N16475 X67.582 Y17.058 Z-8.898
N16480 G3 X67.838 Y16.667 Z-9. I0.59 J0.107
N16485 G1 X68.156 Y16.468
N16490 X68.343 Y16.351
N16495 X68.474 Y16.278
N16500 X68.614 Y16.224
N16505 X68.761 Y16.19
N16510 X68.91 Y16.174
N16515 X69.06 Y16.173
N16520 X69.209 Y16.185
N16525 X69.357 Y16.21
N16530 X69.503 Y16.246
N16535 X69.645 Y16.292
N16540 X69.784 Y16.349
N16545 X69.92 Y16.414
N16550 X70.05 Y16.487
N16555 X70.177 Y16.568
N16560 X70.303 Y16.659
N16565 X70.427 Y16.76
N16570 X70.548 Y16.87
N16575 X70.666 Y16.991
N16580 X70.781 Y17.122
N16585 X70.892 Y17.264
N16590 X70.998 Y17.415
N16595 X71.097 Y17.576
N16600 X71.187 Y17.745
N16605 X71.27 Y17.92
N16610 X71.342 Y18.102
N16615 X71.406 Y18.29
N16620 X71.459 Y18.483
N16625 X71.501 Y18.678
N16630 X71.533 Y18.878
N16635 X71.553 Y19.08
N16640 X71.562 Y19.282
N16645 X71.56 Y19.485
N16650 X71.546 Y19.688
N16655 X71.521 Y19.885
N16660 X71.489 Y20.057
N16665 X71.443 Y20.248
N16670 X71.39 Y20.421
N16675 X71.334 Y20.575
N16680 X71.261 Y20.744
N16685 X71.184 Y20.898
N16690 X71.108 Y21.032
N16695 X71.012 Y21.179
N16700 X70.914 Y21.314
N16705 X70.818 Y21.429
N16710 X70.546 Y21.671
N16715 X70.232 Y21.855
N16720 X69.888 Y21.973
N16725 X69.527 Y22.021
N16730 X69.164 Y21.997
N16735 X68.813 Y21.902
N16740 X68.487 Y21.74
N16745 X67.931 Y21.39
N16750 X67.806 Y21.313
N16755 G3 X67.546 Y20.734 Z-8.858 I0.334 J-0.499
N16760 G1 X67.559 Y20.636 Z-8.837
N16765 X67.582 Y20.464 Z-8.8
N16770 X68.027 Y17.201
N16775 X68.05 Y17.029 Z-8.837
N16780 X68.086 Y16.767 Z-8.893
N16785 G3 X68.343 Y16.351 Z-9. I0.595 J0.081
N16790 G1 X68.593 Y16.194
N16795 X68.78 Y16.067
N16800 X68.873 Y16.003
N16805 X69. Y15.924
N16810 X69.135 Y15.858
N16815 X69.277 Y15.81
N16820 X69.424 Y15.779
N16825 X69.573 Y15.763
N16830 X69.723 Y15.761
N16835 X69.873 Y15.77
N16840 X70.021 Y15.791
N16845 X70.168 Y15.822
N16850 X70.313 Y15.862
N16855 X70.454 Y15.912
N16860 X70.593 Y15.97
N16865 X70.728 Y16.035
N16870 X70.859 Y16.107
N16875 X70.986 Y16.187
N16880 X71.109 Y16.272
N16885 X71.228 Y16.364
N16890 X71.343 Y16.46
N16895 X71.453 Y16.562
N16900 X71.558 Y16.669
N16905 X71.659 Y16.78
N16910 X71.755 Y16.896
N16915 X71.846 Y17.015
N16920 X71.932 Y17.138
N16925 X72.013 Y17.264
N16930 X72.089 Y17.393
N16935 X72.16 Y17.525
N16940 X72.226 Y17.66
N16945 X72.287 Y17.797
N16950 X72.343 Y17.936
N16955 X72.394 Y18.077
N16960 X72.439 Y18.22
N16965 X72.479 Y18.365
N16970 X72.515 Y18.511
N16975 X72.544 Y18.658
N16980 X72.569 Y18.806
N16985 X72.588 Y18.954
N16990 X72.602 Y19.104
N16995 X72.611 Y19.254
N17000 X72.614 Y19.404
N17005 X72.612 Y19.554
N17010 X72.604 Y19.703
N17015 X72.591 Y19.853
N17020 X72.573 Y20.002
N17025 X72.549 Y20.15
N17030 X72.52 Y20.297
N17035 X72.486 Y20.443
N17040 X72.446 Y20.588
N17045 X72.401 Y20.731
N17050 X72.35 Y20.872
N17055 X72.293 Y21.01
N17060 X72.231 Y21.147
N17065 X72.163 Y21.281
N17070 X72.089 Y21.411
N17075 X72.009 Y21.538
N17080 X71.924 Y21.662
N17085 X71.834 Y21.782
N17090 X71.738 Y21.897
N17095 X71.636 Y22.007
N17100 X71.53 Y22.113
N17105 X71.418 Y22.213
N17110 X71.317 Y22.296
N17115 X71.04 Y22.477
N17120 X70.733 Y22.598
N17125 X70.407 Y22.653
N17130 X70.077 Y22.642
N17135 X69.757 Y22.563
N17140 X69.459 Y22.421
N17145 X69.196 Y22.221
N17150 X68.78 Y21.933
N17155 X68.593 Y21.806
N17160 X68.487 Y21.74
N17165 G3 X68.226 Y21.192 Z-8.865 I0.337 J-0.497
N17170 G1 X68.238 Y21.06 Z-8.837
N17175 X68.253 Y20.887 Z-8.8
N17180 X68.597 Y16.867
N17185 X68.612 Y16.693 Z-8.837
N17190 X68.634 Y16.432 Z-8.893
N17195 G3 X68.873 Y16.003 Z-9. I0.598 J0.051
N17200 G1 X69.196 Y15.779
N17205 X69.338 Y15.645
N17210 X69.453 Y15.548
N17215 X69.576 Y15.463
N17220 X69.71 Y15.396
N17225 X69.851 Y15.345
N17230 X69.997 Y15.309
N17235 X70.145 Y15.286
N17240 X70.295 Y15.275
N17245 X70.445 Y15.276
N17250 X70.594 Y15.287
N17255 X70.743 Y15.307
N17260 X70.89 Y15.337
N17265 X71.035 Y15.375
N17270 X71.178 Y15.422
N17275 X71.318 Y15.475
N17280 X71.455 Y15.536
N17285 X71.589 Y15.603
N17290 X71.72 Y15.677
N17295 X71.847 Y15.756
N17300 X71.971 Y15.841
N17305 X72.091 Y15.931
N17310 X72.284 Y16.054
N17315 X72.489 Y16.155
N17320 X72.705 Y16.231
N17325 X72.928 Y16.282
N17330 X73.155 Y16.307
N17335 X73.384 Y16.306
N17340 X73.612 Y16.28
N17345 X73.834 Y16.227
N17350 X74.049 Y16.149
N17355 X74.254 Y16.047
N17360 X74.446 Y15.922
N17365 X74.623 Y15.777
N17370 X74.781 Y15.612
N17375 X75.336 Y14.884
N17380 X75.659 Y14.027
N17385 X75.886 Y13.14
N17390 X76.043 Y12.238
N17395 X76.15 Y11.329
N17400 X76.222 Y10.417
N17405 X76.271 Y9.502
N17410 X76.303 Y8.587
N17415 X76.324 Y7.672
N17420 X76.338 Y6.757
N17425 X76.347 Y5.842
N17430 X76.353 Y4.926
N17435 X76.357 Y4.011
N17440 X76.362 Y2.18
N17445 X76.233 Y1.741
N17450 X75.811 Y0.928
N17455 X75.164 Y0.28
N17460 X74.392 Y-0.211
N17465 X73.549 Y-0.569
N17470 X72.67 Y-0.823
N17475 X71.772 Y-1.
N17480 X70.864 Y-1.121
N17485 X69.953 Y-1.203
N17490 X69.039 Y-1.258
N17495 X68.988 Y-1.26
N17500 X68.644 Y-1.303
N17505 X68.312 Y-1.406
N17510 X68.003 Y-1.565
N17515 X67.533 Y-1.86
N17520 X67.325 Y-1.986
N17525 X67.083 Y-2.095
N17530 X66.701 Y-2.261
N17535 X66.59 Y-2.302
N17540 X65.402 Y-2.718
N17545 X65.247 Y-2.766
N17550 X64.831 Y-2.88
N17555 X64.623 Y-2.925
N17560 X64.207 Y-2.976
N17565 G3 X63.705 Y-3.507 I0.094 J-0.593
N17570 G1 X63.695 Y-3.6 Z-8.993
N17575 X63.686 Y-3.691 Z-8.971
N17580 X63.677 Y-3.778 Z-8.935
N17585 X63.668 Y-3.857 Z-8.885
N17590 X63.661 Y-3.929 Z-8.824
N17595 X63.655 Y-3.989 Z-8.753
N17600 X63.65 Y-4.038 Z-8.672
N17605 X63.646 Y-4.074 Z-8.585
N17610 X63.644 Y-4.096 Z-8.494
N17615 X63.643 Y-4.103 Z-8.4
N17620 G0 Z5.
N17625 X68.772 Y16.898
N17630 Z-7.8
N17635 G1 Z-8.4 F1800.
N17640 X68.774 Y16.891 Z-8.494
N17645 X68.78 Y16.87 Z-8.585
N17650 X68.79 Y16.835 Z-8.672
N17655 X68.804 Y16.788 Z-8.753
N17660 X68.821 Y16.729 Z-8.824
N17665 X68.841 Y16.661 Z-8.885
N17670 X68.863 Y16.583 Z-8.935
N17675 X68.888 Y16.5 Z-8.971
N17680 X68.913 Y16.412 Z-8.993
N17685 X68.939 Y16.322 Z-9.
N17690 G3 X69.338 Y15.645 I1.52 J0.44
N17695 G1 X69.417 Y15.571
N17700 X69.839 Y15.155
N17705 X69.951 Y15.055
N17710 X70.075 Y14.97
N17715 X70.208 Y14.901
N17720 X70.348 Y14.847
N17725 X70.492 Y14.806
N17730 X71.39 Y14.628
N17735 X72.205 Y14.211
N17740 X72.884 Y13.597
N17745 X73.422 Y12.857
N17750 X73.833 Y12.039
N17755 X74.138 Y11.175
N17760 X74.358 Y10.287
N17765 X74.516 Y9.385
N17770 X74.626 Y8.476
N17775 X74.702 Y7.564
N17780 X74.755 Y6.65
N17785 X74.79 Y5.735
N17790 X74.815 Y4.82
N17795 X74.691 Y3.913
N17800 X74.31 Y3.081
N17805 X73.734 Y2.37
N17810 X73.024 Y1.792
N17815 X72.227 Y1.34
N17820 X71.378 Y0.998
N17825 X71.317 Y0.98
N17830 X71.009 Y0.86
N17835 X70.724 Y0.691
N17840 X70.471 Y0.476
N17845 X69.563 Y-0.432
N17850 X69.403 Y-0.59
N17855 X69.351 Y-0.64
N17860 X69.195 Y-0.767
N17865 X68.78 Y-1.064
N17870 X68.572 Y-1.207
N17875 X68.003 Y-1.565
N17880 G3 X67.773 Y-2.258 I0.337 J-0.497
N17885 G1 X67.804 Y-2.347 Z-8.993
N17890 X67.834 Y-2.433 Z-8.971
N17895 X67.863 Y-2.515 Z-8.935
N17900 X67.889 Y-2.591 Z-8.885
N17905 X67.912 Y-2.659 Z-8.824
N17910 X67.933 Y-2.716 Z-8.753
N17915 X67.949 Y-2.763 Z-8.672
N17920 X67.96 Y-2.797 Z-8.585
N17925 X67.968 Y-2.818 Z-8.494
N17930 X67.97 Y-2.825 Z-8.4
N17935 G0 Z5.
N17940 X69.314 Y16.425
N17945 Z-7.8
N17950 G1 Z-8.4 F1800.
N17955 X69.316 Y16.418 Z-8.494
N17960 X69.321 Y16.397 Z-8.585
N17965 X69.33 Y16.362 Z-8.672
N17970 X69.342 Y16.314 Z-8.753
N17975 X69.357 Y16.255 Z-8.824
N17980 X69.375 Y16.186 Z-8.885
N17985 X69.395 Y16.108 Z-8.935
N17990 X69.416 Y16.024 Z-8.971
N17995 X69.439 Y15.935 Z-8.993
N18000 X69.462 Y15.844 Z-9.
N18005 G3 X69.839 Y15.155 I1.533 J0.392
N18010 G1 X70.463 Y14.532
N18015 X70.65 Y14.338
N18020 X70.844 Y14.116
N18025 X70.991 Y13.908
N18030 X71.066 Y13.797
N18035 X71.91 Y12.453
N18040 X72.027 Y12.246
N18045 X72.105 Y12.092
N18050 X72.129 Y12.038
N18055 X72.216 Y11.83
N18060 X72.509 Y10.999
N18065 X72.655 Y10.583
N18070 X72.729 Y10.356
N18075 X72.855 Y9.959
N18080 X72.897 Y9.752
N18085 X72.961 Y9.336
N18090 X72.987 Y9.128
N18095 X73.104 Y8.089
N18100 X73.123 Y7.881
N18105 X73.13 Y7.673
N18110 X73.207 Y6.761
N18115 X73.102 Y5.852
N18120 X72.994 Y5.578
N18125 X72.96 Y5.483
N18130 X72.93 Y5.386
N18135 X72.905 Y5.288
N18140 G3 X73.383 Y4.586 Z-8.8 I0.59 J-0.112
N18145 X74.084 Y5.064 I0.112 J0.589
N18150 X73.725 Y7.139 I-2.948 J0.558
N18155 X73.271 Y7.731 Z-8.959 I-2.589 J-1.516
N18160 G1 X73.244 Y7.749 Z-8.966
N18165 X73.213 Y7.755 Z-8.973
N18170 X73.181 Y7.749 Z-8.979
N18175 X73.155 Y7.731 Z-8.986
N18180 X73.137 Y7.705 Z-8.993
N18185 X73.13 Y7.673 Z-9.
N18190 X73.138 Y7.466
N18195 Y7.258
N18200 X73.073 Y6.634
N18205 X73.002 Y6.011
N18210 X72.928 Y5.387
N18215 X72.881 Y5.179
N18220 X72.771 Y4.764
N18225 X72.729 Y4.628
N18230 X72.313 Y3.441
N18235 X72.263 Y3.309
N18240 X72.087 Y2.893
N18245 X71.992 Y2.685
N18250 X71.897 Y2.526
N18255 X71.214 Y1.439
N18260 X71.066 Y1.224
N18265 X70.927 Y1.023
N18270 G3 X70.987 Y0.295 I0.504 J-0.325
N18275 G1 X71.05 Y0.225 Z-8.993
N18280 X71.111 Y0.157 Z-8.971
N18285 X71.17 Y0.093 Z-8.935
N18290 X71.224 Y0.034 Z-8.885
N18295 X71.272 Y-0.019 Z-8.824
N18300 X71.313 Y-0.065 Z-8.753
N18305 X71.346 Y-0.101 Z-8.672
N18310 X71.37 Y-0.128 Z-8.585
N18315 X71.385 Y-0.144 Z-8.494
N18320 X71.39 Y-0.15 Z-8.4
N18325 G0 Z5.
N18330 X60.254 Y42.076
N18335 Z-7.8
N18340 G1 Z-8.4 F1800.
N18345 X60.26 Y42.073 Z-8.494
N18350 X60.281 Y42.065 Z-8.585
N18355 X60.315 Y42.052 Z-8.672
N18360 X60.36 Y42.034 Z-8.753
N18365 X60.417 Y42.012 Z-8.824
N18370 X60.484 Y41.986 Z-8.885
N18375 X60.559 Y41.957 Z-8.935
N18380 X60.64 Y41.926 Z-8.971
N18385 X60.725 Y41.893 Z-8.993
N18390 X60.813 Y41.859 Z-9.
N18395 G3 X63.999 Y41.001 I5.55 J14.277
N18400 G1 X64.623 Y40.925
N18405 X64.831 Y40.88
N18410 X65.247 Y40.766
N18415 X65.402 Y40.718
N18420 X66.59 Y40.302
N18425 X66.701 Y40.261
N18430 X67.018 Y40.145
N18435 X67.16 Y40.097
N18440 X67.303 Y40.053
N18445 X67.447 Y40.011
N18450 X67.592 Y39.972
N18455 X67.737 Y39.936
N18460 X67.884 Y39.902
N18465 X68.03 Y39.87
N18470 X68.177 Y39.84
N18475 X68.325 Y39.812
N18480 X68.472 Y39.786
N18485 X68.62 Y39.761
N18490 X68.768 Y39.738
N18495 X68.917 Y39.716
N18500 X69.065 Y39.696
N18505 X69.214 Y39.676
N18510 X69.363 Y39.658
N18515 X69.512 Y39.641
N18520 X69.81 Y39.611
N18525 X70.109 Y39.583
N18530 X70.431 Y39.557
N18535 X70.802 Y39.531
N18540 X71.011 Y39.518
N18545 X71.238 Y39.504
N18550 X71.489 Y39.491
N18555 X71.767 Y39.478
N18560 X72.08 Y39.464
N18565 X72.994 Y39.43
N18570 X73.849 Y39.102
N18575 X74.546 Y38.509
N18580 X75.081 Y37.766
N18585 X75.476 Y36.94
N18590 X75.758 Y36.069
N18595 X75.955 Y35.175
N18600 X76.09 Y34.27
N18605 X76.182 Y33.359
N18610 X76.244 Y32.446
N18615 X76.285 Y31.531
N18620 X76.312 Y30.616
N18625 X76.33 Y29.701
N18630 X76.342 Y28.786
N18635 X76.35 Y27.87
N18640 X76.355 Y26.955
N18645 X76.359 Y25.696
N18650 X76.361 Y24.781
N18655 X76.335 Y24.553
N18660 X76.284 Y24.331
N18665 X76.207 Y24.115
N18670 X76.106 Y23.909
N18675 X75.982 Y23.717
N18680 X75.838 Y23.54
N18685 X75.673 Y23.38
N18690 X75.492 Y23.241
N18695 X75.296 Y23.122
N18700 X75.088 Y23.028
N18705 X74.87 Y22.957
N18710 X74.646 Y22.912
N18715 X74.418 Y22.893
N18720 X74.189 Y22.9
N18725 X73.283 Y23.032
N18730 X73.15 Y23.102
N18735 X73.017 Y23.17
N18740 X72.881 Y23.235
N18745 X72.745 Y23.297
N18750 X72.608 Y23.358
N18755 X72.469 Y23.415
N18760 X72.329 Y23.469
N18765 X72.188 Y23.52
N18770 X72.042 Y23.567
N18775 X71.692 Y23.638
N18780 X71.334 Y23.645
N18785 X70.981 Y23.588
N18790 X70.644 Y23.47
N18795 X70.333 Y23.293
N18800 X70.059 Y23.064
N18805 X69.819 Y22.825
N18810 X69.403 Y22.416
N18815 X69.196 Y22.221
N18820 G0 Z5.
N18825 X65.75 Y41.253
N18830 Z-7.8
N18835 G1 Z-8.4 F1800.
N18840 X65.754 Y41.247 Z-8.494
N18845 X65.767 Y41.229 Z-8.585
N18850 X65.788 Y41.2 Z-8.672
N18855 X65.817 Y41.16 Z-8.753
N18860 X65.852 Y41.111 Z-8.824
N18865 X65.894 Y41.052 Z-8.885
N18870 X65.941 Y40.987 Z-8.935
N18875 X65.991 Y40.916 Z-8.971
N18880 X66.045 Y40.842 Z-8.993
N18885 X66.1 Y40.766 Z-9.
N18890 G3 X66.701 Y40.261 I1.286 J0.922
N18895 G1 X67.117 Y40.079
N18900 X67.325 Y39.986
N18905 X67.533 Y39.86
N18910 X68.572 Y39.207
N18915 X68.722 Y39.115
N18920 X68.938 Y38.998
N18925 X69.203 Y38.873
N18930 X69.528 Y38.742
N18935 X69.934 Y38.604
N18940 X70.816 Y38.359
N18945 X71.658 Y38.001
N18950 X72.396 Y37.459
N18955 X73.009 Y36.778
N18960 X73.497 Y36.004
N18965 X73.873 Y35.17
N18970 X74.156 Y34.299
N18975 X74.364 Y33.408
N18980 X74.515 Y32.505
N18985 X74.622 Y31.595
N18990 X74.697 Y30.683
N18995 X74.75 Y29.769
N19000 X74.786 Y28.854
N19005 X74.768 Y28.626
N19010 X74.724 Y28.402
N19015 X74.655 Y28.184
N19020 X74.561 Y27.975
N19025 X74.093 Y27.188
N19030 X73.398 Y26.593
N19035 X72.615 Y26.119
N19040 X72.607 Y26.115
N19045 X72.3 Y25.924
N19050 X72.033 Y25.681
N19055 X71.814 Y25.393
N19060 X71.066 Y24.203
N19065 X70.991 Y24.092
N19070 X70.844 Y23.884
N19075 X70.65 Y23.662
N19080 X70.442 Y23.447
N19085 X70.059 Y23.064
N19090 G0 Z5.
N19095 X67.825 Y40.362
N19100 Z-7.8
N19105 G1 Z-8.4 F1800.
N19110 X67.828 Y40.355 Z-8.494
N19115 X67.838 Y40.335 Z-8.585
N19120 X67.853 Y40.302 Z-8.672
N19125 X67.873 Y40.257 Z-8.753
N19130 X67.899 Y40.202 Z-8.824
N19135 X67.929 Y40.137 Z-8.885
N19140 X67.962 Y40.064 Z-8.935
N19145 X67.999 Y39.985 Z-8.971
N19150 X68.037 Y39.902 Z-8.993
N19155 X68.076 Y39.817 Z-9.
N19160 G3 X68.572 Y39.207 I1.437 J0.662
N19165 G1 X68.792 Y39.055
N19170 X69.195 Y38.767
N19175 X69.351 Y38.64
N19180 X69.403 Y38.59
N19185 X69.611 Y38.384
N19190 X70.602 Y37.393
N19195 X70.65 Y37.34
N19200 X70.782 Y37.185
N19205 X71.071 Y36.769
N19210 X71.214 Y36.561
N19215 X71.897 Y35.474
N19220 X71.992 Y35.315
N19225 X72.087 Y35.107
N19230 X72.263 Y34.691
N19235 X72.313 Y34.559
N19240 X72.729 Y33.372
N19245 X72.771 Y33.236
N19250 X72.881 Y32.821
N19255 X72.928 Y32.613
N19260 X73.002 Y31.989
N19265 X73.073 Y31.366
N19270 X73.138 Y30.742
N19275 Y30.534
N19280 X73.123 Y30.119
N19285 X73.104 Y29.911
N19290 X72.987 Y28.872
N19295 X72.961 Y28.664
N19300 X72.897 Y28.248
N19305 X72.855 Y28.041
N19310 X72.722 Y27.625
N19315 X72.655 Y27.417
N19320 X72.363 Y26.586
N19325 X72.216 Y26.17
N19330 G3 X72.467 Y25.484 I0.572 J-0.18
N19335 G1 X72.546 Y25.433 Z-8.993
N19340 X72.623 Y25.384 Z-8.971
N19345 X72.696 Y25.338 Z-8.935
N19350 X72.764 Y25.294 Z-8.885
N19355 X72.825 Y25.256 Z-8.824
N19360 X72.876 Y25.223 Z-8.753
N19365 X72.918 Y25.197 Z-8.672
N19370 X72.948 Y25.178 Z-8.585
N19375 X72.967 Y25.166 Z-8.494
N19380 X72.973 Y25.162 Z-8.4
N19385 G0 Z15.
(2D CONTOUR1)
N19390 G64 P0.01 Q0.01
N19395 G0 X11.9 Y42.75
N19400 Z15.
N19405 Z5.
N19410 G1 Z1. F600.
N19415 Z-8.4
N19420 G19 G2 Y42.15 Z-9. J-0.6 K0. F1800.
N19425 G1 Y41.55
N19430 G17 G3 X12.5 Y40.95 I0.6 J0.
N19435 G1 X62.5
N19440 G2 Y20.05 I0. J-10.45
N19445 G1 X12.5
N19450 G2 Y40.95 I0. J10.45
N19455 G3 X13.1 Y41.55 I0. J0.6
N19460 G1 Y42.15
N19465 G19 G3 Y42.75 Z-8.4 J0. K0.6
N19470 G0 Z5.
N19475 Y-4.75
N19480 G1 Z1. F600.
N19485 Z-8.4
N19490 G3 Y-4.15 Z-9. J0.6 K0. F1800.
N19495 G1 Y-3.55
N19500 G17 G3 X12.5 Y-2.95 I-0.6 J0.
N19505 G2 Y17.95 I0. J10.45
N19510 G1 X62.5
N19515 G2 Y-2.95 I0. J-10.45
N19520 G1 X12.5
N19525 G3 X11.9 Y-3.55 I0. J-0.6
N19530 G1 Y-4.15
N19535 G19 G2 Y-4.75 Z-8.4 J0. K0.6
N19540 G0 Z15.
N19545 G17
N19550 M5
N19555 G53 G0 Z0.
(DRILL1)
N19560 T15 M6
N19565 T10
N19570 S10000 M3
N19575 G54
N19585 G0 X62.5 Y30.5
N19590 G43 Z15. H15
N19595 G0 Z5.
N19600 G98 G81 X62.5 Y30.5 Z-10.901 R4. F1000.
N19605 Y7.5
N19610 X12.5
N19615 Y30.5
N19620 G80
N19625 G0 Z15.
N19630 M9
N19635 G53 Z0.
N19640 M30
%
