(M6_BASE_GRID)
(T1  D=6. CR=0. TAPER=45DEG - ZMIN=-2.1 - CHAMFER MILL)
(T12  D=5. CR=0. TAPER=118DEG - ZMIN=-15. - DRILL)
(T14  D=4.8 CR=0. - ZMIN=-10.5 - THREAD MILL)
N10 G90 G94 G17 G91.1
N15 G21
N20 G53 G0 Z0.
(DRILL5)
N25 T12 M6
N30 T1
N35 S13000 M3
N40 G54
N45 M7
N50 G0 X-300. Y250.
N55 G43 Z25. H12
N60 G0 Z5.
N65 G98 G83 X-300. Y250. Z-15. R5. Q4. F400.
N70 X-250.
N75 X-200.
N80 X-150.
N85 X-100.
N90 X-50.
N95 X0.
N100 X50.
N105 X100.
N110 X150.
N115 X200.
N120 X250.
N125 X300.
N130 Y200.
N135 X250.
N140 X200.
N145 X150.
N150 X100.
N155 X50.
N160 X0.
N165 X-50.
N170 X-100.
N175 X-150.
N180 X-200.
N185 X-250.
N190 X-300.
N195 X300. Y0.
N200 X250.
N205 X200.
N210 X150.
N215 X100.
N220 X50.
N225 X0.
N230 X-50.
N235 X-100.
N240 X-150.
N245 X-200.
N250 X-250.
N255 X-300.
N260 Y50.
N265 X-250.
N270 X-200.
N275 X-150.
N280 X-100.
N285 X-50.
N290 X0.
N295 X50.
N300 X100.
N305 X150.
N310 X200.
N315 X250.
N320 X300.
N325 Y100.
N330 X250.
N335 X200.
N340 X150.
N345 X100.
N350 X50.
N355 X0.
N360 X-50.
N365 X-100.
N370 X-150.
N375 X-200.
N380 X-250.
N385 X-300.
N390 Y150.
N395 X-250.
N400 X-200.
N405 X-150.
N410 X-100.
N415 X-50.
N420 X0.
N425 X50.
N430 X100.
N435 X150.
N440 X200.
N445 X250.
N450 X300.
N455 Y300.
N460 X250.
N465 X200.
N470 X150.
N475 X100.
N480 X50.
N485 X0.
N490 X-50.
N495 X-100.
N500 X-150.
N505 X-200.
N510 X-250.
N515 X-300.
N520 Y350.
N525 X-250.
N530 X-200.
N535 X-150.
N540 X-100.
N545 X-50.
N550 X0.
N555 X50.
N560 X100.
N565 X150.
N570 X200.
N575 X250.
N580 X300.
N585 Y400.
N590 X250.
N595 X200.
N600 X150.
N605 X100.
N610 X50.
N615 X0.
N620 X-50.
N625 X-100.
N630 X-150.
N635 X-200.
N640 X-250.
N645 X-300.
N650 Y450.
N655 X-250.
N660 X-200.
N665 X-150.
N670 X-100.
N675 X-50.
N680 X0.
N685 X50.
N690 X100.
N695 X150.
N700 X200.
N705 X250.
N710 X300.
N715 Y500.
N720 X250.
N725 X200.
N730 X150.
N735 X100.
N740 X50.
N745 X0.
N750 X-50.
N755 X-100.
N760 X-150.
N765 X-200.
N770 X-250.
N775 X-300.
N780 Y550.
N785 X-250.
N790 X-200.
N795 X-150.
N800 X-100.
N805 X-50.
N810 X0.
N815 X50.
N820 X100.
N825 X150.
N830 X200.
N835 X250.
N840 X300.
N845 Y600.
N850 X250.
N855 X200.
N860 X150.
N865 X100.
N870 X50.
N875 X0.
N880 X-50.
N885 X-100.
N890 X-150.
N895 X-200.
N900 X-250.
N905 X-300.
N910 Y750.
N915 X-250.
N920 X-200.
N925 X-150.
N930 X-100.
N935 X-50.
N940 X0.
N945 X50.
N950 X100.
N955 X150.
N960 X200.
N965 X250.
N970 X300.
N975 Y700.
N980 X250.
N985 X200.
N990 X150.
N995 X100.
N1000 X50.
N1005 X0.
N1010 X-50.
N1015 X-100.
N1020 X-150.
N1025 X-200.
N1030 X-250.
N1035 X-300.
N1040 Y650.
N1045 X-250.
N1050 X-200.
N1055 X-150.
N1060 X-100.
N1065 X-50.
N1070 X0.
N1075 X50.
N1080 X100.
N1085 X150.
N1090 X200.
N1095 X250.
N1100 X300.
N1105 G80
N1110 G0 Z25.
N1115 M9
N1120 M5
N1125 G53 Z0.
(2D CHAMFER2)
N1130 M1
N1135 T1 M6
N1140 T14
N1145 S17000 M3
N1150 G54
N1155 M8
N1160 G0 X-0.368 Y399.988
N1165 G43 Z15. H1
N1170 G0 Z5.
N1175 G1 Z2. F333.33
N1180 Z-2.1
N1185 X-0.968 Y399.97 F1000.
N1190 G3 X0. Y399.032 I0.968 J0.03
N1195 G1 Y399.632
N1200 G0 Z5.
N1205 X0.368 Y400.012
N1210 G1 Z2. F333.33
N1215 Z-2.1
N1220 X0.968 Y400.03 F1000.
N1225 G3 X-0.385 Y400.888 I-0.968 J-0.03
N1230 G1 X-0.146 Y400.338
N1235 G0 Z5.
N1240 X-49.632 Y400.012
N1245 G1 Z2. F333.33
N1250 Z-2.1
N1255 X-49.032 Y400.03 F1000.
N1260 G3 X-50.385 Y400.888 I-0.968 J-0.03
N1265 G1 X-50.146 Y400.338
N1270 G0 Z5.
N1275 X-50.368 Y399.988
N1280 G1 Z2. F333.33
N1285 Z-2.1
N1290 X-50.968 Y399.97 F1000.
N1295 G3 X-50. Y399.032 I0.968 J0.03
N1300 G1 Y399.632
N1305 G0 Z5.
N1310 X-99.632 Y400.012
N1315 G1 Z2. F333.33
N1320 Z-2.1
N1325 X-99.032 Y400.03 F1000.
N1330 G3 X-100.384 Y400.889 I-0.968 J-0.03
N1335 G1 X-100.146 Y400.338
N1340 G0 Z5.
N1345 X-100.368 Y399.988
N1350 G1 Z2. F333.33
N1355 Z-2.1
N1360 X-100.968 Y399.97 F1000.
N1365 G3 X-99.616 Y399.111 I0.968 J0.03
N1370 G1 X-99.854 Y399.662
N1375 G0 Z5.
N1380 X-149.632 Y400.012
N1385 G1 Z2. F333.33
N1390 Z-2.1
N1395 X-149.032 Y400.03 F1000.
N1400 G3 X-150. Y400.968 I-0.968 J-0.03
N1405 G1 Y400.368
N1410 G0 Z5.
N1415 X-150.368 Y399.988
N1420 G1 Z2. F333.33
N1425 Z-2.1
N1430 X-150.968 Y399.97 F1000.
N1435 G3 X-149.615 Y399.112 I0.968 J0.03
N1440 G1 X-149.854 Y399.662
N1445 G0 Z5.
N1450 X-199.633 Y400.
N1455 G1 Z2. F333.33
N1460 Z-2.1
N1465 X-199.033 F1000.
N1470 G3 X-200. Y400.967 I-0.967 J0.
N1475 Y399.032 I0.001 J-0.967
N1480 X-199.033 Y400. I-0.001 J0.967
N1485 G1 X-199.633
N1490 G0 Z5.
N1495 Y450.
N1500 G1 Z2. F333.33
N1505 Z-2.1
N1510 X-199.033 F1000.
N1515 G3 X-200. Y450.967 I-0.967 J0.
N1520 Y449.032 I0.001 J-0.967
N1525 X-199.033 Y450. I-0.001 J0.967
N1530 G1 X-199.633
N1535 G0 Z5.
N1540 X-150.368 Y449.988
N1545 G1 Z2. F333.33
N1550 Z-2.1
N1555 X-150.968 Y449.97 F1000.
N1560 G3 X-149.615 Y449.112 I0.968 J0.03
N1565 G1 X-149.854 Y449.662
N1570 G0 Z5.
N1575 X-149.632 Y450.012
N1580 G1 Z2. F333.33
N1585 Z-2.1
N1590 X-149.032 Y450.03 F1000.
N1595 G3 X-150. Y450.968 I-0.968 J-0.03
N1600 G1 Y450.368
N1605 G0 Z5.
N1610 X-100.368 Y449.988
N1615 G1 Z2. F333.33
N1620 Z-2.1
N1625 X-100.968 Y449.97 F1000.
N1630 G3 X-100. Y449.032 I0.968 J0.03
N1635 G1 Y449.632
N1640 G0 Z5.
N1645 X-99.632 Y450.012
N1650 G1 Z2. F333.33
N1655 Z-2.1
N1660 X-99.032 Y450.03 F1000.
N1665 G3 X-100.384 Y450.889 I-0.968 J-0.03
N1670 G1 X-100.146 Y450.338
N1675 G0 Z5.
N1680 X-50.368 Y449.988
N1685 G1 Z2. F333.33
N1690 Z-2.1
N1695 X-50.968 Y449.97 F1000.
N1700 G3 X-49.615 Y449.112 I0.968 J0.03
N1705 G1 X-49.854 Y449.662
N1710 G0 Z5.
N1715 X-49.632 Y450.012
N1720 G1 Z2. F333.33
N1725 Z-2.1
N1730 X-49.032 Y450.03 F1000.
N1735 G3 X-50.385 Y450.888 I-0.968 J-0.03
N1740 G1 X-50.146 Y450.338
N1745 G0 Z5.
N1750 X-0.368 Y449.988
N1755 G1 Z2. F333.33
N1760 Z-2.1
N1765 X-0.968 Y449.97 F1000.
N1770 G3 X0.385 Y449.112 I0.968 J0.03
N1775 G1 X0.146 Y449.662
N1780 G0 Z5.
N1785 X0.368 Y450.012
N1790 G1 Z2. F333.33
N1795 Z-2.1
N1800 X0.968 Y450.03 F1000.
N1805 G3 X0. Y450.968 I-0.968 J-0.03
N1810 G1 Y450.368
N1815 G0 Z5.
N1820 X49.632 Y449.988
N1825 G1 Z2. F333.33
N1830 Z-2.1
N1835 X49.032 Y449.97 F1000.
N1840 G3 X50. Y449.032 I0.968 J0.03
N1845 G1 Y449.632
N1850 G0 Z5.
N1855 X50.368 Y450.012
N1860 G1 Z2. F333.33
N1865 Z-2.1
N1870 X50.968 Y450.03 F1000.
N1875 G3 X49.615 Y450.888 I-0.968 J-0.03
N1880 G1 X49.854 Y450.338
N1885 G0 Z5.
N1890 X99.632 Y449.988
N1895 G1 Z2. F333.33
N1900 Z-2.1
N1905 X99.032 Y449.97 F1000.
N1910 G3 X100. Y449.032 I0.968 J0.03
N1915 G1 Y449.632
N1920 G0 Z5.
N1925 X100.368 Y450.012
N1930 G1 Z2. F333.33
N1935 Z-2.1
N1940 X100.968 Y450.03 F1000.
N1945 G3 X99.616 Y450.889 I-0.968 J-0.03
N1950 G1 X99.854 Y450.338
N1955 G0 Z5.
N1960 X149.632 Y449.988
N1965 G1 Z2. F333.33
N1970 Z-2.1
N1975 X149.032 Y449.97 F1000.
N1980 G3 X150.385 Y449.112 I0.968 J0.03
N1985 G1 X150.146 Y449.662
N1990 G0 Z5.
N1995 X150.368 Y450.012
N2000 G1 Z2. F333.33
N2005 Z-2.1
N2010 X150.968 Y450.03 F1000.
N2015 G3 X150. Y450.968 I-0.968 J-0.03
N2020 G1 Y450.368
N2025 G0 Z5.
N2030 X200.367 Y450.001
N2035 G1 Z2. F333.33
N2040 Z-2.1
N2045 X200.967 F1000.
N2050 G3 X200. Y450.968 I-0.967 J0.
N2055 Y449.033 I0.001 J-0.967
N2060 X200.967 Y450.001 I-0.001 J0.967
N2065 G1 X200.367
N2070 G0 Z5.
N2075 X250.367
N2080 G1 Z2. F333.33
N2085 Z-2.1
N2090 X250.967 F1000.
N2095 G3 X250. Y450.968 I-0.967 J0.
N2100 Y449.033 I0.001 J-0.967
N2105 X250.967 Y450.001 I-0.001 J0.967
N2110 G1 X250.367
N2115 G0 Z5.
N2120 X300.367 Y450.011
N2125 G1 Z2. F333.33
N2130 Z-2.1
N2135 X300.967 Y450.027 F1000.
N2140 G3 X300. Y450.968 I-0.967 J-0.027
N2145 Y449.033 I0. J-0.967
N2150 X300.967 Y450.027 I0. J0.967
N2155 G1 X300.367 Y450.011
N2160 G0 Z5.
N2165 Y499.99
N2170 G1 Z2. F333.33
N2175 Z-2.1
N2180 X300.967 Y499.974 F1000.
N2185 G3 X300. Y500.968 I-0.967 J0.027
N2190 Y499.033 I0. J-0.967
N2195 X300.967 Y499.974 I0. J0.967
N2200 G1 X300.367 Y499.99
N2205 G0 Z5.
N2210 Y550.
N2215 G1 Z2. F333.33
N2220 Z-2.1
N2225 X300.967 F1000.
N2230 G3 X299.033 I-0.967 J0.
N2235 X300.967 I0.967 J0.
N2240 G1 X300.367
N2245 G0 Z5.
N2250 Y600.
N2255 G1 Z2. F333.33
N2260 Z-2.1
N2265 X300.967 F1000.
N2270 G3 X299.033 I-0.967 J0.
N2275 X300.967 I0.967 J0.
N2280 G1 X300.367
N2285 G0 Z5.
N2290 X250.367
N2295 G1 Z2. F333.33
N2300 Z-2.1
N2305 X250.967 F1000.
N2310 G3 X249.033 I-0.967 J0.
N2315 X250.967 I0.967 J0.
N2320 G1 X250.367
N2325 G0 Z5.
N2330 Y550.
N2335 G1 Z2. F333.33
N2340 Z-2.1
N2345 X250.967 F1000.
N2350 G3 X249.033 I-0.967 J0.
N2355 X250.967 I0.967 J0.
N2360 G1 X250.367
N2365 G0 Z5.
N2370 Y500.001
N2375 G1 Z2. F333.33
N2380 Z-2.1
N2385 X250.967 F1000.
N2390 G3 X250. Y500.968 I-0.967 J0.
N2395 Y499.033 I0.001 J-0.967
N2400 X250.967 Y500.001 I-0.001 J0.967
N2405 G1 X250.367
N2410 G0 Z5.
N2415 X200.367
N2420 G1 Z2. F333.33
N2425 Z-2.1
N2430 X200.967 F1000.
N2435 G3 X200. Y500.968 I-0.967 J0.
N2440 Y499.033 I0.001 J-0.967
N2445 X200.967 Y500.001 I-0.001 J0.967
N2450 G1 X200.367
N2455 G0 Z5.
N2460 Y550.
N2465 G1 Z2. F333.33
N2470 Z-2.1
N2475 X200.967 F1000.
N2480 G3 X199.033 I-0.967 J0.
N2485 X200.967 I0.967 J0.
N2490 G1 X200.367
N2495 G0 Z5.
N2500 Y600.
N2505 G1 Z2. F333.33
N2510 Z-2.1
N2515 X200.967 F1000.
N2520 G3 X199.033 I-0.967 J0.
N2525 X200.967 I0.967 J0.
N2530 G1 X200.367
N2535 G0 Z5.
N2540 X150.368 Y600.012
N2545 G1 Z2. F333.33
N2550 Z-2.1
N2555 X150.968 Y600.03 F1000.
N2560 G3 X150. Y600.968 I-0.968 J-0.03
N2565 G1 Y600.368
N2570 G0 Z5.
N2575 X149.632 Y599.988
N2580 G1 Z2. F333.33
N2585 Z-2.1
N2590 X149.032 Y599.97 F1000.
N2595 G3 X150.385 Y599.112 I0.968 J0.03
N2600 G1 X150.146 Y599.662
N2605 G0 Z5.
N2610 X100.368 Y600.012
N2615 G1 Z2. F333.33
N2620 Z-2.1
N2625 X100.968 Y600.03 F1000.
N2630 G3 X99.616 Y600.889 I-0.968 J-0.03
N2635 G1 X99.854 Y600.338
N2640 G0 Z5.
N2645 X99.632 Y599.988
N2650 G1 Z2. F333.33
N2655 Z-2.1
N2660 X99.032 Y599.97 F1000.
N2665 G3 X100. Y599.032 I0.968 J0.03
N2670 G1 Y599.632
N2675 G0 Z5.
N2680 X50.368 Y600.012
N2685 G1 Z2. F333.33
N2690 Z-2.1
N2695 X50.968 Y600.03 F1000.
N2700 G3 X50. Y600.968 I-0.968 J-0.03
N2705 G1 Y600.368
N2710 G0 Z5.
N2715 X49.632 Y599.988
N2720 G1 Z2. F333.33
N2725 Z-2.1
N2730 X49.032 Y599.97 F1000.
N2735 G3 X50.385 Y599.112 I0.968 J0.03
N2740 G1 X50.146 Y599.662
N2745 G0 Z5.
N2750 X0.368 Y600.012
N2755 G1 Z2. F333.33
N2760 Z-2.1
N2765 X0.968 Y600.03 F1000.
N2770 G3 X-0.385 Y600.888 I-0.968 J-0.03
N2775 G1 X-0.146 Y600.338
N2780 G0 Z5.
N2785 X-0.368 Y599.988
N2790 G1 Z2. F333.33
N2795 Z-2.1
N2800 X-0.968 Y599.97 F1000.
N2805 G3 X0.385 Y599.112 I0.968 J0.03
N2810 G1 X0.146 Y599.662
N2815 G0 Z5.
N2820 X-49.632 Y600.012
N2825 G1 Z2. F333.33
N2830 Z-2.1
N2835 X-49.032 Y600.03 F1000.
N2840 G3 X-50.385 Y600.888 I-0.968 J-0.03
N2845 G1 X-50.146 Y600.338
N2850 G0 Z5.
N2855 X-50.368 Y599.988
N2860 G1 Z2. F333.33
N2865 Z-2.1
N2870 X-50.968 Y599.97 F1000.
N2875 G3 X-49.615 Y599.112 I0.968 J0.03
N2880 G1 X-49.854 Y599.662
N2885 G0 Z5.
N2890 X-99.632 Y600.012
N2895 G1 Z2. F333.33
N2900 Z-2.1
N2905 X-99.032 Y600.03 F1000.
N2910 G3 X-100.384 Y600.889 I-0.968 J-0.03
N2915 G1 X-100.146 Y600.338
N2920 G0 Z5.
N2925 X-100.368 Y599.988
N2930 G1 Z2. F333.33
N2935 Z-2.1
N2940 X-100.968 Y599.97 F1000.
N2945 G3 X-99.616 Y599.111 I0.968 J0.03
N2950 G1 X-99.854 Y599.662
N2955 G0 Z5.
N2960 X-149.632 Y600.012
N2965 G1 Z2. F333.33
N2970 Z-2.1
N2975 X-149.032 Y600.03 F1000.
N2980 G3 X-150.385 Y600.888 I-0.968 J-0.03
N2985 G1 X-150.146 Y600.338
N2990 G0 Z5.
N2995 X-150.368 Y599.988
N3000 G1 Z2. F333.33
N3005 Z-2.1
N3010 X-150.968 Y599.97 F1000.
N3015 G3 X-150. Y599.032 I0.968 J0.03
N3020 G1 Y599.632
N3025 G0 Z5.
N3030 X-199.632 Y600.012
N3035 G1 Z2. F333.33
N3040 Z-2.1
N3045 X-199.032 Y600.03 F1000.
N3050 G3 X-200.385 Y600.888 I-0.968 J-0.03
N3055 G1 X-200.146 Y600.338
N3060 G0 Z5.
N3065 X-200.368 Y599.988
N3070 G1 Z2. F333.33
N3075 Z-2.1
N3080 X-200.968 Y599.97 F1000.
N3085 G3 X-199.615 Y599.112 I0.968 J0.03
N3090 G1 X-199.854 Y599.662
N3095 G0 Z5.
N3100 X-249.632 Y600.012
N3105 G1 Z2. F333.33
N3110 Z-2.1
N3115 X-249.032 Y600.03 F1000.
N3120 G3 X-250.385 Y600.888 I-0.968 J-0.03
N3125 G1 X-250.146 Y600.338
N3130 G0 Z5.
N3135 X-250.368 Y599.988
N3140 G1 Z2. F333.33
N3145 Z-2.1
N3150 X-250.968 Y599.97 F1000.
N3155 G3 X-250. Y599.032 I0.968 J0.03
N3160 G1 Y599.632
N3165 G0 Z5.
N3170 X-299.632 Y600.011
N3175 G1 Z2. F333.33
N3180 Z-2.1
N3185 X-299.032 Y600.03 F1000.
N3190 G3 X-300.385 Y600.888 I-0.968 J-0.03
N3195 G1 X-300.146 Y600.338
N3200 G0 Z5.
N3205 X-300.368 Y599.989
N3210 G1 Z2. F333.33
N3215 Z-2.1
N3220 X-300.968 Y599.97 F1000.
N3225 G3 X-300. Y599.032 I0.968 J0.03
N3230 G1 Y599.632
N3235 G0 Z5.
N3240 X-299.632 Y550.011
N3245 G1 Z2. F333.33
N3250 Z-2.1
N3255 X-299.032 Y550.03 F1000.
N3260 G3 X-300.385 Y550.888 I-0.968 J-0.03
N3265 G1 X-300.146 Y550.338
N3270 G0 Z5.
N3275 X-300.368 Y549.989
N3280 G1 Z2. F333.33
N3285 Z-2.1
N3290 X-300.968 Y549.97 F1000.
N3295 G3 X-299.615 Y549.112 I0.968 J0.03
N3300 G1 X-299.854 Y549.662
N3305 G0 Z5.
N3310 X-299.655 Y500.125
N3315 G1 Z2. F333.33
N3320 Z-2.1
N3325 X-299.091 Y500.33 F1000.
N3330 G3 X-300. Y500.967 I-0.909 J-0.331
N3335 Y499.032 I0. J-0.967
N3340 X-299.091 Y500.33 I0. J0.967
N3345 G1 X-299.655 Y500.125
N3350 G0 Z5.
N3355 X-249.633 Y500.
N3360 G1 Z2. F333.33
N3365 Z-2.1
N3370 X-249.033 F1000.
N3375 G3 X-250. Y500.967 I-0.967 J0.
N3380 Y499.032 I0.001 J-0.967
N3385 X-249.033 Y500. I-0.001 J0.967
N3390 G1 X-249.633
N3395 G0 Z5.
N3400 X-199.655 Y500.125
N3405 G1 Z2. F333.33
N3410 Z-2.1
N3415 X-199.091 Y500.33 F1000.
N3420 G3 X-200. Y500.967 I-0.909 J-0.331
N3425 Y499.032 I0.001 J-0.967
N3430 X-199.091 Y500.33 I-0.001 J0.967
N3435 G1 X-199.655 Y500.125
N3440 G0 Z5.
N3445 X-150.368 Y499.988
N3450 G1 Z2. F333.33
N3455 Z-2.1
N3460 X-150.968 Y499.97 F1000.
N3465 G3 X-150. Y499.032 I0.968 J0.03
N3470 G1 Y499.632
N3475 G0 Z5.
N3480 X-149.632 Y500.012
N3485 G1 Z2. F333.33
N3490 Z-2.1
N3495 X-149.032 Y500.03 F1000.
N3500 G3 X-150.385 Y500.888 I-0.968 J-0.03
N3505 G1 X-150.146 Y500.338
N3510 G0 Z5.
N3515 X-100.368 Y499.988
N3520 G1 Z2. F333.33
N3525 Z-2.1
N3530 X-100.968 Y499.97 F1000.
N3535 G3 X-99.616 Y499.111 I0.968 J0.03
N3540 G1 X-99.854 Y499.662
N3545 G0 Z5.
N3550 X-99.632 Y500.012
N3555 G1 Z2. F333.33
N3560 Z-2.1
N3565 X-99.032 Y500.03 F1000.
N3570 G3 X-100.384 Y500.889 I-0.968 J-0.03
N3575 G1 X-100.146 Y500.338
N3580 G0 Z5.
N3585 X-50.368 Y499.988
N3590 G1 Z2. F333.33
N3595 Z-2.1
N3600 X-50.968 Y499.97 F1000.
N3605 G3 X-50. Y499.032 I0.968 J0.03
N3610 G1 Y499.632
N3615 G0 Z5.
N3620 X-49.632 Y500.012
N3625 G1 Z2. F333.33
N3630 Z-2.1
N3635 X-49.032 Y500.03 F1000.
N3640 G3 X-50.385 Y500.888 I-0.968 J-0.03
N3645 G1 X-50.146 Y500.338
N3650 G0 Z5.
N3655 X-0.368 Y499.988
N3660 G1 Z2. F333.33
N3665 Z-2.1
N3670 X-0.968 Y499.97 F1000.
N3675 G3 X0.385 Y499.112 I0.968 J0.03
N3680 G1 X0.146 Y499.662
N3685 G0 Z5.
N3690 X0.368 Y500.012
N3695 G1 Z2. F333.33
N3700 Z-2.1
N3705 X0.968 Y500.03 F1000.
N3710 G3 X-0.385 Y500.888 I-0.968 J-0.03
N3715 G1 X-0.146 Y500.338
N3720 G0 Z5.
N3725 X49.632 Y499.988
N3730 G1 Z2. F333.33
N3735 Z-2.1
N3740 X49.032 Y499.97 F1000.
N3745 G3 X50. Y499.032 I0.968 J0.03
N3750 G1 Y499.632
N3755 G0 Z5.
N3760 X50.368 Y500.012
N3765 G1 Z2. F333.33
N3770 Z-2.1
N3775 X50.968 Y500.03 F1000.
N3780 G3 X49.615 Y500.888 I-0.968 J-0.03
N3785 G1 X49.854 Y500.338
N3790 G0 Z5.
N3795 X99.632 Y499.988
N3800 G1 Z2. F333.33
N3805 Z-2.1
N3810 X99.032 Y499.97 F1000.
N3815 G3 X100.384 Y499.111 I0.968 J0.03
N3820 G1 X100.146 Y499.662
N3825 G0 Z5.
N3830 X100.368 Y500.012
N3835 G1 Z2. F333.33
N3840 Z-2.1
N3845 X100.968 Y500.03 F1000.
N3850 G3 X100. Y500.968 I-0.968 J-0.03
N3855 G1 Y500.368
N3860 G0 Z5.
N3865 X149.632 Y499.988
N3870 G1 Z2. F333.33
N3875 Z-2.1
N3880 X149.032 Y499.97 F1000.
N3885 G3 X150.385 Y499.112 I0.968 J0.03
N3890 G1 X150.146 Y499.662
N3895 G0 Z5.
N3900 X150.368 Y500.012
N3905 G1 Z2. F333.33
N3910 Z-2.1
N3915 X150.968 Y500.03 F1000.
N3920 G3 X149.615 Y500.888 I-0.968 J-0.03
N3925 G1 X149.854 Y500.338
N3930 G0 Z5.
N3935 X149.632 Y549.988
N3940 G1 Z2. F333.33
N3945 Z-2.1
N3950 X149.032 Y549.97 F1000.
N3955 G3 X150.385 Y549.112 I0.968 J0.03
N3960 G1 X150.146 Y549.662
N3965 G0 Z5.
N3970 X150.368 Y550.012
N3975 G1 Z2. F333.33
N3980 Z-2.1
N3985 X150.968 Y550.03 F1000.
N3990 G3 X150. Y550.968 I-0.968 J-0.03
N3995 G1 Y550.368
N4000 G0 Z5.
N4005 X100.368 Y550.012
N4010 G1 Z2. F333.33
N4015 Z-2.1
N4020 X100.968 Y550.03 F1000.
N4025 G3 X99.616 Y550.889 I-0.968 J-0.03
N4030 G1 X99.854 Y550.338
N4035 G0 Z5.
N4040 X99.632 Y549.988
N4045 G1 Z2. F333.33
N4050 Z-2.1
N4055 X99.032 Y549.97 F1000.
N4060 G3 X100.384 Y549.111 I0.968 J0.03
N4065 G1 X100.146 Y549.662
N4070 G0 Z5.
N4075 X50.368 Y550.012
N4080 G1 Z2. F333.33
N4085 Z-2.1
N4090 X50.968 Y550.03 F1000.
N4095 G3 X50. Y550.968 I-0.968 J-0.03
N4100 G1 Y550.368
N4105 G0 Z5.
N4110 X49.632 Y549.988
N4115 G1 Z2. F333.33
N4120 Z-2.1
N4125 X49.032 Y549.97 F1000.
N4130 G3 X50.385 Y549.112 I0.968 J0.03
N4135 G1 X50.146 Y549.662
N4140 G0 Z5.
N4145 X0.368 Y550.012
N4150 G1 Z2. F333.33
N4155 Z-2.1
N4160 X0.968 Y550.03 F1000.
N4165 G3 X-0.385 Y550.888 I-0.968 J-0.03
N4170 G1 X-0.146 Y550.338
N4175 G0 Z5.
N4180 X-0.368 Y549.988
N4185 G1 Z2. F333.33
N4190 Z-2.1
N4195 X-0.968 Y549.97 F1000.
N4200 G3 X0.385 Y549.112 I0.968 J0.03
N4205 G1 X0.146 Y549.662
N4210 G0 Z5.
N4215 X-49.632 Y550.012
N4220 G1 Z2. F333.33
N4225 Z-2.1
N4230 X-49.032 Y550.03 F1000.
N4235 G3 X-50.385 Y550.888 I-0.968 J-0.03
N4240 G1 X-50.146 Y550.338
N4245 G0 Z5.
N4250 X-50.368 Y549.988
N4255 G1 Z2. F333.33
N4260 Z-2.1
N4265 X-50.968 Y549.97 F1000.
N4270 G3 X-49.615 Y549.112 I0.968 J0.03
N4275 G1 X-49.854 Y549.662
N4280 G0 Z5.
N4285 X-99.632 Y550.012
N4290 G1 Z2. F333.33
N4295 Z-2.1
N4300 X-99.032 Y550.03 F1000.
N4305 G3 X-100.384 Y550.889 I-0.968 J-0.03
N4310 G1 X-100.146 Y550.338
N4315 G0 Z5.
N4320 X-100.368 Y549.988
N4325 G1 Z2. F333.33
N4330 Z-2.1
N4335 X-100.968 Y549.97 F1000.
N4340 G3 X-99.616 Y549.111 I0.968 J0.03
N4345 G1 X-99.854 Y549.662
N4350 G0 Z5.
N4355 X-149.632 Y550.012
N4360 G1 Z2. F333.33
N4365 Z-2.1
N4370 X-149.032 Y550.03 F1000.
N4375 G3 X-150. Y550.968 I-0.968 J-0.03
N4380 G1 Y550.368
N4385 G0 Z5.
N4390 X-150.368 Y549.988
N4395 G1 Z2. F333.33
N4400 Z-2.1
N4405 X-150.968 Y549.97 F1000.
N4410 G3 X-149.615 Y549.112 I0.968 J0.03
N4415 G1 X-149.854 Y549.662
N4420 G0 Z5.
N4425 X-199.632 Y550.012
N4430 G1 Z2. F333.33
N4435 Z-2.1
N4440 X-199.032 Y550.03 F1000.
N4445 G3 X-200.385 Y550.888 I-0.968 J-0.03
N4450 G1 X-200.146 Y550.338
N4455 G0 Z5.
N4460 X-200.368 Y549.988
N4465 G1 Z2. F333.33
N4470 Z-2.1
N4475 X-200.968 Y549.97 F1000.
N4480 G3 X-199.615 Y549.112 I0.968 J0.03
N4485 G1 X-199.854 Y549.662
N4490 G0 Z5.
N4495 X-249.632 Y550.012
N4500 G1 Z2. F333.33
N4505 Z-2.1
N4510 X-249.032 Y550.03 F1000.
N4515 G3 X-250.385 Y550.888 I-0.968 J-0.03
N4520 G1 X-250.146 Y550.338
N4525 G0 Z5.
N4530 X-250.368 Y549.988
N4535 G1 Z2. F333.33
N4540 Z-2.1
N4545 X-250.968 Y549.97 F1000.
N4550 G3 X-249.615 Y549.112 I0.968 J0.03
N4555 G1 X-249.854 Y549.662
N4560 G0 Z5.
N4565 X-249.655 Y450.125
N4570 G1 Z2. F333.33
N4575 Z-2.1
N4580 X-249.091 Y450.33 F1000.
N4585 G3 X-250. Y450.967 I-0.909 J-0.331
N4590 Y449.032 I0.001 J-0.967
N4595 X-249.091 Y450.33 I-0.001 J0.967
N4600 G1 X-249.655 Y450.125
N4605 G0 Z5.
N4610 Y400.125
N4615 G1 Z2. F333.33
N4620 Z-2.1
N4625 X-249.091 Y400.33 F1000.
N4630 G3 X-250. Y400.967 I-0.909 J-0.331
N4635 Y399.032 I0.001 J-0.967
N4640 X-249.091 Y400.33 I-0.001 J0.967
N4645 G1 X-249.655 Y400.125
N4650 G0 Z5.
N4655 X-249.633 Y350.01
N4660 G1 Z2. F333.33
N4665 Z-2.1
N4670 X-249.033 Y350.026 F1000.
N4675 G3 X-250. Y350.967 I-0.967 J-0.027
N4680 Y349.032 I0.001 J-0.967
N4685 X-249.033 Y350.026 I-0.001 J0.967
N4690 G1 X-249.633 Y350.01
N4695 G0 Z5.
N4700 X-199.633 Y350.
N4705 G1 Z2. F333.33
N4710 Z-2.1
N4715 X-199.033 F1000.
N4720 G3 X-200. Y350.967 I-0.967 J0.
N4725 Y349.032 I0.001 J-0.967
N4730 X-199.033 Y350. I-0.001 J0.967
N4735 G1 X-199.633
N4740 G0 Z5.
N4745 X-150.368 Y349.988
N4750 G1 Z2. F333.33
N4755 Z-2.1
N4760 X-150.968 Y349.97 F1000.
N4765 G3 X-150. Y349.032 I0.968 J0.03
N4770 G1 Y349.632
N4775 G0 Z5.
N4780 X-149.632 Y350.012
N4785 G1 Z2. F333.33
N4790 Z-2.1
N4795 X-149.032 Y350.03 F1000.
N4800 G3 X-150.385 Y350.888 I-0.968 J-0.03
N4805 G1 X-150.146 Y350.338
N4810 G0 Z5.
N4815 X-100.368 Y349.988
N4820 G1 Z2. F333.33
N4825 Z-2.1
N4830 X-100.968 Y349.97 F1000.
N4835 G3 X-100. Y349.032 I0.968 J0.03
N4840 G1 Y349.632
N4845 G0 Z5.
N4850 X-99.632 Y350.012
N4855 G1 Z2. F333.33
N4860 Z-2.1
N4865 X-99.032 Y350.03 F1000.
N4870 G3 X-100.384 Y350.889 I-0.968 J-0.03
N4875 G1 X-100.146 Y350.338
N4880 G0 Z5.
N4885 X-50.368 Y349.988
N4890 G1 Z2. F333.33
N4895 Z-2.1
N4900 X-50.968 Y349.97 F1000.
N4905 G3 X-49.615 Y349.112 I0.968 J0.03
N4910 G1 X-49.854 Y349.662
N4915 G0 Z5.
N4920 X-49.632 Y350.012
N4925 G1 Z2. F333.33
N4930 Z-2.1
N4935 X-49.032 Y350.03 F1000.
N4940 G3 X-50.385 Y350.888 I-0.968 J-0.03
N4945 G1 X-50.146 Y350.338
N4950 G0 Z5.
N4955 X-0.368 Y349.988
N4960 G1 Z2. F333.33
N4965 Z-2.1
N4970 X-0.968 Y349.97 F1000.
N4975 G3 X0.385 Y349.112 I0.968 J0.03
N4980 G1 X0.146 Y349.662
N4985 G0 Z5.
N4990 X0.368 Y350.012
N4995 G1 Z2. F333.33
N5000 Z-2.1
N5005 X0.968 Y350.03 F1000.
N5010 G3 X-0.385 Y350.888 I-0.968 J-0.03
N5015 G1 X-0.146 Y350.338
N5020 G0 Z5.
N5025 X49.632 Y349.988
N5030 G1 Z2. F333.33
N5035 Z-2.1
N5040 X49.032 Y349.97 F1000.
N5045 G3 X50.385 Y349.112 I0.968 J0.03
N5050 G1 X50.146 Y349.662
N5055 G0 Z5.
N5060 X50.368 Y350.012
N5065 G1 Z2. F333.33
N5070 Z-2.1
N5075 X50.968 Y350.03 F1000.
N5080 G3 X49.615 Y350.888 I-0.968 J-0.03
N5085 G1 X49.854 Y350.338
N5090 G0 Z5.
N5095 X99.632 Y349.988
N5100 G1 Z2. F333.33
N5105 Z-2.1
N5110 X99.032 Y349.97 F1000.
N5115 G3 X100.384 Y349.111 I0.968 J0.03
N5120 G1 X100.146 Y349.662
N5125 G0 Z5.
N5130 X100.368 Y350.012
N5135 G1 Z2. F333.33
N5140 Z-2.1
N5145 X100.968 Y350.03 F1000.
N5150 G3 X99.616 Y350.889 I-0.968 J-0.03
N5155 G1 X99.854 Y350.338
N5160 G0 Z5.
N5165 X149.632 Y349.988
N5170 G1 Z2. F333.33
N5175 Z-2.1
N5180 X149.032 Y349.97 F1000.
N5185 G3 X150.385 Y349.112 I0.968 J0.03
N5190 G1 X150.146 Y349.662
N5195 G0 Z5.
N5200 X150.368 Y350.012
N5205 G1 Z2. F333.33
N5210 Z-2.1
N5215 X150.968 Y350.03 F1000.
N5220 G3 X150. Y350.968 I-0.968 J-0.03
N5225 G1 Y350.368
N5230 G0 Z5.
N5235 X200.345 Y350.126
N5240 G1 Z2. F333.33
N5245 Z-2.1
N5250 X200.909 Y350.331 F1000.
N5255 G3 X200. Y350.968 I-0.909 J-0.331
N5260 Y349.033 I0.001 J-0.967
N5265 X200.909 Y350.331 I-0.001 J0.967
N5270 G1 X200.345 Y350.126
N5275 G0 Z5.
N5280 X250.345
N5285 G1 Z2. F333.33
N5290 Z-2.1
N5295 X250.909 Y350.331 F1000.
N5300 G3 X250. Y350.968 I-0.909 J-0.331
N5305 Y349.033 I0.001 J-0.967
N5310 X250.909 Y350.331 I-0.001 J0.967
N5315 G1 X250.345 Y350.126
N5320 G0 Z5.
N5325 X300.367 Y350.001
N5330 G1 Z2. F333.33
N5335 Z-2.1
N5340 X300.967 F1000.
N5345 G3 X300. Y350.968 I-0.967 J0.
N5350 Y349.033 I0. J-0.967
N5355 X300.967 Y350.001 I0. J0.967
N5360 G1 X300.367
N5365 G0 Z5.
N5370 Y400.001
N5375 G1 Z2. F333.33
N5380 Z-2.1
N5385 X300.967 F1000.
N5390 G3 X300. Y400.968 I-0.967 J0.
N5395 Y399.033 I0. J-0.967
N5400 X300.967 Y400.001 I0. J0.967
N5405 G1 X300.367
N5410 G0 Z5.
N5415 X250.367
N5420 G1 Z2. F333.33
N5425 Z-2.1
N5430 X250.967 F1000.
N5435 G3 X250. Y400.968 I-0.967 J0.
N5440 Y399.033 I0.001 J-0.967
N5445 X250.967 Y400.001 I-0.001 J0.967
N5450 G1 X250.367
N5455 G0 Z5.
N5460 X200.367
N5465 G1 Z2. F333.33
N5470 Z-2.1
N5475 X200.967 F1000.
N5480 G3 X200. Y400.968 I-0.967 J0.
N5485 Y399.033 I0.001 J-0.967
N5490 X200.967 Y400.001 I-0.001 J0.967
N5495 G1 X200.367
N5500 G0 Z5.
N5505 X150.368 Y400.012
N5510 G1 Z2. F333.33
N5515 Z-2.1
N5520 X150.968 Y400.03 F1000.
N5525 G3 X149.615 Y400.888 I-0.968 J-0.03
N5530 G1 X149.854 Y400.338
N5535 G0 Z5.
N5540 X149.632 Y399.988
N5545 G1 Z2. F333.33
N5550 Z-2.1
N5555 X149.032 Y399.97 F1000.
N5560 G3 X150.385 Y399.112 I0.968 J0.03
N5565 G1 X150.146 Y399.662
N5570 G0 Z5.
N5575 X100.368 Y400.012
N5580 G1 Z2. F333.33
N5585 Z-2.1
N5590 X100.968 Y400.03 F1000.
N5595 G3 X99.616 Y400.889 I-0.968 J-0.03
N5600 G1 X99.854 Y400.338
N5605 G0 Z5.
N5610 X99.632 Y399.988
N5615 G1 Z2. F333.33
N5620 Z-2.1
N5625 X99.032 Y399.97 F1000.
N5630 G3 X100.384 Y399.111 I0.968 J0.03
N5635 G1 X100.146 Y399.662
N5640 G0 Z5.
N5645 X50.368 Y400.012
N5650 G1 Z2. F333.33
N5655 Z-2.1
N5660 X50.968 Y400.03 F1000.
N5665 G3 X49.615 Y400.888 I-0.968 J-0.03
N5670 G1 X49.854 Y400.338
N5675 G0 Z5.
N5680 X49.632 Y399.988
N5685 G1 Z2. F333.33
N5690 Z-2.1
N5695 X49.032 Y399.97 F1000.
N5700 G3 X50.385 Y399.112 I0.968 J0.03
N5705 G1 X50.146 Y399.662
N5710 G0 Z5.
N5715 X50.368 Y300.012
N5720 G1 Z2. F333.33
N5725 Z-2.1
N5730 X50.968 Y300.03 F1000.
N5735 G3 X49.615 Y300.888 I-0.968 J-0.03
N5740 G1 X49.854 Y300.338
N5745 G0 Z5.
N5750 X49.632 Y299.988
N5755 G1 Z2. F333.33
N5760 Z-2.1
N5765 X49.032 Y299.97 F1000.
N5770 G3 X50.385 Y299.112 I0.968 J0.03
N5775 G1 X50.146 Y299.662
N5780 G0 Z5.
N5785 X100.367 Y300.001
N5790 G1 Z2. F333.33
N5795 Z-2.1
N5800 X100.967 F1000.
N5805 G3 X100. Y300.968 I-0.968 J0.
N5810 Y299.033 I0.001 J-0.967
N5815 X100.967 Y300.001 I-0.001 J0.967
N5820 G1 X100.367
N5825 G0 Z5.
N5830 X150.345 Y300.126
N5835 G1 Z2. F333.33
N5840 Z-2.1
N5845 X150.909 Y300.331 F1000.
N5850 G3 X150. Y300.968 I-0.909 J-0.331
N5855 Y299.033 I0.001 J-0.967
N5860 X150.909 Y300.331 I-0.001 J0.967
N5865 G1 X150.345 Y300.126
N5870 G0 Z5.
N5875 X200.367 Y300.011
N5880 G1 Z2. F333.33
N5885 Z-2.1
N5890 X200.967 Y300.027 F1000.
N5895 G3 X200. Y300.968 I-0.967 J-0.027
N5900 Y299.033 I0.001 J-0.967
N5905 X200.967 Y300.027 I-0.001 J0.967
N5910 G1 X200.367 Y300.011
N5915 G0 Z5.
N5920 X250.367 Y300.001
N5925 G1 Z2. F333.33
N5930 Z-2.1
N5935 X250.967 F1000.
N5940 G3 X250. Y300.968 I-0.967 J0.
N5945 Y299.033 I0.001 J-0.967
N5950 X250.967 Y300.001 I-0.001 J0.967
N5955 G1 X250.367
N5960 G0 Z5.
N5965 X300.367
N5970 G1 Z2. F333.33
N5975 Z-2.1
N5980 X300.967 F1000.
N5985 G3 X300. Y300.968 I-0.967 J0.
N5990 Y299.033 I0. J-0.967
N5995 X300.967 Y300.001 I0. J0.967
N6000 G1 X300.367
N6005 G0 Z5.
N6010 X300.345 Y250.126
N6015 G1 Z2. F333.33
N6020 Z-2.1
N6025 X300.909 Y250.331 F1000.
N6030 G3 X300. Y250.968 I-0.909 J-0.331
N6035 Y249.033 I0. J-0.967
N6040 X300.909 Y250.331 I0. J0.967
N6045 G1 X300.345 Y250.126
N6050 G0 Z5.
N6055 X300.367 Y200.011
N6060 G1 Z2. F333.33
N6065 Z-2.1
N6070 X300.967 Y200.027 F1000.
N6075 G3 X300. Y200.968 I-0.967 J-0.027
N6080 Y199.033 I0. J-0.967
N6085 X300.967 Y200.027 I0. J0.967
N6090 G1 X300.367 Y200.011
N6095 G0 Z5.
N6100 Y150.011
N6105 G1 Z2. F333.33
N6110 Z-2.1
N6115 X300.967 Y150.027 F1000.
N6120 G3 X300. Y150.968 I-0.967 J-0.027
N6125 Y149.033 I0. J-0.967
N6130 X300.967 Y150.027 I0. J0.967
N6135 G1 X300.367 Y150.011
N6140 G0 Z5.
N6145 X299.655 Y99.874
N6150 G1 Z2. F333.33
N6155 Z-2.1
N6160 X299.091 Y99.669 F1000.
N6165 G3 X300. Y99.033 I0.909 J0.331
N6170 Y100.968 I0. J0.968
N6175 X299.033 Y100. I0. J-0.968
N6180 X299.091 Y99.669 I0.968 J0.
N6185 G1 X299.655 Y99.874
N6190 G0 Z5.
N6195 X250.367 Y100.
N6200 G1 Z2. F333.33
N6205 Z-2.1
N6210 X250.967 F1000.
N6215 G3 X250. Y100.968 I-0.968 J0.
N6220 Y99.033 I0. J-0.968
N6225 X250.967 Y100. I0. J0.968
N6230 G1 X250.367
N6235 G0 Z5.
N6240 X250.345 Y150.126
N6245 G1 Z2. F333.33
N6250 Z-2.1
N6255 X250.909 Y150.331 F1000.
N6260 G3 X250. Y150.968 I-0.909 J-0.331
N6265 Y149.033 I0.001 J-0.967
N6270 X250.909 Y150.331 I-0.001 J0.967
N6275 G1 X250.345 Y150.126
N6280 G0 Z5.
N6285 X250.367 Y200.001
N6290 G1 Z2. F333.33
N6295 Z-2.1
N6300 X250.967 F1000.
N6305 G3 X250. Y200.968 I-0.967 J0.
N6310 Y199.033 I0.001 J-0.967
N6315 X250.967 Y200.001 I-0.001 J0.967
N6320 G1 X250.367
N6325 G0 Z5.
N6330 Y250.001
N6335 G1 Z2. F333.33
N6340 Z-2.1
N6345 X250.967 F1000.
N6350 G3 X250. Y250.968 I-0.967 J0.
N6355 Y249.033 I0.001 J-0.967
N6360 X250.967 Y250.001 I-0.001 J0.967
N6365 G1 X250.367
N6370 G0 Z5.
N6375 X200.367
N6380 G1 Z2. F333.33
N6385 Z-2.1
N6390 X200.967 F1000.
N6395 G3 X200. Y250.968 I-0.967 J0.
N6400 Y249.033 I0.001 J-0.967
N6405 X200.967 Y250.001 I-0.001 J0.967
N6410 G1 X200.367
N6415 G0 Z5.
N6420 Y200.001
N6425 G1 Z2. F333.33
N6430 Z-2.1
N6435 X200.967 F1000.
N6440 G3 X200. Y200.968 I-0.967 J0.
N6445 Y199.033 I0.001 J-0.967
N6450 X200.967 Y200.001 I-0.001 J0.967
N6455 G1 X200.367
N6460 G0 Z5.
N6465 Y150.001
N6470 G1 Z2. F333.33
N6475 Z-2.1
N6480 X200.967 F1000.
N6485 G3 X200. Y150.968 I-0.967 J0.
N6490 Y149.033 I0.001 J-0.967
N6495 X200.967 Y150.001 I-0.001 J0.967
N6500 G1 X200.367
N6505 G0 Z5.
N6510 Y100.01
N6515 G1 Z2. F333.33
N6520 Z-2.1
N6525 X200.967 Y100.027 F1000.
N6530 G3 X200. Y100.968 I-0.967 J-0.027
N6535 Y99.033 I0. J-0.968
N6540 X200.967 Y100.027 I0. J0.968
N6545 G1 X200.367 Y100.01
N6550 G0 Z5.
N6555 Y50.
N6560 G1 Z2. F333.33
N6565 Z-2.1
N6570 X200.967 F1000.
N6575 G3 X199.033 I-0.967 J0.
N6580 X200.967 I0.967 J0.
N6585 G1 X200.367
N6590 G0 Z5.
N6595 X250.367
N6600 G1 Z2. F333.33
N6605 Z-2.1
N6610 X250.967 F1000.
N6615 G3 X249.033 I-0.967 J0.
N6620 X250.967 I0.967 J0.
N6625 G1 X250.367
N6630 G0 Z5.
N6635 X300.345 Y50.126
N6640 G1 Z2. F333.33
N6645 Z-2.1
N6650 X300.909 Y50.331 F1000.
N6655 G3 X299.091 Y49.669 I-0.909 J-0.331
N6660 X300.909 Y50.331 I0.909 J0.331
N6665 G1 X300.345 Y50.126
N6670 G0 Z5.
N6675 X300.367 Y0.
N6680 G1 Z2. F333.33
N6685 Z-2.1
N6690 X300.967 F1000.
N6695 G3 X299.033 I-0.967 J0.
N6700 X300.967 I0.967 J0.
N6705 G1 X300.367
N6710 G0 Z5.
N6715 X250.367
N6720 G1 Z2. F333.33
N6725 Z-2.1
N6730 X250.967 F1000.
N6735 G3 X249.033 I-0.967 J0.
N6740 X250.967 I0.967 J0.
N6745 G1 X250.367
N6750 G0 Z5.
N6755 X200.345 Y0.126
N6760 G1 Z2. F333.33
N6765 Z-2.1
N6770 X200.909 Y0.331 F1000.
N6775 G3 X199.091 Y-0.331 I-0.909 J-0.331
N6780 X200.909 Y0.331 I0.909 J0.331
N6785 G1 X200.345 Y0.126
N6790 G0 Z5.
N6795 X150.367 Y0.
N6800 G1 Z2. F333.33
N6805 Z-2.1
N6810 X150.967 F1000.
N6815 G3 X149.033 I-0.967 J0.
N6820 X150.967 I0.967 J0.
N6825 G1 X150.367
N6830 G0 Z5.
N6835 Y50.
N6840 G1 Z2. F333.33
N6845 Z-2.1
N6850 X150.967 F1000.
N6855 G3 X149.033 I-0.967 J0.
N6860 X150.967 I0.967 J0.
N6865 G1 X150.367
N6870 G0 Z5.
N6875 X149.633 Y100.
N6880 G1 Z2. F333.33
N6885 Z-2.1
N6890 X149.033 F1000.
N6895 G3 X150. Y99.033 I0.968 J0.
N6900 Y100.968 I0. J0.968
N6905 X149.033 Y100. I0. J-0.968
N6910 G1 X149.633
N6915 G0 Z5.
N6920 X99.632
N6925 G1 Z2. F333.33
N6930 Z-2.1
N6935 X99.033 F1000.
N6940 G3 X100. Y99.033 I0.968 J0.
N6945 Y100.968 I0. J0.968
N6950 X99.033 Y100. I0. J-0.968
N6955 G1 X99.632
N6960 G0 Z5.
N6965 X49.632
N6970 G1 Z2. F333.33
N6975 Z-2.1
N6980 X49.033 F1000.
N6985 G3 X50. Y99.033 I0.968 J0.
N6990 Y100.968 I0. J0.968
N6995 X49.033 Y100. I0. J-0.968
N7000 G1 X49.632
N7005 G0 Z5.
N7010 X0.345 Y100.126
N7015 G1 Z2. F333.33
N7020 Z-2.1
N7025 X0.909 Y100.331 F1000.
N7030 G3 X0. Y100.968 I-0.909 J-0.331
N7035 Y99.033 I0. J-0.968
N7040 X0.909 Y100.331 I0. J0.968
N7045 G1 X0.345 Y100.126
N7050 G0 Z5.
N7055 X0.368 Y50.
N7060 G1 Z2. F333.33
N7065 Z-2.1
N7070 X0.967 F1000.
N7075 G3 X-0.967 I-0.967 J0.
N7080 X0.967 I0.967 J0.
N7085 G1 X0.368
N7090 G0 Z5.
N7095 X50.345 Y50.126
N7100 G1 Z2. F333.33
N7105 Z-2.1
N7110 X50.909 Y50.331 F1000.
N7115 G3 X49.091 Y49.669 I-0.909 J-0.331
N7120 X50.909 Y50.331 I0.909 J0.331
N7125 G1 X50.345 Y50.126
N7130 G0 Z5.
N7135 X100.368 Y50.
N7140 G1 Z2. F333.33
N7145 Z-2.1
N7150 X100.967 F1000.
N7155 G3 X99.033 I-0.967 J0.
N7160 X100.967 I0.967 J0.
N7165 G1 X100.368
N7170 G0 Z5.
N7175 X100.345 Y0.126
N7180 G1 Z2. F333.33
N7185 Z-2.1
N7190 X100.909 Y0.331 F1000.
N7195 G3 X99.091 Y-0.331 I-0.909 J-0.331
N7200 X100.909 Y0.331 I0.909 J0.331
N7205 G1 X100.345 Y0.126
N7210 G0 Z5.
N7215 X50.368 Y0.
N7220 G1 Z2. F333.33
N7225 Z-2.1
N7230 X50.967 F1000.
N7235 G3 X49.033 I-0.967 J0.
N7240 X50.967 I0.967 J0.
N7245 G1 X50.368
N7250 G0 Z5.
N7255 X0.368
N7260 G1 Z2. F333.33
N7265 Z-2.1
N7270 X0.967 F1000.
N7275 G3 X-0.967 I-0.967 J0.
N7280 X0.967 I0.967 J0.
N7285 G1 X0.368
N7290 G0 Z5.
N7295 X-49.632
N7300 G1 Z2. F333.33
N7305 Z-2.1
N7310 X-49.033 F1000.
N7315 G3 X-50.967 I-0.967 J0.
N7320 X-49.033 I0.967 J0.
N7325 G1 X-49.632
N7330 G0 Z5.
N7335 Y50.
N7340 G1 Z2. F333.33
N7345 Z-2.1
N7350 X-49.033 F1000.
N7355 G3 X-50.967 I-0.967 J0.
N7360 X-49.033 I0.967 J0.
N7365 G1 X-49.632
N7370 G0 Z5.
N7375 X-50.368 Y100.
N7380 G1 Z2. F333.33
N7385 Z-2.1
N7390 X-50.967 F1000.
N7395 G3 X-50. Y99.033 I0.968 J0.
N7400 Y100.968 I0. J0.968
N7405 X-50.967 Y100. I0. J-0.968
N7410 G1 X-50.368
N7415 G0 Z5.
N7420 X-99.633 Y99.99
N7425 G1 Z2. F333.33
N7430 Z-2.1
N7435 X-99.033 Y99.973 F1000.
N7440 G3 X-100. Y100.968 I-0.967 J0.027
N7445 Y99.033 I0. J-0.968
N7450 X-99.033 Y99.973 I0. J0.968
N7455 G1 X-99.633 Y99.99
N7460 G0 Z5.
N7465 X-99.632 Y50.
N7470 G1 Z2. F333.33
N7475 Z-2.1
N7480 X-99.033 F1000.
N7485 G3 X-100.967 I-0.967 J0.
N7490 X-99.033 I0.967 J0.
N7495 G1 X-99.632
N7500 G0 Z5.
N7505 Y0.
N7510 G1 Z2. F333.33
N7515 Z-2.1
N7520 X-99.033 F1000.
N7525 G3 X-100.967 I-0.967 J0.
N7530 X-99.033 I0.967 J0.
N7535 G1 X-99.632
N7540 G0 Z5.
N7545 X-149.633
N7550 G1 Z2. F333.33
N7555 Z-2.1
N7560 X-149.033 F1000.
N7565 G3 X-150.967 I-0.967 J0.
N7570 X-149.033 I0.967 J0.
N7575 G1 X-149.633
N7580 G0 Z5.
N7585 Y50.
N7590 G1 Z2. F333.33
N7595 Z-2.1
N7600 X-149.033 F1000.
N7605 G3 X-150.967 I-0.967 J0.
N7610 X-149.033 I0.967 J0.
N7615 G1 X-149.633
N7620 G0 Z5.
N7625 Y100.
N7630 G1 Z2. F333.33
N7635 Z-2.1
N7640 X-149.033 F1000.
N7645 G3 X-150. Y100.967 I-0.967 J0.
N7650 Y99.033 I0. J-0.967
N7655 X-149.033 Y100. I0. J0.967
N7660 G1 X-149.633
N7665 G0 Z5.
N7670 Y150.
N7675 G1 Z2. F333.33
N7680 Z-2.1
N7685 X-149.033 F1000.
N7690 G3 X-150. Y150.967 I-0.967 J0.
N7695 Y149.032 I0.001 J-0.967
N7700 X-149.033 Y150. I-0.001 J0.967
N7705 G1 X-149.633
N7710 G0 Z5.
N7715 X-100.368 Y149.988
N7720 G1 Z2. F333.33
N7725 Z-2.1
N7730 X-100.968 Y149.97 F1000.
N7735 G3 X-99.616 Y149.111 I0.968 J0.03
N7740 G1 X-99.854 Y149.662
N7745 G0 Z5.
N7750 X-99.632 Y150.012
N7755 G1 Z2. F333.33
N7760 Z-2.1
N7765 X-99.032 Y150.03 F1000.
N7770 G3 X-100.384 Y150.889 I-0.968 J-0.03
N7775 G1 X-100.146 Y150.338
N7780 G0 Z5.
N7785 X-99.633 Y200.
N7790 G1 Z2. F333.33
N7795 Z-2.1
N7800 X-99.033 F1000.
N7805 G3 X-100. Y200.967 I-0.968 J0.
N7810 Y199.032 I0.001 J-0.967
N7815 X-99.033 Y200. I-0.001 J0.967
N7820 G1 X-99.633
N7825 G0 Z5.
N7830 X-50.368 Y199.988
N7835 G1 Z2. F333.33
N7840 Z-2.1
N7845 X-50.968 Y199.97 F1000.
N7850 G3 X-50. Y199.032 I0.968 J0.03
N7855 G1 Y199.632
N7860 G0 Z5.
N7865 X-49.632 Y200.012
N7870 G1 Z2. F333.33
N7875 Z-2.1
N7880 X-49.032 Y200.03 F1000.
N7885 G3 X-50.385 Y200.888 I-0.968 J-0.03
N7890 G1 X-50.146 Y200.338
N7895 G0 Z5.
N7900 X-0.368 Y199.988
N7905 G1 Z2. F333.33
N7910 Z-2.1
N7915 X-0.968 Y199.97 F1000.
N7920 G3 X0.385 Y199.112 I0.968 J0.03
N7925 G1 X0.146 Y199.662
N7930 G0 Z5.
N7935 X0.368 Y200.012
N7940 G1 Z2. F333.33
N7945 Z-2.1
N7950 X0.968 Y200.03 F1000.
N7955 G3 X-0.385 Y200.888 I-0.968 J-0.03
N7960 G1 X-0.146 Y200.338
N7965 G0 Z5.
N7970 X49.632 Y199.988
N7975 G1 Z2. F333.33
N7980 Z-2.1
N7985 X49.032 Y199.97 F1000.
N7990 G3 X50.385 Y199.112 I0.968 J0.03
N7995 G1 X50.146 Y199.662
N8000 G0 Z5.
N8005 X50.368 Y200.012
N8010 G1 Z2. F333.33
N8015 Z-2.1
N8020 X50.968 Y200.03 F1000.
N8025 G3 X50. Y200.968 I-0.968 J-0.03
N8030 G1 Y200.368
N8035 G0 Z5.
N8040 X100.367 Y200.001
N8045 G1 Z2. F333.33
N8050 Z-2.1
N8055 X100.967 F1000.
N8060 G3 X100. Y200.968 I-0.968 J0.
N8065 Y199.033 I0.001 J-0.967
N8070 X100.967 Y200.001 I-0.001 J0.967
N8075 G1 X100.367
N8080 G0 Z5.
N8085 X150.367
N8090 G1 Z2. F333.33
N8095 Z-2.1
N8100 X150.967 F1000.
N8105 G3 X150. Y200.968 I-0.967 J0.
N8110 Y199.033 I0.001 J-0.967
N8115 X150.967 Y200.001 I-0.001 J0.967
N8120 G1 X150.367
N8125 G0 Z5.
N8130 Y250.001
N8135 G1 Z2. F333.33
N8140 Z-2.1
N8145 X150.967 F1000.
N8150 G3 X150. Y250.968 I-0.967 J0.
N8155 Y249.033 I0.001 J-0.967
N8160 X150.967 Y250.001 I-0.001 J0.967
N8165 G1 X150.367
N8170 G0 Z5.
N8175 X100.367
N8180 G1 Z2. F333.33
N8185 Z-2.1
N8190 X100.967 F1000.
N8195 G3 X100. Y250.968 I-0.968 J0.
N8200 Y249.033 I0.001 J-0.967
N8205 X100.967 Y250.001 I-0.001 J0.967
N8210 G1 X100.367
N8215 G0 Z5.
N8220 X50.368 Y250.012
N8225 G1 Z2. F333.33
N8230 Z-2.1
N8235 X50.968 Y250.03 F1000.
N8240 G3 X49.615 Y250.888 I-0.968 J-0.03
N8245 G1 X49.854 Y250.338
N8250 G0 Z5.
N8255 X49.632 Y249.988
N8260 G1 Z2. F333.33
N8265 Z-2.1
N8270 X49.032 Y249.97 F1000.
N8275 G3 X50. Y249.032 I0.968 J0.03
N8280 G1 Y249.632
N8285 G0 Z5.
N8290 X0.368 Y250.012
N8295 G1 Z2. F333.33
N8300 Z-2.1
N8305 X0.968 Y250.03 F1000.
N8310 G3 X-0.385 Y250.888 I-0.968 J-0.03
N8315 G1 X-0.146 Y250.338
N8320 G0 Z5.
N8325 X-0.368 Y249.988
N8330 G1 Z2. F333.33
N8335 Z-2.1
N8340 X-0.968 Y249.97 F1000.
N8345 G3 X0.385 Y249.112 I0.968 J0.03
N8350 G1 X0.146 Y249.662
N8355 G0 Z5.
N8360 X-49.632 Y250.012
N8365 G1 Z2. F333.33
N8370 Z-2.1
N8375 X-49.032 Y250.03 F1000.
N8380 G3 X-50.385 Y250.888 I-0.968 J-0.03
N8385 G1 X-50.146 Y250.338
N8390 G0 Z5.
N8395 X-50.368 Y249.988
N8400 G1 Z2. F333.33
N8405 Z-2.1
N8410 X-50.968 Y249.97 F1000.
N8415 G3 X-49.615 Y249.112 I0.968 J0.03
N8420 G1 X-49.854 Y249.662
N8425 G0 Z5.
N8430 X-99.633 Y249.989
N8435 G1 Z2. F333.33
N8440 Z-2.1
N8445 X-99.033 Y249.973 F1000.
N8450 G3 X-100. Y250.967 I-0.967 J0.027
N8455 Y249.032 I0.001 J-0.967
N8460 X-99.033 Y249.973 I-0.001 J0.967
N8465 G1 X-99.633 Y249.989
N8470 G0 Z5.
N8475 X-149.633 Y250.
N8480 G1 Z2. F333.33
N8485 Z-2.1
N8490 X-149.033 F1000.
N8495 G3 X-150. Y250.967 I-0.967 J0.
N8500 Y249.032 I0.001 J-0.967
N8505 X-149.033 Y250. I-0.001 J0.967
N8510 G1 X-149.633
N8515 G0 Z5.
N8520 Y200.01
N8525 G1 Z2. F333.33
N8530 Z-2.1
N8535 X-149.033 Y200.026 F1000.
N8540 G3 X-150. Y200.967 I-0.967 J-0.027
N8545 Y199.032 I0.001 J-0.967
N8550 X-149.033 Y200.026 I-0.001 J0.967
N8555 G1 X-149.633 Y200.01
N8560 G0 Z5.
N8565 X-199.633 Y200.
N8570 G1 Z2. F333.33
N8575 Z-2.1
N8580 X-199.033 F1000.
N8585 G3 X-200. Y200.967 I-0.967 J0.
N8590 Y199.032 I0.001 J-0.967
N8595 X-199.033 Y200. I-0.001 J0.967
N8600 G1 X-199.633
N8605 G0 Z5.
N8610 Y249.989
N8615 G1 Z2. F333.33
N8620 Z-2.1
N8625 X-199.033 Y249.973 F1000.
N8630 G3 X-200. Y250.967 I-0.967 J0.027
N8635 Y249.032 I0.001 J-0.967
N8640 X-199.033 Y249.973 I-0.001 J0.967
N8645 G1 X-199.633 Y249.989
N8650 G0 Z5.
N8655 X-249.655 Y250.125
N8660 G1 Z2. F333.33
N8665 Z-2.1
N8670 X-249.091 Y250.33 F1000.
N8675 G3 X-250. Y250.967 I-0.909 J-0.331
N8680 Y249.032 I0.001 J-0.967
N8685 X-249.091 Y250.33 I-0.001 J0.967
N8690 G1 X-249.655 Y250.125
N8695 G0 Z5.
N8700 X-249.633 Y200.
N8705 G1 Z2. F333.33
N8710 Z-2.1
N8715 X-249.033 F1000.
N8720 G3 X-250. Y200.967 I-0.967 J0.
N8725 Y199.032 I0.001 J-0.967
N8730 X-249.033 Y200. I-0.001 J0.967
N8735 G1 X-249.633
N8740 G0 Z5.
N8745 Y150.
N8750 G1 Z2. F333.33
N8755 Z-2.1
N8760 X-249.033 F1000.
N8765 G3 X-250. Y150.967 I-0.967 J0.
N8770 Y149.032 I0.001 J-0.967
N8775 X-249.033 Y150. I-0.001 J0.967
N8780 G1 X-249.633
N8785 G0 Z5.
N8790 X-199.633
N8795 G1 Z2. F333.33
N8800 Z-2.1
N8805 X-199.033 F1000.
N8810 G3 X-200. Y150.967 I-0.967 J0.
N8815 Y149.032 I0.001 J-0.967
N8820 X-199.033 Y150. I-0.001 J0.967
N8825 G1 X-199.633
N8830 G0 Z5.
N8835 X-199.655 Y100.125
N8840 G1 Z2. F333.33
N8845 Z-2.1
N8850 X-199.091 Y100.331 F1000.
N8855 G3 X-200. Y100.967 I-0.909 J-0.331
N8860 Y99.033 I0. J-0.967
N8865 X-199.091 Y100.331 I0. J0.967
N8870 G1 X-199.655 Y100.125
N8875 G0 Z5.
N8880 X-199.633 Y50.
N8885 G1 Z2. F333.33
N8890 Z-2.1
N8895 X-199.033 F1000.
N8900 G3 X-200.967 I-0.967 J0.
N8905 X-199.033 I0.967 J0.
N8910 G1 X-199.633
N8915 G0 Z5.
N8920 Y0.
N8925 G1 Z2. F333.33
N8930 Z-2.1
N8935 X-199.033 F1000.
N8940 G3 X-200.967 I-0.967 J0.
N8945 X-199.033 I0.967 J0.
N8950 G1 X-199.633
N8955 G0 Z5.
N8960 X-249.633
N8965 G1 Z2. F333.33
N8970 Z-2.1
N8975 X-249.033 F1000.
N8980 G3 X-250.967 I-0.967 J0.
N8985 X-249.033 I0.967 J0.
N8990 G1 X-249.633
N8995 G0 Z5.
N9000 X-249.655 Y50.126
N9005 G1 Z2. F333.33
N9010 Z-2.1
N9015 X-249.091 Y50.331 F1000.
N9020 G3 X-250.909 Y49.669 I-0.909 J-0.331
N9025 X-249.091 Y50.331 I0.909 J0.331
N9030 G1 X-249.655 Y50.126
N9035 G0 Z5.
N9040 X-250.367 Y100.
N9045 G1 Z2. F333.33
N9050 Z-2.1
N9055 X-250.967 F1000.
N9060 G3 X-250. Y99.033 I0.967 J0.
N9065 Y100.967 I0. J0.967
N9070 X-250.967 Y100. I0. J-0.967
N9075 G1 X-250.367
N9080 G0 Z5.
N9085 X-299.633
N9090 G1 Z2. F333.33
N9095 Z-2.1
N9100 X-299.033 F1000.
N9105 G3 X-300. Y100.967 I-0.967 J0.
N9110 Y99.033 I0. J-0.967
N9115 X-299.033 Y100. I0. J0.967
N9120 G1 X-299.633
N9125 G0 Z5.
N9130 X-299.655 Y150.125
N9135 G1 Z2. F333.33
N9140 Z-2.1
N9145 X-299.091 Y150.33 F1000.
N9150 G3 X-300. Y150.967 I-0.909 J-0.331
N9155 Y149.032 I0. J-0.967
N9160 X-299.091 Y150.33 I0. J0.967
N9165 G1 X-299.655 Y150.125
N9170 G0 Z5.
N9175 Y200.125
N9180 G1 Z2. F333.33
N9185 Z-2.1
N9190 X-299.091 Y200.33 F1000.
N9195 G3 X-300. Y200.967 I-0.909 J-0.331
N9200 Y199.032 I0. J-0.967
N9205 X-299.091 Y200.33 I0. J0.967
N9210 G1 X-299.655 Y200.125
N9215 G0 Z5.
N9220 X-299.633 Y250.
N9225 G1 Z2. F333.33
N9230 Z-2.1
N9235 X-299.033 F1000.
N9240 G3 X-300. Y250.967 I-0.967 J0.
N9245 Y249.032 I0. J-0.967
N9250 X-299.033 Y250. I0. J0.967
N9255 G1 X-299.633
N9260 G0 Z5.
N9265 Y300.
N9270 G1 Z2. F333.33
N9275 Z-2.1
N9280 X-299.033 F1000.
N9285 G3 X-300. Y300.967 I-0.967 J0.
N9290 Y299.032 I0. J-0.967
N9295 X-299.033 Y300. I0. J0.967
N9300 G1 X-299.633
N9305 G0 Z5.
N9310 X-250.368 Y299.988
N9315 G1 Z2. F333.33
N9320 Z-2.1
N9325 X-250.968 Y299.97 F1000.
N9330 G3 X-250. Y299.032 I0.968 J0.03
N9335 G1 Y299.632
N9340 G0 Z5.
N9345 X-249.632 Y300.012
N9350 G1 Z2. F333.33
N9355 Z-2.1
N9360 X-249.032 Y300.03 F1000.
N9365 G3 X-250.385 Y300.888 I-0.968 J-0.03
N9370 G1 X-250.146 Y300.338
N9375 G0 Z5.
N9380 X-200.368 Y299.988
N9385 G1 Z2. F333.33
N9390 Z-2.1
N9395 X-200.968 Y299.97 F1000.
N9400 G3 X-200. Y299.032 I0.968 J0.03
N9405 G1 Y299.632
N9410 G0 Z5.
N9415 X-199.632 Y300.012
N9420 G1 Z2. F333.33
N9425 Z-2.1
N9430 X-199.032 Y300.03 F1000.
N9435 G3 X-200.385 Y300.888 I-0.968 J-0.03
N9440 G1 X-200.146 Y300.338
N9445 G0 Z5.
N9450 X-150.368 Y299.988
N9455 G1 Z2. F333.33
N9460 Z-2.1
N9465 X-150.968 Y299.97 F1000.
N9470 G3 X-149.615 Y299.112 I0.968 J0.03
N9475 G1 X-149.854 Y299.662
N9480 G0 Z5.
N9485 X-149.632 Y300.012
N9490 G1 Z2. F333.33
N9495 Z-2.1
N9500 X-149.032 Y300.03 F1000.
N9505 G3 X-150.385 Y300.888 I-0.968 J-0.03
N9510 G1 X-150.146 Y300.338
N9515 G0 Z5.
N9520 X-100.368 Y299.988
N9525 G1 Z2. F333.33
N9530 Z-2.1
N9535 X-100.968 Y299.97 F1000.
N9540 G3 X-99.616 Y299.111 I0.968 J0.03
N9545 G1 X-99.854 Y299.662
N9550 G0 Z5.
N9555 X-99.632 Y300.012
N9560 G1 Z2. F333.33
N9565 Z-2.1
N9570 X-99.032 Y300.03 F1000.
N9575 G3 X-100.384 Y300.889 I-0.968 J-0.03
N9580 G1 X-100.146 Y300.338
N9585 G0 Z5.
N9590 X-50.368 Y299.988
N9595 G1 Z2. F333.33
N9600 Z-2.1
N9605 X-50.968 Y299.97 F1000.
N9610 G3 X-50. Y299.032 I0.968 J0.03
N9615 G1 Y299.632
N9620 G0 Z5.
N9625 X-49.632 Y300.012
N9630 G1 Z2. F333.33
N9635 Z-2.1
N9640 X-49.032 Y300.03 F1000.
N9645 G3 X-50.385 Y300.888 I-0.968 J-0.03
N9650 G1 X-50.146 Y300.338
N9655 G0 Z5.
N9660 X-0.368 Y299.988
N9665 G1 Z2. F333.33
N9670 Z-2.1
N9675 X-0.968 Y299.97 F1000.
N9680 G3 X0.385 Y299.112 I0.968 J0.03
N9685 G1 X0.146 Y299.662
N9690 G0 Z5.
N9695 X0.368 Y300.012
N9700 G1 Z2. F333.33
N9705 Z-2.1
N9710 X0.968 Y300.03 F1000.
N9715 G3 X-0.385 Y300.888 I-0.968 J-0.03
N9720 G1 X-0.146 Y300.338
N9725 G0 Z5.
N9730 X0.368 Y150.012
N9735 G1 Z2. F333.33
N9740 Z-2.1
N9745 X0.968 Y150.03 F1000.
N9750 G3 X0. Y150.968 I-0.968 J-0.03
N9755 G1 Y150.368
N9760 G0 Z5.
N9765 X-0.368 Y149.988
N9770 G1 Z2. F333.33
N9775 Z-2.1
N9780 X-0.968 Y149.97 F1000.
N9785 G3 X0.385 Y149.112 I0.968 J0.03
N9790 G1 X0.146 Y149.662
N9795 G0 Z5.
N9800 X49.632 Y149.988
N9805 G1 Z2. F333.33
N9810 Z-2.1
N9815 X49.032 Y149.97 F1000.
N9820 G3 X50.385 Y149.112 I0.968 J0.03
N9825 G1 X50.146 Y149.662
N9830 G0 Z5.
N9835 X50.368 Y150.012
N9840 G1 Z2. F333.33
N9845 Z-2.1
N9850 X50.968 Y150.03 F1000.
N9855 G3 X49.615 Y150.888 I-0.968 J-0.03
N9860 G1 X49.854 Y150.338
N9865 G0 Z5.
N9870 X99.632 Y149.988
N9875 G1 Z2. F333.33
N9880 Z-2.1
N9885 X99.032 Y149.97 F1000.
N9890 G3 X100.384 Y149.111 I0.968 J0.03
N9895 G1 X100.146 Y149.662
N9900 G0 Z5.
N9905 X100.368 Y150.012
N9910 G1 Z2. F333.33
N9915 Z-2.1
N9920 X100.968 Y150.03 F1000.
N9925 G3 X99.616 Y150.889 I-0.968 J-0.03
N9930 G1 X99.854 Y150.338
N9935 G0 Z5.
N9940 X150.367 Y150.011
N9945 G1 Z2. F333.33
N9950 Z-2.1
N9955 X150.967 Y150.027 F1000.
N9960 G3 X150. Y150.968 I-0.967 J-0.027
N9965 Y149.033 I0.001 J-0.967
N9970 X150.967 Y150.027 I-0.001 J0.967
N9975 G1 X150.367 Y150.011
N9980 G0 Z5.
N9985 X-49.632 Y150.012
N9990 G1 Z2. F333.33
N9995 Z-2.1
N10000 X-49.032 Y150.03 F1000.
N10005 G3 X-50.385 Y150.888 I-0.968 J-0.03
N10010 G1 X-50.146 Y150.338
N10015 G0 Z5.
N10020 X-50.368 Y149.988
N10025 G1 Z2. F333.33
N10030 Z-2.1
N10035 X-50.968 Y149.97 F1000.
N10040 G3 X-49.615 Y149.112 I0.968 J0.03
N10045 G1 X-49.854 Y149.662
N10050 G0 Z5.
N10055 X-299.633 Y50.
N10060 G1 Z2. F333.33
N10065 Z-2.1
N10070 X-299.033 F1000.
N10075 G3 X-300.967 I-0.967 J0.
N10080 X-299.033 I0.967 J0.
N10085 G1 X-299.633
N10090 G0 Z5.
N10095 Y0.
N10100 G1 Z2. F333.33
N10105 Z-2.1
N10110 X-299.033 F1000.
N10115 G3 X-300.967 I-0.967 J0.
N10120 X-299.033 I0.967 J0.
N10125 G1 X-299.633
N10130 G0 Z5.
N10135 Y350.
N10140 G1 Z2. F333.33
N10145 Z-2.1
N10150 X-299.033 F1000.
N10155 G3 X-300. Y350.967 I-0.967 J0.
N10160 Y349.032 I0. J-0.967
N10165 X-299.033 Y350. I0. J0.967
N10170 G1 X-299.633
N10175 G0 Z5.
N10180 Y399.989
N10185 G1 Z2. F333.33
N10190 Z-2.1
N10195 X-299.033 Y399.973 F1000.
N10200 G3 X-300. Y400.967 I-0.967 J0.027
N10205 Y399.032 I0. J-0.967
N10210 X-299.033 Y399.973 I0. J0.967
N10215 G1 X-299.633 Y399.989
N10220 G0 Z5.
N10225 Y450.
N10230 G1 Z2. F333.33
N10235 Z-2.1
N10240 X-299.033 F1000.
N10245 G3 X-300. Y450.967 I-0.967 J0.
N10250 Y449.032 I0. J-0.967
N10255 X-299.033 Y450. I0. J0.967
N10260 G1 X-299.633
N10265 G0 Z5.
N10270 X-300.368 Y649.989
N10275 G1 Z2. F333.33
N10280 Z-2.1
N10285 X-300.968 Y649.97 F1000.
N10290 G3 X-300. Y649.032 I0.968 J0.03
N10295 G1 Y649.632
N10300 G0 Z5.
N10305 X-299.632 Y650.011
N10310 G1 Z2. F333.33
N10315 Z-2.1
N10320 X-299.032 Y650.03 F1000.
N10325 G3 X-300.385 Y650.888 I-0.968 J-0.03
N10330 G1 X-300.146 Y650.338
N10335 G0 Z5.
N10340 X-250.368 Y649.988
N10345 G1 Z2. F333.33
N10350 Z-2.1
N10355 X-250.968 Y649.97 F1000.
N10360 G3 X-249.616 Y649.111 I0.968 J0.03
N10365 G1 X-249.854 Y649.662
N10370 G0 Z5.
N10375 X-249.632 Y650.012
N10380 G1 Z2. F333.33
N10385 Z-2.1
N10390 X-249.032 Y650.03 F1000.
N10395 G3 X-250.384 Y650.889 I-0.968 J-0.03
N10400 G1 X-250.146 Y650.338
N10405 G0 Z5.
N10410 X-200.368 Y649.988
N10415 G1 Z2. F333.33
N10420 Z-2.1
N10425 X-200.968 Y649.97 F1000.
N10430 G3 X-200. Y649.032 I0.968 J0.03
N10435 G1 Y649.632
N10440 G0 Z5.
N10445 X-199.632 Y650.012
N10450 G1 Z2. F333.33
N10455 Z-2.1
N10460 X-199.032 Y650.03 F1000.
N10465 G3 X-200.384 Y650.889 I-0.968 J-0.03
N10470 G1 X-200.146 Y650.338
N10475 G0 Z5.
N10480 X-150.368 Y649.988
N10485 G1 Z2. F333.33
N10490 Z-2.1
N10495 X-150.968 Y649.97 F1000.
N10500 G3 X-149.616 Y649.111 I0.968 J0.03
N10505 G1 X-149.854 Y649.662
N10510 G0 Z5.
N10515 X-149.632 Y650.012
N10520 G1 Z2. F333.33
N10525 Z-2.1
N10530 X-149.032 Y650.03 F1000.
N10535 G3 X-150.384 Y650.889 I-0.968 J-0.03
N10540 G1 X-150.146 Y650.338
N10545 G0 Z5.
N10550 X-100.368 Y649.988
N10555 G1 Z2. F333.33
N10560 Z-2.1
N10565 X-100.968 Y649.97 F1000.
N10570 G3 X-99.616 Y649.111 I0.968 J0.03
N10575 G1 X-99.854 Y649.662
N10580 G0 Z5.
N10585 X-99.632 Y650.012
N10590 G1 Z2. F333.33
N10595 Z-2.1
N10600 X-99.032 Y650.03 F1000.
N10605 G3 X-100.384 Y650.889 I-0.968 J-0.03
N10610 G1 X-100.146 Y650.338
N10615 G0 Z5.
N10620 X-50.368 Y649.988
N10625 G1 Z2. F333.33
N10630 Z-2.1
N10635 X-50.968 Y649.97 F1000.
N10640 G3 X-50. Y649.032 I0.968 J0.03
N10645 G1 Y649.632
N10650 G0 Z5.
N10655 X-49.632 Y650.012
N10660 G1 Z2. F333.33
N10665 Z-2.1
N10670 X-49.032 Y650.03 F1000.
N10675 G3 X-50.384 Y650.889 I-0.968 J-0.03
N10680 G1 X-50.146 Y650.338
N10685 G0 Z5.
N10690 X-0.368 Y649.988
N10695 G1 Z2. F333.33
N10700 Z-2.1
N10705 X-0.968 Y649.97 F1000.
N10710 G3 X0.384 Y649.111 I0.968 J0.03
N10715 G1 X0.146 Y649.662
N10720 G0 Z5.
N10725 X0.368 Y650.012
N10730 G1 Z2. F333.33
N10735 Z-2.1
N10740 X0.968 Y650.03 F1000.
N10745 G3 X-0.384 Y650.889 I-0.968 J-0.03
N10750 G1 X-0.146 Y650.338
N10755 G0 Z5.
N10760 X49.632 Y649.988
N10765 G1 Z2. F333.33
N10770 Z-2.1
N10775 X49.032 Y649.97 F1000.
N10780 G3 X50.384 Y649.111 I0.968 J0.03
N10785 G1 X50.146 Y649.662
N10790 G0 Z5.
N10795 X50.368 Y650.012
N10800 G1 Z2. F333.33
N10805 Z-2.1
N10810 X50.968 Y650.03 F1000.
N10815 G3 X50. Y650.968 I-0.968 J-0.03
N10820 G1 Y650.368
N10825 G0 Z5.
N10830 X99.632 Y649.988
N10835 G1 Z2. F333.33
N10840 Z-2.1
N10845 X99.032 Y649.97 F1000.
N10850 G3 X100.384 Y649.111 I0.968 J0.03
N10855 G1 X100.146 Y649.662
N10860 G0 Z5.
N10865 X100.368 Y650.012
N10870 G1 Z2. F333.33
N10875 Z-2.1
N10880 X100.968 Y650.03 F1000.
N10885 G3 X100. Y650.968 I-0.968 J-0.03
N10890 G1 Y650.368
N10895 G0 Z5.
N10900 X149.632 Y649.988
N10905 G1 Z2. F333.33
N10910 Z-2.1
N10915 X149.032 Y649.97 F1000.
N10920 G3 X150.384 Y649.111 I0.968 J0.03
N10925 G1 X150.146 Y649.662
N10930 G0 Z5.
N10935 X150.368 Y650.012
N10940 G1 Z2. F333.33
N10945 Z-2.1
N10950 X150.968 Y650.03 F1000.
N10955 G3 X150. Y650.968 I-0.968 J-0.03
N10960 G1 Y650.368
N10965 G0 Z5.
N10970 X199.632 Y649.988
N10975 G1 Z2. F333.33
N10980 Z-2.1
N10985 X199.032 Y649.97 F1000.
N10990 G3 X200.384 Y649.111 I0.968 J0.03
N10995 G1 X200.146 Y649.662
N11000 G0 Z5.
N11005 X200.368 Y650.012
N11010 G1 Z2. F333.33
N11015 Z-2.1
N11020 X200.968 Y650.03 F1000.
N11025 G3 X199.616 Y650.889 I-0.968 J-0.03
N11030 G1 X199.854 Y650.338
N11035 G0 Z5.
N11040 X249.632 Y649.988
N11045 G1 Z2. F333.33
N11050 Z-2.1
N11055 X249.032 Y649.97 F1000.
N11060 G3 X250.384 Y649.111 I0.968 J0.03
N11065 G1 X250.146 Y649.662
N11070 G0 Z5.
N11075 X250.368 Y650.012
N11080 G1 Z2. F333.33
N11085 Z-2.1
N11090 X250.968 Y650.03 F1000.
N11095 G3 X249.616 Y650.889 I-0.968 J-0.03
N11100 G1 X249.854 Y650.338
N11105 G0 Z5.
N11110 X299.632 Y649.989
N11115 G1 Z2. F333.33
N11120 Z-2.1
N11125 X299.032 Y649.97 F1000.
N11130 G3 X300. Y649.032 I0.968 J0.03
N11135 G1 Y649.632
N11140 G0 Z5.
N11145 X300.368 Y650.011
N11150 G1 Z2. F333.33
N11155 Z-2.1
N11160 X300.968 Y650.03 F1000.
N11165 G3 X299.615 Y650.888 I-0.968 J-0.03
N11170 G1 X299.854 Y650.338
N11175 G0 Z5.
N11180 X299.632 Y699.989
N11185 G1 Z2. F333.33
N11190 Z-2.1
N11195 X299.032 Y699.97 F1000.
N11200 G3 X300.385 Y699.112 I0.968 J0.03
N11205 G1 X300.146 Y699.662
N11210 G0 Z5.
N11215 X300.368 Y700.011
N11220 G1 Z2. F333.33
N11225 Z-2.1
N11230 X300.968 Y700.03 F1000.
N11235 G3 X300. Y700.968 I-0.968 J-0.03
N11240 G1 Y700.368
N11245 G0 Z5.
N11250 X250.368 Y700.012
N11255 G1 Z2. F333.33
N11260 Z-2.1
N11265 X250.968 Y700.03 F1000.
N11270 G3 X249.616 Y700.889 I-0.968 J-0.03
N11275 G1 X249.854 Y700.338
N11280 G0 Z5.
N11285 X249.632 Y699.988
N11290 G1 Z2. F333.33
N11295 Z-2.1
N11300 X249.032 Y699.97 F1000.
N11305 G3 X250.384 Y699.111 I0.968 J0.03
N11310 G1 X250.146 Y699.662
N11315 G0 Z5.
N11320 X200.368 Y700.012
N11325 G1 Z2. F333.33
N11330 Z-2.1
N11335 X200.968 Y700.03 F1000.
N11340 G3 X200. Y700.968 I-0.968 J-0.03
N11345 G1 Y700.368
N11350 G0 Z5.
N11355 X199.632 Y699.988
N11360 G1 Z2. F333.33
N11365 Z-2.1
N11370 X199.032 Y699.97 F1000.
N11375 G3 X200.384 Y699.111 I0.968 J0.03
N11380 G1 X200.146 Y699.662
N11385 G0 Z5.
N11390 X150.368 Y700.012
N11395 G1 Z2. F333.33
N11400 Z-2.1
N11405 X150.968 Y700.03 F1000.
N11410 G3 X149.616 Y700.889 I-0.968 J-0.03
N11415 G1 X149.854 Y700.338
N11420 G0 Z5.
N11425 X149.632 Y699.988
N11430 G1 Z2. F333.33
N11435 Z-2.1
N11440 X149.032 Y699.97 F1000.
N11445 G3 X150.384 Y699.111 I0.968 J0.03
N11450 G1 X150.146 Y699.662
N11455 G0 Z5.
N11460 X100.368 Y700.012
N11465 G1 Z2. F333.33
N11470 Z-2.1
N11475 X100.968 Y700.03 F1000.
N11480 G3 X99.616 Y700.889 I-0.968 J-0.03
N11485 G1 X99.854 Y700.338
N11490 G0 Z5.
N11495 X99.632 Y699.988
N11500 G1 Z2. F333.33
N11505 Z-2.1
N11510 X99.032 Y699.97 F1000.
N11515 G3 X100.384 Y699.111 I0.968 J0.03
N11520 G1 X100.146 Y699.662
N11525 G0 Z5.
N11530 X50.368 Y700.012
N11535 G1 Z2. F333.33
N11540 Z-2.1
N11545 X50.968 Y700.03 F1000.
N11550 G3 X49.616 Y700.889 I-0.968 J-0.03
N11555 G1 X49.854 Y700.338
N11560 G0 Z5.
N11565 X49.632 Y699.988
N11570 G1 Z2. F333.33
N11575 Z-2.1
N11580 X49.032 Y699.97 F1000.
N11585 G3 X50.384 Y699.111 I0.968 J0.03
N11590 G1 X50.146 Y699.662
N11595 G0 Z5.
N11600 X0.368 Y700.012
N11605 G1 Z2. F333.33
N11610 Z-2.1
N11615 X0.968 Y700.03 F1000.
N11620 G3 X0. Y700.968 I-0.968 J-0.03
N11625 G1 Y700.368
N11630 G0 Z5.
N11635 X-0.368 Y699.988
N11640 G1 Z2. F333.33
N11645 Z-2.1
N11650 X-0.968 Y699.97 F1000.
N11655 G3 X0.384 Y699.111 I0.968 J0.03
N11660 G1 X0.146 Y699.662
N11665 G0 Z5.
N11670 X-49.632 Y700.012
N11675 G1 Z2. F333.33
N11680 Z-2.1
N11685 X-49.032 Y700.03 F1000.
N11690 G3 X-50.384 Y700.889 I-0.968 J-0.03
N11695 G1 X-50.146 Y700.338
N11700 G0 Z5.
N11705 X-50.368 Y699.988
N11710 G1 Z2. F333.33
N11715 Z-2.1
N11720 X-50.968 Y699.97 F1000.
N11725 G3 X-50. Y699.032 I0.968 J0.03
N11730 G1 Y699.632
N11735 G0 Z5.
N11740 X-99.632 Y700.012
N11745 G1 Z2. F333.33
N11750 Z-2.1
N11755 X-99.032 Y700.03 F1000.
N11760 G3 X-100. Y700.968 I-0.968 J-0.03
N11765 G1 Y700.368
N11770 G0 Z5.
N11775 X-100.368 Y699.988
N11780 G1 Z2. F333.33
N11785 Z-2.1
N11790 X-100.968 Y699.97 F1000.
N11795 G3 X-99.616 Y699.111 I0.968 J0.03
N11800 G1 X-99.854 Y699.662
N11805 G0 Z5.
N11810 X-149.632 Y700.012
N11815 G1 Z2. F333.33
N11820 Z-2.1
N11825 X-149.032 Y700.03 F1000.
N11830 G3 X-150.384 Y700.889 I-0.968 J-0.03
N11835 G1 X-150.146 Y700.338
N11840 G0 Z5.
N11845 X-150.368 Y699.988
N11850 G1 Z2. F333.33
N11855 Z-2.1
N11860 X-150.968 Y699.97 F1000.
N11865 G3 X-150. Y699.032 I0.968 J0.03
N11870 G1 Y699.632
N11875 G0 Z5.
N11880 X-199.632 Y700.012
N11885 G1 Z2. F333.33
N11890 Z-2.1
N11895 X-199.032 Y700.03 F1000.
N11900 G3 X-200.384 Y700.889 I-0.968 J-0.03
N11905 G1 X-200.146 Y700.338
N11910 G0 Z5.
N11915 X-200.368 Y699.988
N11920 G1 Z2. F333.33
N11925 Z-2.1
N11930 X-200.968 Y699.97 F1000.
N11935 G3 X-199.616 Y699.111 I0.968 J0.03
N11940 G1 X-199.854 Y699.662
N11945 G0 Z5.
N11950 X-249.632 Y700.012
N11955 G1 Z2. F333.33
N11960 Z-2.1
N11965 X-249.032 Y700.03 F1000.
N11970 G3 X-250.384 Y700.889 I-0.968 J-0.03
N11975 G1 X-250.146 Y700.338
N11980 G0 Z5.
N11985 X-250.368 Y699.988
N11990 G1 Z2. F333.33
N11995 Z-2.1
N12000 X-250.968 Y699.97 F1000.
N12005 G3 X-249.616 Y699.111 I0.968 J0.03
N12010 G1 X-249.854 Y699.662
N12015 G0 Z5.
N12020 X-299.632 Y700.011
N12025 G1 Z2. F333.33
N12030 Z-2.1
N12035 X-299.032 Y700.03 F1000.
N12040 G3 X-300.385 Y700.888 I-0.968 J-0.03
N12045 G1 X-300.146 Y700.338
N12050 G0 Z5.
N12055 X-300.368 Y699.989
N12060 G1 Z2. F333.33
N12065 Z-2.1
N12070 X-300.968 Y699.97 F1000.
N12075 G3 X-300. Y699.032 I0.968 J0.03
N12080 G1 Y699.632
N12085 G0 Z5.
N12090 X-300.368 Y749.989
N12095 G1 Z2. F333.33
N12100 Z-2.1
N12105 X-300.968 Y749.97 F1000.
N12110 G3 X-300. Y749.032 I0.968 J0.03
N12115 G1 Y749.632
N12120 G0 Z5.
N12125 X-299.632 Y750.011
N12130 G1 Z2. F333.33
N12135 Z-2.1
N12140 X-299.032 Y750.03 F1000.
N12145 G3 X-300.385 Y750.888 I-0.968 J-0.03
N12150 G1 X-300.146 Y750.338
N12155 G0 Z5.
N12160 X-250.368 Y749.988
N12165 G1 Z2. F333.33
N12170 Z-2.1
N12175 X-250.968 Y749.97 F1000.
N12180 G3 X-249.616 Y749.111 I0.968 J0.03
N12185 G1 X-249.854 Y749.662
N12190 G0 Z5.
N12195 X-249.632 Y750.012
N12200 G1 Z2. F333.33
N12205 Z-2.1
N12210 X-249.032 Y750.03 F1000.
N12215 G3 X-250. Y750.968 I-0.968 J-0.03
N12220 G1 Y750.368
N12225 G0 Z5.
N12230 X-200.368 Y749.988
N12235 G1 Z2. F333.33
N12240 Z-2.1
N12245 X-200.968 Y749.97 F1000.
N12250 G3 X-199.616 Y749.111 I0.968 J0.03
N12255 G1 X-199.854 Y749.662
N12260 G0 Z5.
N12265 X-199.632 Y750.012
N12270 G1 Z2. F333.33
N12275 Z-2.1
N12280 X-199.032 Y750.03 F1000.
N12285 G3 X-200.384 Y750.889 I-0.968 J-0.03
N12290 G1 X-200.146 Y750.338
N12295 G0 Z5.
N12300 X-150.368 Y749.988
N12305 G1 Z2. F333.33
N12310 Z-2.1
N12315 X-150.968 Y749.97 F1000.
N12320 G3 X-149.616 Y749.111 I0.968 J0.03
N12325 G1 X-149.854 Y749.662
N12330 G0 Z5.
N12335 X-149.632 Y750.012
N12340 G1 Z2. F333.33
N12345 Z-2.1
N12350 X-149.032 Y750.03 F1000.
N12355 G3 X-150.384 Y750.889 I-0.968 J-0.03
N12360 G1 X-150.146 Y750.338
N12365 G0 Z5.
N12370 X-100.368 Y749.988
N12375 G1 Z2. F333.33
N12380 Z-2.1
N12385 X-100.968 Y749.97 F1000.
N12390 G3 X-99.616 Y749.111 I0.968 J0.03
N12395 G1 X-99.854 Y749.662
N12400 G0 Z5.
N12405 X-99.632 Y750.012
N12410 G1 Z2. F333.33
N12415 Z-2.1
N12420 X-99.032 Y750.03 F1000.
N12425 G3 X-100. Y750.968 I-0.968 J-0.03
N12430 G1 Y750.368
N12435 G0 Z5.
N12440 X-50.368 Y749.988
N12445 G1 Z2. F333.33
N12450 Z-2.1
N12455 X-50.968 Y749.97 F1000.
N12460 G3 X-49.616 Y749.111 I0.968 J0.03
N12465 G1 X-49.854 Y749.662
N12470 G0 Z5.
N12475 X-49.632 Y750.012
N12480 G1 Z2. F333.33
N12485 Z-2.1
N12490 X-49.032 Y750.03 F1000.
N12495 G3 X-50.384 Y750.889 I-0.968 J-0.03
N12500 G1 X-50.146 Y750.338
N12505 G0 Z5.
N12510 X-0.368 Y749.988
N12515 G1 Z2. F333.33
N12520 Z-2.1
N12525 X-0.968 Y749.97 F1000.
N12530 G3 X0. Y749.032 I0.968 J0.03
N12535 G1 Y749.632
N12540 G0 Z5.
N12545 X0.368 Y750.012
N12550 G1 Z2. F333.33
N12555 Z-2.1
N12560 X0.968 Y750.03 F1000.
N12565 G3 X-0.384 Y750.889 I-0.968 J-0.03
N12570 G1 X-0.146 Y750.338
N12575 G0 Z5.
N12580 X49.632 Y749.988
N12585 G1 Z2. F333.33
N12590 Z-2.1
N12595 X49.032 Y749.97 F1000.
N12600 G3 X50.384 Y749.111 I0.968 J0.03
N12605 G1 X50.146 Y749.662
N12610 G0 Z5.
N12615 X50.368 Y750.012
N12620 G1 Z2. F333.33
N12625 Z-2.1
N12630 X50.968 Y750.03 F1000.
N12635 G3 X49.616 Y750.889 I-0.968 J-0.03
N12640 G1 X49.854 Y750.338
N12645 G0 Z5.
N12650 X99.632 Y749.988
N12655 G1 Z2. F333.33
N12660 Z-2.1
N12665 X99.032 Y749.97 F1000.
N12670 G3 X100.384 Y749.111 I0.968 J0.03
N12675 G1 X100.146 Y749.662
N12680 G0 Z5.
N12685 X100.368 Y750.012
N12690 G1 Z2. F333.33
N12695 Z-2.1
N12700 X100.968 Y750.03 F1000.
N12705 G3 X99.616 Y750.889 I-0.968 J-0.03
N12710 G1 X99.854 Y750.338
N12715 G0 Z5.
N12720 X149.632 Y749.988
N12725 G1 Z2. F333.33
N12730 Z-2.1
N12735 X149.032 Y749.97 F1000.
N12740 G3 X150.384 Y749.111 I0.968 J0.03
N12745 G1 X150.146 Y749.662
N12750 G0 Z5.
N12755 X150.368 Y750.012
N12760 G1 Z2. F333.33
N12765 Z-2.1
N12770 X150.968 Y750.03 F1000.
N12775 G3 X150. Y750.968 I-0.968 J-0.03
N12780 G1 Y750.368
N12785 G0 Z5.
N12790 X199.632 Y749.988
N12795 G1 Z2. F333.33
N12800 Z-2.1
N12805 X199.032 Y749.97 F1000.
N12810 G3 X200.384 Y749.111 I0.968 J0.03
N12815 G1 X200.146 Y749.662
N12820 G0 Z5.
N12825 X200.368 Y750.012
N12830 G1 Z2. F333.33
N12835 Z-2.1
N12840 X200.968 Y750.03 F1000.
N12845 G3 X199.616 Y750.889 I-0.968 J-0.03
N12850 G1 X199.854 Y750.338
N12855 G0 Z5.
N12860 X249.632 Y749.988
N12865 G1 Z2. F333.33
N12870 Z-2.1
N12875 X249.032 Y749.97 F1000.
N12880 G3 X250. Y749.032 I0.968 J0.03
N12885 G1 Y749.632
N12890 G0 Z5.
N12895 X250.368 Y750.012
N12900 G1 Z2. F333.33
N12905 Z-2.1
N12910 X250.968 Y750.03 F1000.
N12915 G3 X249.616 Y750.889 I-0.968 J-0.03
N12920 G1 X249.854 Y750.338
N12925 G0 Z5.
N12930 X299.632 Y749.989
N12935 G1 Z2. F333.33
N12940 Z-2.1
N12945 X299.032 Y749.97 F1000.
N12950 G3 X300.385 Y749.112 I0.968 J0.03
N12955 G1 X300.146 Y749.662
N12960 G0 Z5.
N12965 X300.368 Y750.011
N12970 G1 Z2. F333.33
N12975 Z-2.1
N12980 X300.968 Y750.03 F1000.
N12985 G3 X300. Y750.968 I-0.968 J-0.03
N12990 G1 Y750.368
N12995 G0 Z15.
N13000 M5
N13005 G53 Z0.
(DRILL6)
N13010 M9
N13015 M1
N13020 T14 M6
N13025 T12
N13030 S17000 M3
N13035 G54
N13040 M8
N13045 G0 X-300. Y250.
N13050 G43 Z15. H14
N13055 G0 Z5.
N13060 G1 Z0. F800.
N13065 Z-10.5
N13070 X-299.4
N13075 G3 X-300.6 Z-10. I-0.6 J0.
N13080 X-299.4 Z-9.5 I0.6 J0.
N13085 X-300.6 Z-9. I-0.6 J0.
N13090 X-299.4 Z-8.5 I0.6 J0.
N13095 X-300.6 Z-8. I-0.6 J0.
N13100 X-299.4 Z-7.5 I0.6 J0.
N13105 X-300.6 Z-7. I-0.6 J0.
N13110 X-299.4 Z-6.5 I0.6 J0.
N13115 X-300.6 Z-6. I-0.6 J0.
N13120 X-299.4 Z-5.5 I0.6 J0.
N13125 X-300.6 Z-5. I-0.6 J0.
N13130 X-299.4 Z-4.5 I0.6 J0.
N13135 X-300.6 Z-4. I-0.6 J0.
N13140 X-299.4 Z-3.5 I0.6 J0.
N13145 X-300.6 Z-3. I-0.6 J0.
N13150 X-299.4 Z-2.5 I0.6 J0.
N13155 X-300.6 Z-2. I-0.6 J0.
N13160 X-299.4 Z-1.5 I0.6 J0.
N13165 X-300.6 Z-1. I-0.6 J0.
N13170 X-299.4 Z-0.5 I0.6 J0.
N13175 X-300.6 Z0. I-0.6 J0.
N13180 G1 X-300.
N13185 G0 Z5.
N13190 X-250.
N13195 G1 Z0. F800.
N13200 Z-10.5
N13205 X-249.4
N13210 G3 X-250.6 Z-10. I-0.6 J0.
N13215 X-249.4 Z-9.5 I0.6 J0.
N13220 X-250.6 Z-9. I-0.6 J0.
N13225 X-249.4 Z-8.5 I0.6 J0.
N13230 X-250.6 Z-8. I-0.6 J0.
N13235 X-249.4 Z-7.5 I0.6 J0.
N13240 X-250.6 Z-7. I-0.6 J0.
N13245 X-249.4 Z-6.5 I0.6 J0.
N13250 X-250.6 Z-6. I-0.6 J0.
N13255 X-249.4 Z-5.5 I0.6 J0.
N13260 X-250.6 Z-5. I-0.6 J0.
N13265 X-249.4 Z-4.5 I0.6 J0.
N13270 X-250.6 Z-4. I-0.6 J0.
N13275 X-249.4 Z-3.5 I0.6 J0.
N13280 X-250.6 Z-3. I-0.6 J0.
N13285 X-249.4 Z-2.5 I0.6 J0.
N13290 X-250.6 Z-2. I-0.6 J0.
N13295 X-249.4 Z-1.5 I0.6 J0.
N13300 X-250.6 Z-1. I-0.6 J0.
N13305 X-249.4 Z-0.5 I0.6 J0.
N13310 X-250.6 Z0. I-0.6 J0.
N13315 G1 X-250.
N13320 G0 Z5.
N13325 X-200.
N13330 G1 Z0. F800.
N13335 Z-10.5
N13340 X-199.4
N13345 G3 X-200.6 Z-10. I-0.6 J0.
N13350 X-199.4 Z-9.5 I0.6 J0.
N13355 X-200.6 Z-9. I-0.6 J0.
N13360 X-199.4 Z-8.5 I0.6 J0.
N13365 X-200.6 Z-8. I-0.6 J0.
N13370 X-199.4 Z-7.5 I0.6 J0.
N13375 X-200.6 Z-7. I-0.6 J0.
N13380 X-199.4 Z-6.5 I0.6 J0.
N13385 X-200.6 Z-6. I-0.6 J0.
N13390 X-199.4 Z-5.5 I0.6 J0.
N13395 X-200.6 Z-5. I-0.6 J0.
N13400 X-199.4 Z-4.5 I0.6 J0.
N13405 X-200.6 Z-4. I-0.6 J0.
N13410 X-199.4 Z-3.5 I0.6 J0.
N13415 X-200.6 Z-3. I-0.6 J0.
N13420 X-199.4 Z-2.5 I0.6 J0.
N13425 X-200.6 Z-2. I-0.6 J0.
N13430 X-199.4 Z-1.5 I0.6 J0.
N13435 X-200.6 Z-1. I-0.6 J0.
N13440 X-199.4 Z-0.5 I0.6 J0.
N13445 X-200.6 Z0. I-0.6 J0.
N13450 G1 X-200.
N13455 G0 Z5.
N13460 X-150.
N13465 G1 Z0. F800.
N13470 Z-10.5
N13475 X-149.4
N13480 G3 X-150.6 Z-10. I-0.6 J0.
N13485 X-149.4 Z-9.5 I0.6 J0.
N13490 X-150.6 Z-9. I-0.6 J0.
N13495 X-149.4 Z-8.5 I0.6 J0.
N13500 X-150.6 Z-8. I-0.6 J0.
N13505 X-149.4 Z-7.5 I0.6 J0.
N13510 X-150.6 Z-7. I-0.6 J0.
N13515 X-149.4 Z-6.5 I0.6 J0.
N13520 X-150.6 Z-6. I-0.6 J0.
N13525 X-149.4 Z-5.5 I0.6 J0.
N13530 X-150.6 Z-5. I-0.6 J0.
N13535 X-149.4 Z-4.5 I0.6 J0.
N13540 X-150.6 Z-4. I-0.6 J0.
N13545 X-149.4 Z-3.5 I0.6 J0.
N13550 X-150.6 Z-3. I-0.6 J0.
N13555 X-149.4 Z-2.5 I0.6 J0.
N13560 X-150.6 Z-2. I-0.6 J0.
N13565 X-149.4 Z-1.5 I0.6 J0.
N13570 X-150.6 Z-1. I-0.6 J0.
N13575 X-149.4 Z-0.5 I0.6 J0.
N13580 X-150.6 Z0. I-0.6 J0.
N13585 G1 X-150.
N13590 G0 Z5.
N13595 X-100.
N13600 G1 Z0. F800.
N13605 Z-10.5
N13610 X-99.4
N13615 G3 X-100.6 Z-10. I-0.6 J0.
N13620 X-99.4 Z-9.5 I0.6 J0.
N13625 X-100.6 Z-9. I-0.6 J0.
N13630 X-99.4 Z-8.5 I0.6 J0.
N13635 X-100.6 Z-8. I-0.6 J0.
N13640 X-99.4 Z-7.5 I0.6 J0.
N13645 X-100.6 Z-7. I-0.6 J0.
N13650 X-99.4 Z-6.5 I0.6 J0.
N13655 X-100.6 Z-6. I-0.6 J0.
N13660 X-99.4 Z-5.5 I0.6 J0.
N13665 X-100.6 Z-5. I-0.6 J0.
N13670 X-99.4 Z-4.5 I0.6 J0.
N13675 X-100.6 Z-4. I-0.6 J0.
N13680 X-99.4 Z-3.5 I0.6 J0.
N13685 X-100.6 Z-3. I-0.6 J0.
N13690 X-99.4 Z-2.5 I0.6 J0.
N13695 X-100.6 Z-2. I-0.6 J0.
N13700 X-99.4 Z-1.5 I0.6 J0.
N13705 X-100.6 Z-1. I-0.6 J0.
N13710 X-99.4 Z-0.5 I0.6 J0.
N13715 X-100.6 Z0. I-0.6 J0.
N13720 G1 X-100.
N13725 G0 Z5.
N13730 X-50.
N13735 G1 Z0. F800.
N13740 Z-10.5
N13745 X-49.4
N13750 G3 X-50.6 Z-10. I-0.6 J0.
N13755 X-49.4 Z-9.5 I0.6 J0.
N13760 X-50.6 Z-9. I-0.6 J0.
N13765 X-49.4 Z-8.5 I0.6 J0.
N13770 X-50.6 Z-8. I-0.6 J0.
N13775 X-49.4 Z-7.5 I0.6 J0.
N13780 X-50.6 Z-7. I-0.6 J0.
N13785 X-49.4 Z-6.5 I0.6 J0.
N13790 X-50.6 Z-6. I-0.6 J0.
N13795 X-49.4 Z-5.5 I0.6 J0.
N13800 X-50.6 Z-5. I-0.6 J0.
N13805 X-49.4 Z-4.5 I0.6 J0.
N13810 X-50.6 Z-4. I-0.6 J0.
N13815 X-49.4 Z-3.5 I0.6 J0.
N13820 X-50.6 Z-3. I-0.6 J0.
N13825 X-49.4 Z-2.5 I0.6 J0.
N13830 X-50.6 Z-2. I-0.6 J0.
N13835 X-49.4 Z-1.5 I0.6 J0.
N13840 X-50.6 Z-1. I-0.6 J0.
N13845 X-49.4 Z-0.5 I0.6 J0.
N13850 X-50.6 Z0. I-0.6 J0.
N13855 G1 X-50.
N13860 G0 Z5.
N13865 X0.
N13870 G1 Z0. F800.
N13875 Z-10.5
N13880 X0.6
N13885 G3 X-0.6 Z-10. I-0.6 J0.
N13890 X0.6 Z-9.5 I0.6 J0.
N13895 X-0.6 Z-9. I-0.6 J0.
N13900 X0.6 Z-8.5 I0.6 J0.
N13905 X-0.6 Z-8. I-0.6 J0.
N13910 X0.6 Z-7.5 I0.6 J0.
N13915 X-0.6 Z-7. I-0.6 J0.
N13920 X0.6 Z-6.5 I0.6 J0.
N13925 X-0.6 Z-6. I-0.6 J0.
N13930 X0.6 Z-5.5 I0.6 J0.
N13935 X-0.6 Z-5. I-0.6 J0.
N13940 X0.6 Z-4.5 I0.6 J0.
N13945 X-0.6 Z-4. I-0.6 J0.
N13950 X0.6 Z-3.5 I0.6 J0.
N13955 X-0.6 Z-3. I-0.6 J0.
N13960 X0.6 Z-2.5 I0.6 J0.
N13965 X-0.6 Z-2. I-0.6 J0.
N13970 X0.6 Z-1.5 I0.6 J0.
N13975 X-0.6 Z-1. I-0.6 J0.
N13980 X0.6 Z-0.5 I0.6 J0.
N13985 X-0.6 Z0. I-0.6 J0.
N13990 G1 X0.
N13995 G0 Z5.
N14000 X50.
N14005 G1 Z0. F800.
N14010 Z-10.5
N14015 X50.6
N14020 G3 X49.4 Z-10. I-0.6 J0.
N14025 X50.6 Z-9.5 I0.6 J0.
N14030 X49.4 Z-9. I-0.6 J0.
N14035 X50.6 Z-8.5 I0.6 J0.
N14040 X49.4 Z-8. I-0.6 J0.
N14045 X50.6 Z-7.5 I0.6 J0.
N14050 X49.4 Z-7. I-0.6 J0.
N14055 X50.6 Z-6.5 I0.6 J0.
N14060 X49.4 Z-6. I-0.6 J0.
N14065 X50.6 Z-5.5 I0.6 J0.
N14070 X49.4 Z-5. I-0.6 J0.
N14075 X50.6 Z-4.5 I0.6 J0.
N14080 X49.4 Z-4. I-0.6 J0.
N14085 X50.6 Z-3.5 I0.6 J0.
N14090 X49.4 Z-3. I-0.6 J0.
N14095 X50.6 Z-2.5 I0.6 J0.
N14100 X49.4 Z-2. I-0.6 J0.
N14105 X50.6 Z-1.5 I0.6 J0.
N14110 X49.4 Z-1. I-0.6 J0.
N14115 X50.6 Z-0.5 I0.6 J0.
N14120 X49.4 Z0. I-0.6 J0.
N14125 G1 X50.
N14130 G0 Z5.
N14135 X100.
N14140 G1 Z0. F800.
N14145 Z-10.5
N14150 X100.6
N14155 G3 X99.4 Z-10. I-0.6 J0.
N14160 X100.6 Z-9.5 I0.6 J0.
N14165 X99.4 Z-9. I-0.6 J0.
N14170 X100.6 Z-8.5 I0.6 J0.
N14175 X99.4 Z-8. I-0.6 J0.
N14180 X100.6 Z-7.5 I0.6 J0.
N14185 X99.4 Z-7. I-0.6 J0.
N14190 X100.6 Z-6.5 I0.6 J0.
N14195 X99.4 Z-6. I-0.6 J0.
N14200 X100.6 Z-5.5 I0.6 J0.
N14205 X99.4 Z-5. I-0.6 J0.
N14210 X100.6 Z-4.5 I0.6 J0.
N14215 X99.4 Z-4. I-0.6 J0.
N14220 X100.6 Z-3.5 I0.6 J0.
N14225 X99.4 Z-3. I-0.6 J0.
N14230 X100.6 Z-2.5 I0.6 J0.
N14235 X99.4 Z-2. I-0.6 J0.
N14240 X100.6 Z-1.5 I0.6 J0.
N14245 X99.4 Z-1. I-0.6 J0.
N14250 X100.6 Z-0.5 I0.6 J0.
N14255 X99.4 Z0. I-0.6 J0.
N14260 G1 X100.
N14265 G0 Z5.
N14270 X150.
N14275 G1 Z0. F800.
N14280 Z-10.5
N14285 X150.6
N14290 G3 X149.4 Z-10. I-0.6 J0.
N14295 X150.6 Z-9.5 I0.6 J0.
N14300 X149.4 Z-9. I-0.6 J0.
N14305 X150.6 Z-8.5 I0.6 J0.
N14310 X149.4 Z-8. I-0.6 J0.
N14315 X150.6 Z-7.5 I0.6 J0.
N14320 X149.4 Z-7. I-0.6 J0.
N14325 X150.6 Z-6.5 I0.6 J0.
N14330 X149.4 Z-6. I-0.6 J0.
N14335 X150.6 Z-5.5 I0.6 J0.
N14340 X149.4 Z-5. I-0.6 J0.
N14345 X150.6 Z-4.5 I0.6 J0.
N14350 X149.4 Z-4. I-0.6 J0.
N14355 X150.6 Z-3.5 I0.6 J0.
N14360 X149.4 Z-3. I-0.6 J0.
N14365 X150.6 Z-2.5 I0.6 J0.
N14370 X149.4 Z-2. I-0.6 J0.
N14375 X150.6 Z-1.5 I0.6 J0.
N14380 X149.4 Z-1. I-0.6 J0.
N14385 X150.6 Z-0.5 I0.6 J0.
N14390 X149.4 Z0. I-0.6 J0.
N14395 G1 X150.
N14400 G0 Z5.
N14405 X200.
N14410 G1 Z0. F800.
N14415 Z-10.5
N14420 X200.6
N14425 G3 X199.4 Z-10. I-0.6 J0.
N14430 X200.6 Z-9.5 I0.6 J0.
N14435 X199.4 Z-9. I-0.6 J0.
N14440 X200.6 Z-8.5 I0.6 J0.
N14445 X199.4 Z-8. I-0.6 J0.
N14450 X200.6 Z-7.5 I0.6 J0.
N14455 X199.4 Z-7. I-0.6 J0.
N14460 X200.6 Z-6.5 I0.6 J0.
N14465 X199.4 Z-6. I-0.6 J0.
N14470 X200.6 Z-5.5 I0.6 J0.
N14475 X199.4 Z-5. I-0.6 J0.
N14480 X200.6 Z-4.5 I0.6 J0.
N14485 X199.4 Z-4. I-0.6 J0.
N14490 X200.6 Z-3.5 I0.6 J0.
N14495 X199.4 Z-3. I-0.6 J0.
N14500 X200.6 Z-2.5 I0.6 J0.
N14505 X199.4 Z-2. I-0.6 J0.
N14510 X200.6 Z-1.5 I0.6 J0.
N14515 X199.4 Z-1. I-0.6 J0.
N14520 X200.6 Z-0.5 I0.6 J0.
N14525 X199.4 Z0. I-0.6 J0.
N14530 G1 X200.
N14535 G0 Z5.
N14540 X250.
N14545 G1 Z0. F800.
N14550 Z-10.5
N14555 X250.6
N14560 G3 X249.4 Z-10. I-0.6 J0.
N14565 X250.6 Z-9.5 I0.6 J0.
N14570 X249.4 Z-9. I-0.6 J0.
N14575 X250.6 Z-8.5 I0.6 J0.
N14580 X249.4 Z-8. I-0.6 J0.
N14585 X250.6 Z-7.5 I0.6 J0.
N14590 X249.4 Z-7. I-0.6 J0.
N14595 X250.6 Z-6.5 I0.6 J0.
N14600 X249.4 Z-6. I-0.6 J0.
N14605 X250.6 Z-5.5 I0.6 J0.
N14610 X249.4 Z-5. I-0.6 J0.
N14615 X250.6 Z-4.5 I0.6 J0.
N14620 X249.4 Z-4. I-0.6 J0.
N14625 X250.6 Z-3.5 I0.6 J0.
N14630 X249.4 Z-3. I-0.6 J0.
N14635 X250.6 Z-2.5 I0.6 J0.
N14640 X249.4 Z-2. I-0.6 J0.
N14645 X250.6 Z-1.5 I0.6 J0.
N14650 X249.4 Z-1. I-0.6 J0.
N14655 X250.6 Z-0.5 I0.6 J0.
N14660 X249.4 Z0. I-0.6 J0.
N14665 G1 X250.
N14670 G0 Z5.
N14675 X300.
N14680 G1 Z0. F800.
N14685 Z-10.5
N14690 X300.6
N14695 G3 X299.4 Z-10. I-0.6 J0.
N14700 X300.6 Z-9.5 I0.6 J0.
N14705 X299.4 Z-9. I-0.6 J0.
N14710 X300.6 Z-8.5 I0.6 J0.
N14715 X299.4 Z-8. I-0.6 J0.
N14720 X300.6 Z-7.5 I0.6 J0.
N14725 X299.4 Z-7. I-0.6 J0.
N14730 X300.6 Z-6.5 I0.6 J0.
N14735 X299.4 Z-6. I-0.6 J0.
N14740 X300.6 Z-5.5 I0.6 J0.
N14745 X299.4 Z-5. I-0.6 J0.
N14750 X300.6 Z-4.5 I0.6 J0.
N14755 X299.4 Z-4. I-0.6 J0.
N14760 X300.6 Z-3.5 I0.6 J0.
N14765 X299.4 Z-3. I-0.6 J0.
N14770 X300.6 Z-2.5 I0.6 J0.
N14775 X299.4 Z-2. I-0.6 J0.
N14780 X300.6 Z-1.5 I0.6 J0.
N14785 X299.4 Z-1. I-0.6 J0.
N14790 X300.6 Z-0.5 I0.6 J0.
N14795 X299.4 Z0. I-0.6 J0.
N14800 G1 X300.
N14805 G0 Z5.
N14810 Y200.
N14815 G1 Z0. F800.
N14820 Z-10.5
N14825 X300.6
N14830 G3 X299.4 Z-10. I-0.6 J0.
N14835 X300.6 Z-9.5 I0.6 J0.
N14840 X299.4 Z-9. I-0.6 J0.
N14845 X300.6 Z-8.5 I0.6 J0.
N14850 X299.4 Z-8. I-0.6 J0.
N14855 X300.6 Z-7.5 I0.6 J0.
N14860 X299.4 Z-7. I-0.6 J0.
N14865 X300.6 Z-6.5 I0.6 J0.
N14870 X299.4 Z-6. I-0.6 J0.
N14875 X300.6 Z-5.5 I0.6 J0.
N14880 X299.4 Z-5. I-0.6 J0.
N14885 X300.6 Z-4.5 I0.6 J0.
N14890 X299.4 Z-4. I-0.6 J0.
N14895 X300.6 Z-3.5 I0.6 J0.
N14900 X299.4 Z-3. I-0.6 J0.
N14905 X300.6 Z-2.5 I0.6 J0.
N14910 X299.4 Z-2. I-0.6 J0.
N14915 X300.6 Z-1.5 I0.6 J0.
N14920 X299.4 Z-1. I-0.6 J0.
N14925 X300.6 Z-0.5 I0.6 J0.
N14930 X299.4 Z0. I-0.6 J0.
N14935 G1 X300.
N14940 G0 Z5.
N14945 X250.
N14950 G1 Z0. F800.
N14955 Z-10.5
N14960 X250.6
N14965 G3 X249.4 Z-10. I-0.6 J0.
N14970 X250.6 Z-9.5 I0.6 J0.
N14975 X249.4 Z-9. I-0.6 J0.
N14980 X250.6 Z-8.5 I0.6 J0.
N14985 X249.4 Z-8. I-0.6 J0.
N14990 X250.6 Z-7.5 I0.6 J0.
N14995 X249.4 Z-7. I-0.6 J0.
N15000 X250.6 Z-6.5 I0.6 J0.
N15005 X249.4 Z-6. I-0.6 J0.
N15010 X250.6 Z-5.5 I0.6 J0.
N15015 X249.4 Z-5. I-0.6 J0.
N15020 X250.6 Z-4.5 I0.6 J0.
N15025 X249.4 Z-4. I-0.6 J0.
N15030 X250.6 Z-3.5 I0.6 J0.
N15035 X249.4 Z-3. I-0.6 J0.
N15040 X250.6 Z-2.5 I0.6 J0.
N15045 X249.4 Z-2. I-0.6 J0.
N15050 X250.6 Z-1.5 I0.6 J0.
N15055 X249.4 Z-1. I-0.6 J0.
N15060 X250.6 Z-0.5 I0.6 J0.
N15065 X249.4 Z0. I-0.6 J0.
N15070 G1 X250.
N15075 G0 Z5.
N15080 X200.
N15085 G1 Z0. F800.
N15090 Z-10.5
N15095 X200.6
N15100 G3 X199.4 Z-10. I-0.6 J0.
N15105 X200.6 Z-9.5 I0.6 J0.
N15110 X199.4 Z-9. I-0.6 J0.
N15115 X200.6 Z-8.5 I0.6 J0.
N15120 X199.4 Z-8. I-0.6 J0.
N15125 X200.6 Z-7.5 I0.6 J0.
N15130 X199.4 Z-7. I-0.6 J0.
N15135 X200.6 Z-6.5 I0.6 J0.
N15140 X199.4 Z-6. I-0.6 J0.
N15145 X200.6 Z-5.5 I0.6 J0.
N15150 X199.4 Z-5. I-0.6 J0.
N15155 X200.6 Z-4.5 I0.6 J0.
N15160 X199.4 Z-4. I-0.6 J0.
N15165 X200.6 Z-3.5 I0.6 J0.
N15170 X199.4 Z-3. I-0.6 J0.
N15175 X200.6 Z-2.5 I0.6 J0.
N15180 X199.4 Z-2. I-0.6 J0.
N15185 X200.6 Z-1.5 I0.6 J0.
N15190 X199.4 Z-1. I-0.6 J0.
N15195 X200.6 Z-0.5 I0.6 J0.
N15200 X199.4 Z0. I-0.6 J0.
N15205 G1 X200.
N15210 G0 Z5.
N15215 X150.
N15220 G1 Z0. F800.
N15225 Z-10.5
N15230 X150.6
N15235 G3 X149.4 Z-10. I-0.6 J0.
N15240 X150.6 Z-9.5 I0.6 J0.
N15245 X149.4 Z-9. I-0.6 J0.
N15250 X150.6 Z-8.5 I0.6 J0.
N15255 X149.4 Z-8. I-0.6 J0.
N15260 X150.6 Z-7.5 I0.6 J0.
N15265 X149.4 Z-7. I-0.6 J0.
N15270 X150.6 Z-6.5 I0.6 J0.
N15275 X149.4 Z-6. I-0.6 J0.
N15280 X150.6 Z-5.5 I0.6 J0.
N15285 X149.4 Z-5. I-0.6 J0.
N15290 X150.6 Z-4.5 I0.6 J0.
N15295 X149.4 Z-4. I-0.6 J0.
N15300 X150.6 Z-3.5 I0.6 J0.
N15305 X149.4 Z-3. I-0.6 J0.
N15310 X150.6 Z-2.5 I0.6 J0.
N15315 X149.4 Z-2. I-0.6 J0.
N15320 X150.6 Z-1.5 I0.6 J0.
N15325 X149.4 Z-1. I-0.6 J0.
N15330 X150.6 Z-0.5 I0.6 J0.
N15335 X149.4 Z0. I-0.6 J0.
N15340 G1 X150.
N15345 G0 Z5.
N15350 X100.
N15355 G1 Z0. F800.
N15360 Z-10.5
N15365 X100.6
N15370 G3 X99.4 Z-10. I-0.6 J0.
N15375 X100.6 Z-9.5 I0.6 J0.
N15380 X99.4 Z-9. I-0.6 J0.
N15385 X100.6 Z-8.5 I0.6 J0.
N15390 X99.4 Z-8. I-0.6 J0.
N15395 X100.6 Z-7.5 I0.6 J0.
N15400 X99.4 Z-7. I-0.6 J0.
N15405 X100.6 Z-6.5 I0.6 J0.
N15410 X99.4 Z-6. I-0.6 J0.
N15415 X100.6 Z-5.5 I0.6 J0.
N15420 X99.4 Z-5. I-0.6 J0.
N15425 X100.6 Z-4.5 I0.6 J0.
N15430 X99.4 Z-4. I-0.6 J0.
N15435 X100.6 Z-3.5 I0.6 J0.
N15440 X99.4 Z-3. I-0.6 J0.
N15445 X100.6 Z-2.5 I0.6 J0.
N15450 X99.4 Z-2. I-0.6 J0.
N15455 X100.6 Z-1.5 I0.6 J0.
N15460 X99.4 Z-1. I-0.6 J0.
N15465 X100.6 Z-0.5 I0.6 J0.
N15470 X99.4 Z0. I-0.6 J0.
N15475 G1 X100.
N15480 G0 Z5.
N15485 X50.
N15490 G1 Z0. F800.
N15495 Z-10.5
N15500 X50.6
N15505 G3 X49.4 Z-10. I-0.6 J0.
N15510 X50.6 Z-9.5 I0.6 J0.
N15515 X49.4 Z-9. I-0.6 J0.
N15520 X50.6 Z-8.5 I0.6 J0.
N15525 X49.4 Z-8. I-0.6 J0.
N15530 X50.6 Z-7.5 I0.6 J0.
N15535 X49.4 Z-7. I-0.6 J0.
N15540 X50.6 Z-6.5 I0.6 J0.
N15545 X49.4 Z-6. I-0.6 J0.
N15550 X50.6 Z-5.5 I0.6 J0.
N15555 X49.4 Z-5. I-0.6 J0.
N15560 X50.6 Z-4.5 I0.6 J0.
N15565 X49.4 Z-4. I-0.6 J0.
N15570 X50.6 Z-3.5 I0.6 J0.
N15575 X49.4 Z-3. I-0.6 J0.
N15580 X50.6 Z-2.5 I0.6 J0.
N15585 X49.4 Z-2. I-0.6 J0.
N15590 X50.6 Z-1.5 I0.6 J0.
N15595 X49.4 Z-1. I-0.6 J0.
N15600 X50.6 Z-0.5 I0.6 J0.
N15605 X49.4 Z0. I-0.6 J0.
N15610 G1 X50.
N15615 G0 Z5.
N15620 X0.
N15625 G1 Z0. F800.
N15630 Z-10.5
N15635 X0.6
N15640 G3 X-0.6 Z-10. I-0.6 J0.
N15645 X0.6 Z-9.5 I0.6 J0.
N15650 X-0.6 Z-9. I-0.6 J0.
N15655 X0.6 Z-8.5 I0.6 J0.
N15660 X-0.6 Z-8. I-0.6 J0.
N15665 X0.6 Z-7.5 I0.6 J0.
N15670 X-0.6 Z-7. I-0.6 J0.
N15675 X0.6 Z-6.5 I0.6 J0.
N15680 X-0.6 Z-6. I-0.6 J0.
N15685 X0.6 Z-5.5 I0.6 J0.
N15690 X-0.6 Z-5. I-0.6 J0.
N15695 X0.6 Z-4.5 I0.6 J0.
N15700 X-0.6 Z-4. I-0.6 J0.
N15705 X0.6 Z-3.5 I0.6 J0.
N15710 X-0.6 Z-3. I-0.6 J0.
N15715 X0.6 Z-2.5 I0.6 J0.
N15720 X-0.6 Z-2. I-0.6 J0.
N15725 X0.6 Z-1.5 I0.6 J0.
N15730 X-0.6 Z-1. I-0.6 J0.
N15735 X0.6 Z-0.5 I0.6 J0.
N15740 X-0.6 Z0. I-0.6 J0.
N15745 G1 X0.
N15750 G0 Z5.
N15755 X-50.
N15760 G1 Z0. F800.
N15765 Z-10.5
N15770 X-49.4
N15775 G3 X-50.6 Z-10. I-0.6 J0.
N15780 X-49.4 Z-9.5 I0.6 J0.
N15785 X-50.6 Z-9. I-0.6 J0.
N15790 X-49.4 Z-8.5 I0.6 J0.
N15795 X-50.6 Z-8. I-0.6 J0.
N15800 X-49.4 Z-7.5 I0.6 J0.
N15805 X-50.6 Z-7. I-0.6 J0.
N15810 X-49.4 Z-6.5 I0.6 J0.
N15815 X-50.6 Z-6. I-0.6 J0.
N15820 X-49.4 Z-5.5 I0.6 J0.
N15825 X-50.6 Z-5. I-0.6 J0.
N15830 X-49.4 Z-4.5 I0.6 J0.
N15835 X-50.6 Z-4. I-0.6 J0.
N15840 X-49.4 Z-3.5 I0.6 J0.
N15845 X-50.6 Z-3. I-0.6 J0.
N15850 X-49.4 Z-2.5 I0.6 J0.
N15855 X-50.6 Z-2. I-0.6 J0.
N15860 X-49.4 Z-1.5 I0.6 J0.
N15865 X-50.6 Z-1. I-0.6 J0.
N15870 X-49.4 Z-0.5 I0.6 J0.
N15875 X-50.6 Z0. I-0.6 J0.
N15880 G1 X-50.
N15885 G0 Z5.
N15890 X-100.
N15895 G1 Z0. F800.
N15900 Z-10.5
N15905 X-99.4
N15910 G3 X-100.6 Z-10. I-0.6 J0.
N15915 X-99.4 Z-9.5 I0.6 J0.
N15920 X-100.6 Z-9. I-0.6 J0.
N15925 X-99.4 Z-8.5 I0.6 J0.
N15930 X-100.6 Z-8. I-0.6 J0.
N15935 X-99.4 Z-7.5 I0.6 J0.
N15940 X-100.6 Z-7. I-0.6 J0.
N15945 X-99.4 Z-6.5 I0.6 J0.
N15950 X-100.6 Z-6. I-0.6 J0.
N15955 X-99.4 Z-5.5 I0.6 J0.
N15960 X-100.6 Z-5. I-0.6 J0.
N15965 X-99.4 Z-4.5 I0.6 J0.
N15970 X-100.6 Z-4. I-0.6 J0.
N15975 X-99.4 Z-3.5 I0.6 J0.
N15980 X-100.6 Z-3. I-0.6 J0.
N15985 X-99.4 Z-2.5 I0.6 J0.
N15990 X-100.6 Z-2. I-0.6 J0.
N15995 X-99.4 Z-1.5 I0.6 J0.
N16000 X-100.6 Z-1. I-0.6 J0.
N16005 X-99.4 Z-0.5 I0.6 J0.
N16010 X-100.6 Z0. I-0.6 J0.
N16015 G1 X-100.
N16020 G0 Z5.
N16025 X-150.
N16030 G1 Z0. F800.
N16035 Z-10.5
N16040 X-149.4
N16045 G3 X-150.6 Z-10. I-0.6 J0.
N16050 X-149.4 Z-9.5 I0.6 J0.
N16055 X-150.6 Z-9. I-0.6 J0.
N16060 X-149.4 Z-8.5 I0.6 J0.
N16065 X-150.6 Z-8. I-0.6 J0.
N16070 X-149.4 Z-7.5 I0.6 J0.
N16075 X-150.6 Z-7. I-0.6 J0.
N16080 X-149.4 Z-6.5 I0.6 J0.
N16085 X-150.6 Z-6. I-0.6 J0.
N16090 X-149.4 Z-5.5 I0.6 J0.
N16095 X-150.6 Z-5. I-0.6 J0.
N16100 X-149.4 Z-4.5 I0.6 J0.
N16105 X-150.6 Z-4. I-0.6 J0.
N16110 X-149.4 Z-3.5 I0.6 J0.
N16115 X-150.6 Z-3. I-0.6 J0.
N16120 X-149.4 Z-2.5 I0.6 J0.
N16125 X-150.6 Z-2. I-0.6 J0.
N16130 X-149.4 Z-1.5 I0.6 J0.
N16135 X-150.6 Z-1. I-0.6 J0.
N16140 X-149.4 Z-0.5 I0.6 J0.
N16145 X-150.6 Z0. I-0.6 J0.
N16150 G1 X-150.
N16155 G0 Z5.
N16160 X-200.
N16165 G1 Z0. F800.
N16170 Z-10.5
N16175 X-199.4
N16180 G3 X-200.6 Z-10. I-0.6 J0.
N16185 X-199.4 Z-9.5 I0.6 J0.
N16190 X-200.6 Z-9. I-0.6 J0.
N16195 X-199.4 Z-8.5 I0.6 J0.
N16200 X-200.6 Z-8. I-0.6 J0.
N16205 X-199.4 Z-7.5 I0.6 J0.
N16210 X-200.6 Z-7. I-0.6 J0.
N16215 X-199.4 Z-6.5 I0.6 J0.
N16220 X-200.6 Z-6. I-0.6 J0.
N16225 X-199.4 Z-5.5 I0.6 J0.
N16230 X-200.6 Z-5. I-0.6 J0.
N16235 X-199.4 Z-4.5 I0.6 J0.
N16240 X-200.6 Z-4. I-0.6 J0.
N16245 X-199.4 Z-3.5 I0.6 J0.
N16250 X-200.6 Z-3. I-0.6 J0.
N16255 X-199.4 Z-2.5 I0.6 J0.
N16260 X-200.6 Z-2. I-0.6 J0.
N16265 X-199.4 Z-1.5 I0.6 J0.
N16270 X-200.6 Z-1. I-0.6 J0.
N16275 X-199.4 Z-0.5 I0.6 J0.
N16280 X-200.6 Z0. I-0.6 J0.
N16285 G1 X-200.
N16290 G0 Z5.
N16295 X-250.
N16300 G1 Z0. F800.
N16305 Z-10.5
N16310 X-249.4
N16315 G3 X-250.6 Z-10. I-0.6 J0.
N16320 X-249.4 Z-9.5 I0.6 J0.
N16325 X-250.6 Z-9. I-0.6 J0.
N16330 X-249.4 Z-8.5 I0.6 J0.
N16335 X-250.6 Z-8. I-0.6 J0.
N16340 X-249.4 Z-7.5 I0.6 J0.
N16345 X-250.6 Z-7. I-0.6 J0.
N16350 X-249.4 Z-6.5 I0.6 J0.
N16355 X-250.6 Z-6. I-0.6 J0.
N16360 X-249.4 Z-5.5 I0.6 J0.
N16365 X-250.6 Z-5. I-0.6 J0.
N16370 X-249.4 Z-4.5 I0.6 J0.
N16375 X-250.6 Z-4. I-0.6 J0.
N16380 X-249.4 Z-3.5 I0.6 J0.
N16385 X-250.6 Z-3. I-0.6 J0.
N16390 X-249.4 Z-2.5 I0.6 J0.
N16395 X-250.6 Z-2. I-0.6 J0.
N16400 X-249.4 Z-1.5 I0.6 J0.
N16405 X-250.6 Z-1. I-0.6 J0.
N16410 X-249.4 Z-0.5 I0.6 J0.
N16415 X-250.6 Z0. I-0.6 J0.
N16420 G1 X-250.
N16425 G0 Z5.
N16430 X-300.
N16435 G1 Z0. F800.
N16440 Z-10.5
N16445 X-299.4
N16450 G3 X-300.6 Z-10. I-0.6 J0.
N16455 X-299.4 Z-9.5 I0.6 J0.
N16460 X-300.6 Z-9. I-0.6 J0.
N16465 X-299.4 Z-8.5 I0.6 J0.
N16470 X-300.6 Z-8. I-0.6 J0.
N16475 X-299.4 Z-7.5 I0.6 J0.
N16480 X-300.6 Z-7. I-0.6 J0.
N16485 X-299.4 Z-6.5 I0.6 J0.
N16490 X-300.6 Z-6. I-0.6 J0.
N16495 X-299.4 Z-5.5 I0.6 J0.
N16500 X-300.6 Z-5. I-0.6 J0.
N16505 X-299.4 Z-4.5 I0.6 J0.
N16510 X-300.6 Z-4. I-0.6 J0.
N16515 X-299.4 Z-3.5 I0.6 J0.
N16520 X-300.6 Z-3. I-0.6 J0.
N16525 X-299.4 Z-2.5 I0.6 J0.
N16530 X-300.6 Z-2. I-0.6 J0.
N16535 X-299.4 Z-1.5 I0.6 J0.
N16540 X-300.6 Z-1. I-0.6 J0.
N16545 X-299.4 Z-0.5 I0.6 J0.
N16550 X-300.6 Z0. I-0.6 J0.
N16555 G1 X-300.
N16560 G0 Z5.
N16565 X300. Y0.
N16570 G1 Z0. F800.
N16575 Z-10.5
N16580 X300.6
N16585 G3 X299.4 Z-10. I-0.6 J0.
N16590 X300.6 Z-9.5 I0.6 J0.
N16595 X299.4 Z-9. I-0.6 J0.
N16600 X300.6 Z-8.5 I0.6 J0.
N16605 X299.4 Z-8. I-0.6 J0.
N16610 X300.6 Z-7.5 I0.6 J0.
N16615 X299.4 Z-7. I-0.6 J0.
N16620 X300.6 Z-6.5 I0.6 J0.
N16625 X299.4 Z-6. I-0.6 J0.
N16630 X300.6 Z-5.5 I0.6 J0.
N16635 X299.4 Z-5. I-0.6 J0.
N16640 X300.6 Z-4.5 I0.6 J0.
N16645 X299.4 Z-4. I-0.6 J0.
N16650 X300.6 Z-3.5 I0.6 J0.
N16655 X299.4 Z-3. I-0.6 J0.
N16660 X300.6 Z-2.5 I0.6 J0.
N16665 X299.4 Z-2. I-0.6 J0.
N16670 X300.6 Z-1.5 I0.6 J0.
N16675 X299.4 Z-1. I-0.6 J0.
N16680 X300.6 Z-0.5 I0.6 J0.
N16685 X299.4 Z0. I-0.6 J0.
N16690 G1 X300.
N16695 G0 Z5.
N16700 X250.
N16705 G1 Z0. F800.
N16710 Z-10.5
N16715 X250.6
N16720 G3 X249.4 Z-10. I-0.6 J0.
N16725 X250.6 Z-9.5 I0.6 J0.
N16730 X249.4 Z-9. I-0.6 J0.
N16735 X250.6 Z-8.5 I0.6 J0.
N16740 X249.4 Z-8. I-0.6 J0.
N16745 X250.6 Z-7.5 I0.6 J0.
N16750 X249.4 Z-7. I-0.6 J0.
N16755 X250.6 Z-6.5 I0.6 J0.
N16760 X249.4 Z-6. I-0.6 J0.
N16765 X250.6 Z-5.5 I0.6 J0.
N16770 X249.4 Z-5. I-0.6 J0.
N16775 X250.6 Z-4.5 I0.6 J0.
N16780 X249.4 Z-4. I-0.6 J0.
N16785 X250.6 Z-3.5 I0.6 J0.
N16790 X249.4 Z-3. I-0.6 J0.
N16795 X250.6 Z-2.5 I0.6 J0.
N16800 X249.4 Z-2. I-0.6 J0.
N16805 X250.6 Z-1.5 I0.6 J0.
N16810 X249.4 Z-1. I-0.6 J0.
N16815 X250.6 Z-0.5 I0.6 J0.
N16820 X249.4 Z0. I-0.6 J0.
N16825 G1 X250.
N16830 G0 Z5.
N16835 X200.
N16840 G1 Z0. F800.
N16845 Z-10.5
N16850 X200.6
N16855 G3 X199.4 Z-10. I-0.6 J0.
N16860 X200.6 Z-9.5 I0.6 J0.
N16865 X199.4 Z-9. I-0.6 J0.
N16870 X200.6 Z-8.5 I0.6 J0.
N16875 X199.4 Z-8. I-0.6 J0.
N16880 X200.6 Z-7.5 I0.6 J0.
N16885 X199.4 Z-7. I-0.6 J0.
N16890 X200.6 Z-6.5 I0.6 J0.
N16895 X199.4 Z-6. I-0.6 J0.
N16900 X200.6 Z-5.5 I0.6 J0.
N16905 X199.4 Z-5. I-0.6 J0.
N16910 X200.6 Z-4.5 I0.6 J0.
N16915 X199.4 Z-4. I-0.6 J0.
N16920 X200.6 Z-3.5 I0.6 J0.
N16925 X199.4 Z-3. I-0.6 J0.
N16930 X200.6 Z-2.5 I0.6 J0.
N16935 X199.4 Z-2. I-0.6 J0.
N16940 X200.6 Z-1.5 I0.6 J0.
N16945 X199.4 Z-1. I-0.6 J0.
N16950 X200.6 Z-0.5 I0.6 J0.
N16955 X199.4 Z0. I-0.6 J0.
N16960 G1 X200.
N16965 G0 Z5.
N16970 X150.
N16975 G1 Z0. F800.
N16980 Z-10.5
N16985 X150.6
N16990 G3 X149.4 Z-10. I-0.6 J0.
N16995 X150.6 Z-9.5 I0.6 J0.
N17000 X149.4 Z-9. I-0.6 J0.
N17005 X150.6 Z-8.5 I0.6 J0.
N17010 X149.4 Z-8. I-0.6 J0.
N17015 X150.6 Z-7.5 I0.6 J0.
N17020 X149.4 Z-7. I-0.6 J0.
N17025 X150.6 Z-6.5 I0.6 J0.
N17030 X149.4 Z-6. I-0.6 J0.
N17035 X150.6 Z-5.5 I0.6 J0.
N17040 X149.4 Z-5. I-0.6 J0.
N17045 X150.6 Z-4.5 I0.6 J0.
N17050 X149.4 Z-4. I-0.6 J0.
N17055 X150.6 Z-3.5 I0.6 J0.
N17060 X149.4 Z-3. I-0.6 J0.
N17065 X150.6 Z-2.5 I0.6 J0.
N17070 X149.4 Z-2. I-0.6 J0.
N17075 X150.6 Z-1.5 I0.6 J0.
N17080 X149.4 Z-1. I-0.6 J0.
N17085 X150.6 Z-0.5 I0.6 J0.
N17090 X149.4 Z0. I-0.6 J0.
N17095 G1 X150.
N17100 G0 Z5.
N17105 X100.
N17110 G1 Z0. F800.
N17115 Z-10.5
N17120 X100.6
N17125 G3 X99.4 Z-10. I-0.6 J0.
N17130 X100.6 Z-9.5 I0.6 J0.
N17135 X99.4 Z-9. I-0.6 J0.
N17140 X100.6 Z-8.5 I0.6 J0.
N17145 X99.4 Z-8. I-0.6 J0.
N17150 X100.6 Z-7.5 I0.6 J0.
N17155 X99.4 Z-7. I-0.6 J0.
N17160 X100.6 Z-6.5 I0.6 J0.
N17165 X99.4 Z-6. I-0.6 J0.
N17170 X100.6 Z-5.5 I0.6 J0.
N17175 X99.4 Z-5. I-0.6 J0.
N17180 X100.6 Z-4.5 I0.6 J0.
N17185 X99.4 Z-4. I-0.6 J0.
N17190 X100.6 Z-3.5 I0.6 J0.
N17195 X99.4 Z-3. I-0.6 J0.
N17200 X100.6 Z-2.5 I0.6 J0.
N17205 X99.4 Z-2. I-0.6 J0.
N17210 X100.6 Z-1.5 I0.6 J0.
N17215 X99.4 Z-1. I-0.6 J0.
N17220 X100.6 Z-0.5 I0.6 J0.
N17225 X99.4 Z0. I-0.6 J0.
N17230 G1 X100.
N17235 G0 Z5.
N17240 X50.
N17245 G1 Z0. F800.
N17250 Z-10.5
N17255 X50.6
N17260 G3 X49.4 Z-10. I-0.6 J0.
N17265 X50.6 Z-9.5 I0.6 J0.
N17270 X49.4 Z-9. I-0.6 J0.
N17275 X50.6 Z-8.5 I0.6 J0.
N17280 X49.4 Z-8. I-0.6 J0.
N17285 X50.6 Z-7.5 I0.6 J0.
N17290 X49.4 Z-7. I-0.6 J0.
N17295 X50.6 Z-6.5 I0.6 J0.
N17300 X49.4 Z-6. I-0.6 J0.
N17305 X50.6 Z-5.5 I0.6 J0.
N17310 X49.4 Z-5. I-0.6 J0.
N17315 X50.6 Z-4.5 I0.6 J0.
N17320 X49.4 Z-4. I-0.6 J0.
N17325 X50.6 Z-3.5 I0.6 J0.
N17330 X49.4 Z-3. I-0.6 J0.
N17335 X50.6 Z-2.5 I0.6 J0.
N17340 X49.4 Z-2. I-0.6 J0.
N17345 X50.6 Z-1.5 I0.6 J0.
N17350 X49.4 Z-1. I-0.6 J0.
N17355 X50.6 Z-0.5 I0.6 J0.
N17360 X49.4 Z0. I-0.6 J0.
N17365 G1 X50.
N17370 G0 Z5.
N17375 X0.
N17380 G1 Z0. F800.
N17385 Z-10.5
N17390 X0.6
N17395 G3 X-0.6 Z-10. I-0.6 J0.
N17400 X0.6 Z-9.5 I0.6 J0.
N17405 X-0.6 Z-9. I-0.6 J0.
N17410 X0.6 Z-8.5 I0.6 J0.
N17415 X-0.6 Z-8. I-0.6 J0.
N17420 X0.6 Z-7.5 I0.6 J0.
N17425 X-0.6 Z-7. I-0.6 J0.
N17430 X0.6 Z-6.5 I0.6 J0.
N17435 X-0.6 Z-6. I-0.6 J0.
N17440 X0.6 Z-5.5 I0.6 J0.
N17445 X-0.6 Z-5. I-0.6 J0.
N17450 X0.6 Z-4.5 I0.6 J0.
N17455 X-0.6 Z-4. I-0.6 J0.
N17460 X0.6 Z-3.5 I0.6 J0.
N17465 X-0.6 Z-3. I-0.6 J0.
N17470 X0.6 Z-2.5 I0.6 J0.
N17475 X-0.6 Z-2. I-0.6 J0.
N17480 X0.6 Z-1.5 I0.6 J0.
N17485 X-0.6 Z-1. I-0.6 J0.
N17490 X0.6 Z-0.5 I0.6 J0.
N17495 X-0.6 Z0. I-0.6 J0.
N17500 G1 X0.
N17505 G0 Z5.
N17510 X-50.
N17515 G1 Z0. F800.
N17520 Z-10.5
N17525 X-49.4
N17530 G3 X-50.6 Z-10. I-0.6 J0.
N17535 X-49.4 Z-9.5 I0.6 J0.
N17540 X-50.6 Z-9. I-0.6 J0.
N17545 X-49.4 Z-8.5 I0.6 J0.
N17550 X-50.6 Z-8. I-0.6 J0.
N17555 X-49.4 Z-7.5 I0.6 J0.
N17560 X-50.6 Z-7. I-0.6 J0.
N17565 X-49.4 Z-6.5 I0.6 J0.
N17570 X-50.6 Z-6. I-0.6 J0.
N17575 X-49.4 Z-5.5 I0.6 J0.
N17580 X-50.6 Z-5. I-0.6 J0.
N17585 X-49.4 Z-4.5 I0.6 J0.
N17590 X-50.6 Z-4. I-0.6 J0.
N17595 X-49.4 Z-3.5 I0.6 J0.
N17600 X-50.6 Z-3. I-0.6 J0.
N17605 X-49.4 Z-2.5 I0.6 J0.
N17610 X-50.6 Z-2. I-0.6 J0.
N17615 X-49.4 Z-1.5 I0.6 J0.
N17620 X-50.6 Z-1. I-0.6 J0.
N17625 X-49.4 Z-0.5 I0.6 J0.
N17630 X-50.6 Z0. I-0.6 J0.
N17635 G1 X-50.
N17640 G0 Z5.
N17645 X-100.
N17650 G1 Z0. F800.
N17655 Z-10.5
N17660 X-99.4
N17665 G3 X-100.6 Z-10. I-0.6 J0.
N17670 X-99.4 Z-9.5 I0.6 J0.
N17675 X-100.6 Z-9. I-0.6 J0.
N17680 X-99.4 Z-8.5 I0.6 J0.
N17685 X-100.6 Z-8. I-0.6 J0.
N17690 X-99.4 Z-7.5 I0.6 J0.
N17695 X-100.6 Z-7. I-0.6 J0.
N17700 X-99.4 Z-6.5 I0.6 J0.
N17705 X-100.6 Z-6. I-0.6 J0.
N17710 X-99.4 Z-5.5 I0.6 J0.
N17715 X-100.6 Z-5. I-0.6 J0.
N17720 X-99.4 Z-4.5 I0.6 J0.
N17725 X-100.6 Z-4. I-0.6 J0.
N17730 X-99.4 Z-3.5 I0.6 J0.
N17735 X-100.6 Z-3. I-0.6 J0.
N17740 X-99.4 Z-2.5 I0.6 J0.
N17745 X-100.6 Z-2. I-0.6 J0.
N17750 X-99.4 Z-1.5 I0.6 J0.
N17755 X-100.6 Z-1. I-0.6 J0.
N17760 X-99.4 Z-0.5 I0.6 J0.
N17765 X-100.6 Z0. I-0.6 J0.
N17770 G1 X-100.
N17775 G0 Z5.
N17780 X-150.
N17785 G1 Z0. F800.
N17790 Z-10.5
N17795 X-149.4
N17800 G3 X-150.6 Z-10. I-0.6 J0.
N17805 X-149.4 Z-9.5 I0.6 J0.
N17810 X-150.6 Z-9. I-0.6 J0.
N17815 X-149.4 Z-8.5 I0.6 J0.
N17820 X-150.6 Z-8. I-0.6 J0.
N17825 X-149.4 Z-7.5 I0.6 J0.
N17830 X-150.6 Z-7. I-0.6 J0.
N17835 X-149.4 Z-6.5 I0.6 J0.
N17840 X-150.6 Z-6. I-0.6 J0.
N17845 X-149.4 Z-5.5 I0.6 J0.
N17850 X-150.6 Z-5. I-0.6 J0.
N17855 X-149.4 Z-4.5 I0.6 J0.
N17860 X-150.6 Z-4. I-0.6 J0.
N17865 X-149.4 Z-3.5 I0.6 J0.
N17870 X-150.6 Z-3. I-0.6 J0.
N17875 X-149.4 Z-2.5 I0.6 J0.
N17880 X-150.6 Z-2. I-0.6 J0.
N17885 X-149.4 Z-1.5 I0.6 J0.
N17890 X-150.6 Z-1. I-0.6 J0.
N17895 X-149.4 Z-0.5 I0.6 J0.
N17900 X-150.6 Z0. I-0.6 J0.
N17905 G1 X-150.
N17910 G0 Z5.
N17915 X-200.
N17920 G1 Z0. F800.
N17925 Z-10.5
N17930 X-199.4
N17935 G3 X-200.6 Z-10. I-0.6 J0.
N17940 X-199.4 Z-9.5 I0.6 J0.
N17945 X-200.6 Z-9. I-0.6 J0.
N17950 X-199.4 Z-8.5 I0.6 J0.
N17955 X-200.6 Z-8. I-0.6 J0.
N17960 X-199.4 Z-7.5 I0.6 J0.
N17965 X-200.6 Z-7. I-0.6 J0.
N17970 X-199.4 Z-6.5 I0.6 J0.
N17975 X-200.6 Z-6. I-0.6 J0.
N17980 X-199.4 Z-5.5 I0.6 J0.
N17985 X-200.6 Z-5. I-0.6 J0.
N17990 X-199.4 Z-4.5 I0.6 J0.
N17995 X-200.6 Z-4. I-0.6 J0.
N18000 X-199.4 Z-3.5 I0.6 J0.
N18005 X-200.6 Z-3. I-0.6 J0.
N18010 X-199.4 Z-2.5 I0.6 J0.
N18015 X-200.6 Z-2. I-0.6 J0.
N18020 X-199.4 Z-1.5 I0.6 J0.
N18025 X-200.6 Z-1. I-0.6 J0.
N18030 X-199.4 Z-0.5 I0.6 J0.
N18035 X-200.6 Z0. I-0.6 J0.
N18040 G1 X-200.
N18045 G0 Z5.
N18050 X-250.
N18055 G1 Z0. F800.
N18060 Z-10.5
N18065 X-249.4
N18070 G3 X-250.6 Z-10. I-0.6 J0.
N18075 X-249.4 Z-9.5 I0.6 J0.
N18080 X-250.6 Z-9. I-0.6 J0.
N18085 X-249.4 Z-8.5 I0.6 J0.
N18090 X-250.6 Z-8. I-0.6 J0.
N18095 X-249.4 Z-7.5 I0.6 J0.
N18100 X-250.6 Z-7. I-0.6 J0.
N18105 X-249.4 Z-6.5 I0.6 J0.
N18110 X-250.6 Z-6. I-0.6 J0.
N18115 X-249.4 Z-5.5 I0.6 J0.
N18120 X-250.6 Z-5. I-0.6 J0.
N18125 X-249.4 Z-4.5 I0.6 J0.
N18130 X-250.6 Z-4. I-0.6 J0.
N18135 X-249.4 Z-3.5 I0.6 J0.
N18140 X-250.6 Z-3. I-0.6 J0.
N18145 X-249.4 Z-2.5 I0.6 J0.
N18150 X-250.6 Z-2. I-0.6 J0.
N18155 X-249.4 Z-1.5 I0.6 J0.
N18160 X-250.6 Z-1. I-0.6 J0.
N18165 X-249.4 Z-0.5 I0.6 J0.
N18170 X-250.6 Z0. I-0.6 J0.
N18175 G1 X-250.
N18180 G0 Z5.
N18185 X-300.
N18190 G1 Z0. F800.
N18195 Z-10.5
N18200 X-299.4
N18205 G3 X-300.6 Z-10. I-0.6 J0.
N18210 X-299.4 Z-9.5 I0.6 J0.
N18215 X-300.6 Z-9. I-0.6 J0.
N18220 X-299.4 Z-8.5 I0.6 J0.
N18225 X-300.6 Z-8. I-0.6 J0.
N18230 X-299.4 Z-7.5 I0.6 J0.
N18235 X-300.6 Z-7. I-0.6 J0.
N18240 X-299.4 Z-6.5 I0.6 J0.
N18245 X-300.6 Z-6. I-0.6 J0.
N18250 X-299.4 Z-5.5 I0.6 J0.
N18255 X-300.6 Z-5. I-0.6 J0.
N18260 X-299.4 Z-4.5 I0.6 J0.
N18265 X-300.6 Z-4. I-0.6 J0.
N18270 X-299.4 Z-3.5 I0.6 J0.
N18275 X-300.6 Z-3. I-0.6 J0.
N18280 X-299.4 Z-2.5 I0.6 J0.
N18285 X-300.6 Z-2. I-0.6 J0.
N18290 X-299.4 Z-1.5 I0.6 J0.
N18295 X-300.6 Z-1. I-0.6 J0.
N18300 X-299.4 Z-0.5 I0.6 J0.
N18305 X-300.6 Z0. I-0.6 J0.
N18310 G1 X-300.
N18315 G0 Z5.
N18320 Y50.
N18325 G1 Z0. F800.
N18330 Z-10.5
N18335 X-299.4
N18340 G3 X-300.6 Z-10. I-0.6 J0.
N18345 X-299.4 Z-9.5 I0.6 J0.
N18350 X-300.6 Z-9. I-0.6 J0.
N18355 X-299.4 Z-8.5 I0.6 J0.
N18360 X-300.6 Z-8. I-0.6 J0.
N18365 X-299.4 Z-7.5 I0.6 J0.
N18370 X-300.6 Z-7. I-0.6 J0.
N18375 X-299.4 Z-6.5 I0.6 J0.
N18380 X-300.6 Z-6. I-0.6 J0.
N18385 X-299.4 Z-5.5 I0.6 J0.
N18390 X-300.6 Z-5. I-0.6 J0.
N18395 X-299.4 Z-4.5 I0.6 J0.
N18400 X-300.6 Z-4. I-0.6 J0.
N18405 X-299.4 Z-3.5 I0.6 J0.
N18410 X-300.6 Z-3. I-0.6 J0.
N18415 X-299.4 Z-2.5 I0.6 J0.
N18420 X-300.6 Z-2. I-0.6 J0.
N18425 X-299.4 Z-1.5 I0.6 J0.
N18430 X-300.6 Z-1. I-0.6 J0.
N18435 X-299.4 Z-0.5 I0.6 J0.
N18440 X-300.6 Z0. I-0.6 J0.
N18445 G1 X-300.
N18450 G0 Z5.
N18455 X-250.
N18460 G1 Z0. F800.
N18465 Z-10.5
N18470 X-249.4
N18475 G3 X-250.6 Z-10. I-0.6 J0.
N18480 X-249.4 Z-9.5 I0.6 J0.
N18485 X-250.6 Z-9. I-0.6 J0.
N18490 X-249.4 Z-8.5 I0.6 J0.
N18495 X-250.6 Z-8. I-0.6 J0.
N18500 X-249.4 Z-7.5 I0.6 J0.
N18505 X-250.6 Z-7. I-0.6 J0.
N18510 X-249.4 Z-6.5 I0.6 J0.
N18515 X-250.6 Z-6. I-0.6 J0.
N18520 X-249.4 Z-5.5 I0.6 J0.
N18525 X-250.6 Z-5. I-0.6 J0.
N18530 X-249.4 Z-4.5 I0.6 J0.
N18535 X-250.6 Z-4. I-0.6 J0.
N18540 X-249.4 Z-3.5 I0.6 J0.
N18545 X-250.6 Z-3. I-0.6 J0.
N18550 X-249.4 Z-2.5 I0.6 J0.
N18555 X-250.6 Z-2. I-0.6 J0.
N18560 X-249.4 Z-1.5 I0.6 J0.
N18565 X-250.6 Z-1. I-0.6 J0.
N18570 X-249.4 Z-0.5 I0.6 J0.
N18575 X-250.6 Z0. I-0.6 J0.
N18580 G1 X-250.
N18585 G0 Z5.
N18590 X-200.
N18595 G1 Z0. F800.
N18600 Z-10.5
N18605 X-199.4
N18610 G3 X-200.6 Z-10. I-0.6 J0.
N18615 X-199.4 Z-9.5 I0.6 J0.
N18620 X-200.6 Z-9. I-0.6 J0.
N18625 X-199.4 Z-8.5 I0.6 J0.
N18630 X-200.6 Z-8. I-0.6 J0.
N18635 X-199.4 Z-7.5 I0.6 J0.
N18640 X-200.6 Z-7. I-0.6 J0.
N18645 X-199.4 Z-6.5 I0.6 J0.
N18650 X-200.6 Z-6. I-0.6 J0.
N18655 X-199.4 Z-5.5 I0.6 J0.
N18660 X-200.6 Z-5. I-0.6 J0.
N18665 X-199.4 Z-4.5 I0.6 J0.
N18670 X-200.6 Z-4. I-0.6 J0.
N18675 X-199.4 Z-3.5 I0.6 J0.
N18680 X-200.6 Z-3. I-0.6 J0.
N18685 X-199.4 Z-2.5 I0.6 J0.
N18690 X-200.6 Z-2. I-0.6 J0.
N18695 X-199.4 Z-1.5 I0.6 J0.
N18700 X-200.6 Z-1. I-0.6 J0.
N18705 X-199.4 Z-0.5 I0.6 J0.
N18710 X-200.6 Z0. I-0.6 J0.
N18715 G1 X-200.
N18720 G0 Z5.
N18725 X-150.
N18730 G1 Z0. F800.
N18735 Z-10.5
N18740 X-149.4
N18745 G3 X-150.6 Z-10. I-0.6 J0.
N18750 X-149.4 Z-9.5 I0.6 J0.
N18755 X-150.6 Z-9. I-0.6 J0.
N18760 X-149.4 Z-8.5 I0.6 J0.
N18765 X-150.6 Z-8. I-0.6 J0.
N18770 X-149.4 Z-7.5 I0.6 J0.
N18775 X-150.6 Z-7. I-0.6 J0.
N18780 X-149.4 Z-6.5 I0.6 J0.
N18785 X-150.6 Z-6. I-0.6 J0.
N18790 X-149.4 Z-5.5 I0.6 J0.
N18795 X-150.6 Z-5. I-0.6 J0.
N18800 X-149.4 Z-4.5 I0.6 J0.
N18805 X-150.6 Z-4. I-0.6 J0.
N18810 X-149.4 Z-3.5 I0.6 J0.
N18815 X-150.6 Z-3. I-0.6 J0.
N18820 X-149.4 Z-2.5 I0.6 J0.
N18825 X-150.6 Z-2. I-0.6 J0.
N18830 X-149.4 Z-1.5 I0.6 J0.
N18835 X-150.6 Z-1. I-0.6 J0.
N18840 X-149.4 Z-0.5 I0.6 J0.
N18845 X-150.6 Z0. I-0.6 J0.
N18850 G1 X-150.
N18855 G0 Z5.
N18860 X-100.
N18865 G1 Z0. F800.
N18870 Z-10.5
N18875 X-99.4
N18880 G3 X-100.6 Z-10. I-0.6 J0.
N18885 X-99.4 Z-9.5 I0.6 J0.
N18890 X-100.6 Z-9. I-0.6 J0.
N18895 X-99.4 Z-8.5 I0.6 J0.
N18900 X-100.6 Z-8. I-0.6 J0.
N18905 X-99.4 Z-7.5 I0.6 J0.
N18910 X-100.6 Z-7. I-0.6 J0.
N18915 X-99.4 Z-6.5 I0.6 J0.
N18920 X-100.6 Z-6. I-0.6 J0.
N18925 X-99.4 Z-5.5 I0.6 J0.
N18930 X-100.6 Z-5. I-0.6 J0.
N18935 X-99.4 Z-4.5 I0.6 J0.
N18940 X-100.6 Z-4. I-0.6 J0.
N18945 X-99.4 Z-3.5 I0.6 J0.
N18950 X-100.6 Z-3. I-0.6 J0.
N18955 X-99.4 Z-2.5 I0.6 J0.
N18960 X-100.6 Z-2. I-0.6 J0.
N18965 X-99.4 Z-1.5 I0.6 J0.
N18970 X-100.6 Z-1. I-0.6 J0.
N18975 X-99.4 Z-0.5 I0.6 J0.
N18980 X-100.6 Z0. I-0.6 J0.
N18985 G1 X-100.
N18990 G0 Z5.
N18995 X-50.
N19000 G1 Z0. F800.
N19005 Z-10.5
N19010 X-49.4
N19015 G3 X-50.6 Z-10. I-0.6 J0.
N19020 X-49.4 Z-9.5 I0.6 J0.
N19025 X-50.6 Z-9. I-0.6 J0.
N19030 X-49.4 Z-8.5 I0.6 J0.
N19035 X-50.6 Z-8. I-0.6 J0.
N19040 X-49.4 Z-7.5 I0.6 J0.
N19045 X-50.6 Z-7. I-0.6 J0.
N19050 X-49.4 Z-6.5 I0.6 J0.
N19055 X-50.6 Z-6. I-0.6 J0.
N19060 X-49.4 Z-5.5 I0.6 J0.
N19065 X-50.6 Z-5. I-0.6 J0.
N19070 X-49.4 Z-4.5 I0.6 J0.
N19075 X-50.6 Z-4. I-0.6 J0.
N19080 X-49.4 Z-3.5 I0.6 J0.
N19085 X-50.6 Z-3. I-0.6 J0.
N19090 X-49.4 Z-2.5 I0.6 J0.
N19095 X-50.6 Z-2. I-0.6 J0.
N19100 X-49.4 Z-1.5 I0.6 J0.
N19105 X-50.6 Z-1. I-0.6 J0.
N19110 X-49.4 Z-0.5 I0.6 J0.
N19115 X-50.6 Z0. I-0.6 J0.
N19120 G1 X-50.
N19125 G0 Z5.
N19130 X0.
N19135 G1 Z0. F800.
N19140 Z-10.5
N19145 X0.6
N19150 G3 X-0.6 Z-10. I-0.6 J0.
N19155 X0.6 Z-9.5 I0.6 J0.
N19160 X-0.6 Z-9. I-0.6 J0.
N19165 X0.6 Z-8.5 I0.6 J0.
N19170 X-0.6 Z-8. I-0.6 J0.
N19175 X0.6 Z-7.5 I0.6 J0.
N19180 X-0.6 Z-7. I-0.6 J0.
N19185 X0.6 Z-6.5 I0.6 J0.
N19190 X-0.6 Z-6. I-0.6 J0.
N19195 X0.6 Z-5.5 I0.6 J0.
N19200 X-0.6 Z-5. I-0.6 J0.
N19205 X0.6 Z-4.5 I0.6 J0.
N19210 X-0.6 Z-4. I-0.6 J0.
N19215 X0.6 Z-3.5 I0.6 J0.
N19220 X-0.6 Z-3. I-0.6 J0.
N19225 X0.6 Z-2.5 I0.6 J0.
N19230 X-0.6 Z-2. I-0.6 J0.
N19235 X0.6 Z-1.5 I0.6 J0.
N19240 X-0.6 Z-1. I-0.6 J0.
N19245 X0.6 Z-0.5 I0.6 J0.
N19250 X-0.6 Z0. I-0.6 J0.
N19255 G1 X0.
N19260 G0 Z5.
N19265 X50.
N19270 G1 Z0. F800.
N19275 Z-10.5
N19280 X50.6
N19285 G3 X49.4 Z-10. I-0.6 J0.
N19290 X50.6 Z-9.5 I0.6 J0.
N19295 X49.4 Z-9. I-0.6 J0.
N19300 X50.6 Z-8.5 I0.6 J0.
N19305 X49.4 Z-8. I-0.6 J0.
N19310 X50.6 Z-7.5 I0.6 J0.
N19315 X49.4 Z-7. I-0.6 J0.
N19320 X50.6 Z-6.5 I0.6 J0.
N19325 X49.4 Z-6. I-0.6 J0.
N19330 X50.6 Z-5.5 I0.6 J0.
N19335 X49.4 Z-5. I-0.6 J0.
N19340 X50.6 Z-4.5 I0.6 J0.
N19345 X49.4 Z-4. I-0.6 J0.
N19350 X50.6 Z-3.5 I0.6 J0.
N19355 X49.4 Z-3. I-0.6 J0.
N19360 X50.6 Z-2.5 I0.6 J0.
N19365 X49.4 Z-2. I-0.6 J0.
N19370 X50.6 Z-1.5 I0.6 J0.
N19375 X49.4 Z-1. I-0.6 J0.
N19380 X50.6 Z-0.5 I0.6 J0.
N19385 X49.4 Z0. I-0.6 J0.
N19390 G1 X50.
N19395 G0 Z5.
N19400 X100.
N19405 G1 Z0. F800.
N19410 Z-10.5
N19415 X100.6
N19420 G3 X99.4 Z-10. I-0.6 J0.
N19425 X100.6 Z-9.5 I0.6 J0.
N19430 X99.4 Z-9. I-0.6 J0.
N19435 X100.6 Z-8.5 I0.6 J0.
N19440 X99.4 Z-8. I-0.6 J0.
N19445 X100.6 Z-7.5 I0.6 J0.
N19450 X99.4 Z-7. I-0.6 J0.
N19455 X100.6 Z-6.5 I0.6 J0.
N19460 X99.4 Z-6. I-0.6 J0.
N19465 X100.6 Z-5.5 I0.6 J0.
N19470 X99.4 Z-5. I-0.6 J0.
N19475 X100.6 Z-4.5 I0.6 J0.
N19480 X99.4 Z-4. I-0.6 J0.
N19485 X100.6 Z-3.5 I0.6 J0.
N19490 X99.4 Z-3. I-0.6 J0.
N19495 X100.6 Z-2.5 I0.6 J0.
N19500 X99.4 Z-2. I-0.6 J0.
N19505 X100.6 Z-1.5 I0.6 J0.
N19510 X99.4 Z-1. I-0.6 J0.
N19515 X100.6 Z-0.5 I0.6 J0.
N19520 X99.4 Z0. I-0.6 J0.
N19525 G1 X100.
N19530 G0 Z5.
N19535 X150.
N19540 G1 Z0. F800.
N19545 Z-10.5
N19550 X150.6
N19555 G3 X149.4 Z-10. I-0.6 J0.
N19560 X150.6 Z-9.5 I0.6 J0.
N19565 X149.4 Z-9. I-0.6 J0.
N19570 X150.6 Z-8.5 I0.6 J0.
N19575 X149.4 Z-8. I-0.6 J0.
N19580 X150.6 Z-7.5 I0.6 J0.
N19585 X149.4 Z-7. I-0.6 J0.
N19590 X150.6 Z-6.5 I0.6 J0.
N19595 X149.4 Z-6. I-0.6 J0.
N19600 X150.6 Z-5.5 I0.6 J0.
N19605 X149.4 Z-5. I-0.6 J0.
N19610 X150.6 Z-4.5 I0.6 J0.
N19615 X149.4 Z-4. I-0.6 J0.
N19620 X150.6 Z-3.5 I0.6 J0.
N19625 X149.4 Z-3. I-0.6 J0.
N19630 X150.6 Z-2.5 I0.6 J0.
N19635 X149.4 Z-2. I-0.6 J0.
N19640 X150.6 Z-1.5 I0.6 J0.
N19645 X149.4 Z-1. I-0.6 J0.
N19650 X150.6 Z-0.5 I0.6 J0.
N19655 X149.4 Z0. I-0.6 J0.
N19660 G1 X150.
N19665 G0 Z5.
N19670 X200.
N19675 G1 Z0. F800.
N19680 Z-10.5
N19685 X200.6
N19690 G3 X199.4 Z-10. I-0.6 J0.
N19695 X200.6 Z-9.5 I0.6 J0.
N19700 X199.4 Z-9. I-0.6 J0.
N19705 X200.6 Z-8.5 I0.6 J0.
N19710 X199.4 Z-8. I-0.6 J0.
N19715 X200.6 Z-7.5 I0.6 J0.
N19720 X199.4 Z-7. I-0.6 J0.
N19725 X200.6 Z-6.5 I0.6 J0.
N19730 X199.4 Z-6. I-0.6 J0.
N19735 X200.6 Z-5.5 I0.6 J0.
N19740 X199.4 Z-5. I-0.6 J0.
N19745 X200.6 Z-4.5 I0.6 J0.
N19750 X199.4 Z-4. I-0.6 J0.
N19755 X200.6 Z-3.5 I0.6 J0.
N19760 X199.4 Z-3. I-0.6 J0.
N19765 X200.6 Z-2.5 I0.6 J0.
N19770 X199.4 Z-2. I-0.6 J0.
N19775 X200.6 Z-1.5 I0.6 J0.
N19780 X199.4 Z-1. I-0.6 J0.
N19785 X200.6 Z-0.5 I0.6 J0.
N19790 X199.4 Z0. I-0.6 J0.
N19795 G1 X200.
N19800 G0 Z5.
N19805 X250.
N19810 G1 Z0. F800.
N19815 Z-10.5
N19820 X250.6
N19825 G3 X249.4 Z-10. I-0.6 J0.
N19830 X250.6 Z-9.5 I0.6 J0.
N19835 X249.4 Z-9. I-0.6 J0.
N19840 X250.6 Z-8.5 I0.6 J0.
N19845 X249.4 Z-8. I-0.6 J0.
N19850 X250.6 Z-7.5 I0.6 J0.
N19855 X249.4 Z-7. I-0.6 J0.
N19860 X250.6 Z-6.5 I0.6 J0.
N19865 X249.4 Z-6. I-0.6 J0.
N19870 X250.6 Z-5.5 I0.6 J0.
N19875 X249.4 Z-5. I-0.6 J0.
N19880 X250.6 Z-4.5 I0.6 J0.
N19885 X249.4 Z-4. I-0.6 J0.
N19890 X250.6 Z-3.5 I0.6 J0.
N19895 X249.4 Z-3. I-0.6 J0.
N19900 X250.6 Z-2.5 I0.6 J0.
N19905 X249.4 Z-2. I-0.6 J0.
N19910 X250.6 Z-1.5 I0.6 J0.
N19915 X249.4 Z-1. I-0.6 J0.
N19920 X250.6 Z-0.5 I0.6 J0.
N19925 X249.4 Z0. I-0.6 J0.
N19930 G1 X250.
N19935 G0 Z5.
N19940 X300.
N19945 G1 Z0. F800.
N19950 Z-10.5
N19955 X300.6
N19960 G3 X299.4 Z-10. I-0.6 J0.
N19965 X300.6 Z-9.5 I0.6 J0.
N19970 X299.4 Z-9. I-0.6 J0.
N19975 X300.6 Z-8.5 I0.6 J0.
N19980 X299.4 Z-8. I-0.6 J0.
N19985 X300.6 Z-7.5 I0.6 J0.
N19990 X299.4 Z-7. I-0.6 J0.
N19995 X300.6 Z-6.5 I0.6 J0.
N20000 X299.4 Z-6. I-0.6 J0.
N20005 X300.6 Z-5.5 I0.6 J0.
N20010 X299.4 Z-5. I-0.6 J0.
N20015 X300.6 Z-4.5 I0.6 J0.
N20020 X299.4 Z-4. I-0.6 J0.
N20025 X300.6 Z-3.5 I0.6 J0.
N20030 X299.4 Z-3. I-0.6 J0.
N20035 X300.6 Z-2.5 I0.6 J0.
N20040 X299.4 Z-2. I-0.6 J0.
N20045 X300.6 Z-1.5 I0.6 J0.
N20050 X299.4 Z-1. I-0.6 J0.
N20055 X300.6 Z-0.5 I0.6 J0.
N20060 X299.4 Z0. I-0.6 J0.
N20065 G1 X300.
N20070 G0 Z5.
N20075 Y100.
N20080 G1 Z0. F800.
N20085 Z-10.5
N20090 X300.6
N20095 G3 X299.4 Z-10. I-0.6 J0.
N20100 X300.6 Z-9.5 I0.6 J0.
N20105 X299.4 Z-9. I-0.6 J0.
N20110 X300.6 Z-8.5 I0.6 J0.
N20115 X299.4 Z-8. I-0.6 J0.
N20120 X300.6 Z-7.5 I0.6 J0.
N20125 X299.4 Z-7. I-0.6 J0.
N20130 X300.6 Z-6.5 I0.6 J0.
N20135 X299.4 Z-6. I-0.6 J0.
N20140 X300.6 Z-5.5 I0.6 J0.
N20145 X299.4 Z-5. I-0.6 J0.
N20150 X300.6 Z-4.5 I0.6 J0.
N20155 X299.4 Z-4. I-0.6 J0.
