(Exported by FreeCAD)
(Post Processor: linuxcnc_post)
(Output Time:2022-02-20 17:41:06.580380)
(begin preamble)
G17 G54 G40 G49 G80 G90
G21
(begin operation: Fixture)
(machine units: mm/min)
G54 
(finish operation: Fixture)
(begin operation: 6_mm_Spot_Drill002)
(machine units: mm/min)
(6_mm_Spot_Drill002) 
M5
M6 T4 
G43 H4 
M3 S9284 
(finish operation: 6_mm_Spot_Drill002)
(begin operation: Drilling)
(machine units: mm/min)
(Drilling) 
(Begin Drilling) 
G0 Z10.000 
G90 
G99 
G0 X0.000 Y0.000 
G0 Z3.000 
G1 Z0.000 F370.800 
G81 X0.000 Y0.000 Z-2.000 F370.800 R0.000 
G80 
G0 Z3.000 
G0 Z10.000 
(finish operation: Drilling)
(begin operation: 5mm Drill002)
(machine units: mm/min)
(5mm Drill002) 
M5
M6 T9 
G43 H9 
M3 S11140 
(finish operation: 5mm Drill002)
(begin operation: Drilling001)
(machine units: mm/min)
(Drilling001) 
(Begin Drilling) 
G0 Z10.000 
G90 
G99 
G0 X0.000 Y0.000 
G0 Z3.000 
G1 Z0.000 F445.200 
G83 X0.000 Y0.000 Z-17.000 F445.200 Q3.750 R0.000 
G80 
G0 Z3.000 
G0 Z10.000 
(finish operation: Drilling001)
(begin operation: TC: M6_Thread_Cutter)
(machine units: mm/min)
(TC: M6_Thread_Cutter) 
M5
M6 T1 
G43 H1 
M3 S15000 
(finish operation: TC: M6_Thread_Cutter)
(begin operation: ThreadMilling)
(machine units: mm/min)
(Coolant On:Mist)
M7
(ThreadMilling) 
(Begin Thread Milling) 
G0 Z10.000 
G0 X0.000 Y0.000 
G0 Z-10.000 
G3 Y1.113 J0.557 F1920.000 
G3 Y-1.113 Z-9.500 J-1.113 F1920.000 
G3 Y1.113 Z-9.000 J1.113 F1920.000 
G3 Y-1.113 Z-8.500 J-1.113 F1920.000 
G3 Y1.113 Z-8.000 J1.113 F1920.000 
G3 Y-1.113 Z-7.500 J-1.113 F1920.000 
G3 Y1.113 Z-7.000 J1.113 F1920.000 
G3 Y-1.113 Z-6.500 J-1.113 F1920.000 
G3 Y1.113 Z-6.000 J1.113 F1920.000 
G3 Y-1.113 Z-5.500 J-1.113 F1920.000 
G3 Y1.113 Z-5.000 J1.113 F1920.000 
G3 Y-1.113 Z-4.500 J-1.113 F1920.000 
G3 Y1.113 Z-4.000 J1.113 F1920.000 
G3 Y-1.113 Z-3.500 J-1.113 F1920.000 
G3 Y1.113 Z-3.000 J1.113 F1920.000 
G3 Y-1.113 Z-2.500 J-1.113 F1920.000 
G3 Y1.113 Z-2.000 J1.113 F1920.000 
G3 Y-1.113 Z-1.500 J-1.113 F1920.000 
G3 Y1.113 Z-1.000 J1.113 F1920.000 
G3 Y-1.113 Z-0.500 J-1.113 F1920.000 
G3 Y1.113 Z0.000 J1.113 F1920.000 
G3 X0.000 Y0.000 I0.000 J-0.557 F1920.000 
G0 Z10.000 
G0 Z10.000 
(finish operation: ThreadMilling)
(Coolant Off:Mist)
M9
(begin postamble)
M05
G17 G54 G90 G80 G40
M2
