%
(M8_FASETTE)
(T1  D=6. CR=0. TAPER=45DEG - ZMIN=-6.55 - CHAMFER MILL)
(T21  D=5.72 CR=0. - ZMIN=-14.456 - THREAD MILL)
N10 G90 G94 G17 G91.1
N15 G21
N20 G53 G0 Z0.
(THREAD2)
N25 T21 M6
N30 S8000 M3
N35 G54
N40 M8
N45 G0 X10. Y-15.
N50 G43 Z15. H21
N55 G0 Z-12.456
N60 G1 Z-14.456 F300.
N65 X10.565 Y-15.565
N70 G3 X11.13 Y-15. Z-14.3 I0. J0.565
N75 X8.87 Z-13.675 I-1.13 J0. F800.
N80 X11.13 Z-13.05 I1.13 J0.
N85 X8.87 Z-12.425 I-1.13 J0.
N90 X11.13 Z-11.8 I1.13 J0.
N95 X8.87 Z-11.175 I-1.13 J0.
N100 X11.13 Z-10.55 I1.13 J0.
N105 X8.87 Z-9.925 I-1.13 J0.
N110 X11.13 Z-9.3 I1.13 J0.
N115 X8.87 Z-8.675 I-1.13 J0.
N120 X11.13 Z-8.05 I1.13 J0.
N125 X8.87 Z-7.425 I-1.13 J0.
N130 X11.13 Z-6.8 I1.13 J0.
N135 X8.87 Z-6.175 I-1.13 J0.
N140 X11.13 Z-5.55 I1.13 J0.
N145 X8.87 Z-4.925 I-1.13 J0.
N150 X11.13 Z-4.3 I1.13 J0.
N155 X8.87 Z-3.675 I-1.13 J0.
N160 X11.13 Z-3.05 I1.13 J0.
N165 X8.87 Z-2.425 I-1.13 J0.
N170 X11.13 Z-1.8 I1.13 J0.
N175 X8.87 Z-1.175 I-1.13 J0.
N180 X11.13 Z-0.55 I1.13 J0.
N185 X10.349 Y-13.926 Z-0.3 I-1.13 J0.
N190 X9.637 Y-14.288 Z-0.144 I-0.175 J-0.537 F300.
N195 G1 X10. Y-15.
N200 G0 Z15.
N205 M5
N210 G53 Z0.
(2D CHAMFER1)
N215 M9
N220 T1 M6
N225 S16000 M3
N230 G54
N235 M8
N240 G0 X66.583 Y-14.702
N245 G43 Z15. H1
N250 G0 Z5.
N255 G1 Z2. F333.33
N260 Z-1.8
N265 X67.179 Y-14.633 F1000.
N270 G3 X64. Y-11.8 I-3.179 J-0.367
N275 G1 X27.
N280 G3 Y-18.2 I0. J-3.2
N285 G1 X64.
N290 G3 X67.179 Y-14.633 I0. J3.2
N295 G1 X66.583 Y-14.702
N300 G0 Z5.
N305 X75.65 Y-15.
N310 G1 Z2. F333.33
N315 Z-1.8
N320 X75.05 F1000.
N325 Y-24.615
N330 G2 X74.525 Y-25.525 I-1.05 J0.
N335 G1 X69.525 Y-28.409
N340 G2 X69. Y-28.55 I-0.525 J0.909
N345 G1 X3.
N350 G2 X2.258 Y-28.242 I0. J1.05
N355 G1 X1.258 Y-27.242
N360 G2 X0.95 Y-26.5 I0.742 J0.742
N365 G1 Y-3.5
N370 G2 X1.258 Y-2.758 I1.05 J0.
N375 G1 X2.258 Y-1.758
N380 G2 X3. Y-1.45 I0.742 J-0.742
N385 G1 X69.
N390 G2 X69.525 Y-1.591 I0. J-1.05
N395 G1 X74.525 Y-4.475
N400 G2 X75.05 Y-5.385 I-0.525 J-0.909
N405 G1 Y-15.
N410 X75.65
N415 G0 Z5.
N420 X10.07 Y-13.262
N425 G1 Z2. F333.33
N430 Z-1.8
N435 X10.094 Y-12.662 F1000.
N440 G3 X7.66 Y-15. I-0.094 J-2.338
N445 X12.34 I2.34 J0.
N450 X10.094 Y-12.662 I-2.34 J0.
N455 G1 X10.07 Y-13.262
N460 G0 Z15.
(2D CHAMFER1 2)
N465 G0 X77.9 Y-5.73
N470 Z15.
N475 Z5.
N480 G1 Z2. F333.33
N485 Z-6.55
N490 X77.6 Y-6.249 F1000.
N495 X82.092 Y-8.841
N500 G2 X82.476 Y-9.225 I-0.525 J-0.909
N505 G1 X82.909 Y-9.975
N510 G2 X83.05 Y-10.5 I-0.909 J-0.525
N515 G1 Y-19.5
N520 G2 X82.909 Y-20.025 I-1.05 J0.
N525 G1 X82.476 Y-20.775
N530 G2 X82.092 Y-21.159 I-0.909 J0.525
N535 G1 X77.6 Y-23.751
N540 X77.9 Y-24.27
N545 G0 Z15.
N550 M9
N555 G53 Z0.
N560 M30
%
