(MOUNTING_M6_ONE_LINE)
(T12  D=5. CR=0. TAPER=118DEG - ZMIN=-15. - DRILL)
(T14  D=4.8 CR=0. - ZMIN=-10.5 - THREAD MILL)
N10 G90 G94 G17 G91.1
N15 G21
N20 G53 G0 Z0.
(DRILL5)
N25 T12 M6
N30 T14
N35 S13000 M3
N40 G54
N45 M7
N50 G0 X0. Y0.
N55 G43 Z25. H12
N60 G0 Z5.
N65 G98 G83 X0. Y0. Z-15. R5. Q4. F400.
N70 Y50.
N75 Y100.
N80 Y150.
N85 Y200.
N90 Y250.
N95 Y300.
N100 Y350.
N105 Y400.
N110 Y450.
N115 Y500.
N120 Y550.
N125 Y600.
N130 Y650.
N135 Y700.
N140 Y750.
N145 G80
N150 G0 Z25.
N155 M9
N160 M5
N165 G53 Z0.
(DRILL6)
N170 M1
N175 T14 M6
N180 T12
N185 S17000 M3
N190 G54
N195 M8
N200 G0 X0. Y0.
N205 G43 Z15. H14
N210 G0 Z5.
N215 G1 Z0. F800.
N220 Z-10.5
N225 X0.6
N230 G3 X-0.6 Z-10. I-0.6 J0.
N235 X0.6 Z-9.5 I0.6 J0.
N240 X-0.6 Z-9. I-0.6 J0.
N245 X0.6 Z-8.5 I0.6 J0.
N250 X-0.6 Z-8. I-0.6 J0.
N255 X0.6 Z-7.5 I0.6 J0.
N260 X-0.6 Z-7. I-0.6 J0.
N265 X0.6 Z-6.5 I0.6 J0.
N270 X-0.6 Z-6. I-0.6 J0.
N275 X0.6 Z-5.5 I0.6 J0.
N280 X-0.6 Z-5. I-0.6 J0.
N285 X0.6 Z-4.5 I0.6 J0.
N290 X-0.6 Z-4. I-0.6 J0.
N295 X0.6 Z-3.5 I0.6 J0.
N300 X-0.6 Z-3. I-0.6 J0.
N305 X0.6 Z-2.5 I0.6 J0.
N310 X-0.6 Z-2. I-0.6 J0.
N315 X0.6 Z-1.5 I0.6 J0.
N320 X-0.6 Z-1. I-0.6 J0.
N325 X0.6 Z-0.5 I0.6 J0.
N330 X-0.6 Z0. I-0.6 J0.
N335 G1 X0.
N340 G0 Z5.
N345 Y50.
N350 G1 Z0. F800.
N355 Z-10.5
N360 X0.6
N365 G3 X-0.6 Z-10. I-0.6 J0.
N370 X0.6 Z-9.5 I0.6 J0.
N375 X-0.6 Z-9. I-0.6 J0.
N380 X0.6 Z-8.5 I0.6 J0.
N385 X-0.6 Z-8. I-0.6 J0.
N390 X0.6 Z-7.5 I0.6 J0.
N395 X-0.6 Z-7. I-0.6 J0.
N400 X0.6 Z-6.5 I0.6 J0.
N405 X-0.6 Z-6. I-0.6 J0.
N410 X0.6 Z-5.5 I0.6 J0.
N415 X-0.6 Z-5. I-0.6 J0.
N420 X0.6 Z-4.5 I0.6 J0.
N425 X-0.6 Z-4. I-0.6 J0.
N430 X0.6 Z-3.5 I0.6 J0.
N435 X-0.6 Z-3. I-0.6 J0.
N440 X0.6 Z-2.5 I0.6 J0.
N445 X-0.6 Z-2. I-0.6 J0.
N450 X0.6 Z-1.5 I0.6 J0.
N455 X-0.6 Z-1. I-0.6 J0.
N460 X0.6 Z-0.5 I0.6 J0.
N465 X-0.6 Z0. I-0.6 J0.
N470 G1 X0.
N475 G0 Z5.
N480 Y100.
N485 G1 Z0. F800.
N490 Z-10.5
N495 X0.6
N500 G3 X-0.6 Z-10. I-0.6 J0.
N505 X0.6 Z-9.5 I0.6 J0.
N510 X-0.6 Z-9. I-0.6 J0.
N515 X0.6 Z-8.5 I0.6 J0.
N520 X-0.6 Z-8. I-0.6 J0.
N525 X0.6 Z-7.5 I0.6 J0.
N530 X-0.6 Z-7. I-0.6 J0.
N535 X0.6 Z-6.5 I0.6 J0.
N540 X-0.6 Z-6. I-0.6 J0.
N545 X0.6 Z-5.5 I0.6 J0.
N550 X-0.6 Z-5. I-0.6 J0.
N555 X0.6 Z-4.5 I0.6 J0.
N560 X-0.6 Z-4. I-0.6 J0.
N565 X0.6 Z-3.5 I0.6 J0.
N570 X-0.6 Z-3. I-0.6 J0.
N575 X0.6 Z-2.5 I0.6 J0.
N580 X-0.6 Z-2. I-0.6 J0.
N585 X0.6 Z-1.5 I0.6 J0.
N590 X-0.6 Z-1. I-0.6 J0.
N595 X0.6 Z-0.5 I0.6 J0.
N600 X-0.6 Z0. I-0.6 J0.
N605 G1 X0.
N610 G0 Z5.
N615 Y150.
N620 G1 Z0. F800.
N625 Z-10.5
N630 X0.6
N635 G3 X-0.6 Z-10. I-0.6 J0.
N640 X0.6 Z-9.5 I0.6 J0.
N645 X-0.6 Z-9. I-0.6 J0.
N650 X0.6 Z-8.5 I0.6 J0.
N655 X-0.6 Z-8. I-0.6 J0.
N660 X0.6 Z-7.5 I0.6 J0.
N665 X-0.6 Z-7. I-0.6 J0.
N670 X0.6 Z-6.5 I0.6 J0.
N675 X-0.6 Z-6. I-0.6 J0.
N680 X0.6 Z-5.5 I0.6 J0.
N685 X-0.6 Z-5. I-0.6 J0.
N690 X0.6 Z-4.5 I0.6 J0.
N695 X-0.6 Z-4. I-0.6 J0.
N700 X0.6 Z-3.5 I0.6 J0.
N705 X-0.6 Z-3. I-0.6 J0.
N710 X0.6 Z-2.5 I0.6 J0.
N715 X-0.6 Z-2. I-0.6 J0.
N720 X0.6 Z-1.5 I0.6 J0.
N725 X-0.6 Z-1. I-0.6 J0.
N730 X0.6 Z-0.5 I0.6 J0.
N735 X-0.6 Z0. I-0.6 J0.
N740 G1 X0.
N745 G0 Z5.
N750 Y200.
N755 G1 Z0. F800.
N760 Z-10.5
N765 X0.6
N770 G3 X-0.6 Z-10. I-0.6 J0.
N775 X0.6 Z-9.5 I0.6 J0.
N780 X-0.6 Z-9. I-0.6 J0.
N785 X0.6 Z-8.5 I0.6 J0.
N790 X-0.6 Z-8. I-0.6 J0.
N795 X0.6 Z-7.5 I0.6 J0.
N800 X-0.6 Z-7. I-0.6 J0.
N805 X0.6 Z-6.5 I0.6 J0.
N810 X-0.6 Z-6. I-0.6 J0.
N815 X0.6 Z-5.5 I0.6 J0.
N820 X-0.6 Z-5. I-0.6 J0.
N825 X0.6 Z-4.5 I0.6 J0.
N830 X-0.6 Z-4. I-0.6 J0.
N835 X0.6 Z-3.5 I0.6 J0.
N840 X-0.6 Z-3. I-0.6 J0.
N845 X0.6 Z-2.5 I0.6 J0.
N850 X-0.6 Z-2. I-0.6 J0.
N855 X0.6 Z-1.5 I0.6 J0.
N860 X-0.6 Z-1. I-0.6 J0.
N865 X0.6 Z-0.5 I0.6 J0.
N870 X-0.6 Z0. I-0.6 J0.
N875 G1 X0.
N880 G0 Z5.
N885 Y250.
N890 G1 Z0. F800.
N895 Z-10.5
N900 X0.6
N905 G3 X-0.6 Z-10. I-0.6 J0.
N910 X0.6 Z-9.5 I0.6 J0.
N915 X-0.6 Z-9. I-0.6 J0.
N920 X0.6 Z-8.5 I0.6 J0.
N925 X-0.6 Z-8. I-0.6 J0.
N930 X0.6 Z-7.5 I0.6 J0.
N935 X-0.6 Z-7. I-0.6 J0.
N940 X0.6 Z-6.5 I0.6 J0.
N945 X-0.6 Z-6. I-0.6 J0.
N950 X0.6 Z-5.5 I0.6 J0.
N955 X-0.6 Z-5. I-0.6 J0.
N960 X0.6 Z-4.5 I0.6 J0.
N965 X-0.6 Z-4. I-0.6 J0.
N970 X0.6 Z-3.5 I0.6 J0.
N975 X-0.6 Z-3. I-0.6 J0.
N980 X0.6 Z-2.5 I0.6 J0.
N985 X-0.6 Z-2. I-0.6 J0.
N990 X0.6 Z-1.5 I0.6 J0.
N995 X-0.6 Z-1. I-0.6 J0.
N1000 X0.6 Z-0.5 I0.6 J0.
N1005 X-0.6 Z0. I-0.6 J0.
N1010 G1 X0.
N1015 G0 Z5.
N1020 Y300.
N1025 G1 Z0. F800.
N1030 Z-10.5
N1035 X0.6
N1040 G3 X-0.6 Z-10. I-0.6 J0.
N1045 X0.6 Z-9.5 I0.6 J0.
N1050 X-0.6 Z-9. I-0.6 J0.
N1055 X0.6 Z-8.5 I0.6 J0.
N1060 X-0.6 Z-8. I-0.6 J0.
N1065 X0.6 Z-7.5 I0.6 J0.
N1070 X-0.6 Z-7. I-0.6 J0.
N1075 X0.6 Z-6.5 I0.6 J0.
N1080 X-0.6 Z-6. I-0.6 J0.
N1085 X0.6 Z-5.5 I0.6 J0.
N1090 X-0.6 Z-5. I-0.6 J0.
N1095 X0.6 Z-4.5 I0.6 J0.
N1100 X-0.6 Z-4. I-0.6 J0.
N1105 X0.6 Z-3.5 I0.6 J0.
N1110 X-0.6 Z-3. I-0.6 J0.
N1115 X0.6 Z-2.5 I0.6 J0.
N1120 X-0.6 Z-2. I-0.6 J0.
N1125 X0.6 Z-1.5 I0.6 J0.
N1130 X-0.6 Z-1. I-0.6 J0.
N1135 X0.6 Z-0.5 I0.6 J0.
N1140 X-0.6 Z0. I-0.6 J0.
N1145 G1 X0.
N1150 G0 Z5.
N1155 Y350.
N1160 G1 Z0. F800.
N1165 Z-10.5
N1170 X0.6
N1175 G3 X-0.6 Z-10. I-0.6 J0.
N1180 X0.6 Z-9.5 I0.6 J0.
N1185 X-0.6 Z-9. I-0.6 J0.
N1190 X0.6 Z-8.5 I0.6 J0.
N1195 X-0.6 Z-8. I-0.6 J0.
N1200 X0.6 Z-7.5 I0.6 J0.
N1205 X-0.6 Z-7. I-0.6 J0.
N1210 X0.6 Z-6.5 I0.6 J0.
N1215 X-0.6 Z-6. I-0.6 J0.
N1220 X0.6 Z-5.5 I0.6 J0.
N1225 X-0.6 Z-5. I-0.6 J0.
N1230 X0.6 Z-4.5 I0.6 J0.
N1235 X-0.6 Z-4. I-0.6 J0.
N1240 X0.6 Z-3.5 I0.6 J0.
N1245 X-0.6 Z-3. I-0.6 J0.
N1250 X0.6 Z-2.5 I0.6 J0.
N1255 X-0.6 Z-2. I-0.6 J0.
N1260 X0.6 Z-1.5 I0.6 J0.
N1265 X-0.6 Z-1. I-0.6 J0.
N1270 X0.6 Z-0.5 I0.6 J0.
N1275 X-0.6 Z0. I-0.6 J0.
N1280 G1 X0.
N1285 G0 Z5.
N1290 Y400.
N1295 G1 Z0. F800.
N1300 Z-10.5
N1305 X0.6
N1310 G3 X-0.6 Z-10. I-0.6 J0.
N1315 X0.6 Z-9.5 I0.6 J0.
N1320 X-0.6 Z-9. I-0.6 J0.
N1325 X0.6 Z-8.5 I0.6 J0.
N1330 X-0.6 Z-8. I-0.6 J0.
N1335 X0.6 Z-7.5 I0.6 J0.
N1340 X-0.6 Z-7. I-0.6 J0.
N1345 X0.6 Z-6.5 I0.6 J0.
N1350 X-0.6 Z-6. I-0.6 J0.
N1355 X0.6 Z-5.5 I0.6 J0.
N1360 X-0.6 Z-5. I-0.6 J0.
N1365 X0.6 Z-4.5 I0.6 J0.
N1370 X-0.6 Z-4. I-0.6 J0.
N1375 X0.6 Z-3.5 I0.6 J0.
N1380 X-0.6 Z-3. I-0.6 J0.
N1385 X0.6 Z-2.5 I0.6 J0.
N1390 X-0.6 Z-2. I-0.6 J0.
N1395 X0.6 Z-1.5 I0.6 J0.
N1400 X-0.6 Z-1. I-0.6 J0.
N1405 X0.6 Z-0.5 I0.6 J0.
N1410 X-0.6 Z0. I-0.6 J0.
N1415 G1 X0.
N1420 G0 Z5.
N1425 Y450.
N1430 G1 Z0. F800.
N1435 Z-10.5
N1440 X0.6
N1445 G3 X-0.6 Z-10. I-0.6 J0.
N1450 X0.6 Z-9.5 I0.6 J0.
N1455 X-0.6 Z-9. I-0.6 J0.
N1460 X0.6 Z-8.5 I0.6 J0.
N1465 X-0.6 Z-8. I-0.6 J0.
N1470 X0.6 Z-7.5 I0.6 J0.
N1475 X-0.6 Z-7. I-0.6 J0.
N1480 X0.6 Z-6.5 I0.6 J0.
N1485 X-0.6 Z-6. I-0.6 J0.
N1490 X0.6 Z-5.5 I0.6 J0.
N1495 X-0.6 Z-5. I-0.6 J0.
N1500 X0.6 Z-4.5 I0.6 J0.
N1505 X-0.6 Z-4. I-0.6 J0.
N1510 X0.6 Z-3.5 I0.6 J0.
N1515 X-0.6 Z-3. I-0.6 J0.
N1520 X0.6 Z-2.5 I0.6 J0.
N1525 X-0.6 Z-2. I-0.6 J0.
N1530 X0.6 Z-1.5 I0.6 J0.
N1535 X-0.6 Z-1. I-0.6 J0.
N1540 X0.6 Z-0.5 I0.6 J0.
N1545 X-0.6 Z0. I-0.6 J0.
N1550 G1 X0.
N1555 G0 Z5.
N1560 Y500.
N1565 G1 Z0. F800.
N1570 Z-10.5
N1575 X0.6
N1580 G3 X-0.6 Z-10. I-0.6 J0.
N1585 X0.6 Z-9.5 I0.6 J0.
N1590 X-0.6 Z-9. I-0.6 J0.
N1595 X0.6 Z-8.5 I0.6 J0.
N1600 X-0.6 Z-8. I-0.6 J0.
N1605 X0.6 Z-7.5 I0.6 J0.
N1610 X-0.6 Z-7. I-0.6 J0.
N1615 X0.6 Z-6.5 I0.6 J0.
N1620 X-0.6 Z-6. I-0.6 J0.
N1625 X0.6 Z-5.5 I0.6 J0.
N1630 X-0.6 Z-5. I-0.6 J0.
N1635 X0.6 Z-4.5 I0.6 J0.
N1640 X-0.6 Z-4. I-0.6 J0.
N1645 X0.6 Z-3.5 I0.6 J0.
N1650 X-0.6 Z-3. I-0.6 J0.
N1655 X0.6 Z-2.5 I0.6 J0.
N1660 X-0.6 Z-2. I-0.6 J0.
N1665 X0.6 Z-1.5 I0.6 J0.
N1670 X-0.6 Z-1. I-0.6 J0.
N1675 X0.6 Z-0.5 I0.6 J0.
N1680 X-0.6 Z0. I-0.6 J0.
N1685 G1 X0.
N1690 G0 Z5.
N1695 Y550.
N1700 G1 Z0. F800.
N1705 Z-10.5
N1710 X0.6
N1715 G3 X-0.6 Z-10. I-0.6 J0.
N1720 X0.6 Z-9.5 I0.6 J0.
N1725 X-0.6 Z-9. I-0.6 J0.
N1730 X0.6 Z-8.5 I0.6 J0.
N1735 X-0.6 Z-8. I-0.6 J0.
N1740 X0.6 Z-7.5 I0.6 J0.
N1745 X-0.6 Z-7. I-0.6 J0.
N1750 X0.6 Z-6.5 I0.6 J0.
N1755 X-0.6 Z-6. I-0.6 J0.
N1760 X0.6 Z-5.5 I0.6 J0.
N1765 X-0.6 Z-5. I-0.6 J0.
N1770 X0.6 Z-4.5 I0.6 J0.
N1775 X-0.6 Z-4. I-0.6 J0.
N1780 X0.6 Z-3.5 I0.6 J0.
N1785 X-0.6 Z-3. I-0.6 J0.
N1790 X0.6 Z-2.5 I0.6 J0.
N1795 X-0.6 Z-2. I-0.6 J0.
N1800 X0.6 Z-1.5 I0.6 J0.
N1805 X-0.6 Z-1. I-0.6 J0.
N1810 X0.6 Z-0.5 I0.6 J0.
N1815 X-0.6 Z0. I-0.6 J0.
N1820 G1 X0.
N1825 G0 Z5.
N1830 Y600.
N1835 G1 Z0. F800.
N1840 Z-10.5
N1845 X0.6
N1850 G3 X-0.6 Z-10. I-0.6 J0.
N1855 X0.6 Z-9.5 I0.6 J0.
N1860 X-0.6 Z-9. I-0.6 J0.
N1865 X0.6 Z-8.5 I0.6 J0.
N1870 X-0.6 Z-8. I-0.6 J0.
N1875 X0.6 Z-7.5 I0.6 J0.
N1880 X-0.6 Z-7. I-0.6 J0.
N1885 X0.6 Z-6.5 I0.6 J0.
N1890 X-0.6 Z-6. I-0.6 J0.
N1895 X0.6 Z-5.5 I0.6 J0.
N1900 X-0.6 Z-5. I-0.6 J0.
N1905 X0.6 Z-4.5 I0.6 J0.
N1910 X-0.6 Z-4. I-0.6 J0.
N1915 X0.6 Z-3.5 I0.6 J0.
N1920 X-0.6 Z-3. I-0.6 J0.
N1925 X0.6 Z-2.5 I0.6 J0.
N1930 X-0.6 Z-2. I-0.6 J0.
N1935 X0.6 Z-1.5 I0.6 J0.
N1940 X-0.6 Z-1. I-0.6 J0.
N1945 X0.6 Z-0.5 I0.6 J0.
N1950 X-0.6 Z0. I-0.6 J0.
N1955 G1 X0.
N1960 G0 Z5.
N1965 Y650.
N1970 G1 Z0. F800.
N1975 Z-10.5
N1980 X0.6
N1985 G3 X-0.6 Z-10. I-0.6 J0.
N1990 X0.6 Z-9.5 I0.6 J0.
N1995 X-0.6 Z-9. I-0.6 J0.
N2000 X0.6 Z-8.5 I0.6 J0.
N2005 X-0.6 Z-8. I-0.6 J0.
N2010 X0.6 Z-7.5 I0.6 J0.
N2015 X-0.6 Z-7. I-0.6 J0.
N2020 X0.6 Z-6.5 I0.6 J0.
N2025 X-0.6 Z-6. I-0.6 J0.
N2030 X0.6 Z-5.5 I0.6 J0.
N2035 X-0.6 Z-5. I-0.6 J0.
N2040 X0.6 Z-4.5 I0.6 J0.
N2045 X-0.6 Z-4. I-0.6 J0.
N2050 X0.6 Z-3.5 I0.6 J0.
N2055 X-0.6 Z-3. I-0.6 J0.
N2060 X0.6 Z-2.5 I0.6 J0.
N2065 X-0.6 Z-2. I-0.6 J0.
N2070 X0.6 Z-1.5 I0.6 J0.
N2075 X-0.6 Z-1. I-0.6 J0.
N2080 X0.6 Z-0.5 I0.6 J0.
N2085 X-0.6 Z0. I-0.6 J0.
N2090 G1 X0.
N2095 G0 Z5.
N2100 Y700.
N2105 G1 Z0. F800.
N2110 Z-10.5
N2115 X0.6
N2120 G3 X-0.6 Z-10. I-0.6 J0.
N2125 X0.6 Z-9.5 I0.6 J0.
N2130 X-0.6 Z-9. I-0.6 J0.
N2135 X0.6 Z-8.5 I0.6 J0.
N2140 X-0.6 Z-8. I-0.6 J0.
N2145 X0.6 Z-7.5 I0.6 J0.
N2150 X-0.6 Z-7. I-0.6 J0.
N2155 X0.6 Z-6.5 I0.6 J0.
N2160 X-0.6 Z-6. I-0.6 J0.
N2165 X0.6 Z-5.5 I0.6 J0.
N2170 X-0.6 Z-5. I-0.6 J0.
N2175 X0.6 Z-4.5 I0.6 J0.
N2180 X-0.6 Z-4. I-0.6 J0.
N2185 X0.6 Z-3.5 I0.6 J0.
N2190 X-0.6 Z-3. I-0.6 J0.
N2195 X0.6 Z-2.5 I0.6 J0.
N2200 X-0.6 Z-2. I-0.6 J0.
N2205 X0.6 Z-1.5 I0.6 J0.
N2210 X-0.6 Z-1. I-0.6 J0.
N2215 X0.6 Z-0.5 I0.6 J0.
N2220 X-0.6 Z0. I-0.6 J0.
N2225 G1 X0.
N2230 G0 Z5.
N2235 Y750.
N2240 G1 Z0. F800.
N2245 Z-10.5
N2250 X0.6
N2255 G3 X-0.6 Z-10. I-0.6 J0.
N2260 X0.6 Z-9.5 I0.6 J0.
N2265 X-0.6 Z-9. I-0.6 J0.
N2270 X0.6 Z-8.5 I0.6 J0.
N2275 X-0.6 Z-8. I-0.6 J0.
N2280 X0.6 Z-7.5 I0.6 J0.
N2285 X-0.6 Z-7. I-0.6 J0.
N2290 X0.6 Z-6.5 I0.6 J0.
N2295 X-0.6 Z-6. I-0.6 J0.
N2300 X0.6 Z-5.5 I0.6 J0.
N2305 X-0.6 Z-5. I-0.6 J0.
N2310 X0.6 Z-4.5 I0.6 J0.
N2315 X-0.6 Z-4. I-0.6 J0.
N2320 X0.6 Z-3.5 I0.6 J0.
N2325 X-0.6 Z-3. I-0.6 J0.
N2330 X0.6 Z-2.5 I0.6 J0.
N2335 X-0.6 Z-2. I-0.6 J0.
N2340 X0.6 Z-1.5 I0.6 J0.
N2345 X-0.6 Z-1. I-0.6 J0.
N2350 X0.6 Z-0.5 I0.6 J0.
N2355 X-0.6 Z0. I-0.6 J0.
N2360 G1 X0.
N2365 G0 Z5.
N2370 Z15.
N2375 M9
N2380 G53 Z0.
N2385 M30
