%
(OFEN_S1_V2)
(T1  D=6. CR=0. TAPER=45DEG - ZMIN=-12. - CHAMFER MILL)
(T19  D=3. CR=0. - ZMIN=-10.5 - FLAT END MILL)
N10 G90 G94 G17 G91.1
N15 G21
N20 G53 G0 Z0.
(2D ADAPTIVE6)
N25 T19 M6
N30 T1
N35 S14865 M3
N40 G54
N45 M8
N50 G0 X-53.519 Y-10.006
N55 G43 Z15. H19
N60 G0 Z5.
N65 Z2.5
N70 G3 X-51.371 Y-11.383 Z2.394 I1.519 J0.006 F1206.
N75 X-50.998 Y-8.862 Z2.288 I-0.629 J1.381
N80 X-53.447 Y-9.555 Z2.183 I-1. J-1.138
N85 X-51.811 Y-11.502 Z2.077 I1.447 J-0.445
N90 X-50.709 Y-9.214 Z1.971 I-0.188 J1.5
N95 X-53.244 Y-9.147 Z1.865 I-1.289 J-0.786
N100 X-52.266 Y-11.484 Z1.76 I1.244 J-0.852
N105 X-50.539 Y-9.636 Z1.654 I0.266 J1.483
N110 X-52.93 Y-8.82 Z1.548 I-1.459 J-0.365
N115 X-52.693 Y-11.332 Z1.442 I0.931 J-1.18
N120 X-50.502 Y-10.087 Z1.337 I0.693 J1.331
N125 X-52.534 Y-8.601 Z1.231 I-1.497 J0.086
N130 X-53.054 Y-11.061 Z1.125 I0.535 J-1.398
N135 X-50.6 Y-10.527 Z1.019 I1.054 J1.061
N140 X-52.093 Y-8.511 Z0.913 I-1.398 J0.525
N145 X-53.317 Y-10.697 Z0.808 I0.095 J-1.489
N150 X-50.825 Y-10.916 Z0.702 I1.317 J0.696
N155 X-51.647 Y-8.556 Z0.596 I-1.174 J0.914
N160 X-53.459 Y-10.272 Z0.49 I-0.352 J-1.444
N165 X-51.154 Y-11.219 Z0.385 I1.459 J0.271
N170 X-51.235 Y-8.731 Z0.279 I-0.845 J1.218
N175 X-53.468 Y-9.825 Z0.173 I-0.763 J-1.269
N180 X-51.557 Y-11.411 Z0.067 I1.468 J-0.175
N185 X-50.896 Y-9.02 Z-0.038 I-0.443 J1.409
N190 X-53.344 Y-9.398 Z-0.144 I-1.102 J-0.981
N195 X-51.997 Y-11.473 Z-0.25 I1.345 J-0.602
N200 X-50.659 Y-9.395 Z-0.356 I-0.003 J1.471
N205 X-53.1 Y-9.028 Z-0.462 I-1.339 J-0.606
N210 X-52.433 Y-11.401 Z-0.567 I1.1 J-0.971
N215 X-50.545 Y-9.822 Z-0.673 I0.433 J1.4
N220 X-52.758 Y-8.75 Z-0.779 I-1.453 J-0.179
N225 X-52.828 Y-11.204 Z-0.885 I0.759 J-1.25
N230 X-50.563 Y-10.262 Z-0.99 I0.828 J1.203
N235 X-52.349 Y-8.586 Z-1.096 I-1.435 J0.261
N240 X-53.144 Y-10.899 Z-1.202 I0.351 J-1.414
N245 X-50.711 Y-10.675 Z-1.308 I1.144 J0.899
N250 X-51.913 Y-8.551 Z-1.413 I-1.287 J0.673
N255 X-53.355 Y-10.516 Z-1.519 I-0.086 J-1.448
N260 X-50.974 Y-11.024 Z-1.625 I1.354 J0.515
N265 X-51.487 Y-8.648 Z-1.731 I-1.024 J1.022
N270 X-53.441 Y-10.089 Z-1.837 I-0.511 J-1.352
N275 X-51.328 Y-11.278 Z-1.942 I1.441 J0.088
N280 X-51.111 Y-8.866 Z-2.048 I-0.671 J1.276
N285 X-53.396 Y-9.657 Z-2.154 I-0.887 J-1.134
N290 X-51.74 Y-11.414 Z-2.26 I1.396 J-0.343
N295 X-50.818 Y-9.185 Z-2.365 I-0.26 J1.413
N300 X-53.226 Y-9.259 Z-2.471 I-1.18 J-0.815
N305 X-52.172 Y-11.422 Z-2.577 I1.226 J-0.741
N310 X-50.634 Y-9.575 Z-2.683 I0.172 J1.42
N315 X-52.946 Y-8.932 Z-2.788 I-1.364 J-0.425
N320 X-52.585 Y-11.301 Z-2.894 I0.946 J-1.068
N325 X-50.575 Y-10.001 Z-3. I0.585 J1.3
N330 X-53.425 I-1.425 J0.
N335 X-50.575 I1.425 J0.
N340 G1 X-50.564 Y-9.781 F445.94
N345 X-50.56 Y-9.631
N350 X-50.591 Y-9.484
N355 X-50.643 Y-9.343
N360 X-50.711 Y-9.21
N365 X-50.793 Y-9.084
N370 X-50.889 Y-8.969
N375 X-50.996 Y-8.863
N380 X-51.112 Y-8.769
N385 X-51.238 Y-8.687
N390 X-51.371 Y-8.619
N395 X-51.511 Y-8.563
N400 X-51.655 Y-8.522
N405 X-51.803 Y-8.495
N410 X-51.952 Y-8.483
N415 X-52.102 Y-8.486
N420 X-52.251 Y-8.503
N425 X-52.398 Y-8.535
N430 X-52.54 Y-8.581
N435 X-52.678 Y-8.642
N440 X-52.808 Y-8.715
N445 X-52.931 Y-8.801
N450 X-53.045 Y-8.899
N455 X-53.149 Y-9.007
N460 X-53.241 Y-9.125
N465 X-53.322 Y-9.252
N470 X-53.389 Y-9.386
N475 X-53.443 Y-9.526
N480 X-53.483 Y-9.671
N485 X-53.508 Y-9.818
N490 X-53.519 Y-9.968
N495 X-53.515 Y-10.118
N500 X-53.496 Y-10.267
N505 X-53.462 Y-10.413
N510 X-53.415 Y-10.555
N515 X-53.353 Y-10.692
N520 X-53.278 Y-10.822
N525 X-53.191 Y-10.944
N530 X-53.092 Y-11.057
N535 X-52.983 Y-11.16
N540 X-52.864 Y-11.251
N545 X-52.736 Y-11.33
N550 X-52.602 Y-11.396
N555 X-52.461 Y-11.449
N560 X-52.316 Y-11.487
N565 X-52.168 Y-11.511
N570 X-52.018 Y-11.52
N575 X-51.869 Y-11.515
N580 X-51.72 Y-11.494
N585 X-51.574 Y-11.459
N590 X-51.432 Y-11.41
N595 X-51.296 Y-11.347
N600 X-51.167 Y-11.271
N605 X-51.046 Y-11.183
N610 X-50.934 Y-11.083
N615 X-50.832 Y-10.973
N620 X-50.742 Y-10.853
N625 X-50.664 Y-10.725
N630 X-50.599 Y-10.589
N635 X-50.548 Y-10.448
N640 X-50.511 Y-10.303
N645 X-50.485 Y-10.155
N650 X-50.465 Y-10.007
N655 X-50.454 Y-9.857
N660 X-50.459 Y-9.707
N665 X-50.482 Y-9.559
N670 X-50.522 Y-9.414
N675 X-50.577 Y-9.275
N680 X-50.647 Y-9.142
N685 X-50.731 Y-9.018
N690 X-50.826 Y-8.902
N695 X-50.933 Y-8.796
N700 X-51.049 Y-8.701
N705 X-51.173 Y-8.618
N710 X-51.305 Y-8.546
N715 X-51.443 Y-8.487
N720 X-51.586 Y-8.442
N725 X-51.732 Y-8.41
N730 X-51.881 Y-8.391
N735 X-52.031 Y-8.387
N740 X-52.181 Y-8.397
N745 X-52.329 Y-8.42
N750 X-52.474 Y-8.458
N755 X-52.615 Y-8.509
N760 X-52.751 Y-8.573
N765 X-52.88 Y-8.649
N770 X-53.002 Y-8.737
N775 X-53.115 Y-8.835
N780 X-53.218 Y-8.944
N785 X-53.311 Y-9.062
N790 X-53.393 Y-9.187
N795 X-53.463 Y-9.32
N800 X-53.52 Y-9.459
N805 X-53.564 Y-9.602
N810 X-53.594 Y-9.749
N815 X-53.611 Y-9.898
N820 X-53.614 Y-10.048
N825 X-53.603 Y-10.198
N830 X-53.577 Y-10.346
N835 X-53.539 Y-10.491
N840 X-53.486 Y-10.631
N845 X-53.421 Y-10.766
N850 X-53.344 Y-10.895
N855 X-53.255 Y-11.016
N860 X-53.155 Y-11.128
N865 X-53.045 Y-11.23
N870 X-52.927 Y-11.322
N875 X-52.8 Y-11.402
N880 X-52.667 Y-11.47
N885 X-52.527 Y-11.526
N890 X-52.384 Y-11.569
N895 X-52.236 Y-11.598
N900 X-52.087 Y-11.613
N905 X-51.937 Y-11.615
N910 X-51.788 Y-11.602
N915 X-51.64 Y-11.575
N920 X-51.496 Y-11.535
N925 X-51.356 Y-11.481
N930 X-51.221 Y-11.415
N935 X-51.093 Y-11.336
N940 X-50.973 Y-11.246
N945 X-50.862 Y-11.145
N950 X-50.761 Y-11.035
N955 X-50.671 Y-10.915
N960 X-50.591 Y-10.788
N965 X-50.524 Y-10.653
N970 X-50.47 Y-10.514
N975 X-50.426 Y-10.37
N980 X-50.393 Y-10.224
N985 X-50.369 Y-10.076
N990 X-50.356 Y-9.926
N995 X-50.357 Y-9.776
N1000 X-50.374 Y-9.627
N1005 X-50.405 Y-9.481
N1010 X-50.45 Y-9.338
N1015 X-50.51 Y-9.2
N1020 X-50.583 Y-9.069
N1025 X-50.668 Y-8.946
N1030 X-50.765 Y-8.831
N1035 X-50.871 Y-8.725
N1040 X-50.987 Y-8.63
N1045 X-51.111 Y-8.545
N1050 X-51.241 Y-8.471
N1055 X-51.378 Y-8.41
N1060 X-51.52 Y-8.361
N1065 X-51.665 Y-8.324
N1070 X-51.814 Y-8.301
N1075 X-51.963 Y-8.291
N1080 X-52.113 Y-8.294
N1085 X-52.262 Y-8.31
N1090 X-52.409 Y-8.339
N1095 X-52.553 Y-8.382
N1100 X-52.693 Y-8.437
N1105 X-52.827 Y-8.504
N1110 X-52.955 Y-8.582
N1115 X-53.075 Y-8.672
N1120 X-53.187 Y-8.771
N1125 X-53.29 Y-8.88
N1130 X-53.384 Y-8.998
N1135 X-53.466 Y-9.123
N1140 X-53.538 Y-9.255
N1145 X-53.598 Y-9.392
N1150 X-53.645 Y-9.535
N1155 X-53.68 Y-9.68
N1160 X-53.702 Y-9.829
N1165 X-53.711 Y-9.979
N1170 X-53.707 Y-10.129
N1175 X-53.689 Y-10.277
N1180 X-53.659 Y-10.424
N1185 X-53.615 Y-10.568
N1190 X-53.559 Y-10.707
N1195 X-53.491 Y-10.841
N1200 X-53.411 Y-10.968
N1205 X-53.321 Y-11.087
N1210 X-53.22 Y-11.199
N1215 X-53.11 Y-11.301
N1220 X-52.992 Y-11.393
N1225 X-52.866 Y-11.475
N1230 X-52.734 Y-11.545
N1235 X-52.596 Y-11.604
N1240 X-52.453 Y-11.65
N1245 X-52.307 Y-11.684
N1250 X-52.158 Y-11.705
N1255 X-52.008 Y-11.713
N1260 X-51.859 Y-11.707
N1265 X-51.71 Y-11.688
N1270 X-51.563 Y-11.656
N1275 X-51.42 Y-11.611
N1280 X-51.281 Y-11.554
N1285 X-51.148 Y-11.485
N1290 X-51.022 Y-11.404
N1295 X-50.903 Y-11.313
N1300 X-50.793 Y-11.211
N1305 X-50.691 Y-11.101
N1310 X-50.6 Y-10.982
N1315 X-50.519 Y-10.855
N1320 X-50.45 Y-10.722
N1325 X-50.391 Y-10.584
N1330 X-50.342 Y-10.442
N1335 X-50.304 Y-10.297
N1340 X-50.276 Y-10.15
N1345 X-50.26 Y-10.001
N1350 X-50.256 Y-9.851
N1355 X-50.266 Y-9.701
N1360 X-50.289 Y-9.553
N1365 X-50.326 Y-9.408
N1370 X-50.376 Y-9.266
N1375 X-50.439 Y-9.13
N1380 X-50.514 Y-9.
N1385 X-50.6 Y-8.877
N1390 X-50.697 Y-8.763
N1395 X-50.803 Y-8.657
N1400 X-50.918 Y-8.561
N1405 X-51.041 Y-8.475
N1410 X-51.171 Y-8.399
N1415 X-51.306 Y-8.335
N1420 X-51.447 Y-8.282
N1425 X-51.591 Y-8.241
N1430 X-51.738 Y-8.212
N1435 X-51.887 Y-8.196
N1440 X-52.037 Y-8.192
N1445 X-52.187 Y-8.201
N1450 X-52.335 Y-8.222
N1455 X-52.481 Y-8.256
N1460 X-52.624 Y-8.302
N1465 X-52.763 Y-8.36
N1470 X-52.896 Y-8.43
N1475 X-53.022 Y-8.51
N1480 X-53.142 Y-8.6
N1485 X-53.254 Y-8.7
N1490 X-53.358 Y-8.809
N1495 X-53.452 Y-8.925
N1500 X-53.536 Y-9.049
N1505 X-53.61 Y-9.18
N1510 X-53.672 Y-9.316
N1515 X-53.724 Y-9.457
N1520 X-53.764 Y-9.602
N1525 X-53.791 Y-9.749
N1530 X-53.807 Y-9.898
N1535 X-53.809 Y-10.048
N1540 X-53.8 Y-10.198
N1545 X-53.777 Y-10.346
N1550 X-53.742 Y-10.492
N1555 X-53.695 Y-10.635
N1560 X-53.637 Y-10.773
N1565 X-53.567 Y-10.905
N1570 X-53.486 Y-11.032
N1575 X-53.395 Y-11.151
N1580 X-53.294 Y-11.262
N1585 X-53.185 Y-11.365
N1590 X-53.068 Y-11.459
N1595 X-52.943 Y-11.542
N1600 X-52.812 Y-11.615
N1605 X-52.676 Y-11.678
N1610 X-52.535 Y-11.728
N1615 X-52.39 Y-11.767
N1620 X-52.242 Y-11.794
N1625 X-52.093 Y-11.809
N1630 X-51.943 Y-11.81
N1635 X-51.793 Y-11.8
N1640 X-51.645 Y-11.776
N1645 X-51.499 Y-11.741
N1650 X-51.357 Y-11.693
N1655 X-51.219 Y-11.633
N1660 X-51.087 Y-11.563
N1665 X-50.961 Y-11.481
N1670 X-50.843 Y-11.389
N1675 X-50.732 Y-11.288
N1680 X-50.629 Y-11.179
N1685 X-50.537 Y-11.061
N1690 X-50.453 Y-10.936
N1695 X-50.38 Y-10.805
N1700 X-50.317 Y-10.669
N1705 X-50.264 Y-10.529
N1710 X-50.221 Y-10.385
N1715 X-50.188 Y-10.239
N1720 X-50.166 Y-10.09
N1725 X-50.156 Y-9.941
N1730 X-50.159 Y-9.791
N1735 X-50.174 Y-9.641
N1740 X-50.201 Y-9.494
N1745 X-50.242 Y-9.35
N1750 X-50.294 Y-9.209
N1755 X-50.359 Y-9.074
N1760 X-50.434 Y-8.944
N1765 X-50.521 Y-8.821
N1770 X-50.617 Y-8.706
N1775 X-50.722 Y-8.599
N1780 X-50.836 Y-8.501
N1785 X-50.957 Y-8.413
N1790 X-51.084 Y-8.334
N1795 X-51.218 Y-8.266
N1800 X-51.356 Y-8.208
N1805 X-51.499 Y-8.162
N1810 X-51.645 Y-8.127
N1815 X-51.793 Y-8.104
N1820 X-51.943 Y-8.093
N1825 X-52.093 Y-8.094
N1830 X-52.242 Y-8.107
N1835 X-52.39 Y-8.132
N1840 X-52.536 Y-8.168
N1845 X-52.678 Y-8.216
N1850 X-52.816 Y-8.275
N1855 X-52.948 Y-8.345
N1860 X-53.075 Y-8.425
N1865 X-53.195 Y-8.515
N1870 X-53.308 Y-8.614
N1875 X-53.413 Y-8.721
N1880 X-53.509 Y-8.837
N1885 X-53.596 Y-8.959
N1890 X-53.673 Y-9.087
N1895 X-53.74 Y-9.222
N1900 X-53.797 Y-9.361
N1905 X-53.842 Y-9.504
N1910 X-53.876 Y-9.65
N1915 X-53.899 Y-9.798
N1920 X-53.909 Y-9.948
N1925 X-53.908 Y-10.098
N1930 X-53.894 Y-10.247
N1935 X-53.869 Y-10.395
N1940 X-53.832 Y-10.54
N1945 X-53.784 Y-10.682
N1950 X-53.724 Y-10.82
N1955 X-53.654 Y-10.952
N1960 X-53.574 Y-11.079
N1965 X-53.484 Y-11.199
N1970 X-53.385 Y-11.312
N1975 X-53.277 Y-11.416
N1980 X-53.162 Y-11.512
N1985 X-53.039 Y-11.599
N1990 X-52.911 Y-11.676
N1995 X-52.776 Y-11.743
N2000 X-52.637 Y-11.799
N2005 X-52.494 Y-11.844
N2010 X-52.348 Y-11.878
N2015 X-52.2 Y-11.9
N2020 X-52.05 Y-11.911
N2025 X-51.9 Y-11.909
N2030 X-51.751 Y-11.895
N2035 X-51.603 Y-11.87
N2040 X-51.458 Y-11.832
N2045 X-51.316 Y-11.783
N2050 X-51.178 Y-11.724
N2055 X-51.046 Y-11.653
N2060 X-50.919 Y-11.573
N2065 X-50.8 Y-11.483
N2070 X-50.687 Y-11.383
N2075 X-50.583 Y-11.276
N2080 X-50.487 Y-11.16
N2085 X-50.4 Y-11.038
N2090 X-50.322 Y-10.91
N2095 X-50.253 Y-10.776
N2100 X-50.195 Y-10.638
N2105 X-50.145 Y-10.497
N2110 X-50.106 Y-10.352
N2115 X-50.078 Y-10.205
N2120 X-50.06 Y-10.056
N2125 X-50.054 Y-9.906
N2130 X-50.06 Y-9.756
N2135 X-50.078 Y-9.607
N2140 X-50.107 Y-9.46
N2145 X-50.149 Y-9.316
N2150 X-50.202 Y-9.175
N2155 X-50.265 Y-9.04
N2160 X-50.34 Y-8.909
N2165 X-50.424 Y-8.785
N2170 X-50.518 Y-8.668
N2175 X-50.621 Y-8.559
N2180 X-50.731 Y-8.458
N2185 X-50.85 Y-8.365
N2190 X-50.974 Y-8.282
N2195 X-51.105 Y-8.209
N2200 X-51.241 Y-8.145
N2205 X-51.382 Y-8.092
N2210 X-51.525 Y-8.05
N2215 X-51.672 Y-8.019
N2220 X-51.821 Y-7.999
N2225 X-51.971 Y-7.991
N2230 X-52.121 Y-7.994
N2235 X-52.27 Y-8.008
N2240 X-52.418 Y-8.034
N2245 X-52.563 Y-8.071
N2250 X-52.705 Y-8.119
N2255 X-52.843 Y-8.177
N2260 X-52.977 Y-8.246
N2265 X-53.105 Y-8.324
N2270 X-53.227 Y-8.412
N2275 X-53.342 Y-8.508
N2280 X-53.449 Y-8.613
N2285 X-53.549 Y-8.725
N2290 X-53.64 Y-8.844
N2295 X-53.722 Y-8.969
N2300 X-53.795 Y-9.101
N2305 X-53.858 Y-9.237
N2310 X-53.91 Y-9.377
N2315 X-53.952 Y-9.521
N2320 X-53.983 Y-9.668
N2325 X-54.003 Y-9.817
N2330 X-54.011 Y-9.967
N2335 X-54.008 Y-10.117
N2340 X-53.994 Y-10.266
N2345 X-53.968 Y-10.414
N2350 X-53.931 Y-10.559
N2355 X-53.884 Y-10.701
N2360 X-53.826 Y-10.84
N2365 X-53.758 Y-10.973
N2370 X-53.68 Y-11.102
N2375 X-53.593 Y-11.224
N2380 X-53.497 Y-11.339
N2385 X-53.392 Y-11.447
N2390 X-53.281 Y-11.547
N2395 X-53.162 Y-11.638
N2400 X-53.037 Y-11.721
N2405 X-52.906 Y-11.794
N2410 X-52.77 Y-11.857
N2415 X-52.629 Y-11.91
N2420 X-52.485 Y-11.952
N2425 X-52.338 Y-11.983
N2430 X-52.19 Y-12.003
N2435 X-52.04 Y-12.012
N2440 X-51.89 Y-12.009
N2445 X-51.741 Y-11.995
N2450 X-51.593 Y-11.97
N2455 X-51.447 Y-11.934
N2460 X-51.305 Y-11.887
N2465 X-51.166 Y-11.829
N2470 X-51.033 Y-11.761
N2475 X-50.904 Y-11.684
N2480 X-50.782 Y-11.597
N2485 X-50.666 Y-11.501
N2490 X-50.558 Y-11.398
N2495 X-50.457 Y-11.286
N2500 X-50.365 Y-11.168
N2505 X-50.281 Y-11.044
N2510 X-50.206 Y-10.914
N2515 X-50.14 Y-10.779
N2520 X-50.084 Y-10.64
N2525 X-50.037 Y-10.498
N2530 X-50. Y-10.352
N2535 X-49.973 Y-10.205
N2540 X-49.957 Y-10.056
N2545 X-49.952 Y-9.906
N2550 X-49.958 Y-9.756
N2555 X-49.976 Y-9.607
N2560 X-50.004 Y-9.46
N2565 X-50.044 Y-9.315
N2570 X-50.094 Y-9.174
N2575 X-50.155 Y-9.036
N2580 X-50.226 Y-8.904
N2585 X-50.306 Y-8.778
N2590 X-50.396 Y-8.657
N2595 X-50.494 Y-8.544
N2600 X-50.6 Y-8.438
N2605 X-50.714 Y-8.34
N2610 X-50.835 Y-8.251
N2615 X-50.961 Y-8.171
N2620 X-51.093 Y-8.1
N2625 X-51.23 Y-8.039
N2630 X-51.371 Y-7.988
N2635 X-51.516 Y-7.947
N2640 X-51.663 Y-7.917
N2645 X-51.812 Y-7.898
N2650 X-51.961 Y-7.889
N2655 X-52.111 Y-7.892
N2660 X-52.261 Y-7.905
N2665 X-52.409 Y-7.929
N2670 X-52.555 Y-7.963
N2675 X-52.698 Y-8.008
N2680 X-52.837 Y-8.063
N2685 X-52.973 Y-8.128
N2690 X-53.103 Y-8.202
N2695 X-53.228 Y-8.285
N2700 X-53.347 Y-8.377
N2705 X-53.459 Y-8.477
N2710 X-53.563 Y-8.584
N2715 X-53.66 Y-8.699
N2720 X-53.749 Y-8.82
N2725 X-53.829 Y-8.947
N2730 X-53.9 Y-9.079
N2735 X-53.961 Y-9.216
N2740 X-54.012 Y-9.357
N2745 X-54.053 Y-9.501
N2750 X-54.083 Y-9.648
N2755 X-54.103 Y-9.797
N2760 X-54.113 Y-9.946
N2765 X-54.111 Y-10.096
N2770 X-54.099 Y-10.246
N2775 X-54.076 Y-10.394
N2780 X-54.042 Y-10.54
N2785 X-53.998 Y-10.684
N2790 X-53.945 Y-10.824
N2795 X-53.881 Y-10.96
N2800 X-53.808 Y-11.091
N2805 X-53.726 Y-11.216
N2810 X-53.635 Y-11.335
N2815 X-53.536 Y-11.448
N2820 X-53.43 Y-11.554
N2825 X-53.316 Y-11.652
N2830 X-53.195 Y-11.741
N2835 X-53.069 Y-11.822
N2840 X-52.937 Y-11.894
N2845 X-52.801 Y-11.956
N2850 X-52.66 Y-12.008
N2855 X-52.516 Y-12.05
N2860 X-52.37 Y-12.082
N2865 X-52.221 Y-12.103
N2870 X-52.071 Y-12.113
N2875 X-51.921
N2880 X-51.772 Y-12.101
N2885 X-51.623 Y-12.08
N2890 X-51.477 Y-12.047
N2895 X-51.333 Y-12.005
N2900 X-51.193 Y-11.952
N2905 X-51.056 Y-11.89
N2910 X-50.925 Y-11.818
N2915 X-50.798 Y-11.736
N2920 X-50.678 Y-11.647
N2925 X-50.565 Y-11.549
N2930 X-50.458 Y-11.443
N2935 X-50.359 Y-11.331
N2940 X-50.268 Y-11.212
N2945 X-50.185 Y-11.087
N2950 X-50.11 Y-10.956
N2955 X-50.044 Y-10.822
N2960 X-49.988 Y-10.683
N2965 X-49.94 Y-10.541
N2970 X-49.902 Y-10.395
N2975 X-49.874 Y-10.248
N2980 X-49.857 Y-10.099
N2985 X-49.849 Y-9.949
N2990 X-49.853 Y-9.799
N2995 X-49.866 Y-9.65
N3000 X-49.891 Y-9.502
N3005 X-49.925 Y-9.356
N3010 X-49.97 Y-9.213
N3015 X-50.025 Y-9.073
N3020 X-50.09 Y-8.938
N3025 X-50.164 Y-8.807
N3030 X-50.247 Y-8.683
N3035 X-50.339 Y-8.564
N3040 X-50.439 Y-8.452
N3045 X-50.546 Y-8.347
N3050 X-50.661 Y-8.251
N3055 X-50.782 Y-8.162
N3060 X-50.908 Y-8.082
N3065 X-51.04 Y-8.011
N3070 X-51.177 Y-7.949
N3075 X-51.318 Y-7.897
N3080 X-51.462 Y-7.855
N3085 X-51.608 Y-7.822
N3090 X-51.757 Y-7.8
N3095 X-51.906 Y-7.788
N3100 X-52.056 Y-7.787
N3105 X-52.206 Y-7.795
N3110 X-52.355 Y-7.814
N3115 X-52.502 Y-7.843
N3120 X-52.647 Y-7.882
N3125 X-52.789 Y-7.931
N3130 X-52.927 Y-7.989
N3135 X-53.061 Y-8.057
N3140 X-53.19 Y-8.133
N3145 X-53.313 Y-8.218
N3150 X-53.431 Y-8.311
N3155 X-53.542 Y-8.412
N3160 X-53.646 Y-8.52
N3165 X-53.743 Y-8.635
N3170 X-53.832 Y-8.756
N3175 X-53.912 Y-8.882
N3180 X-53.983 Y-9.014
N3185 X-54.046 Y-9.15
N3190 X-54.099 Y-9.291
N3195 X-54.142 Y-9.434
N3200 X-54.176 Y-9.581
N3205 X-54.2 Y-9.729
N3210 X-54.213 Y-9.878
N3215 X-54.216 Y-10.028
N3220 X-54.209 Y-10.178
N3225 X-54.192 Y-10.327
N3230 X-54.165 Y-10.474
N3235 X-54.128 Y-10.62
N3240 X-54.081 Y-10.762
N3245 X-54.025 Y-10.901
N3250 X-53.959 Y-11.036
N3255 X-53.884 Y-11.166
N3260 X-53.801 Y-11.291
N3265 X-53.709 Y-11.41
N3270 X-53.61 Y-11.522
N3275 X-53.503 Y-11.628
N3280 X-53.39 Y-11.726
N3285 X-53.27 Y-11.816
N3290 X-53.144 Y-11.898
N3295 X-53.014 Y-11.971
N3300 X-52.878 Y-12.035
N3305 X-52.738 Y-12.09
N3310 X-52.595 Y-12.136
N3315 X-52.45 Y-12.171
N3320 X-52.302 Y-12.197
N3325 X-52.153 Y-12.212
N3330 X-52.003 Y-12.218
N3335 X-51.853 Y-12.213
N3340 X-51.704 Y-12.198
N3345 X-51.556 Y-12.172
N3350 X-51.41 Y-12.137
N3355 X-51.267 Y-12.092
N3360 X-51.127 Y-12.038
N3365 X-50.991 Y-11.974
N3370 X-50.86 Y-11.901
N3375 X-50.734 Y-11.819
N3380 X-50.614 Y-11.73
N3385 X-50.501 Y-11.632
N3390 X-50.393 Y-11.527
N3395 X-50.293 Y-11.415
N3400 X-50.2 Y-11.297
N3405 X-50.116 Y-11.174
N3410 X-50.039 Y-11.045
N3415 X-49.97 Y-10.912
N3420 X-49.91 Y-10.774
N3425 X-49.859 Y-10.633
N3430 X-49.817 Y-10.489
N3435 X-49.784 Y-10.343
N3440 X-49.761 Y-10.194
N3445 X-49.748 Y-10.045
N3450 X-49.745 Y-9.895
N3455 X-49.751 Y-9.745
N3460 X-49.768 Y-9.596
N3465 X-49.795 Y-9.448
N3470 X-49.831 Y-9.303
N3475 X-49.878 Y-9.16
N3480 X-49.934 Y-9.021
N3485 X-49.999 Y-8.886
N3490 X-50.073 Y-8.756
N3495 X-50.156 Y-8.631
N3500 X-50.247 Y-8.512
N3505 X-50.346 Y-8.399
N3510 X-50.452 Y-8.293
N3515 X-50.565 Y-8.194
N3520 X-50.684 Y-8.103
N3525 X-50.809 Y-8.02
N3530 X-50.94 Y-7.946
N3535 X-51.074 Y-7.88
N3540 X-51.213 Y-7.823
N3545 X-51.356 Y-7.776
N3550 X-51.501 Y-7.738
N3555 X-51.648 Y-7.709
N3560 X-51.797 Y-7.691
N3565 X-51.946 Y-7.682
N3570 X-52.096 Y-7.683
N3575 X-52.246 Y-7.694
N3580 X-52.395 Y-7.714
N3585 X-52.542 Y-7.744
N3590 X-52.686 Y-7.784
N3595 X-52.828 Y-7.833
N3600 X-52.966 Y-7.891
N3605 X-53.1 Y-7.958
N3610 X-53.23 Y-8.034
N3615 X-53.354 Y-8.118
N3620 X-53.473 Y-8.209
N3625 X-53.586 Y-8.308
N3630 X-53.692 Y-8.414
N3635 X-53.791 Y-8.527
N3640 X-53.883 Y-8.646
N3645 X-53.966 Y-8.77
N3650 X-54.042 Y-8.9
N3655 X-54.109 Y-9.034
N3660 X-54.168 Y-9.172
N3665 X-54.217 Y-9.314
N3670 X-54.257 Y-9.458
N3675 X-54.288 Y-9.605
N3680 X-54.309 Y-9.754
N3685 X-54.32 Y-9.903
N3690 X-54.321 Y-10.053
N3695 X-54.313 Y-10.203
N3700 X-54.295 Y-10.352
N3705 X-54.268 Y-10.499
N3710 X-54.23 Y-10.645
N3715 X-54.184 Y-10.787
N3720 X-54.128 Y-10.927
N3725 X-54.064 Y-11.062
N3730 X-53.991 Y-11.193
N3735 X-53.909 Y-11.319
N3740 X-53.82 Y-11.44
N3745 X-53.723 Y-11.554
N3750 X-53.619 Y-11.662
N3755 X-53.509 Y-11.763
N3760 X-53.392 Y-11.857
N3765 X-53.269 Y-11.943
N3770 X-53.141 Y-12.022
N3775 X-53.008 Y-12.091
N3780 X-52.871 Y-12.152
N3785 X-52.73 Y-12.205
N3790 X-52.587 Y-12.247
N3795 X-52.44 Y-12.281
N3800 X-52.292 Y-12.305
N3805 X-52.143 Y-12.319
N3810 X-51.993 Y-12.323
N3815 X-51.843 Y-12.318
N3820 X-51.694 Y-12.303
N3825 X-51.546 Y-12.278
N3830 X-51.4 Y-12.244
N3835 X-51.256 Y-12.2
N3840 X-51.116 Y-12.147
N3845 X-50.979 Y-12.085
N3850 X-50.847 Y-12.015
N3855 X-50.719 Y-11.936
N3860 X-50.597 Y-11.849
N3865 X-50.48 Y-11.755
N3870 X-50.37 Y-11.653
N3875 X-50.266 Y-11.545
N3880 X-50.169 Y-11.43
N3885 X-50.079 Y-11.31
N3890 X-49.997 Y-11.185
N3895 X-49.923 Y-11.055
N3900 X-49.856 Y-10.92
N3905 X-49.798 Y-10.782
N3910 X-49.749 Y-10.64
N3915 X-49.708 Y-10.496
N3920 X-49.677 Y-10.349
N3925 X-49.655 Y-10.201
N3930 X-49.642 Y-10.051
N3935 X-49.638 Y-9.901
N3940 X-49.645 Y-9.751
N3945 X-49.66 Y-9.602
N3950 X-49.686 Y-9.454
N3955 X-49.721 Y-9.309
N3960 X-49.765 Y-9.165
N3965 X-49.818 Y-9.025
N3970 X-49.88 Y-8.888
N3975 X-49.951 Y-8.756
N3980 X-50.03 Y-8.629
N3985 X-50.117 Y-8.507
N3990 X-50.212 Y-8.39
N3995 X-50.314 Y-8.28
N4000 X-50.423 Y-8.177
N4005 X-50.538 Y-8.081
N4010 X-50.659 Y-7.992
N4015 X-50.785 Y-7.911
N4020 X-50.916 Y-7.838
N4025 X-51.051 Y-7.774
N4030 X-51.191 Y-7.718
N4035 X-51.333 Y-7.671
N4040 X-51.478 Y-7.634
N4045 X-51.626 Y-7.605
N4050 X-51.774 Y-7.586
N4055 X-51.924 Y-7.576
N4060 X-52.074
N4065 X-52.224 Y-7.585
N4070 X-52.373 Y-7.603
N4075 X-52.52 Y-7.631
N4080 X-52.666 Y-7.668
N4085 X-52.809 Y-7.713
N4090 X-52.948 Y-7.768
N4095 X-53.084 Y-7.831
N4100 X-53.216 Y-7.902
N4105 X-53.344 Y-7.981
N4110 X-53.466 Y-8.068
N4115 X-53.583 Y-8.163
N4120 X-53.693 Y-8.264
N4125 X-53.798 Y-8.372
N4130 X-53.895 Y-8.486
N4135 X-53.985 Y-8.606
N4140 X-54.068 Y-8.731
N4145 X-54.143 Y-8.861
N4150 X-54.209 Y-8.995
N4155 X-54.267 Y-9.133
N4160 X-54.317 Y-9.275
N4165 X-54.357 Y-9.419
N4170 X-54.389 Y-9.566
N4175 X-54.411 Y-9.714
N4180 X-54.424 Y-9.864
N4185 X-54.428 Y-10.014
N4190 X-54.422 Y-10.164
N4195 X-54.408 Y-10.313
N4200 X-54.384 Y-10.461
N4205 X-54.35 Y-10.607
N4210 X-54.308 Y-10.751
N4215 X-54.257 Y-10.892
N4220 X-54.198 Y-11.03
N4225 X-54.13 Y-11.164
N4230 X-54.054 Y-11.293
N4235 X-53.97 Y-11.418
N4240 X-53.879 Y-11.537
N4245 X-53.78 Y-11.65
N4250 X-53.675 Y-11.757
N4255 X-53.564 Y-11.857
N4260 X-53.446 Y-11.95
N4265 X-53.323 Y-12.036
N4270 X-53.195 Y-12.114
N4275 X-53.062 Y-12.184
N4280 X-52.925 Y-12.245
N4285 X-52.785 Y-12.298
N4290 X-52.642 Y-12.343
N4295 X-52.496 Y-12.378
N4300 X-52.348 Y-12.404
N4305 X-52.199 Y-12.421
N4310 X-52.049 Y-12.429
N4315 X-51.899 Y-12.427
N4320 X-51.75 Y-12.416
N4325 X-51.601 Y-12.396
N4330 X-51.454 Y-12.366
N4335 X-51.309 Y-12.328
N4340 X-51.167 Y-12.281
N4345 X-51.028 Y-12.225
N4350 X-50.892 Y-12.16
N4355 X-50.761 Y-12.088
N4360 X-50.634 Y-12.007
N4365 X-50.513 Y-11.919
N4370 X-50.397 Y-11.824
N4375 X-50.287 Y-11.722
N4380 X-50.183 Y-11.614
N4385 X-50.086 Y-11.499
N4390 X-49.996 Y-11.38
N4395 X-49.913 Y-11.255
N4400 X-49.838 Y-11.125
N4405 X-49.77 Y-10.991
N4410 X-49.711 Y-10.853
N4415 X-49.659 Y-10.712
N4420 X-49.616 Y-10.569
N4425 X-49.582 Y-10.423
N4430 X-49.556 Y-10.275
N4435 X-49.54 Y-10.126
N4440 X-49.532 Y-9.976
N4445 X-49.534 Y-9.826
N4450 X-49.544 Y-9.676
N4455 X-49.564 Y-9.528
N4460 X-49.593 Y-9.38
N4465 X-49.631 Y-9.235
N4470 X-49.677 Y-9.093
N4475 X-49.732 Y-8.953
N4480 X-49.796 Y-8.817
N4485 X-49.868 Y-8.686
N4490 X-49.948 Y-8.559
N4495 X-50.036 Y-8.437
N4500 X-50.13 Y-8.321
N4505 X-50.232 Y-8.21
N4510 X-50.34 Y-8.107
N4515 X-50.455 Y-8.01
N4520 X-50.575 Y-7.92
N4525 X-50.7 Y-7.837
N4530 X-50.83 Y-7.763
N4535 X-50.965 Y-7.696
N4540 X-51.103 Y-7.637
N4545 X-51.244 Y-7.587
N4550 X-51.388 Y-7.546
N4555 X-51.535 Y-7.513
N4560 X-51.683 Y-7.489
N4565 X-51.832 Y-7.474
N4570 X-51.982 Y-7.468
N4575 X-52.132 Y-7.471
N4580 X-52.281 Y-7.483
N4585 X-52.43 Y-7.504
N4590 X-52.577 Y-7.534
N4595 X-52.722 Y-7.572
N4600 X-52.864 Y-7.619
N4605 X-53.004 Y-7.674
N4610 X-53.14 Y-7.738
N4615 X-53.272 Y-7.809
N4620 X-53.399 Y-7.888
N4625 X-53.522 Y-7.975
N4630 X-53.639 Y-8.068
N4635 X-53.75 Y-8.169
N4640 X-53.856 Y-8.276
N4645 X-53.955 Y-8.388
N4650 X-54.047 Y-8.507
N4655 X-54.132 Y-8.63
N4660 X-54.209 Y-8.759
N4665 X-54.279 Y-8.892
N4670 X-54.341 Y-9.028
N4675 X-54.394 Y-9.168
N4680 X-54.439 Y-9.311
N4685 X-54.476 Y-9.457
N4690 X-54.504 Y-9.604
N4695 X-54.523 Y-9.753
N4700 X-54.534 Y-9.903
N4705 X-54.535 Y-10.053
N4710 X-54.528 Y-10.202
N4715 X-54.511 Y-10.352
N4720 X-54.486 Y-10.499
N4725 X-54.452 Y-10.646
N4730 X-54.41 Y-10.789
N4735 X-54.359 Y-10.93
N4740 X-54.299 Y-11.068
N4745 X-54.232 Y-11.202
N4750 X-54.157 Y-11.332
N4755 X-54.074 Y-11.457
N4760 X-53.984 Y-11.577
N4765 X-53.888 Y-11.692
N4770 X-53.784 Y-11.801
N4775 X-53.675 Y-11.903
N4780 X-53.559 Y-11.999
N4785 X-53.438 Y-12.088
N4790 X-53.312 Y-12.169
N4795 X-53.182 Y-12.243
N4800 X-53.047 Y-12.309
N4805 X-52.909 Y-12.367
N4810 X-52.767 Y-12.417
N4815 X-52.623 Y-12.459
N4820 X-52.477 Y-12.491
N4825 X-52.329 Y-12.515
N4830 X-52.18 Y-12.53
N4835 X-52.03 Y-12.537
N4840 X-51.88 Y-12.534
N4845 X-51.73 Y-12.522
N4850 X-51.582 Y-12.502
N4855 X-51.434 Y-12.473
N4860 X-51.289 Y-12.435
N4865 X-51.147 Y-12.388
N4870 X-51.007 Y-12.333
N4875 X-50.871 Y-12.271
N4880 X-50.739 Y-12.2
N4885 X-50.611 Y-12.121
N4890 X-50.488 Y-12.036
N4895 X-50.37 Y-11.943
N4900 X-50.257 Y-11.844
N4905 X-50.151 Y-11.738
N4910 X-50.051 Y-11.626
N4915 X-49.957 Y-11.509
N4920 X-49.87 Y-11.387
N4925 X-49.79 Y-11.26
N4930 X-49.717 Y-11.129
N4935 X-49.652 Y-10.994
N4940 X-49.595 Y-10.855
N4945 X-49.545 Y-10.714
N4950 X-49.504 Y-10.569
N4955 X-49.471 Y-10.423
N4960 X-49.458 Y-10.333
N4965 X-49.452 Y-10.257
N4970 X-49.45 Y-10.181
N4975 Y-9.816
N4980 X-49.458 Y-9.666
N4985 X-49.47 Y-9.516
N4990 X-49.494 Y-9.368
N4995 X-49.528 Y-9.222
N5000 X-49.572 Y-9.079
N5005 X-49.625 Y-8.938
N5010 X-49.686 Y-8.801
N5015 X-49.755 Y-8.668
N5020 X-49.833 Y-8.54
N5025 X-49.918 Y-8.416
N5030 X-50.01 Y-8.298
N5035 X-50.109 Y-8.185
N5040 X-50.214 Y-8.078
N5045 X-50.325 Y-7.977
N5050 X-50.442 Y-7.884
N5055 X-50.564 Y-7.797
N5060 X-50.691 Y-7.717
N5065 X-50.823 Y-7.645
N5070 X-50.958 Y-7.58
N5075 X-51.024 Y-7.553
N5080 X-51.195 Y-7.496
N5085 X-51.372 Y-7.462
N5090 X-51.552 Y-7.45
N5095 G3 X-51.842 Y-7.76 Z-2.8 I0.01 J-0.3
N5100 G1 X-51.832 Y-7.827
N5105 X-51.807 Y-7.891
N5110 X-51.768 Y-7.947
N5115 X-51.723 Y-7.999
N5120 X-49.994 Y-9.981
N5125 X-49.976 Y-10.002
N5130 X-49.931 Y-10.044
N5135 X-49.879 Y-10.076
N5140 X-49.821 Y-10.097
N5145 X-49.76 Y-10.105
N5150 G3 X-49.45 Y-9.816 Z-3. I0.01 J0.3
N5155 G1 Y-9.391
N5160 X-49.458 Y-9.241
N5165 X-49.483 Y-9.093
N5170 X-49.524 Y-8.949
N5175 X-49.577 Y-8.808
N5180 X-49.639 Y-8.672
N5185 X-49.711 Y-8.54
N5190 X-49.791 Y-8.414
N5195 X-49.879 Y-8.292
N5200 X-49.973 Y-8.175
N5205 X-50.075 Y-8.065
N5210 X-50.182 Y-7.96
N5215 X-50.295 Y-7.861
N5220 X-50.414 Y-7.769
N5225 X-50.537 Y-7.684
N5230 X-50.585 Y-7.655
N5235 X-50.814 Y-7.542
N5240 X-51.06 Y-7.473
N5245 X-51.315 Y-7.45
N5250 G3 X-51.604 Y-7.76 Z-2.8 I0.01 J-0.3
N5255 G1 X-51.597 Y-7.814
N5260 X-51.581 Y-7.866
N5265 X-51.555 Y-7.914
N5270 X-51.521 Y-7.957
N5275 X-51.483 Y-7.997
N5280 X-49.995 Y-9.557
N5285 X-49.967 Y-9.587
N5290 X-49.923 Y-9.625
N5295 X-49.873 Y-9.654
N5300 X-49.818 Y-9.672
N5305 X-49.76 Y-9.68
N5310 G3 X-49.45 Y-9.391 Z-3. I0.01 J0.3
N5315 G1 Y-9.107
N5320 X-49.458 Y-8.958
N5325 X-49.492 Y-8.811
N5330 X-49.543 Y-8.67
N5335 X-49.606 Y-8.534
N5340 X-49.679 Y-8.404
N5345 X-49.762 Y-8.278
N5350 X-49.852 Y-8.158
N5355 X-49.949 Y-8.044
N5360 X-50.052 Y-7.935
N5365 X-50.162 Y-7.833
N5370 X-50.277 Y-7.737
N5375 X-50.316 Y-7.709
N5380 X-50.567 Y-7.567
N5385 X-50.841 Y-7.48
N5390 X-51.128 Y-7.45
N5395 G3 X-51.417 Y-7.76 Z-2.8 I0.01 J-0.3
N5400 G1 X-51.41 Y-7.816
N5405 X-51.392 Y-7.87
N5410 X-51.364 Y-7.92
N5415 X-51.328 Y-7.964
N5420 X-51.295 Y-7.996
N5425 X-49.996 Y-9.275
N5430 X-49.96 Y-9.311
N5435 X-49.917 Y-9.346
N5440 X-49.868 Y-9.372
N5445 X-49.815 Y-9.39
N5450 X-49.76 Y-9.397
N5455 G3 X-49.45 Y-9.107 Z-3. I0.01 J0.3
N5460 G1 Y-8.896
N5465 X-49.458 Y-8.746
N5470 X-49.494 Y-8.6
N5475 X-49.55 Y-8.461
N5480 X-49.619 Y-8.328
N5485 X-49.698 Y-8.2
N5490 X-49.786 Y-8.079
N5495 X-49.881 Y-7.963
N5500 X-49.984 Y-7.854
N5505 X-50.095 Y-7.753
N5510 X-50.11 Y-7.741
N5515 X-50.371 Y-7.582
N5520 X-50.66 Y-7.483
N5525 X-50.964 Y-7.45
N5530 G3 X-51.254 Y-7.76 Z-2.8 I0.01 J-0.3
N5535 G1 X-51.246 Y-7.818
N5540 X-51.227 Y-7.873
N5545 X-51.198 Y-7.924
N5550 X-51.16 Y-7.968
N5555 X-51.131 Y-7.995
N5560 X-49.997 Y-9.064
N5565 X-49.956 Y-9.103
N5570 X-49.913 Y-9.137
N5575 X-49.865 Y-9.162
N5580 X-49.814 Y-9.178
N5585 X-49.76 Y-9.185
N5590 G3 X-49.45 Y-8.896 Z-3. I0.01 J0.3
N5595 G1 Y-8.682
N5600 X-49.458 Y-8.533
N5605 X-49.502 Y-8.389
N5610 X-49.564 Y-8.253
N5615 X-49.639 Y-8.123
N5620 X-49.724 Y-7.999
N5625 X-49.819 Y-7.883
N5630 X-49.83 Y-7.871
N5635 X-50.044 Y-7.692
N5640 X-50.288 Y-7.56
N5645 X-50.554 Y-7.478
N5650 X-50.831 Y-7.45
N5655 G3 X-51.12 Y-7.76 Z-2.8 I0.01 J-0.3
N5660 G1 X-51.112 Y-7.821
N5665 X-51.091 Y-7.879
N5670 X-51.059 Y-7.932
N5675 X-51.016 Y-7.977
N5680 X-50.997 Y-7.994
N5685 X-49.999 Y-8.853
N5690 X-49.946 Y-8.899
N5695 X-49.89 Y-8.937
N5700 X-49.827 Y-8.962
N5705 X-49.76 Y-8.972
N5710 G3 X-49.45 Y-8.682 Z-3. I0.01 J0.3
N5715 G1 Y-8.506
N5720 X-49.458 Y-8.356
N5725 X-49.503 Y-8.213
N5730 X-49.569 Y-8.078
N5735 X-49.649 Y-7.951
N5740 X-49.868 Y-7.74
N5745 X-50.128 Y-7.582
N5750 X-50.416 Y-7.483
N5755 X-50.719 Y-7.45
N5760 G3 X-51.008 Y-7.76 Z-2.8 I0.01 J-0.3
N5765 X-50.892 Y-7.987 I0.3 J0.01
N5770 G1 X-50.884 Y-7.993
N5775 X-50.002 Y-8.68
N5780 X-49.934 Y-8.732
N5785 X-49.881 Y-8.765
N5790 X-49.822 Y-8.786
N5795 X-49.76 Y-8.795
N5800 G3 X-49.45 Y-8.506 Z-3. I0.01 J0.3
N5805 G1 Y-8.329
N5810 X-49.458 Y-8.179
N5815 X-49.508 Y-8.038
N5820 X-49.589 Y-7.912
N5825 X-49.683 Y-7.795
N5830 X-49.877 Y-7.648
N5835 X-50.095 Y-7.539
N5840 X-50.328 Y-7.473
N5845 X-50.571 Y-7.45
N5850 G3 X-50.86 Y-7.76 Z-2.8 I0.01 J-0.3
N5855 X-50.733 Y-7.995 I0.3 J0.01
N5860 G1 X-50.004 Y-8.506
N5865 X-49.922 Y-8.564
N5870 X-49.872 Y-8.593
N5875 X-49.817 Y-8.611
N5880 X-49.76 Y-8.618
N5885 G3 X-49.45 Y-8.329 Z-3. I0.01 J0.3
N5890 G1 Y-8.159
N5895 X-49.458 Y-8.009
N5900 X-49.525 Y-7.875
N5905 X-49.705 Y-7.696
N5910 X-49.92 Y-7.562
N5915 X-50.16 Y-7.478
N5920 X-50.412 Y-7.45
N5925 G3 X-50.702 Y-7.76 Z-2.8 I0.01 J-0.3
N5930 X-50.558 Y-8.006 I0.3 J0.01
N5935 G1 X-50.008 Y-8.342
N5940 X-49.906 Y-8.404
N5945 X-49.86 Y-8.427
N5950 X-49.811 Y-8.442
N5955 X-49.76 Y-8.448
N5960 G3 X-49.45 Y-8.159 Z-3. I0.01 J0.3
N5965 G1 Y-8.017
N5970 X-49.454 Y-7.942
N5975 X-49.511 Y-7.804
N5980 X-49.664 Y-7.655
N5985 X-49.845 Y-7.543
N5990 X-50.047 Y-7.474
N5995 X-50.259 Y-7.45
N6000 G3 X-50.677 Y-7.64 Z-2.8 I0.021 J-0.602
N6005 X-50.728 Y-8.402 I0.439 J-0.412
N6010 X-49.617 Y-8.448 I0.574 J0.409
N6015 X-49.45 Y-8.017 Z-3. I-0.538 J0.456
N6020 G1 Y-7.944
N6025 X-49.454 Y-7.869
N6030 X-49.497 Y-7.726
N6035 X-49.683 Y-7.577
N6040 X-49.901 Y-7.482
N6045 X-50.137 Y-7.45
N6050 G3 X-50.539 Y-7.663 Z-2.8 I0.018 J-0.519
N6055 X-50.549 Y-8.261 I0.42 J-0.306
N6060 X-49.64 Y-8.362 I0.498 J0.337
N6065 X-49.45 Y-7.944 Z-3. I-0.411 J0.439
N6070 G1 X-49.451 Y-7.803
N6075 Y-7.765
N6080 Y-7.734
N6085 X-49.457 Y-7.704
N6090 X-49.553 Y-7.588
N6095 X-49.685 Y-7.513
N6100 X-49.83 Y-7.466
N6105 X-49.981 Y-7.45
N6110 G3 X-50.311 Y-7.734 Z-2.8 I0.012 J-0.348
N6115 X-50.2 Y-8.059 I0.343 J-0.064
N6120 X-49.686 Y-8.118 I0.298 J0.337
N6125 X-49.451 Y-7.734 Z-3. I-0.215 J0.395
N6130 G1 X-49.457 Y-7.698
N6135 X-49.467 Y-7.663
N6140 X-49.481 Y-7.628
N6145 X-49.502 Y-7.592
N6150 X-49.519 Y-7.57
N6155 X-49.539 Y-7.548
N6160 X-49.567 Y-7.524
N6165 X-49.592 Y-7.504
N6170 X-49.625 Y-7.483
N6175 X-49.677 Y-7.47
N6180 X-49.73 Y-7.472
N6185 X-49.781 Y-7.487
N6190 X-49.827 Y-7.515
N6195 X-49.863 Y-7.554
N6200 G3 X-49.54 Y-7.783 I0.161 J-0.114
N6205 X-49.567 Y-7.524 I-0.161 J0.114
N6210 G1 X-49.589 Y-7.504
N6215 X-49.625 Y-7.483
N6220 X-49.66 Y-7.468
N6225 X-49.696 Y-7.457
N6230 X-49.731 Y-7.452
N6235 X-49.743 Y-7.451
N6240 X-51.007 Y-7.45
N6245 X-52.397
N6250 X-52.547 Y-7.457
N6255 X-52.695 Y-7.478
N6260 X-52.841 Y-7.513
N6265 X-52.983 Y-7.56
N6270 X-53.122 Y-7.617
N6275 X-53.257 Y-7.682
N6280 X-53.388 Y-7.756
N6285 X-53.514 Y-7.838
N6290 X-53.634 Y-7.927
N6295 X-53.75 Y-8.022
N6300 X-53.86 Y-8.125
N6305 X-53.963 Y-8.233
N6310 X-54.061 Y-8.347
N6315 X-54.152 Y-8.466
N6320 X-54.235 Y-8.591
N6325 X-54.312 Y-8.72
N6330 X-54.381 Y-8.853
N6335 X-54.443 Y-8.99
N6340 X-54.458 Y-9.029
N6345 X-54.509 Y-9.191
N6350 X-54.54 Y-9.359
N6355 X-54.55 Y-9.529
N6360 G3 X-54.24 Y-9.818 Z-2.8 I0.3 J0.01
N6365 G1 X-54.186 Y-9.811
N6370 X-54.134 Y-9.795
N6375 X-54.085 Y-9.769
N6380 X-54.042 Y-9.735
N6385 X-54.003 Y-9.697
N6390 X-52.23 Y-7.995
N6395 X-52.199 Y-7.966
N6400 X-52.162 Y-7.922
N6405 X-52.133 Y-7.872
N6410 X-52.115 Y-7.817
N6415 X-52.107 Y-7.76
N6420 G3 X-52.397 Y-7.45 Z-3. I-0.3 J0.01
N6425 G1 X-52.709
N6430 X-52.859 Y-7.457
N6435 X-53.006 Y-7.487
N6440 X-53.149 Y-7.533
N6445 X-53.287 Y-7.592
N6450 X-53.42 Y-7.66
N6455 X-53.548 Y-7.738
N6460 X-53.672 Y-7.824
N6465 X-53.789 Y-7.916
N6470 X-53.901 Y-8.016
N6475 X-54.008 Y-8.122
N6480 X-54.108 Y-8.234
N6485 X-54.201 Y-8.351
N6490 X-54.289 Y-8.473
N6495 X-54.373 Y-8.607
N6500 X-54.47 Y-8.823
N6505 X-54.53 Y-9.052
N6510 X-54.55 Y-9.289
N6515 G3 X-54.24 Y-9.578 Z-2.8 I0.3 J0.01
N6520 G1 X-54.184 Y-9.571
N6525 X-54.131 Y-9.554
N6530 X-54.082 Y-9.526
N6535 X-54.038 Y-9.491
N6540 X-54.004 Y-9.456
N6545 X-52.542 Y-7.996
N6550 X-52.508 Y-7.962
N6555 X-52.472 Y-7.919
N6560 X-52.444 Y-7.869
N6565 X-52.427 Y-7.816
N6570 X-52.42 Y-7.76
N6575 G3 X-52.709 Y-7.45 Z-3. I-0.3 J0.01
N6580 G1 X-52.964
N6585 X-53.114 Y-7.457
N6590 X-53.259 Y-7.495
N6595 X-53.399 Y-7.55
N6600 X-53.533 Y-7.617
N6605 X-53.661 Y-7.695
N6610 X-53.784 Y-7.781
N6615 X-53.901 Y-7.875
N6620 X-54.012 Y-7.975
N6625 X-54.117 Y-8.082
N6630 X-54.216 Y-8.195
N6635 X-54.309 Y-8.313
N6640 X-54.318 Y-8.326
N6645 X-54.445 Y-8.567
N6650 X-54.524 Y-8.827
N6655 X-54.55 Y-9.098
N6660 G3 X-54.24 Y-9.387 Z-2.8 I0.3 J0.01
N6665 G1 X-54.182 Y-9.38
N6670 X-54.127 Y-9.361
N6675 X-54.077 Y-9.333
N6680 X-54.033 Y-9.295
N6685 X-54.005 Y-9.265
N6690 X-52.796 Y-7.997
N6695 X-52.757 Y-7.957
N6700 X-52.723 Y-7.914
N6705 X-52.698 Y-7.866
N6710 X-52.681 Y-7.814
N6715 X-52.675 Y-7.76
N6720 G3 X-52.964 Y-7.45 Z-3. I-0.3 J0.01
N6725 G1 X-53.177
N6730 X-53.327 Y-7.457
N6735 X-53.471 Y-7.501
N6740 X-53.608 Y-7.562
N6745 X-53.739 Y-7.635
N6750 X-53.863 Y-7.718
N6755 X-53.982 Y-7.81
N6760 X-54.095 Y-7.909
N6765 X-54.201 Y-8.015
N6770 X-54.22 Y-8.038
N6775 X-54.361 Y-8.238
N6780 X-54.465 Y-8.46
N6785 X-54.529 Y-8.697
N6790 X-54.55 Y-8.941
N6795 G3 X-54.24 Y-9.23 Z-2.8 I0.3 J0.01
N6800 G1 X-54.18 Y-9.222
N6805 X-54.123 Y-9.202
N6810 X-54.072 Y-9.172
N6815 X-54.027 Y-9.131
N6820 X-54.005 Y-9.107
N6825 X-53.008 Y-7.998
N6830 X-52.965 Y-7.95
N6835 X-52.933 Y-7.909
N6840 X-52.91 Y-7.862
N6845 X-52.894 Y-7.812
N6850 X-52.888 Y-7.76
N6855 G3 X-53.177 Y-7.45 Z-3. I-0.3 J0.01
N6860 G1 X-53.354
N6865 X-53.504 Y-7.457
N6870 X-53.648 Y-7.501
N6875 X-53.783 Y-7.565
N6880 X-53.912 Y-7.642
N6885 X-54.034 Y-7.729
N6890 X-54.149 Y-7.825
N6895 X-54.155 Y-7.831
N6900 X-54.323 Y-8.042
N6905 X-54.448 Y-8.28
N6910 X-54.524 Y-8.538
N6915 X-54.55 Y-8.806
N6920 G3 X-54.24 Y-9.095 Z-2.8 I0.3 J0.01
N6925 G1 X-54.178 Y-9.087
N6930 X-54.119 Y-9.066
N6935 X-54.066 Y-9.033
N6940 X-54.021 Y-8.989
N6945 X-54.006 Y-8.971
N6950 X-53.183 Y-8.
N6955 X-53.136 Y-7.944
N6960 X-53.099 Y-7.888
N6965 X-53.075 Y-7.826
N6970 X-53.065 Y-7.76
N6975 G3 X-53.354 Y-7.45 Z-3. I-0.3 J0.01
N6980 G1 X-53.531
N6985 X-53.681 Y-7.457
N6990 X-53.823 Y-7.505
N6995 X-53.957 Y-7.572
N7000 X-54.083 Y-7.654
N7005 X-54.28 Y-7.867
N7010 X-54.428 Y-8.116
N7015 X-54.519 Y-8.391
N7020 X-54.55 Y-8.679
N7025 G3 X-54.24 Y-8.969 Z-2.8 I0.3 J0.01
N7030 X-54.013 Y-8.852 I-0.01 J0.3
N7035 G1 X-54.007 Y-8.844
N7040 X-53.357 Y-8.002
N7045 X-53.304 Y-7.933
N7050 X-53.271 Y-7.88
N7055 X-53.25 Y-7.822
N7060 X-53.242 Y-7.76
N7065 G3 X-53.531 Y-7.45 Z-3. I-0.3 J0.01
N7070 G1 X-53.702
N7075 X-53.851 Y-7.457
N7080 X-53.992 Y-7.509
N7085 X-54.118 Y-7.591
N7090 X-54.233 Y-7.687
N7095 X-54.406 Y-7.938
N7100 X-54.513 Y-8.222
N7105 X-54.55 Y-8.524
N7110 G3 X-54.24 Y-8.813 Z-2.8 I0.3 J0.01
N7115 X-54.005 Y-8.686 I-0.01 J0.3
N7120 G1 X-53.524 Y-8.004
N7125 X-53.467 Y-7.923
N7130 X-53.438 Y-7.872
N7135 X-53.42 Y-7.817
N7140 X-53.412 Y-7.76
N7145 G3 X-53.702 Y-7.45 Z-3. I-0.3 J0.01
N7150 G1 X-53.886
N7155 X-54.036 Y-7.457
N7160 X-54.167 Y-7.531
N7165 X-54.329 Y-7.71
N7170 X-54.45 Y-7.919
N7175 X-54.525 Y-8.148
N7180 X-54.55 Y-8.388
N7185 G3 X-54.24 Y-8.677 Z-2.8 I0.3 J0.01
N7190 X-53.989 Y-8.525 I-0.01 J0.3
N7195 G1 X-53.699 Y-8.01
N7200 X-53.635 Y-7.897
N7205 X-53.615 Y-7.854
N7210 X-53.602 Y-7.808
N7215 X-53.597 Y-7.76
N7220 G3 X-53.886 Y-7.45 Z-3. I-0.3 J0.01
N7225 G1 X-54.028
N7230 X-54.103 Y-7.454
N7235 X-54.237 Y-7.521
N7240 X-54.407 Y-7.724
N7245 X-54.513 Y-7.967
N7250 X-54.55 Y-8.229
N7255 G3 X-54.35 Y-8.641 Z-2.8 I0.565 J0.02
N7260 X-53.638 Y-8.656 I0.365 J0.431
N7265 X-53.6 Y-7.623 I-0.414 J0.532
N7270 X-54.028 Y-7.45 Z-3. I-0.451 J-0.501
N7275 G1 X-54.096
N7280 X-54.171 Y-7.454
N7285 X-54.311 Y-7.508
N7290 X-54.441 Y-7.676
N7295 X-54.522 Y-7.872
N7300 X-54.55 Y-8.083
N7305 G3 X-54.322 Y-8.474 Z-2.8 I0.478 J0.017
N7310 X-53.803 Y-8.461 I0.25 J0.407
N7315 X-53.687 Y-7.653 I-0.312 J0.458
N7320 X-54.096 Y-7.45 Z-3. I-0.429 J-0.351
N7325 G1 X-54.216
N7330 X-54.257 Y-7.451
N7335 X-54.269 Y-7.452
N7340 X-54.322 Y-7.464
N7345 X-54.349 Y-7.472
N7350 X-54.375 Y-7.483
N7355 X-54.402 Y-7.508
N7360 X-54.418 Y-7.54
N7365 X-54.422 Y-7.576
N7370 X-54.413 Y-7.611
N7375 X-54.393 Y-7.641
N7380 X-54.363 Y-7.662
N7385 X-54.328 Y-7.672
N7390 X-54.292 Y-7.668
N7395 X-54.237 Y-7.654
N7400 X-54.204 Y-7.637
N7405 X-54.178 Y-7.61
N7410 X-54.164 Y-7.576
N7415 X-54.163 Y-7.538
N7420 X-54.175 Y-7.503
N7425 X-54.199 Y-7.475
N7430 X-54.232 Y-7.457
N7435 X-54.269 Y-7.452
N7440 X-54.304 Y-7.457
N7445 X-54.34 Y-7.468
N7450 X-54.375 Y-7.483
N7455 X-54.411 Y-7.504
N7460 X-54.438 Y-7.528
N7465 X-54.461 Y-7.548
N7470 X-54.49 Y-7.584
N7475 X-54.505 Y-7.605
N7480 X-54.519 Y-7.628
N7485 G3 X-54.166 Y-7.761 I0.176 J-0.067
N7490 X-54.461 Y-7.548 I-0.176 J0.067
N7495 G1 X-54.481 Y-7.57
N7500 X-54.498 Y-7.592
N7505 X-54.519 Y-7.628
N7510 X-54.533 Y-7.663
N7515 X-54.543 Y-7.698
N7520 X-54.549 Y-7.734
N7525 X-54.55 Y-7.875
N7530 Y-10.396
N7535 X-54.542 Y-10.546
N7540 X-54.522 Y-10.695
N7545 X-54.488 Y-10.841
N7550 X-54.442 Y-10.983
N7555 X-54.385 Y-11.122
N7560 X-54.32 Y-11.257
N7565 X-54.246 Y-11.388
N7570 X-54.165 Y-11.514
N7575 X-54.076 Y-11.635
N7580 X-53.98 Y-11.75
N7585 X-53.878 Y-11.86
N7590 X-53.77 Y-11.964
N7595 X-53.655 Y-12.061
N7600 X-53.536 Y-12.152
N7605 X-53.412 Y-12.235
N7610 X-53.283 Y-12.312
N7615 X-53.149 Y-12.381
N7620 X-53.013 Y-12.443
N7625 X-52.974 Y-12.457
N7630 X-52.811 Y-12.509
N7635 X-52.644 Y-12.54
N7640 X-52.473 Y-12.55
N7645 G3 X-52.184 Y-12.24 Z-2.8 I-0.01 J0.3
N7650 G1 X-52.191 Y-12.186
N7655 X-52.207 Y-12.134
N7660 X-52.233 Y-12.085
N7665 X-52.267 Y-12.043
N7670 X-52.305 Y-12.003
N7675 X-54.005 Y-10.229
N7680 X-54.034 Y-10.199
N7685 X-54.077 Y-10.161
N7690 X-54.128 Y-10.133
N7695 X-54.183 Y-10.114
N7700 X-54.24 Y-10.107
N7705 G3 X-54.55 Y-10.396 Z-3. I-0.01 J-0.3
N7710 G1 Y-10.708
N7715 X-54.542 Y-10.858
N7720 X-54.515 Y-11.005
N7725 X-54.469 Y-11.148
N7730 X-54.411 Y-11.286
N7735 X-54.342 Y-11.42
N7740 X-54.265 Y-11.548
N7745 X-54.179 Y-11.672
N7750 X-54.086 Y-11.789
N7755 X-53.987 Y-11.902
N7760 X-53.881 Y-12.008
N7765 X-53.769 Y-12.108
N7770 X-53.652 Y-12.201
N7775 X-53.53 Y-12.288
N7780 X-53.395 Y-12.373
N7785 X-53.179 Y-12.47
N7790 X-52.95 Y-12.53
N7795 X-52.714 Y-12.55
N7800 G3 X-52.424 Y-12.24 Z-2.8 I-0.01 J0.3
N7805 G1 X-52.431 Y-12.184
N7810 X-52.449 Y-12.131
N7815 X-52.476 Y-12.082
N7820 X-52.512 Y-12.038
N7825 X-52.546 Y-12.004
N7830 X-54.004 Y-10.541
N7835 X-54.038 Y-10.507
N7840 X-54.081 Y-10.471
N7845 X-54.13 Y-10.444
N7850 X-54.184 Y-10.426
N7855 X-54.24 Y-10.419
N7860 G3 X-54.55 Y-10.708 Z-3. I-0.01 J-0.3
N7865 G1 Y-10.963
N7870 X-54.542 Y-11.113
N7875 X-54.506 Y-11.258
N7880 X-54.452 Y-11.398
N7885 X-54.385 Y-11.532
N7890 X-54.308 Y-11.661
N7895 X-54.222 Y-11.784
N7900 X-54.128 Y-11.901
N7905 X-54.027 Y-12.012
N7910 X-53.92 Y-12.117
N7915 X-53.808 Y-12.216
N7920 X-53.69 Y-12.309
N7925 X-53.676 Y-12.318
N7930 X-53.436 Y-12.445
N7935 X-53.175 Y-12.524
N7940 X-52.904 Y-12.55
N7945 G3 X-52.615 Y-12.24 Z-2.8 I-0.01 J0.3
N7950 G1 X-52.623 Y-12.183
N7955 X-52.641 Y-12.128
N7960 X-52.67 Y-12.077
N7965 X-52.708 Y-12.033
N7970 X-52.738 Y-12.005
N7975 X-54.003 Y-10.794
N7980 X-54.043 Y-10.756
N7985 X-54.086 Y-10.722
N7990 X-54.134 Y-10.697
N7995 X-54.186 Y-10.68
N8000 X-54.24 Y-10.673
N8005 G3 X-54.55 Y-10.963 Z-3. I-0.01 J-0.3
N8010 G1 Y-11.176
N8015 X-54.542 Y-11.326
N8020 X-54.5 Y-11.47
N8025 X-54.44 Y-11.607
N8030 X-54.367 Y-11.738
N8035 X-54.284 Y-11.863
N8040 X-54.192 Y-11.982
N8045 X-54.093 Y-12.094
N8050 X-53.987 Y-12.201
N8055 X-53.965 Y-12.219
N8060 X-53.765 Y-12.361
N8065 X-53.542 Y-12.465
N8070 X-53.306 Y-12.529
N8075 X-53.061 Y-12.55
N8080 G3 X-52.772 Y-12.24 Z-2.8 I-0.01 J0.3
N8085 G1 X-52.78 Y-12.18
N8090 X-52.8 Y-12.124
N8095 X-52.83 Y-12.072
N8100 X-52.871 Y-12.028
N8105 X-52.895 Y-12.005
N8110 X-54.002 Y-11.006
N8115 X-54.049 Y-10.964
N8120 X-54.091 Y-10.932
N8125 X-54.138 Y-10.908
N8130 X-54.188 Y-10.893
N8135 X-54.24 Y-10.887
N8140 G3 X-54.55 Y-11.176 Z-3. I-0.01 J-0.3
N8145 G1 Y-11.388
N8150 X-54.542 Y-11.537
N8155 X-54.491 Y-11.678
N8160 X-54.423 Y-11.812
N8165 X-54.344 Y-11.939
N8170 X-54.255 Y-12.06
N8175 X-54.236 Y-12.081
N8180 X-54.018 Y-12.279
N8185 X-53.763 Y-12.427
N8190 X-53.483 Y-12.519
N8195 X-53.191 Y-12.55
N8200 G3 X-52.901 Y-12.24 Z-2.8 I-0.01 J0.3
N8205 G1 X-52.91 Y-12.177
N8210 X-52.932 Y-12.117
N8215 X-52.967 Y-12.063
N8220 X-53.012 Y-12.017
N8225 X-53.025 Y-12.006
N8230 X-54. Y-11.215
N8235 X-54.061 Y-11.165
N8240 X-54.115 Y-11.13
N8245 X-54.176 Y-11.107
N8250 X-54.24 Y-11.098
N8255 G3 X-54.55 Y-11.388 Z-3. I-0.01 J-0.3
N8260 G1 Y-11.558
N8265 X-54.542 Y-11.708
N8270 X-54.49 Y-11.848
N8275 X-54.417 Y-11.983
N8280 X-54.243 Y-12.177
N8285 X-54.036 Y-12.336
N8290 X-53.803 Y-12.453
N8295 X-53.552 Y-12.526
N8300 X-53.292 Y-12.55
N8305 G3 X-53.002 Y-12.24 Z-2.8 I-0.01 J0.3
N8310 X-53.127 Y-12.007 I-0.3 J-0.01
N8315 G1 X-53.996 Y-11.381
N8320 X-54.075 Y-11.325
N8325 X-54.126 Y-11.295
N8330 X-54.182 Y-11.276
N8335 X-54.24 Y-11.269
N8340 G3 X-54.55 Y-11.558 Z-3. I-0.01 J-0.3
N8345 G1 Y-11.742
N8350 X-54.542 Y-11.892
N8355 X-54.472 Y-12.025
N8360 X-54.384 Y-12.146
N8365 X-54.282 Y-12.256
N8370 X-54.034 Y-12.416
N8375 X-53.755 Y-12.516
N8380 X-53.462 Y-12.55
N8385 G3 X-53.173 Y-12.24 Z-2.8 I-0.01 J0.3
N8390 X-53.311 Y-11.997 I-0.3 J-0.01
N8395 G1 X-53.993 Y-11.561
N8400 X-54.089 Y-11.5
N8405 X-54.136 Y-11.476
N8410 X-54.187 Y-11.46
N8415 X-54.24 Y-11.453
N8420 G3 X-54.55 Y-11.742 Z-3. I-0.01 J-0.3
N8425 G1 Y-11.884
N8430 X-54.542 Y-12.034
N8435 X-54.467 Y-12.163
N8440 X-54.289 Y-12.327
N8445 X-54.081 Y-12.449
N8450 X-53.852 Y-12.524
N8455 X-53.612 Y-12.55
N8460 G3 X-53.323 Y-12.24 Z-2.8 I-0.01 J0.3
N8465 X-53.475 Y-11.989 I-0.3 J-0.01
N8470 G1 X-53.99 Y-11.697
N8475 X-54.102 Y-11.634
N8480 X-54.146 Y-11.613
N8485 X-54.192 Y-11.6
N8490 X-54.24 Y-11.595
N8495 G3 X-54.55 Y-11.884 Z-3. I-0.01 J-0.3
N8500 G1 Y-12.026
N8505 X-54.546 Y-12.101
N8510 X-54.477 Y-12.234
N8515 X-54.274 Y-12.405
N8520 X-54.032 Y-12.513
N8525 X-53.769 Y-12.55
N8530 G3 X-53.357 Y-12.351 Z-2.8 I-0.02 J0.567
N8535 X-53.34 Y-11.635 I-0.432 J0.368
N8540 X-54.377 Y-11.598 I-0.534 J-0.414
N8545 X-54.55 Y-12.026 Z-3. I0.503 J-0.452
N8550 G1 Y-12.094
N8555 X-54.546 Y-12.168
N8560 X-54.489 Y-12.307
N8565 X-54.321 Y-12.439
N8570 X-54.125 Y-12.522
N8575 X-53.914 Y-12.55
N8580 G3 X-53.522 Y-12.323 Z-2.8 I-0.017 J0.48
N8585 X-53.534 Y-11.799 I-0.408 J0.253
N8590 X-54.348 Y-11.684 I-0.46 J-0.314
N8595 X-54.55 Y-12.094 Z-3. I0.354 J-0.429
N8600 G1 X-54.549 Y-12.197
N8605 Y-12.235
N8610 Y-12.266
N8615 X-54.537 Y-12.319
N8620 X-54.529 Y-12.346
N8625 X-54.519 Y-12.372
N8630 X-54.49 Y-12.404
N8635 X-54.452 Y-12.423
N8640 X-54.41 Y-12.427
N8645 X-54.369 Y-12.417
N8650 X-54.334 Y-12.393
N8655 X-54.31 Y-12.358
N8660 X-54.3 Y-12.317
N8665 X-54.304 Y-12.275
N8670 X-54.316 Y-12.235
N8675 X-54.335 Y-12.198
N8680 X-54.365 Y-12.17
N8685 X-54.404 Y-12.153
N8690 X-54.446 Y-12.151
N8695 X-54.485 Y-12.164
N8700 X-54.518 Y-12.19
N8705 X-54.54 Y-12.225
N8710 X-54.549 Y-12.266
N8715 X-54.543 Y-12.302
N8720 X-54.533 Y-12.337
N8725 X-54.519 Y-12.372
N8730 X-54.498 Y-12.408
N8735 X-54.481 Y-12.43
N8740 X-54.461 Y-12.452
N8745 X-54.388 Y-12.51
N8750 G3 X-53.999 Y-12.365 Z-2.8 I0.132 J0.238
N8755 X-54.401 Y-12.041 I-0.256 J0.094
N8760 X-54.523 Y-12.325 Z-2.94 I0.146 J-0.23
N8765 G1 X-54.509 Y-12.371 Z-2.96
N8770 X-54.489 Y-12.413 Z-2.98
N8775 X-54.461 Y-12.452 Z-3.
N8780 X-54.411 Y-12.496
N8785 X-54.375 Y-12.517
N8790 X-54.34 Y-12.532
N8795 X-54.304 Y-12.543
N8800 X-54.269 Y-12.548
N8805 X-54.257 Y-12.549
N8810 X-52.993 Y-12.55
N8815 X-51.603
N8820 X-51.453 Y-12.542
N8825 X-51.305 Y-12.523
N8830 X-51.159 Y-12.488
N8835 X-51.016 Y-12.442
N8840 X-50.877 Y-12.385
N8845 X-50.742 Y-12.32
N8850 X-50.612 Y-12.246
N8855 X-50.486 Y-12.165
N8860 X-50.365 Y-12.076
N8865 X-50.249 Y-11.981
N8870 X-50.138 Y-11.879
N8875 X-50.034 Y-11.772
N8880 X-49.936 Y-11.658
N8885 X-49.844 Y-11.54
N8890 X-49.758 Y-11.417
N8895 X-49.68 Y-11.289
N8900 X-49.608 Y-11.157
N8905 X-49.585 Y-11.107
N8910 X-49.51 Y-10.915
N8915 X-49.465 Y-10.714
N8920 X-49.45 Y-10.508
N8925 G3 X-49.76 Y-10.219 Z-2.8 I-0.3 J-0.01
N8930 G1 X-49.814 Y-10.225
N8935 X-49.865 Y-10.242
N8940 X-49.913 Y-10.267
N8945 X-49.955 Y-10.3
N8950 X-49.997 Y-10.339
N8955 X-51.77 Y-12.005
N8960 X-51.798 Y-12.032
N8965 X-51.837 Y-12.076
N8970 X-51.866 Y-12.126
N8975 X-51.885 Y-12.182
N8980 X-51.893 Y-12.24
N8985 G3 X-51.603 Y-12.55 Z-3. I0.3 J-0.01
N8990 G1 X-51.291
N8995 X-51.141 Y-12.542
N9000 X-50.994 Y-12.514
N9005 X-50.851 Y-12.469
N9010 X-50.713 Y-12.41
N9015 X-50.579 Y-12.342
N9020 X-50.451 Y-12.265
N9025 X-50.327 Y-12.179
N9030 X-50.209 Y-12.087
N9035 X-50.096 Y-11.988
N9040 X-49.99 Y-11.883
N9045 X-49.889 Y-11.772
N9050 X-49.794 Y-11.656
N9055 X-49.705 Y-11.535
N9060 X-49.677 Y-11.491
N9065 X-49.552 Y-11.253
N9070 X-49.476 Y-10.995
N9075 X-49.45 Y-10.727
N9080 G3 X-49.76 Y-10.438 Z-2.8 I-0.3 J-0.01
N9085 G1 X-49.815 Y-10.445
N9090 X-49.869 Y-10.462
N9095 X-49.918 Y-10.489
N9100 X-49.961 Y-10.524
N9105 X-49.996 Y-10.559
N9110 X-51.458 Y-12.004
N9115 X-51.491 Y-12.037
N9120 X-51.528 Y-12.08
N9125 X-51.555 Y-12.13
N9130 X-51.573 Y-12.184
N9135 X-51.58 Y-12.24
N9140 G3 X-51.291 Y-12.55 Z-3. I0.3 J-0.01
N9145 G1 X-51.036
N9150 X-50.886 Y-12.542
N9155 X-50.741 Y-12.505
N9160 X-50.601 Y-12.452
N9165 X-50.467 Y-12.385
N9170 X-50.338 Y-12.308
N9175 X-50.215 Y-12.222
N9180 X-50.097 Y-12.129
N9185 X-49.985 Y-12.029
N9190 X-49.879 Y-11.923
N9195 X-49.779 Y-11.811
N9200 X-49.739 Y-11.759
N9205 X-49.581 Y-11.499
N9210 X-49.483 Y-11.21
N9215 X-49.45 Y-10.907
N9220 G3 X-49.76 Y-10.618 Z-2.8 I-0.3 J-0.01
N9225 G1 X-49.817 Y-10.625
N9230 X-49.872 Y-10.644
N9235 X-49.923 Y-10.672
N9240 X-49.967 Y-10.71
N9245 X-49.995 Y-10.74
N9250 X-51.204 Y-12.003
N9255 X-51.242 Y-12.043
N9260 X-51.276 Y-12.085
N9265 X-51.302 Y-12.134
N9270 X-51.319 Y-12.186
N9275 X-51.325 Y-12.24
N9280 G3 X-51.036 Y-12.55 Z-3. I0.3 J-0.01
N9285 G1 X-50.823
N9290 X-50.673 Y-12.542
N9295 X-50.529 Y-12.5
N9300 X-50.391 Y-12.44
N9305 X-50.26 Y-12.368
N9310 X-50.135 Y-12.285
N9315 X-50.016 Y-12.194
N9320 X-49.903 Y-12.095
N9325 X-49.797 Y-11.989
N9330 X-49.771 Y-11.957
N9335 X-49.596 Y-11.687
N9340 X-49.487 Y-11.384
N9345 X-49.45 Y-11.065
N9350 G3 X-49.76 Y-10.775 Z-2.8 I-0.3 J-0.01
N9355 G1 X-49.82 Y-10.783
N9360 X-49.876 Y-10.803
N9365 X-49.928 Y-10.834
N9370 X-49.972 Y-10.874
N9375 X-49.995 Y-10.899
N9380 X-50.992 Y-12.002
N9385 X-51.035 Y-12.049
N9390 X-51.066 Y-12.091
N9395 X-51.09 Y-12.138
N9400 X-51.106 Y-12.188
N9405 X-51.112 Y-12.24
N9410 G3 X-50.823 Y-12.55 Z-3. I0.3 J-0.01
N9415 G1 X-50.611
N9420 X-50.461 Y-12.542
N9425 X-50.32 Y-12.491
N9430 X-50.186 Y-12.424
N9435 X-50.058 Y-12.345
N9440 X-49.938 Y-12.256
N9445 X-49.825 Y-12.156
N9450 X-49.812 Y-12.142
N9455 X-49.658 Y-11.936
N9460 X-49.544 Y-11.706
N9465 X-49.474 Y-11.458
N9470 X-49.45 Y-11.202
N9475 G3 X-49.76 Y-10.913 Z-2.8 I-0.3 J-0.01
N9480 G1 X-49.823 Y-10.922
N9485 X-49.883 Y-10.944
N9490 X-49.937 Y-10.978
N9495 X-49.982 Y-11.022
N9500 X-49.994 Y-11.037
N9505 X-50.783 Y-12.
N9510 X-50.832 Y-12.06
N9515 X-50.868 Y-12.115
N9520 X-50.891 Y-12.175
N9525 X-50.9 Y-12.24
N9530 G3 X-50.611 Y-12.55 Z-3. I0.3 J-0.01
N9535 G1 X-50.44
N9540 X-50.29 Y-12.542
N9545 X-50.15 Y-12.49
N9550 X-50.017 Y-12.42
N9555 X-49.893 Y-12.335
N9560 X-49.706 Y-12.125
N9565 X-49.566 Y-11.881
N9570 X-49.479 Y-11.613
N9575 X-49.45 Y-11.333
N9580 G3 X-49.76 Y-11.044 Z-2.8 I-0.3 J-0.01
N9585 X-49.99 Y-11.163 I0.01 J-0.3
N9590 G1 X-49.993 Y-11.168
N9595 X-50.615 Y-11.997
N9600 X-50.67 Y-12.07
N9605 X-50.701 Y-12.122
N9610 X-50.721 Y-12.18
N9615 X-50.729 Y-12.24
N9620 G3 X-50.44 Y-12.55 Z-3. I0.3 J-0.01
N9625 G1 X-50.255
N9630 X-50.106 Y-12.542
N9635 X-49.969 Y-12.481
N9640 X-49.752 Y-12.281
N9645 X-49.587 Y-12.037
N9650 X-49.485 Y-11.76
N9655 X-49.45 Y-11.467
N9660 G3 X-49.76 Y-11.178 Z-2.8 I-0.3 J-0.01
N9665 X-50.002 Y-11.316 I0.01 J-0.3
N9670 G1 X-50.437 Y-11.993
N9675 X-50.498 Y-12.088
N9680 X-50.522 Y-12.136
N9685 X-50.538 Y-12.187
N9690 X-50.545 Y-12.24
N9695 G3 X-50.255 Y-12.55 Z-3. I0.3 J-0.01
N9700 G1 X-50.114
N9705 X-49.964 Y-12.542
N9710 X-49.836 Y-12.464
N9715 X-49.673 Y-12.282
N9720 X-49.551 Y-12.071
N9725 X-49.475 Y-11.838
N9730 X-49.45 Y-11.595
N9735 G3 X-49.76 Y-11.306 Z-2.8 I-0.3 J-0.01
N9740 X-50.013 Y-11.461 I0.01 J-0.3
N9745 G1 X-50.302 Y-11.989
N9750 X-50.366 Y-12.106
N9755 X-50.385 Y-12.149
N9760 X-50.398 Y-12.194
N9765 X-50.403 Y-12.24
N9770 G3 X-50.114 Y-12.55 Z-3. I0.3 J-0.01
N9775 G1 X-49.972
N9780 X-49.897 Y-12.546
N9785 X-49.765 Y-12.474
N9790 X-49.595 Y-12.268
N9795 X-49.487 Y-12.023
N9800 X-49.45 Y-11.758
N9805 G3 X-49.648 Y-11.346 Z-2.8 I-0.569 J-0.02
N9810 X-50.375 Y-11.333 I-0.371 J-0.432
N9815 X-50.401 Y-12.379 I0.427 J-0.534
N9820 X-49.972 Y-12.55 Z-3. I0.453 J0.512
N9825 G1 X-49.904
N9830 X-49.829 Y-12.546
N9835 X-49.693 Y-12.484
N9840 X-49.561 Y-12.316
N9845 X-49.478 Y-12.12
N9850 X-49.45 Y-11.908
N9855 G3 X-49.677 Y-11.517 Z-2.8 I-0.48 J-0.017
N9860 X-50.206 Y-11.531 I-0.253 J-0.408
N9865 X-50.315 Y-12.349 I0.322 J-0.459
N9870 X-49.904 Y-12.55 Z-3. I0.43 J0.359
N9875 G1 X-49.834
N9880 X-49.784
N9885 X-49.743 Y-12.549
N9890 X-49.696 Y-12.543
N9895 X-49.683 Y-12.518 Z-2.988
N9900 G3 X-49.766 Y-12.147 Z-2.814 I-0.268 J0.135
N9905 G1 X-49.791 Y-12.127 Z-2.8
N9910 X-50.006 Y-11.958
N9915 X-50.16 Y-11.837
N9920 G3 X-50.593 Y-11.904 I-0.185 J-0.236
N9925 X-50.498 Y-12.331 I0.248 J-0.169
N9930 X-50.205 Y-12.466 I0.803 J1.364
N9935 X-49.743 Y-12.549 Z-3. I0.51 J1.498
N9940 G1 X-49.731 Y-12.548
N9945 X-49.696 Y-12.543
N9950 X-49.66 Y-12.532
N9955 X-49.625 Y-12.517
N9960 X-49.589 Y-12.496
N9965 X-49.513 Y-12.422
N9970 G3 X-49.917 Y-12.14 I-0.202 J0.141
N9975 X-49.76 Y-12.524 I0.202 J-0.141
N9980 G1 X-49.701 Y-12.528
N9985 X-49.643 Y-12.518
N9990 X-49.589 Y-12.496
N9995 X-49.539 Y-12.452
N10000 X-49.519 Y-12.43
N10005 X-49.502 Y-12.408
N10010 X-49.481 Y-12.372
N10015 X-49.467 Y-12.337
N10020 X-49.453 Y-12.276
N10025 G3 X-49.9 Y-12.224 I-0.224 J0.026
N10030 X-49.529 Y-12.42 I0.224 J-0.026
N10035 G1 X-49.493 Y-12.382
N10040 X-49.467 Y-12.337
N10045 X-49.457 Y-12.302
N10050 X-49.451 Y-12.266
N10055 X-49.45 Y-12.125
N10060 Y-10.181
N10065 G3 X-49.749 Y-9.891 I-0.3 J-0.01
N10070 G1 X-49.75
N10075 X-49.774 Y-9.892
N10080 X-49.824 Y-9.91 Z-2.995
N10085 X-49.873 Y-9.927 Z-2.981
N10090 X-49.918 Y-9.943 Z-2.958
N10095 X-49.951 Y-9.979 Z-2.921
N10100 X-49.978 Y-10.009 Z-2.874
N10105 X-49.998 Y-10.032 Z-2.82
N10110 X-50.01 Y-10.046 Z-2.762
N10115 X-50.015 Y-10.05 Z-2.7
N10120 G0 Z5.
N10125 X-53.519 Y-10.006
N10130 Z-0.5
N10135 G3 X-51.371 Y-11.383 Z-0.606 I1.519 J0.006 F1206.
N10140 X-50.998 Y-8.862 Z-0.712 I-0.629 J1.381
N10145 X-53.447 Y-9.555 Z-0.817 I-1. J-1.138
N10150 X-51.811 Y-11.502 Z-0.923 I1.447 J-0.445
N10155 X-50.709 Y-9.214 Z-1.029 I-0.188 J1.5
N10160 X-53.244 Y-9.147 Z-1.135 I-1.289 J-0.786
N10165 X-52.266 Y-11.484 Z-1.24 I1.244 J-0.852
N10170 X-50.539 Y-9.636 Z-1.346 I0.266 J1.483
N10175 X-52.93 Y-8.82 Z-1.452 I-1.459 J-0.365
N10180 X-52.693 Y-11.332 Z-1.558 I0.931 J-1.18
N10185 X-50.502 Y-10.087 Z-1.663 I0.693 J1.331
N10190 X-52.534 Y-8.601 Z-1.769 I-1.497 J0.086
N10195 X-53.054 Y-11.061 Z-1.875 I0.535 J-1.398
N10200 X-50.6 Y-10.527 Z-1.981 I1.054 J1.061
N10205 X-52.093 Y-8.511 Z-2.087 I-1.398 J0.525
N10210 X-53.317 Y-10.697 Z-2.192 I0.095 J-1.489
N10215 X-50.825 Y-10.916 Z-2.298 I1.317 J0.696
N10220 X-51.647 Y-8.556 Z-2.404 I-1.174 J0.914
N10225 X-53.459 Y-10.272 Z-2.51 I-0.352 J-1.444
N10230 X-51.154 Y-11.219 Z-2.615 I1.459 J0.271
N10235 X-51.235 Y-8.731 Z-2.721 I-0.845 J1.218
N10240 X-53.468 Y-9.825 Z-2.827 I-0.763 J-1.269
N10245 X-51.557 Y-11.411 Z-2.933 I1.468 J-0.175
N10250 X-50.896 Y-9.02 Z-3.038 I-0.443 J1.409
N10255 X-53.344 Y-9.398 Z-3.144 I-1.102 J-0.981
N10260 X-51.997 Y-11.473 Z-3.25 I1.345 J-0.602
N10265 X-50.659 Y-9.395 Z-3.356 I-0.003 J1.471
N10270 X-53.1 Y-9.028 Z-3.462 I-1.339 J-0.606
N10275 X-52.433 Y-11.401 Z-3.567 I1.1 J-0.971
N10280 X-50.545 Y-9.822 Z-3.673 I0.433 J1.4
N10285 X-52.758 Y-8.75 Z-3.779 I-1.453 J-0.179
N10290 X-52.828 Y-11.204 Z-3.885 I0.759 J-1.25
N10295 X-50.563 Y-10.262 Z-3.99 I0.828 J1.203
N10300 X-52.349 Y-8.586 Z-4.096 I-1.435 J0.261
N10305 X-53.144 Y-10.899 Z-4.202 I0.351 J-1.414
N10310 X-50.711 Y-10.675 Z-4.308 I1.144 J0.899
N10315 X-51.913 Y-8.551 Z-4.413 I-1.287 J0.673
N10320 X-53.355 Y-10.516 Z-4.519 I-0.086 J-1.448
N10325 X-50.974 Y-11.024 Z-4.625 I1.354 J0.515
N10330 X-51.487 Y-8.648 Z-4.731 I-1.024 J1.022
N10335 X-53.441 Y-10.089 Z-4.837 I-0.511 J-1.352
N10340 X-51.328 Y-11.278 Z-4.942 I1.441 J0.088
N10345 X-51.111 Y-8.866 Z-5.048 I-0.671 J1.276
N10350 X-53.396 Y-9.657 Z-5.154 I-0.887 J-1.134
N10355 X-51.74 Y-11.414 Z-5.26 I1.396 J-0.343
N10360 X-50.818 Y-9.185 Z-5.365 I-0.26 J1.413
N10365 X-53.226 Y-9.259 Z-5.471 I-1.18 J-0.815
N10370 X-52.172 Y-11.422 Z-5.577 I1.226 J-0.741
N10375 X-50.634 Y-9.575 Z-5.683 I0.172 J1.42
N10380 X-52.946 Y-8.932 Z-5.788 I-1.364 J-0.425
N10385 X-52.585 Y-11.301 Z-5.894 I0.946 J-1.068
N10390 X-50.575 Y-10.001 Z-6. I0.585 J1.3
N10395 X-53.425 I-1.425 J0.
N10400 X-50.575 I1.425 J0.
N10405 G1 X-50.564 Y-9.781 F445.94
N10410 X-50.56 Y-9.631
N10415 X-50.591 Y-9.484
N10420 X-50.643 Y-9.343
N10425 X-50.711 Y-9.21
N10430 X-50.793 Y-9.084
N10435 X-50.889 Y-8.969
N10440 X-50.996 Y-8.863
N10445 X-51.112 Y-8.769
N10450 X-51.238 Y-8.687
N10455 X-51.371 Y-8.619
N10460 X-51.511 Y-8.563
N10465 X-51.655 Y-8.522
N10470 X-51.803 Y-8.495
N10475 X-51.952 Y-8.483
N10480 X-52.102 Y-8.486
N10485 X-52.251 Y-8.503
N10490 X-52.398 Y-8.535
N10495 X-52.54 Y-8.581
N10500 X-52.678 Y-8.642
N10505 X-52.808 Y-8.715
N10510 X-52.931 Y-8.801
N10515 X-53.045 Y-8.899
N10520 X-53.149 Y-9.007
N10525 X-53.241 Y-9.125
N10530 X-53.322 Y-9.252
N10535 X-53.389 Y-9.386
N10540 X-53.443 Y-9.526
N10545 X-53.483 Y-9.671
N10550 X-53.508 Y-9.818
N10555 X-53.519 Y-9.968
N10560 X-53.515 Y-10.118
N10565 X-53.496 Y-10.267
N10570 X-53.462 Y-10.413
N10575 X-53.415 Y-10.555
N10580 X-53.353 Y-10.692
N10585 X-53.278 Y-10.822
N10590 X-53.191 Y-10.944
N10595 X-53.092 Y-11.057
N10600 X-52.983 Y-11.16
N10605 X-52.864 Y-11.251
N10610 X-52.736 Y-11.33
N10615 X-52.602 Y-11.396
N10620 X-52.461 Y-11.449
N10625 X-52.316 Y-11.487
N10630 X-52.168 Y-11.511
N10635 X-52.018 Y-11.52
N10640 X-51.869 Y-11.515
N10645 X-51.72 Y-11.494
N10650 X-51.574 Y-11.459
N10655 X-51.432 Y-11.41
N10660 X-51.296 Y-11.347
N10665 X-51.167 Y-11.271
N10670 X-51.046 Y-11.183
N10675 X-50.934 Y-11.083
N10680 X-50.832 Y-10.973
N10685 X-50.742 Y-10.853
N10690 X-50.664 Y-10.725
N10695 X-50.599 Y-10.589
N10700 X-50.548 Y-10.448
N10705 X-50.511 Y-10.303
N10710 X-50.485 Y-10.155
N10715 X-50.465 Y-10.007
N10720 X-50.454 Y-9.857
N10725 X-50.459 Y-9.707
N10730 X-50.482 Y-9.559
N10735 X-50.522 Y-9.414
N10740 X-50.577 Y-9.275
N10745 X-50.647 Y-9.142
N10750 X-50.731 Y-9.018
N10755 X-50.826 Y-8.902
N10760 X-50.933 Y-8.796
N10765 X-51.049 Y-8.701
N10770 X-51.173 Y-8.618
N10775 X-51.305 Y-8.546
N10780 X-51.443 Y-8.487
N10785 X-51.586 Y-8.442
N10790 X-51.732 Y-8.41
N10795 X-51.881 Y-8.391
N10800 X-52.031 Y-8.387
N10805 X-52.181 Y-8.397
N10810 X-52.329 Y-8.42
N10815 X-52.474 Y-8.458
N10820 X-52.615 Y-8.509
N10825 X-52.751 Y-8.573
N10830 X-52.88 Y-8.649
N10835 X-53.002 Y-8.737
N10840 X-53.115 Y-8.835
N10845 X-53.218 Y-8.944
N10850 X-53.311 Y-9.062
N10855 X-53.393 Y-9.187
N10860 X-53.463 Y-9.32
N10865 X-53.52 Y-9.459
N10870 X-53.564 Y-9.602
N10875 X-53.594 Y-9.749
N10880 X-53.611 Y-9.898
N10885 X-53.614 Y-10.048
N10890 X-53.603 Y-10.198
N10895 X-53.577 Y-10.346
N10900 X-53.539 Y-10.491
N10905 X-53.486 Y-10.631
N10910 X-53.421 Y-10.766
N10915 X-53.344 Y-10.895
N10920 X-53.255 Y-11.016
N10925 X-53.155 Y-11.128
N10930 X-53.045 Y-11.23
N10935 X-52.927 Y-11.322
N10940 X-52.8 Y-11.402
N10945 X-52.667 Y-11.47
N10950 X-52.527 Y-11.526
N10955 X-52.384 Y-11.569
N10960 X-52.236 Y-11.598
N10965 X-52.087 Y-11.613
N10970 X-51.937 Y-11.615
N10975 X-51.788 Y-11.602
N10980 X-51.64 Y-11.575
N10985 X-51.496 Y-11.535
N10990 X-51.356 Y-11.481
N10995 X-51.221 Y-11.415
N11000 X-51.093 Y-11.336
N11005 X-50.973 Y-11.246
N11010 X-50.862 Y-11.145
N11015 X-50.761 Y-11.035
N11020 X-50.671 Y-10.915
N11025 X-50.591 Y-10.788
N11030 X-50.524 Y-10.653
N11035 X-50.47 Y-10.514
N11040 X-50.426 Y-10.37
N11045 X-50.393 Y-10.224
N11050 X-50.369 Y-10.076
N11055 X-50.356 Y-9.926
N11060 X-50.357 Y-9.776
N11065 X-50.374 Y-9.627
N11070 X-50.405 Y-9.481
N11075 X-50.45 Y-9.338
N11080 X-50.51 Y-9.2
N11085 X-50.583 Y-9.069
N11090 X-50.668 Y-8.946
N11095 X-50.765 Y-8.831
N11100 X-50.871 Y-8.725
N11105 X-50.987 Y-8.63
N11110 X-51.111 Y-8.545
N11115 X-51.241 Y-8.471
N11120 X-51.378 Y-8.41
N11125 X-51.52 Y-8.361
N11130 X-51.665 Y-8.324
N11135 X-51.814 Y-8.301
N11140 X-51.963 Y-8.291
N11145 X-52.113 Y-8.294
N11150 X-52.262 Y-8.31
N11155 X-52.409 Y-8.339
N11160 X-52.553 Y-8.382
N11165 X-52.693 Y-8.437
N11170 X-52.827 Y-8.504
N11175 X-52.955 Y-8.582
N11180 X-53.075 Y-8.672
N11185 X-53.187 Y-8.771
N11190 X-53.29 Y-8.88
N11195 X-53.384 Y-8.998
N11200 X-53.466 Y-9.123
N11205 X-53.538 Y-9.255
N11210 X-53.598 Y-9.392
N11215 X-53.645 Y-9.535
N11220 X-53.68 Y-9.68
N11225 X-53.702 Y-9.829
N11230 X-53.711 Y-9.979
N11235 X-53.707 Y-10.129
N11240 X-53.689 Y-10.277
N11245 X-53.659 Y-10.424
N11250 X-53.615 Y-10.568
N11255 X-53.559 Y-10.707
N11260 X-53.491 Y-10.841
N11265 X-53.411 Y-10.968
N11270 X-53.321 Y-11.087
N11275 X-53.22 Y-11.199
N11280 X-53.11 Y-11.301
N11285 X-52.992 Y-11.393
N11290 X-52.866 Y-11.475
N11295 X-52.734 Y-11.545
N11300 X-52.596 Y-11.604
N11305 X-52.453 Y-11.65
N11310 X-52.307 Y-11.684
N11315 X-52.158 Y-11.705
N11320 X-52.008 Y-11.713
N11325 X-51.859 Y-11.707
N11330 X-51.71 Y-11.688
N11335 X-51.563 Y-11.656
N11340 X-51.42 Y-11.611
N11345 X-51.281 Y-11.554
N11350 X-51.148 Y-11.485
N11355 X-51.022 Y-11.404
N11360 X-50.903 Y-11.313
N11365 X-50.793 Y-11.211
N11370 X-50.691 Y-11.101
N11375 X-50.6 Y-10.982
N11380 X-50.519 Y-10.855
N11385 X-50.45 Y-10.722
N11390 X-50.391 Y-10.584
N11395 X-50.342 Y-10.442
N11400 X-50.304 Y-10.297
N11405 X-50.276 Y-10.15
N11410 X-50.26 Y-10.001
N11415 X-50.256 Y-9.851
N11420 X-50.266 Y-9.701
N11425 X-50.289 Y-9.553
N11430 X-50.326 Y-9.408
N11435 X-50.376 Y-9.266
N11440 X-50.439 Y-9.13
N11445 X-50.514 Y-9.
N11450 X-50.6 Y-8.877
N11455 X-50.697 Y-8.763
N11460 X-50.803 Y-8.657
N11465 X-50.918 Y-8.561
N11470 X-51.041 Y-8.475
N11475 X-51.171 Y-8.399
N11480 X-51.306 Y-8.335
N11485 X-51.447 Y-8.282
N11490 X-51.591 Y-8.241
N11495 X-51.738 Y-8.212
N11500 X-51.887 Y-8.196
N11505 X-52.037 Y-8.192
N11510 X-52.187 Y-8.201
N11515 X-52.335 Y-8.222
N11520 X-52.481 Y-8.256
N11525 X-52.624 Y-8.302
N11530 X-52.763 Y-8.36
N11535 X-52.896 Y-8.43
N11540 X-53.022 Y-8.51
N11545 X-53.142 Y-8.6
N11550 X-53.254 Y-8.7
N11555 X-53.358 Y-8.809
N11560 X-53.452 Y-8.925
N11565 X-53.536 Y-9.049
N11570 X-53.61 Y-9.18
N11575 X-53.672 Y-9.316
N11580 X-53.724 Y-9.457
N11585 X-53.764 Y-9.602
N11590 X-53.791 Y-9.749
N11595 X-53.807 Y-9.898
N11600 X-53.809 Y-10.048
N11605 X-53.8 Y-10.198
N11610 X-53.777 Y-10.346
N11615 X-53.742 Y-10.492
N11620 X-53.695 Y-10.635
N11625 X-53.637 Y-10.773
N11630 X-53.567 Y-10.905
N11635 X-53.486 Y-11.032
N11640 X-53.395 Y-11.151
N11645 X-53.294 Y-11.262
N11650 X-53.185 Y-11.365
N11655 X-53.068 Y-11.459
N11660 X-52.943 Y-11.542
N11665 X-52.812 Y-11.615
N11670 X-52.676 Y-11.678
N11675 X-52.535 Y-11.728
N11680 X-52.39 Y-11.767
N11685 X-52.242 Y-11.794
N11690 X-52.093 Y-11.809
N11695 X-51.943 Y-11.81
N11700 X-51.793 Y-11.8
N11705 X-51.645 Y-11.776
N11710 X-51.499 Y-11.741
N11715 X-51.357 Y-11.693
N11720 X-51.219 Y-11.633
N11725 X-51.087 Y-11.563
N11730 X-50.961 Y-11.481
N11735 X-50.843 Y-11.389
N11740 X-50.732 Y-11.288
N11745 X-50.629 Y-11.179
N11750 X-50.537 Y-11.061
N11755 X-50.453 Y-10.936
N11760 X-50.38 Y-10.805
N11765 X-50.317 Y-10.669
N11770 X-50.264 Y-10.529
N11775 X-50.221 Y-10.385
N11780 X-50.188 Y-10.239
N11785 X-50.166 Y-10.09
N11790 X-50.156 Y-9.941
N11795 X-50.159 Y-9.791
N11800 X-50.174 Y-9.641
N11805 X-50.201 Y-9.494
N11810 X-50.242 Y-9.35
N11815 X-50.294 Y-9.209
N11820 X-50.359 Y-9.074
N11825 X-50.434 Y-8.944
N11830 X-50.521 Y-8.821
N11835 X-50.617 Y-8.706
N11840 X-50.722 Y-8.599
N11845 X-50.836 Y-8.501
N11850 X-50.957 Y-8.413
N11855 X-51.084 Y-8.334
N11860 X-51.218 Y-8.266
N11865 X-51.356 Y-8.208
N11870 X-51.499 Y-8.162
N11875 X-51.645 Y-8.127
N11880 X-51.793 Y-8.104
N11885 X-51.943 Y-8.093
N11890 X-52.093 Y-8.094
N11895 X-52.242 Y-8.107
N11900 X-52.39 Y-8.132
N11905 X-52.536 Y-8.168
N11910 X-52.678 Y-8.216
N11915 X-52.816 Y-8.275
N11920 X-52.948 Y-8.345
N11925 X-53.075 Y-8.425
N11930 X-53.195 Y-8.515
N11935 X-53.308 Y-8.614
N11940 X-53.413 Y-8.721
N11945 X-53.509 Y-8.837
N11950 X-53.596 Y-8.959
N11955 X-53.673 Y-9.087
N11960 X-53.74 Y-9.222
N11965 X-53.797 Y-9.361
N11970 X-53.842 Y-9.504
N11975 X-53.876 Y-9.65
N11980 X-53.899 Y-9.798
N11985 X-53.909 Y-9.948
N11990 X-53.908 Y-10.098
N11995 X-53.894 Y-10.247
N12000 X-53.869 Y-10.395
N12005 X-53.832 Y-10.54
N12010 X-53.784 Y-10.682
N12015 X-53.724 Y-10.82
N12020 X-53.654 Y-10.952
N12025 X-53.574 Y-11.079
N12030 X-53.484 Y-11.199
N12035 X-53.385 Y-11.312
N12040 X-53.277 Y-11.416
N12045 X-53.162 Y-11.512
N12050 X-53.039 Y-11.599
N12055 X-52.911 Y-11.676
N12060 X-52.776 Y-11.743
N12065 X-52.637 Y-11.799
N12070 X-52.494 Y-11.844
N12075 X-52.348 Y-11.878
N12080 X-52.2 Y-11.9
N12085 X-52.05 Y-11.911
N12090 X-51.9 Y-11.909
N12095 X-51.751 Y-11.895
N12100 X-51.603 Y-11.87
N12105 X-51.458 Y-11.832
N12110 X-51.316 Y-11.783
N12115 X-51.178 Y-11.724
N12120 X-51.046 Y-11.653
N12125 X-50.919 Y-11.573
N12130 X-50.8 Y-11.483
N12135 X-50.687 Y-11.383
N12140 X-50.583 Y-11.276
N12145 X-50.487 Y-11.16
N12150 X-50.4 Y-11.038
N12155 X-50.322 Y-10.91
N12160 X-50.253 Y-10.776
N12165 X-50.195 Y-10.638
N12170 X-50.145 Y-10.497
N12175 X-50.106 Y-10.352
N12180 X-50.078 Y-10.205
N12185 X-50.06 Y-10.056
N12190 X-50.054 Y-9.906
N12195 X-50.06 Y-9.756
N12200 X-50.078 Y-9.607
N12205 X-50.107 Y-9.46
N12210 X-50.149 Y-9.316
N12215 X-50.202 Y-9.175
N12220 X-50.265 Y-9.04
N12225 X-50.34 Y-8.909
N12230 X-50.424 Y-8.785
N12235 X-50.518 Y-8.668
N12240 X-50.621 Y-8.559
N12245 X-50.731 Y-8.458
N12250 X-50.85 Y-8.365
N12255 X-50.974 Y-8.282
N12260 X-51.105 Y-8.209
N12265 X-51.241 Y-8.145
N12270 X-51.382 Y-8.092
N12275 X-51.525 Y-8.05
N12280 X-51.672 Y-8.019
N12285 X-51.821 Y-7.999
N12290 X-51.971 Y-7.991
N12295 X-52.121 Y-7.994
N12300 X-52.27 Y-8.008
N12305 X-52.418 Y-8.034
N12310 X-52.563 Y-8.071
N12315 X-52.705 Y-8.119
N12320 X-52.843 Y-8.177
N12325 X-52.977 Y-8.246
N12330 X-53.105 Y-8.324
N12335 X-53.227 Y-8.412
N12340 X-53.342 Y-8.508
N12345 X-53.449 Y-8.613
N12350 X-53.549 Y-8.725
N12355 X-53.64 Y-8.844
N12360 X-53.722 Y-8.969
N12365 X-53.795 Y-9.101
N12370 X-53.858 Y-9.237
N12375 X-53.91 Y-9.377
N12380 X-53.952 Y-9.521
N12385 X-53.983 Y-9.668
N12390 X-54.003 Y-9.817
N12395 X-54.011 Y-9.967
N12400 X-54.008 Y-10.117
N12405 X-53.994 Y-10.266
N12410 X-53.968 Y-10.414
N12415 X-53.931 Y-10.559
N12420 X-53.884 Y-10.701
N12425 X-53.826 Y-10.84
N12430 X-53.758 Y-10.973
N12435 X-53.68 Y-11.102
N12440 X-53.593 Y-11.224
N12445 X-53.497 Y-11.339
N12450 X-53.392 Y-11.447
N12455 X-53.281 Y-11.547
N12460 X-53.162 Y-11.638
N12465 X-53.037 Y-11.721
N12470 X-52.906 Y-11.794
N12475 X-52.77 Y-11.857
N12480 X-52.629 Y-11.91
N12485 X-52.485 Y-11.952
N12490 X-52.338 Y-11.983
N12495 X-52.19 Y-12.003
N12500 X-52.04 Y-12.012
N12505 X-51.89 Y-12.009
N12510 X-51.741 Y-11.995
N12515 X-51.593 Y-11.97
N12520 X-51.447 Y-11.934
N12525 X-51.305 Y-11.887
N12530 X-51.166 Y-11.829
N12535 X-51.033 Y-11.761
N12540 X-50.904 Y-11.684
N12545 X-50.782 Y-11.597
N12550 X-50.666 Y-11.501
N12555 X-50.558 Y-11.398
N12560 X-50.457 Y-11.286
N12565 X-50.365 Y-11.168
N12570 X-50.281 Y-11.044
N12575 X-50.206 Y-10.914
N12580 X-50.14 Y-10.779
N12585 X-50.084 Y-10.64
N12590 X-50.037 Y-10.498
N12595 X-50. Y-10.352
N12600 X-49.973 Y-10.205
N12605 X-49.957 Y-10.056
N12610 X-49.952 Y-9.906
N12615 X-49.958 Y-9.756
N12620 X-49.976 Y-9.607
N12625 X-50.004 Y-9.46
N12630 X-50.044 Y-9.315
N12635 X-50.094 Y-9.174
N12640 X-50.155 Y-9.036
N12645 X-50.226 Y-8.904
N12650 X-50.306 Y-8.778
N12655 X-50.396 Y-8.657
N12660 X-50.494 Y-8.544
N12665 X-50.6 Y-8.438
N12670 X-50.714 Y-8.34
N12675 X-50.835 Y-8.251
N12680 X-50.961 Y-8.171
N12685 X-51.093 Y-8.1
N12690 X-51.23 Y-8.039
N12695 X-51.371 Y-7.988
N12700 X-51.516 Y-7.947
N12705 X-51.663 Y-7.917
N12710 X-51.812 Y-7.898
N12715 X-51.961 Y-7.889
N12720 X-52.111 Y-7.892
N12725 X-52.261 Y-7.905
N12730 X-52.409 Y-7.929
N12735 X-52.555 Y-7.963
N12740 X-52.698 Y-8.008
N12745 X-52.837 Y-8.063
N12750 X-52.973 Y-8.128
N12755 X-53.103 Y-8.202
N12760 X-53.228 Y-8.285
N12765 X-53.347 Y-8.377
N12770 X-53.459 Y-8.477
N12775 X-53.563 Y-8.584
N12780 X-53.66 Y-8.699
N12785 X-53.749 Y-8.82
N12790 X-53.829 Y-8.947
N12795 X-53.9 Y-9.079
N12800 X-53.961 Y-9.216
N12805 X-54.012 Y-9.357
N12810 X-54.053 Y-9.501
N12815 X-54.083 Y-9.648
N12820 X-54.103 Y-9.797
N12825 X-54.113 Y-9.946
N12830 X-54.111 Y-10.096
N12835 X-54.099 Y-10.246
N12840 X-54.076 Y-10.394
N12845 X-54.042 Y-10.54
N12850 X-53.998 Y-10.684
N12855 X-53.945 Y-10.824
N12860 X-53.881 Y-10.96
N12865 X-53.808 Y-11.091
N12870 X-53.726 Y-11.216
N12875 X-53.635 Y-11.335
N12880 X-53.536 Y-11.448
N12885 X-53.43 Y-11.554
N12890 X-53.316 Y-11.652
N12895 X-53.195 Y-11.741
N12900 X-53.069 Y-11.822
N12905 X-52.937 Y-11.894
N12910 X-52.801 Y-11.956
N12915 X-52.66 Y-12.008
N12920 X-52.516 Y-12.05
N12925 X-52.37 Y-12.082
N12930 X-52.221 Y-12.103
N12935 X-52.071 Y-12.113
N12940 X-51.921
N12945 X-51.772 Y-12.101
N12950 X-51.623 Y-12.08
N12955 X-51.477 Y-12.047
N12960 X-51.333 Y-12.005
N12965 X-51.193 Y-11.952
N12970 X-51.056 Y-11.89
N12975 X-50.925 Y-11.818
N12980 X-50.798 Y-11.736
N12985 X-50.678 Y-11.647
N12990 X-50.565 Y-11.549
N12995 X-50.458 Y-11.443
N13000 X-50.359 Y-11.331
N13005 X-50.268 Y-11.212
N13010 X-50.185 Y-11.087
N13015 X-50.11 Y-10.956
N13020 X-50.044 Y-10.822
N13025 X-49.988 Y-10.683
N13030 X-49.94 Y-10.541
N13035 X-49.902 Y-10.395
N13040 X-49.874 Y-10.248
N13045 X-49.857 Y-10.099
N13050 X-49.849 Y-9.949
N13055 X-49.853 Y-9.799
N13060 X-49.866 Y-9.65
N13065 X-49.891 Y-9.502
N13070 X-49.925 Y-9.356
N13075 X-49.97 Y-9.213
N13080 X-50.025 Y-9.073
N13085 X-50.09 Y-8.938
N13090 X-50.164 Y-8.807
N13095 X-50.247 Y-8.683
N13100 X-50.339 Y-8.564
N13105 X-50.439 Y-8.452
N13110 X-50.546 Y-8.347
N13115 X-50.661 Y-8.251
N13120 X-50.782 Y-8.162
N13125 X-50.908 Y-8.082
N13130 X-51.04 Y-8.011
N13135 X-51.177 Y-7.949
N13140 X-51.318 Y-7.897
N13145 X-51.462 Y-7.855
N13150 X-51.608 Y-7.822
N13155 X-51.757 Y-7.8
N13160 X-51.906 Y-7.788
N13165 X-52.056 Y-7.787
N13170 X-52.206 Y-7.795
N13175 X-52.355 Y-7.814
N13180 X-52.502 Y-7.843
N13185 X-52.647 Y-7.882
N13190 X-52.789 Y-7.931
N13195 X-52.927 Y-7.989
N13200 X-53.061 Y-8.057
N13205 X-53.19 Y-8.133
N13210 X-53.313 Y-8.218
N13215 X-53.431 Y-8.311
N13220 X-53.542 Y-8.412
N13225 X-53.646 Y-8.52
N13230 X-53.743 Y-8.635
N13235 X-53.832 Y-8.756
N13240 X-53.912 Y-8.882
N13245 X-53.983 Y-9.014
N13250 X-54.046 Y-9.15
N13255 X-54.099 Y-9.291
N13260 X-54.142 Y-9.434
N13265 X-54.176 Y-9.581
N13270 X-54.2 Y-9.729
N13275 X-54.213 Y-9.878
N13280 X-54.216 Y-10.028
N13285 X-54.209 Y-10.178
N13290 X-54.192 Y-10.327
N13295 X-54.165 Y-10.474
N13300 X-54.128 Y-10.62
N13305 X-54.081 Y-10.762
N13310 X-54.025 Y-10.901
N13315 X-53.959 Y-11.036
N13320 X-53.884 Y-11.166
N13325 X-53.801 Y-11.291
N13330 X-53.709 Y-11.41
N13335 X-53.61 Y-11.522
N13340 X-53.503 Y-11.628
N13345 X-53.39 Y-11.726
N13350 X-53.27 Y-11.816
N13355 X-53.144 Y-11.898
N13360 X-53.014 Y-11.971
N13365 X-52.878 Y-12.035
N13370 X-52.738 Y-12.09
N13375 X-52.595 Y-12.136
N13380 X-52.45 Y-12.171
N13385 X-52.302 Y-12.197
N13390 X-52.153 Y-12.212
N13395 X-52.003 Y-12.218
N13400 X-51.853 Y-12.213
N13405 X-51.704 Y-12.198
N13410 X-51.556 Y-12.172
N13415 X-51.41 Y-12.137
N13420 X-51.267 Y-12.092
N13425 X-51.127 Y-12.038
N13430 X-50.991 Y-11.974
N13435 X-50.86 Y-11.901
N13440 X-50.734 Y-11.819
N13445 X-50.614 Y-11.73
N13450 X-50.501 Y-11.632
N13455 X-50.393 Y-11.527
N13460 X-50.293 Y-11.415
N13465 X-50.2 Y-11.297
N13470 X-50.116 Y-11.174
N13475 X-50.039 Y-11.045
N13480 X-49.97 Y-10.912
N13485 X-49.91 Y-10.774
N13490 X-49.859 Y-10.633
N13495 X-49.817 Y-10.489
N13500 X-49.784 Y-10.343
N13505 X-49.761 Y-10.194
N13510 X-49.748 Y-10.045
N13515 X-49.745 Y-9.895
N13520 X-49.751 Y-9.745
N13525 X-49.768 Y-9.596
N13530 X-49.795 Y-9.448
N13535 X-49.831 Y-9.303
N13540 X-49.878 Y-9.16
N13545 X-49.934 Y-9.021
N13550 X-49.999 Y-8.886
N13555 X-50.073 Y-8.756
N13560 X-50.156 Y-8.631
N13565 X-50.247 Y-8.512
N13570 X-50.346 Y-8.399
N13575 X-50.452 Y-8.293
N13580 X-50.565 Y-8.194
N13585 X-50.684 Y-8.103
N13590 X-50.809 Y-8.02
N13595 X-50.94 Y-7.946
N13600 X-51.074 Y-7.88
N13605 X-51.213 Y-7.823
N13610 X-51.356 Y-7.776
N13615 X-51.501 Y-7.738
N13620 X-51.648 Y-7.709
N13625 X-51.797 Y-7.691
N13630 X-51.946 Y-7.682
N13635 X-52.096 Y-7.683
N13640 X-52.246 Y-7.694
N13645 X-52.395 Y-7.714
N13650 X-52.542 Y-7.744
N13655 X-52.686 Y-7.784
N13660 X-52.828 Y-7.833
N13665 X-52.966 Y-7.891
N13670 X-53.1 Y-7.958
N13675 X-53.23 Y-8.034
N13680 X-53.354 Y-8.118
N13685 X-53.473 Y-8.209
N13690 X-53.586 Y-8.308
N13695 X-53.692 Y-8.414
N13700 X-53.791 Y-8.527
N13705 X-53.883 Y-8.646
N13710 X-53.966 Y-8.77
N13715 X-54.042 Y-8.9
N13720 X-54.109 Y-9.034
N13725 X-54.168 Y-9.172
N13730 X-54.217 Y-9.314
N13735 X-54.257 Y-9.458
N13740 X-54.288 Y-9.605
N13745 X-54.309 Y-9.754
N13750 X-54.32 Y-9.903
N13755 X-54.321 Y-10.053
N13760 X-54.313 Y-10.203
N13765 X-54.295 Y-10.352
N13770 X-54.268 Y-10.499
N13775 X-54.23 Y-10.645
N13780 X-54.184 Y-10.787
N13785 X-54.128 Y-10.927
N13790 X-54.064 Y-11.062
N13795 X-53.991 Y-11.193
N13800 X-53.909 Y-11.319
N13805 X-53.82 Y-11.44
N13810 X-53.723 Y-11.554
N13815 X-53.619 Y-11.662
N13820 X-53.509 Y-11.763
N13825 X-53.392 Y-11.857
N13830 X-53.269 Y-11.943
N13835 X-53.141 Y-12.022
N13840 X-53.008 Y-12.091
N13845 X-52.871 Y-12.152
N13850 X-52.73 Y-12.205
N13855 X-52.587 Y-12.247
N13860 X-52.44 Y-12.281
N13865 X-52.292 Y-12.305
N13870 X-52.143 Y-12.319
N13875 X-51.993 Y-12.323
N13880 X-51.843 Y-12.318
N13885 X-51.694 Y-12.303
N13890 X-51.546 Y-12.278
N13895 X-51.4 Y-12.244
N13900 X-51.256 Y-12.2
N13905 X-51.116 Y-12.147
N13910 X-50.979 Y-12.085
N13915 X-50.847 Y-12.015
N13920 X-50.719 Y-11.936
N13925 X-50.597 Y-11.849
N13930 X-50.48 Y-11.755
N13935 X-50.37 Y-11.653
N13940 X-50.266 Y-11.545
N13945 X-50.169 Y-11.43
N13950 X-50.079 Y-11.31
N13955 X-49.997 Y-11.185
N13960 X-49.923 Y-11.055
N13965 X-49.856 Y-10.92
N13970 X-49.798 Y-10.782
N13975 X-49.749 Y-10.64
N13980 X-49.708 Y-10.496
N13985 X-49.677 Y-10.349
N13990 X-49.655 Y-10.201
N13995 X-49.642 Y-10.051
N14000 X-49.638 Y-9.901
N14005 X-49.645 Y-9.751
N14010 X-49.66 Y-9.602
N14015 X-49.686 Y-9.454
N14020 X-49.721 Y-9.309
N14025 X-49.765 Y-9.165
N14030 X-49.818 Y-9.025
N14035 X-49.88 Y-8.888
N14040 X-49.951 Y-8.756
N14045 X-50.03 Y-8.629
N14050 X-50.117 Y-8.507
N14055 X-50.212 Y-8.39
N14060 X-50.314 Y-8.28
N14065 X-50.423 Y-8.177
N14070 X-50.538 Y-8.081
N14075 X-50.659 Y-7.992
N14080 X-50.785 Y-7.911
N14085 X-50.916 Y-7.838
N14090 X-51.051 Y-7.774
N14095 X-51.191 Y-7.718
N14100 X-51.333 Y-7.671
N14105 X-51.478 Y-7.634
N14110 X-51.626 Y-7.605
N14115 X-51.774 Y-7.586
N14120 X-51.924 Y-7.576
N14125 X-52.074
N14130 X-52.224 Y-7.585
N14135 X-52.373 Y-7.603
N14140 X-52.52 Y-7.631
N14145 X-52.666 Y-7.668
N14150 X-52.809 Y-7.713
N14155 X-52.948 Y-7.768
N14160 X-53.084 Y-7.831
N14165 X-53.216 Y-7.902
N14170 X-53.344 Y-7.981
N14175 X-53.466 Y-8.068
N14180 X-53.583 Y-8.163
N14185 X-53.693 Y-8.264
N14190 X-53.798 Y-8.372
N14195 X-53.895 Y-8.486
N14200 X-53.985 Y-8.606
N14205 X-54.068 Y-8.731
N14210 X-54.143 Y-8.861
N14215 X-54.209 Y-8.995
N14220 X-54.267 Y-9.133
N14225 X-54.317 Y-9.275
N14230 X-54.357 Y-9.419
N14235 X-54.389 Y-9.566
N14240 X-54.411 Y-9.714
N14245 X-54.424 Y-9.864
N14250 X-54.428 Y-10.014
N14255 X-54.422 Y-10.164
N14260 X-54.408 Y-10.313
N14265 X-54.384 Y-10.461
N14270 X-54.35 Y-10.607
N14275 X-54.308 Y-10.751
N14280 X-54.257 Y-10.892
N14285 X-54.198 Y-11.03
N14290 X-54.13 Y-11.164
N14295 X-54.054 Y-11.293
N14300 X-53.97 Y-11.418
N14305 X-53.879 Y-11.537
N14310 X-53.78 Y-11.65
N14315 X-53.675 Y-11.757
N14320 X-53.564 Y-11.857
N14325 X-53.446 Y-11.95
N14330 X-53.323 Y-12.036
N14335 X-53.195 Y-12.114
N14340 X-53.062 Y-12.184
N14345 X-52.925 Y-12.245
N14350 X-52.785 Y-12.298
N14355 X-52.642 Y-12.343
N14360 X-52.496 Y-12.378
N14365 X-52.348 Y-12.404
N14370 X-52.199 Y-12.421
N14375 X-52.049 Y-12.429
N14380 X-51.899 Y-12.427
N14385 X-51.75 Y-12.416
N14390 X-51.601 Y-12.396
N14395 X-51.454 Y-12.366
N14400 X-51.309 Y-12.328
N14405 X-51.167 Y-12.281
N14410 X-51.028 Y-12.225
N14415 X-50.892 Y-12.16
N14420 X-50.761 Y-12.088
N14425 X-50.634 Y-12.007
N14430 X-50.513 Y-11.919
N14435 X-50.397 Y-11.824
N14440 X-50.287 Y-11.722
N14445 X-50.183 Y-11.614
N14450 X-50.086 Y-11.499
N14455 X-49.996 Y-11.38
N14460 X-49.913 Y-11.255
N14465 X-49.838 Y-11.125
N14470 X-49.77 Y-10.991
N14475 X-49.711 Y-10.853
N14480 X-49.659 Y-10.712
N14485 X-49.616 Y-10.569
N14490 X-49.582 Y-10.423
N14495 X-49.556 Y-10.275
N14500 X-49.54 Y-10.126
N14505 X-49.532 Y-9.976
N14510 X-49.534 Y-9.826
N14515 X-49.544 Y-9.676
N14520 X-49.564 Y-9.528
N14525 X-49.593 Y-9.38
N14530 X-49.631 Y-9.235
N14535 X-49.677 Y-9.093
N14540 X-49.732 Y-8.953
N14545 X-49.796 Y-8.817
N14550 X-49.868 Y-8.686
N14555 X-49.948 Y-8.559
N14560 X-50.036 Y-8.437
N14565 X-50.13 Y-8.321
N14570 X-50.232 Y-8.21
N14575 X-50.34 Y-8.107
N14580 X-50.455 Y-8.01
N14585 X-50.575 Y-7.92
N14590 X-50.7 Y-7.837
N14595 X-50.83 Y-7.763
N14600 X-50.965 Y-7.696
N14605 X-51.103 Y-7.637
N14610 X-51.244 Y-7.587
N14615 X-51.388 Y-7.546
N14620 X-51.535 Y-7.513
N14625 X-51.683 Y-7.489
N14630 X-51.832 Y-7.474
N14635 X-51.982 Y-7.468
N14640 X-52.132 Y-7.471
N14645 X-52.281 Y-7.483
N14650 X-52.43 Y-7.504
N14655 X-52.577 Y-7.534
N14660 X-52.722 Y-7.572
N14665 X-52.864 Y-7.619
N14670 X-53.004 Y-7.674
N14675 X-53.14 Y-7.738
N14680 X-53.272 Y-7.809
N14685 X-53.399 Y-7.888
N14690 X-53.522 Y-7.975
N14695 X-53.639 Y-8.068
N14700 X-53.75 Y-8.169
N14705 X-53.856 Y-8.276
N14710 X-53.955 Y-8.388
N14715 X-54.047 Y-8.507
N14720 X-54.132 Y-8.63
N14725 X-54.209 Y-8.759
N14730 X-54.279 Y-8.892
N14735 X-54.341 Y-9.028
N14740 X-54.394 Y-9.168
N14745 X-54.439 Y-9.311
N14750 X-54.476 Y-9.457
N14755 X-54.504 Y-9.604
N14760 X-54.523 Y-9.753
N14765 X-54.534 Y-9.903
N14770 X-54.535 Y-10.053
N14775 X-54.528 Y-10.202
N14780 X-54.511 Y-10.352
N14785 X-54.486 Y-10.499
N14790 X-54.452 Y-10.646
N14795 X-54.41 Y-10.789
N14800 X-54.359 Y-10.93
N14805 X-54.299 Y-11.068
N14810 X-54.232 Y-11.202
N14815 X-54.157 Y-11.332
N14820 X-54.074 Y-11.457
N14825 X-53.984 Y-11.577
N14830 X-53.888 Y-11.692
N14835 X-53.784 Y-11.801
N14840 X-53.675 Y-11.903
N14845 X-53.559 Y-11.999
N14850 X-53.438 Y-12.088
N14855 X-53.312 Y-12.169
N14860 X-53.182 Y-12.243
N14865 X-53.047 Y-12.309
N14870 X-52.909 Y-12.367
N14875 X-52.767 Y-12.417
N14880 X-52.623 Y-12.459
N14885 X-52.477 Y-12.491
N14890 X-52.329 Y-12.515
N14895 X-52.18 Y-12.53
N14900 X-52.03 Y-12.537
N14905 X-51.88 Y-12.534
N14910 X-51.73 Y-12.522
N14915 X-51.582 Y-12.502
N14920 X-51.434 Y-12.473
N14925 X-51.289 Y-12.435
N14930 X-51.147 Y-12.388
N14935 X-51.007 Y-12.333
N14940 X-50.871 Y-12.271
N14945 X-50.739 Y-12.2
N14950 X-50.611 Y-12.121
N14955 X-50.488 Y-12.036
N14960 X-50.37 Y-11.943
N14965 X-50.257 Y-11.844
N14970 X-50.151 Y-11.738
N14975 X-50.051 Y-11.626
N14980 X-49.957 Y-11.509
N14985 X-49.87 Y-11.387
N14990 X-49.79 Y-11.26
N14995 X-49.717 Y-11.129
N15000 X-49.652 Y-10.994
N15005 X-49.595 Y-10.855
N15010 X-49.545 Y-10.714
N15015 X-49.504 Y-10.569
N15020 X-49.471 Y-10.423
N15025 X-49.458 Y-10.333
N15030 X-49.452 Y-10.257
N15035 X-49.45 Y-10.181
N15040 Y-9.816
N15045 X-49.458 Y-9.666
N15050 X-49.47 Y-9.516
N15055 X-49.494 Y-9.368
N15060 X-49.528 Y-9.222
N15065 X-49.572 Y-9.079
N15070 X-49.625 Y-8.938
N15075 X-49.686 Y-8.801
N15080 X-49.755 Y-8.668
N15085 X-49.833 Y-8.54
N15090 X-49.918 Y-8.416
N15095 X-50.01 Y-8.298
N15100 X-50.109 Y-8.185
N15105 X-50.214 Y-8.078
N15110 X-50.325 Y-7.977
N15115 X-50.442 Y-7.884
N15120 X-50.564 Y-7.797
N15125 X-50.691 Y-7.717
N15130 X-50.823 Y-7.645
N15135 X-50.958 Y-7.58
N15140 X-51.024 Y-7.553
N15145 X-51.195 Y-7.496
N15150 X-51.372 Y-7.462
N15155 X-51.552 Y-7.45
N15160 G3 X-51.842 Y-7.76 Z-5.8 I0.01 J-0.3
N15165 G1 X-51.832 Y-7.827
N15170 X-51.807 Y-7.891
N15175 X-51.768 Y-7.947
N15180 X-51.723 Y-7.999
N15185 X-49.994 Y-9.981
N15190 X-49.976 Y-10.002
N15195 X-49.931 Y-10.044
N15200 X-49.879 Y-10.076
N15205 X-49.821 Y-10.097
N15210 X-49.76 Y-10.105
N15215 G3 X-49.45 Y-9.816 Z-6. I0.01 J0.3
N15220 G1 Y-9.391
N15225 X-49.458 Y-9.241
N15230 X-49.483 Y-9.093
N15235 X-49.524 Y-8.949
N15240 X-49.577 Y-8.808
N15245 X-49.639 Y-8.672
N15250 X-49.711 Y-8.54
N15255 X-49.791 Y-8.414
N15260 X-49.879 Y-8.292
N15265 X-49.973 Y-8.175
N15270 X-50.075 Y-8.065
N15275 X-50.182 Y-7.96
N15280 X-50.295 Y-7.861
N15285 X-50.414 Y-7.769
N15290 X-50.537 Y-7.684
N15295 X-50.585 Y-7.655
N15300 X-50.814 Y-7.542
N15305 X-51.06 Y-7.473
N15310 X-51.315 Y-7.45
N15315 G3 X-51.604 Y-7.76 Z-5.8 I0.01 J-0.3
N15320 G1 X-51.597 Y-7.814
N15325 X-51.581 Y-7.866
N15330 X-51.555 Y-7.914
N15335 X-51.521 Y-7.957
N15340 X-51.483 Y-7.997
N15345 X-49.995 Y-9.557
N15350 X-49.967 Y-9.587
N15355 X-49.923 Y-9.625
N15360 X-49.873 Y-9.654
N15365 X-49.818 Y-9.672
N15370 X-49.76 Y-9.68
N15375 G3 X-49.45 Y-9.391 Z-6. I0.01 J0.3
N15380 G1 Y-9.107
N15385 X-49.458 Y-8.958
N15390 X-49.492 Y-8.811
N15395 X-49.543 Y-8.67
N15400 X-49.606 Y-8.534
N15405 X-49.679 Y-8.404
N15410 X-49.762 Y-8.278
N15415 X-49.852 Y-8.158
N15420 X-49.949 Y-8.044
N15425 X-50.052 Y-7.935
N15430 X-50.162 Y-7.833
N15435 X-50.277 Y-7.737
N15440 X-50.316 Y-7.709
N15445 X-50.567 Y-7.567
N15450 X-50.841 Y-7.48
N15455 X-51.128 Y-7.45
N15460 G3 X-51.417 Y-7.76 Z-5.8 I0.01 J-0.3
N15465 G1 X-51.41 Y-7.816
N15470 X-51.392 Y-7.87
N15475 X-51.364 Y-7.92
N15480 X-51.328 Y-7.964
N15485 X-51.295 Y-7.996
N15490 X-49.996 Y-9.275
N15495 X-49.96 Y-9.311
N15500 X-49.917 Y-9.346
N15505 X-49.868 Y-9.372
N15510 X-49.815 Y-9.39
N15515 X-49.76 Y-9.397
N15520 G3 X-49.45 Y-9.107 Z-6. I0.01 J0.3
N15525 G1 Y-8.896
N15530 X-49.458 Y-8.746
N15535 X-49.494 Y-8.6
N15540 X-49.55 Y-8.461
N15545 X-49.619 Y-8.328
N15550 X-49.698 Y-8.2
N15555 X-49.786 Y-8.079
N15560 X-49.881 Y-7.963
N15565 X-49.984 Y-7.854
N15570 X-50.095 Y-7.753
N15575 X-50.11 Y-7.741
N15580 X-50.371 Y-7.582
N15585 X-50.66 Y-7.483
N15590 X-50.964 Y-7.45
N15595 G3 X-51.254 Y-7.76 Z-5.8 I0.01 J-0.3
N15600 G1 X-51.246 Y-7.818
N15605 X-51.227 Y-7.873
N15610 X-51.198 Y-7.924
N15615 X-51.16 Y-7.968
N15620 X-51.131 Y-7.995
N15625 X-49.997 Y-9.064
N15630 X-49.956 Y-9.103
N15635 X-49.913 Y-9.137
N15640 X-49.865 Y-9.162
N15645 X-49.814 Y-9.178
N15650 X-49.76 Y-9.185
N15655 G3 X-49.45 Y-8.896 Z-6. I0.01 J0.3
N15660 G1 Y-8.682
N15665 X-49.458 Y-8.533
N15670 X-49.502 Y-8.389
N15675 X-49.564 Y-8.253
N15680 X-49.639 Y-8.123
N15685 X-49.724 Y-7.999
N15690 X-49.819 Y-7.883
N15695 X-49.83 Y-7.871
N15700 X-50.044 Y-7.692
N15705 X-50.288 Y-7.56
N15710 X-50.554 Y-7.478
N15715 X-50.831 Y-7.45
N15720 G3 X-51.12 Y-7.76 Z-5.8 I0.01 J-0.3
N15725 G1 X-51.112 Y-7.821
N15730 X-51.091 Y-7.879
N15735 X-51.059 Y-7.932
N15740 X-51.016 Y-7.977
N15745 X-50.997 Y-7.994
N15750 X-49.999 Y-8.853
N15755 X-49.946 Y-8.899
N15760 X-49.89 Y-8.937
N15765 X-49.827 Y-8.962
N15770 X-49.76 Y-8.972
N15775 G3 X-49.45 Y-8.682 Z-6. I0.01 J0.3
N15780 G1 Y-8.506
N15785 X-49.458 Y-8.356
N15790 X-49.503 Y-8.213
N15795 X-49.569 Y-8.078
N15800 X-49.649 Y-7.951
N15805 X-49.868 Y-7.74
N15810 X-50.128 Y-7.582
N15815 X-50.416 Y-7.483
N15820 X-50.719 Y-7.45
N15825 G3 X-51.008 Y-7.76 Z-5.8 I0.01 J-0.3
N15830 X-50.892 Y-7.987 I0.3 J0.01
N15835 G1 X-50.884 Y-7.993
N15840 X-50.002 Y-8.68
N15845 X-49.934 Y-8.732
N15850 X-49.881 Y-8.765
N15855 X-49.822 Y-8.786
N15860 X-49.76 Y-8.795
N15865 G3 X-49.45 Y-8.506 Z-6. I0.01 J0.3
N15870 G1 Y-8.329
N15875 X-49.458 Y-8.179
N15880 X-49.508 Y-8.038
N15885 X-49.589 Y-7.912
N15890 X-49.683 Y-7.795
N15895 X-49.877 Y-7.648
N15900 X-50.095 Y-7.539
N15905 X-50.328 Y-7.473
N15910 X-50.571 Y-7.45
N15915 G3 X-50.86 Y-7.76 Z-5.8 I0.01 J-0.3
N15920 X-50.733 Y-7.995 I0.3 J0.01
N15925 G1 X-50.004 Y-8.506
N15930 X-49.922 Y-8.564
N15935 X-49.872 Y-8.593
N15940 X-49.817 Y-8.611
N15945 X-49.76 Y-8.618
N15950 G3 X-49.45 Y-8.329 Z-6. I0.01 J0.3
N15955 G1 Y-8.159
N15960 X-49.458 Y-8.009
N15965 X-49.525 Y-7.875
N15970 X-49.705 Y-7.696
N15975 X-49.92 Y-7.562
N15980 X-50.16 Y-7.478
N15985 X-50.412 Y-7.45
N15990 G3 X-50.702 Y-7.76 Z-5.8 I0.01 J-0.3
N15995 X-50.558 Y-8.006 I0.3 J0.01
N16000 G1 X-50.008 Y-8.342
N16005 X-49.906 Y-8.404
N16010 X-49.86 Y-8.427
N16015 X-49.811 Y-8.442
N16020 X-49.76 Y-8.448
N16025 G3 X-49.45 Y-8.159 Z-6. I0.01 J0.3
N16030 G1 Y-8.017
N16035 X-49.454 Y-7.942
N16040 X-49.511 Y-7.804
N16045 X-49.664 Y-7.655
N16050 X-49.845 Y-7.543
N16055 X-50.047 Y-7.474
N16060 X-50.259 Y-7.45
N16065 G3 X-50.677 Y-7.64 Z-5.8 I0.021 J-0.602
N16070 X-50.728 Y-8.402 I0.439 J-0.412
N16075 X-49.617 Y-8.448 I0.574 J0.409
N16080 X-49.45 Y-8.017 Z-6. I-0.538 J0.456
N16085 G1 Y-7.944
N16090 X-49.454 Y-7.869
N16095 X-49.497 Y-7.726
N16100 X-49.683 Y-7.577
N16105 X-49.901 Y-7.482
N16110 X-50.137 Y-7.45
N16115 G3 X-50.539 Y-7.663 Z-5.8 I0.018 J-0.519
N16120 X-50.549 Y-8.261 I0.42 J-0.306
N16125 X-49.64 Y-8.362 I0.498 J0.337
N16130 X-49.45 Y-7.944 Z-6. I-0.411 J0.439
N16135 G1 X-49.451 Y-7.803
N16140 Y-7.765
N16145 Y-7.734
N16150 X-49.457 Y-7.704
N16155 X-49.553 Y-7.588
N16160 X-49.685 Y-7.513
N16165 X-49.83 Y-7.466
N16170 X-49.981 Y-7.45
N16175 G3 X-50.311 Y-7.734 Z-5.8 I0.012 J-0.348
N16180 X-50.2 Y-8.059 I0.343 J-0.064
N16185 X-49.686 Y-8.118 I0.298 J0.337
N16190 X-49.451 Y-7.734 Z-6. I-0.215 J0.395
N16195 G1 X-49.457 Y-7.698
N16200 X-49.467 Y-7.663
N16205 X-49.481 Y-7.628
N16210 X-49.502 Y-7.592
N16215 X-49.519 Y-7.57
N16220 X-49.539 Y-7.548
N16225 X-49.567 Y-7.524
N16230 X-49.592 Y-7.504
N16235 X-49.625 Y-7.483
N16240 X-49.677 Y-7.47
N16245 X-49.73 Y-7.472
N16250 X-49.781 Y-7.487
N16255 X-49.827 Y-7.515
N16260 X-49.863 Y-7.554
N16265 G3 X-49.54 Y-7.783 I0.161 J-0.114
N16270 X-49.567 Y-7.524 I-0.161 J0.114
N16275 G1 X-49.589 Y-7.504
N16280 X-49.625 Y-7.483
N16285 X-49.66 Y-7.468
N16290 X-49.696 Y-7.457
N16295 X-49.731 Y-7.452
N16300 X-49.743 Y-7.451
N16305 X-51.007 Y-7.45
N16310 X-52.397
N16315 X-52.547 Y-7.457
N16320 X-52.695 Y-7.478
N16325 X-52.841 Y-7.513
N16330 X-52.983 Y-7.56
N16335 X-53.122 Y-7.617
N16340 X-53.257 Y-7.682
N16345 X-53.388 Y-7.756
N16350 X-53.514 Y-7.838
N16355 X-53.634 Y-7.927
N16360 X-53.75 Y-8.022
N16365 X-53.86 Y-8.125
N16370 X-53.963 Y-8.233
N16375 X-54.061 Y-8.347
N16380 X-54.152 Y-8.466
N16385 X-54.235 Y-8.591
N16390 X-54.312 Y-8.72
N16395 X-54.381 Y-8.853
N16400 X-54.443 Y-8.99
N16405 X-54.458 Y-9.029
N16410 X-54.509 Y-9.191
N16415 X-54.54 Y-9.359
N16420 X-54.55 Y-9.529
N16425 G3 X-54.24 Y-9.818 Z-5.8 I0.3 J0.01
N16430 G1 X-54.186 Y-9.811
N16435 X-54.134 Y-9.795
N16440 X-54.085 Y-9.769
N16445 X-54.042 Y-9.735
N16450 X-54.003 Y-9.697
N16455 X-52.23 Y-7.995
N16460 X-52.199 Y-7.966
N16465 X-52.162 Y-7.922
N16470 X-52.133 Y-7.872
N16475 X-52.115 Y-7.817
N16480 X-52.107 Y-7.76
N16485 G3 X-52.397 Y-7.45 Z-6. I-0.3 J0.01
N16490 G1 X-52.709
N16495 X-52.859 Y-7.457
N16500 X-53.006 Y-7.487
N16505 X-53.149 Y-7.533
N16510 X-53.287 Y-7.592
N16515 X-53.42 Y-7.66
N16520 X-53.548 Y-7.738
N16525 X-53.672 Y-7.824
N16530 X-53.789 Y-7.916
N16535 X-53.901 Y-8.016
N16540 X-54.008 Y-8.122
N16545 X-54.108 Y-8.234
N16550 X-54.201 Y-8.351
N16555 X-54.289 Y-8.473
N16560 X-54.373 Y-8.607
N16565 X-54.47 Y-8.823
N16570 X-54.53 Y-9.052
N16575 X-54.55 Y-9.289
N16580 G3 X-54.24 Y-9.578 Z-5.8 I0.3 J0.01
N16585 G1 X-54.184 Y-9.571
N16590 X-54.131 Y-9.554
N16595 X-54.082 Y-9.526
N16600 X-54.038 Y-9.491
N16605 X-54.004 Y-9.456
N16610 X-52.542 Y-7.996
N16615 X-52.508 Y-7.962
N16620 X-52.472 Y-7.919
N16625 X-52.444 Y-7.869
N16630 X-52.427 Y-7.816
N16635 X-52.42 Y-7.76
N16640 G3 X-52.709 Y-7.45 Z-6. I-0.3 J0.01
N16645 G1 X-52.964
N16650 X-53.114 Y-7.457
N16655 X-53.259 Y-7.495
N16660 X-53.399 Y-7.55
N16665 X-53.533 Y-7.617
N16670 X-53.661 Y-7.695
N16675 X-53.784 Y-7.781
N16680 X-53.901 Y-7.875
N16685 X-54.012 Y-7.975
N16690 X-54.117 Y-8.082
N16695 X-54.216 Y-8.195
N16700 X-54.309 Y-8.313
N16705 X-54.318 Y-8.326
N16710 X-54.445 Y-8.567
N16715 X-54.524 Y-8.827
N16720 X-54.55 Y-9.098
N16725 G3 X-54.24 Y-9.387 Z-5.8 I0.3 J0.01
N16730 G1 X-54.182 Y-9.38
N16735 X-54.127 Y-9.361
N16740 X-54.077 Y-9.333
N16745 X-54.033 Y-9.295
N16750 X-54.005 Y-9.265
N16755 X-52.796 Y-7.997
N16760 X-52.757 Y-7.957
N16765 X-52.723 Y-7.914
N16770 X-52.698 Y-7.866
N16775 X-52.681 Y-7.814
N16780 X-52.675 Y-7.76
N16785 G3 X-52.964 Y-7.45 Z-6. I-0.3 J0.01
N16790 G1 X-53.177
N16795 X-53.327 Y-7.457
N16800 X-53.471 Y-7.501
N16805 X-53.608 Y-7.562
N16810 X-53.739 Y-7.635
N16815 X-53.863 Y-7.718
N16820 X-53.982 Y-7.81
N16825 X-54.095 Y-7.909
N16830 X-54.201 Y-8.015
N16835 X-54.22 Y-8.038
N16840 X-54.361 Y-8.238
N16845 X-54.465 Y-8.46
N16850 X-54.529 Y-8.697
N16855 X-54.55 Y-8.941
N16860 G3 X-54.24 Y-9.23 Z-5.8 I0.3 J0.01
N16865 G1 X-54.18 Y-9.222
N16870 X-54.123 Y-9.202
N16875 X-54.072 Y-9.172
N16880 X-54.027 Y-9.131
N16885 X-54.005 Y-9.107
N16890 X-53.008 Y-7.998
N16895 X-52.965 Y-7.95
N16900 X-52.933 Y-7.909
N16905 X-52.91 Y-7.862
N16910 X-52.894 Y-7.812
N16915 X-52.888 Y-7.76
N16920 G3 X-53.177 Y-7.45 Z-6. I-0.3 J0.01
N16925 G1 X-53.354
N16930 X-53.504 Y-7.457
N16935 X-53.648 Y-7.501
N16940 X-53.783 Y-7.565
N16945 X-53.912 Y-7.642
N16950 X-54.034 Y-7.729
N16955 X-54.149 Y-7.825
N16960 X-54.155 Y-7.831
N16965 X-54.323 Y-8.042
N16970 X-54.448 Y-8.28
N16975 X-54.524 Y-8.538
N16980 X-54.55 Y-8.806
N16985 G3 X-54.24 Y-9.095 Z-5.8 I0.3 J0.01
N16990 G1 X-54.178 Y-9.087
N16995 X-54.119 Y-9.066
N17000 X-54.066 Y-9.033
N17005 X-54.021 Y-8.989
N17010 X-54.006 Y-8.971
N17015 X-53.183 Y-8.
N17020 X-53.136 Y-7.944
N17025 X-53.099 Y-7.888
N17030 X-53.075 Y-7.826
N17035 X-53.065 Y-7.76
N17040 G3 X-53.354 Y-7.45 Z-6. I-0.3 J0.01
N17045 G1 X-53.531
N17050 X-53.681 Y-7.457
N17055 X-53.823 Y-7.505
N17060 X-53.957 Y-7.572
N17065 X-54.083 Y-7.654
N17070 X-54.28 Y-7.867
N17075 X-54.428 Y-8.116
N17080 X-54.519 Y-8.391
N17085 X-54.55 Y-8.679
N17090 G3 X-54.24 Y-8.969 Z-5.8 I0.3 J0.01
N17095 X-54.013 Y-8.852 I-0.01 J0.3
N17100 G1 X-54.007 Y-8.844
N17105 X-53.357 Y-8.002
N17110 X-53.304 Y-7.933
N17115 X-53.271 Y-7.88
N17120 X-53.25 Y-7.822
N17125 X-53.242 Y-7.76
N17130 G3 X-53.531 Y-7.45 Z-6. I-0.3 J0.01
N17135 G1 X-53.702
N17140 X-53.851 Y-7.457
N17145 X-53.992 Y-7.509
N17150 X-54.118 Y-7.591
N17155 X-54.233 Y-7.687
N17160 X-54.406 Y-7.938
N17165 X-54.513 Y-8.222
N17170 X-54.55 Y-8.524
N17175 G3 X-54.24 Y-8.813 Z-5.8 I0.3 J0.01
N17180 X-54.005 Y-8.686 I-0.01 J0.3
N17185 G1 X-53.524 Y-8.004
N17190 X-53.467 Y-7.923
N17195 X-53.438 Y-7.872
N17200 X-53.42 Y-7.817
N17205 X-53.412 Y-7.76
N17210 G3 X-53.702 Y-7.45 Z-6. I-0.3 J0.01
N17215 G1 X-53.886
N17220 X-54.036 Y-7.457
N17225 X-54.167 Y-7.531
N17230 X-54.329 Y-7.71
N17235 X-54.45 Y-7.919
N17240 X-54.525 Y-8.148
N17245 X-54.55 Y-8.388
N17250 G3 X-54.24 Y-8.677 Z-5.8 I0.3 J0.01
N17255 X-53.989 Y-8.525 I-0.01 J0.3
N17260 G1 X-53.699 Y-8.01
N17265 X-53.635 Y-7.897
N17270 X-53.615 Y-7.854
N17275 X-53.602 Y-7.808
N17280 X-53.597 Y-7.76
N17285 G3 X-53.886 Y-7.45 Z-6. I-0.3 J0.01
N17290 G1 X-54.028
N17295 X-54.103 Y-7.454
N17300 X-54.237 Y-7.521
N17305 X-54.407 Y-7.724
N17310 X-54.513 Y-7.967
N17315 X-54.55 Y-8.229
N17320 G3 X-54.35 Y-8.641 Z-5.8 I0.565 J0.02
N17325 X-53.638 Y-8.656 I0.365 J0.431
N17330 X-53.6 Y-7.623 I-0.414 J0.532
N17335 X-54.028 Y-7.45 Z-6. I-0.451 J-0.501
N17340 G1 X-54.096
N17345 X-54.171 Y-7.454
N17350 X-54.311 Y-7.508
N17355 X-54.441 Y-7.676
N17360 X-54.522 Y-7.872
N17365 X-54.55 Y-8.083
N17370 G3 X-54.322 Y-8.474 Z-5.8 I0.478 J0.017
N17375 X-53.803 Y-8.461 I0.25 J0.407
N17380 X-53.687 Y-7.653 I-0.312 J0.458
N17385 X-54.096 Y-7.45 Z-6. I-0.429 J-0.351
N17390 G1 X-54.216
N17395 X-54.257 Y-7.451
N17400 X-54.269 Y-7.452
N17405 X-54.322 Y-7.464
N17410 X-54.349 Y-7.472
N17415 X-54.375 Y-7.483
N17420 X-54.402 Y-7.508
N17425 X-54.418 Y-7.54
N17430 X-54.422 Y-7.576
N17435 X-54.413 Y-7.611
N17440 X-54.393 Y-7.641
N17445 X-54.363 Y-7.662
N17450 X-54.328 Y-7.672
N17455 X-54.292 Y-7.668
N17460 X-54.237 Y-7.654
N17465 X-54.204 Y-7.637
N17470 X-54.178 Y-7.61
N17475 X-54.164 Y-7.576
N17480 X-54.163 Y-7.538
N17485 X-54.175 Y-7.503
N17490 X-54.199 Y-7.475
N17495 X-54.232 Y-7.457
N17500 X-54.269 Y-7.452
N17505 X-54.304 Y-7.457
N17510 X-54.34 Y-7.468
N17515 X-54.375 Y-7.483
N17520 X-54.411 Y-7.504
N17525 X-54.438 Y-7.528
N17530 X-54.461 Y-7.548
N17535 X-54.49 Y-7.584
N17540 X-54.505 Y-7.605
N17545 X-54.519 Y-7.628
N17550 G3 X-54.166 Y-7.761 I0.176 J-0.067
N17555 X-54.461 Y-7.548 I-0.176 J0.067
N17560 G1 X-54.481 Y-7.57
N17565 X-54.498 Y-7.592
N17570 X-54.519 Y-7.628
N17575 X-54.533 Y-7.663
N17580 X-54.543 Y-7.698
N17585 X-54.549 Y-7.734
N17590 X-54.55 Y-7.875
N17595 Y-10.396
N17600 X-54.542 Y-10.546
N17605 X-54.522 Y-10.695
N17610 X-54.488 Y-10.841
N17615 X-54.442 Y-10.983
N17620 X-54.385 Y-11.122
N17625 X-54.32 Y-11.257
N17630 X-54.246 Y-11.388
N17635 X-54.165 Y-11.514
N17640 X-54.076 Y-11.635
N17645 X-53.98 Y-11.75
N17650 X-53.878 Y-11.86
N17655 X-53.77 Y-11.964
N17660 X-53.655 Y-12.061
N17665 X-53.536 Y-12.152
N17670 X-53.412 Y-12.235
N17675 X-53.283 Y-12.312
N17680 X-53.149 Y-12.381
N17685 X-53.013 Y-12.443
N17690 X-52.974 Y-12.457
N17695 X-52.811 Y-12.509
N17700 X-52.644 Y-12.54
N17705 X-52.473 Y-12.55
N17710 G3 X-52.184 Y-12.24 Z-5.8 I-0.01 J0.3
N17715 G1 X-52.191 Y-12.186
N17720 X-52.207 Y-12.134
N17725 X-52.233 Y-12.085
N17730 X-52.267 Y-12.043
N17735 X-52.305 Y-12.003
N17740 X-54.005 Y-10.229
N17745 X-54.034 Y-10.199
N17750 X-54.077 Y-10.161
N17755 X-54.128 Y-10.133
N17760 X-54.183 Y-10.114
N17765 X-54.24 Y-10.107
N17770 G3 X-54.55 Y-10.396 Z-6. I-0.01 J-0.3
N17775 G1 Y-10.708
N17780 X-54.542 Y-10.858
N17785 X-54.515 Y-11.005
N17790 X-54.469 Y-11.148
N17795 X-54.411 Y-11.286
N17800 X-54.342 Y-11.42
N17805 X-54.265 Y-11.548
N17810 X-54.179 Y-11.672
N17815 X-54.086 Y-11.789
N17820 X-53.987 Y-11.902
N17825 X-53.881 Y-12.008
N17830 X-53.769 Y-12.108
N17835 X-53.652 Y-12.201
N17840 X-53.53 Y-12.288
N17845 X-53.395 Y-12.373
N17850 X-53.179 Y-12.47
N17855 X-52.95 Y-12.53
N17860 X-52.714 Y-12.55
N17865 G3 X-52.424 Y-12.24 Z-5.8 I-0.01 J0.3
N17870 G1 X-52.431 Y-12.184
N17875 X-52.449 Y-12.131
N17880 X-52.476 Y-12.082
N17885 X-52.512 Y-12.038
N17890 X-52.546 Y-12.004
N17895 X-54.004 Y-10.541
N17900 X-54.038 Y-10.507
N17905 X-54.081 Y-10.471
N17910 X-54.13 Y-10.444
N17915 X-54.184 Y-10.426
N17920 X-54.24 Y-10.419
N17925 G3 X-54.55 Y-10.708 Z-6. I-0.01 J-0.3
N17930 G1 Y-10.963
N17935 X-54.542 Y-11.113
N17940 X-54.506 Y-11.258
N17945 X-54.452 Y-11.398
N17950 X-54.385 Y-11.532
N17955 X-54.308 Y-11.661
N17960 X-54.222 Y-11.784
N17965 X-54.128 Y-11.901
N17970 X-54.027 Y-12.012
N17975 X-53.92 Y-12.117
N17980 X-53.808 Y-12.216
N17985 X-53.69 Y-12.309
N17990 X-53.676 Y-12.318
N17995 X-53.436 Y-12.445
N18000 X-53.175 Y-12.524
N18005 X-52.904 Y-12.55
N18010 G3 X-52.615 Y-12.24 Z-5.8 I-0.01 J0.3
N18015 G1 X-52.623 Y-12.183
N18020 X-52.641 Y-12.128
N18025 X-52.67 Y-12.077
N18030 X-52.708 Y-12.033
N18035 X-52.738 Y-12.005
N18040 X-54.003 Y-10.794
N18045 X-54.043 Y-10.756
N18050 X-54.086 Y-10.722
N18055 X-54.134 Y-10.697
N18060 X-54.186 Y-10.68
N18065 X-54.24 Y-10.673
N18070 G3 X-54.55 Y-10.963 Z-6. I-0.01 J-0.3
N18075 G1 Y-11.176
N18080 X-54.542 Y-11.326
N18085 X-54.5 Y-11.47
N18090 X-54.44 Y-11.607
N18095 X-54.367 Y-11.738
N18100 X-54.284 Y-11.863
N18105 X-54.192 Y-11.982
N18110 X-54.093 Y-12.094
N18115 X-53.987 Y-12.201
N18120 X-53.965 Y-12.219
N18125 X-53.765 Y-12.361
N18130 X-53.542 Y-12.465
N18135 X-53.306 Y-12.529
N18140 X-53.061 Y-12.55
N18145 G3 X-52.772 Y-12.24 Z-5.8 I-0.01 J0.3
N18150 G1 X-52.78 Y-12.18
N18155 X-52.8 Y-12.124
N18160 X-52.83 Y-12.072
N18165 X-52.871 Y-12.028
N18170 X-52.895 Y-12.005
N18175 X-54.002 Y-11.006
N18180 X-54.049 Y-10.964
N18185 X-54.091 Y-10.932
N18190 X-54.138 Y-10.908
N18195 X-54.188 Y-10.893
N18200 X-54.24 Y-10.887
N18205 G3 X-54.55 Y-11.176 Z-6. I-0.01 J-0.3
N18210 G1 Y-11.388
N18215 X-54.542 Y-11.537
N18220 X-54.491 Y-11.678
N18225 X-54.423 Y-11.812
N18230 X-54.344 Y-11.939
N18235 X-54.255 Y-12.06
N18240 X-54.236 Y-12.081
N18245 X-54.018 Y-12.279
N18250 X-53.763 Y-12.427
N18255 X-53.483 Y-12.519
N18260 X-53.191 Y-12.55
N18265 G3 X-52.901 Y-12.24 Z-5.8 I-0.01 J0.3
N18270 G1 X-52.91 Y-12.177
N18275 X-52.932 Y-12.117
N18280 X-52.967 Y-12.063
N18285 X-53.012 Y-12.017
N18290 X-53.025 Y-12.006
N18295 X-54. Y-11.215
N18300 X-54.061 Y-11.165
N18305 X-54.115 Y-11.13
N18310 X-54.176 Y-11.107
N18315 X-54.24 Y-11.098
N18320 G3 X-54.55 Y-11.388 Z-6. I-0.01 J-0.3
N18325 G1 Y-11.558
N18330 X-54.542 Y-11.708
N18335 X-54.49 Y-11.848
N18340 X-54.417 Y-11.983
N18345 X-54.243 Y-12.177
N18350 X-54.036 Y-12.336
N18355 X-53.803 Y-12.453
N18360 X-53.552 Y-12.526
N18365 X-53.292 Y-12.55
N18370 G3 X-53.002 Y-12.24 Z-5.8 I-0.01 J0.3
N18375 X-53.127 Y-12.007 I-0.3 J-0.01
N18380 G1 X-53.996 Y-11.381
N18385 X-54.075 Y-11.325
N18390 X-54.126 Y-11.295
N18395 X-54.182 Y-11.276
N18400 X-54.24 Y-11.269
N18405 G3 X-54.55 Y-11.558 Z-6. I-0.01 J-0.3
N18410 G1 Y-11.742
N18415 X-54.542 Y-11.892
N18420 X-54.472 Y-12.025
N18425 X-54.384 Y-12.146
N18430 X-54.282 Y-12.256
N18435 X-54.034 Y-12.416
N18440 X-53.755 Y-12.516
N18445 X-53.462 Y-12.55
N18450 G3 X-53.173 Y-12.24 Z-5.8 I-0.01 J0.3
N18455 X-53.311 Y-11.997 I-0.3 J-0.01
N18460 G1 X-53.993 Y-11.561
N18465 X-54.089 Y-11.5
N18470 X-54.136 Y-11.476
N18475 X-54.187 Y-11.46
N18480 X-54.24 Y-11.453
N18485 G3 X-54.55 Y-11.742 Z-6. I-0.01 J-0.3
N18490 G1 Y-11.884
N18495 X-54.542 Y-12.034
N18500 X-54.467 Y-12.163
N18505 X-54.289 Y-12.327
N18510 X-54.081 Y-12.449
N18515 X-53.852 Y-12.524
N18520 X-53.612 Y-12.55
N18525 G3 X-53.323 Y-12.24 Z-5.8 I-0.01 J0.3
N18530 X-53.475 Y-11.989 I-0.3 J-0.01
N18535 G1 X-53.99 Y-11.697
N18540 X-54.102 Y-11.634
N18545 X-54.146 Y-11.613
N18550 X-54.192 Y-11.6
N18555 X-54.24 Y-11.595
N18560 G3 X-54.55 Y-11.884 Z-6. I-0.01 J-0.3
N18565 G1 Y-12.026
N18570 X-54.546 Y-12.101
N18575 X-54.477 Y-12.234
N18580 X-54.274 Y-12.405
N18585 X-54.032 Y-12.513
N18590 X-53.769 Y-12.55
N18595 G3 X-53.357 Y-12.351 Z-5.8 I-0.02 J0.567
N18600 X-53.34 Y-11.635 I-0.432 J0.368
N18605 X-54.377 Y-11.598 I-0.534 J-0.414
N18610 X-54.55 Y-12.026 Z-6. I0.503 J-0.452
N18615 G1 Y-12.094
N18620 X-54.546 Y-12.168
N18625 X-54.489 Y-12.307
N18630 X-54.321 Y-12.439
N18635 X-54.125 Y-12.522
N18640 X-53.914 Y-12.55
N18645 G3 X-53.522 Y-12.323 Z-5.8 I-0.017 J0.48
N18650 X-53.534 Y-11.799 I-0.408 J0.253
N18655 X-54.348 Y-11.684 I-0.46 J-0.314
N18660 X-54.55 Y-12.094 Z-6. I0.354 J-0.429
N18665 G1 X-54.549 Y-12.197
N18670 Y-12.235
N18675 Y-12.266
N18680 X-54.537 Y-12.319
N18685 X-54.529 Y-12.346
N18690 X-54.519 Y-12.372
N18695 X-54.49 Y-12.404
N18700 X-54.452 Y-12.423
N18705 X-54.41 Y-12.427
N18710 X-54.369 Y-12.417
N18715 X-54.334 Y-12.393
N18720 X-54.31 Y-12.358
N18725 X-54.3 Y-12.317
N18730 X-54.304 Y-12.275
N18735 X-54.316 Y-12.235
N18740 X-54.335 Y-12.198
N18745 X-54.365 Y-12.17
N18750 X-54.404 Y-12.153
N18755 X-54.446 Y-12.151
N18760 X-54.485 Y-12.164
N18765 X-54.518 Y-12.19
N18770 X-54.54 Y-12.225
N18775 X-54.549 Y-12.266
N18780 X-54.543 Y-12.302
N18785 X-54.533 Y-12.337
N18790 X-54.519 Y-12.372
N18795 X-54.498 Y-12.408
N18800 X-54.481 Y-12.43
N18805 X-54.461 Y-12.452
N18810 X-54.388 Y-12.51
N18815 G3 X-53.999 Y-12.365 Z-5.8 I0.132 J0.238
N18820 X-54.401 Y-12.041 I-0.256 J0.094
N18825 X-54.523 Y-12.325 Z-5.94 I0.146 J-0.23
N18830 G1 X-54.509 Y-12.371 Z-5.96
N18835 X-54.489 Y-12.413 Z-5.98
N18840 X-54.461 Y-12.452 Z-6.
N18845 X-54.411 Y-12.496
N18850 X-54.375 Y-12.517
N18855 X-54.34 Y-12.532
N18860 X-54.304 Y-12.543
N18865 X-54.269 Y-12.548
N18870 X-54.257 Y-12.549
N18875 X-52.993 Y-12.55
N18880 X-51.603
N18885 X-51.453 Y-12.542
N18890 X-51.305 Y-12.523
N18895 X-51.159 Y-12.488
N18900 X-51.016 Y-12.442
N18905 X-50.877 Y-12.385
N18910 X-50.742 Y-12.32
N18915 X-50.612 Y-12.246
N18920 X-50.486 Y-12.165
N18925 X-50.365 Y-12.076
N18930 X-50.249 Y-11.981
N18935 X-50.138 Y-11.879
N18940 X-50.034 Y-11.772
N18945 X-49.936 Y-11.658
N18950 X-49.844 Y-11.54
N18955 X-49.758 Y-11.417
N18960 X-49.68 Y-11.289
N18965 X-49.608 Y-11.157
N18970 X-49.585 Y-11.107
N18975 X-49.51 Y-10.915
N18980 X-49.465 Y-10.714
N18985 X-49.45 Y-10.508
N18990 G3 X-49.76 Y-10.219 Z-5.8 I-0.3 J-0.01
N18995 G1 X-49.814 Y-10.225
N19000 X-49.865 Y-10.242
N19005 X-49.913 Y-10.267
N19010 X-49.955 Y-10.3
N19015 X-49.997 Y-10.339
N19020 X-51.77 Y-12.005
N19025 X-51.798 Y-12.032
N19030 X-51.837 Y-12.076
N19035 X-51.866 Y-12.126
