%
(OFEN_CHAMFER)
(T1  D=6. CR=0. TAPER=45DEG - ZMIN=15. - CHAMFER MILL)
N10 G90 G94 G17 G91.1
N15 G21
N20 G53 G0 Z0.
(2D CHAMFER3)
N25 T1 M6
N30 S14000 M3
N35 G54
N40 M8
N45 G0 X-95. Y1.15
N50 G43 Z34.5 H1
N55 G0 Z24.5
N60 G1 Z21.5 F281.87
N65 Z15.
N70 Y0.55 F845.6
N75 X-5.
N80 G2 X0.55 Y-5. I0. J-5.55
N85 G1 Y-13.
N90 G2 X-5. Y-18.55 I-5.55 J0.
N95 G1 X-95.
N100 G2 X-100.55 Y-13. I0. J5.55
N105 G1 Y-5.
N110 G2 X-95. Y0.55 I5.55 J0.
N115 G1 Y1.15
N120 G0 Z24.5
N125 X-66.65 Y-9.
N130 G1 Z21.5 F281.87
N135 Z15.
N140 X-66.05 F845.6
N145 Y-8.
N150 G3 X-68. Y-6.05 I-1.95 J0.
N155 G1 X-92.
N160 G3 X-93.95 Y-8. I0. J-1.95
N165 G1 Y-10.
N170 G3 X-92. Y-11.95 I1.95 J0.
N175 G1 X-68.
N180 G3 X-66.05 Y-10. I0. J1.95
N185 G1 Y-9.
N190 X-66.65
N195 G0 Z24.5
N200 X-31. Y-11.35
N205 G1 Z21.5 F281.87
N210 Z15.
N215 Y-11.95 F845.6
N220 X-8.
N225 G3 X-6.05 Y-10. I0. J1.95
N230 G1 Y-8.
N235 G3 X-8. Y-6.05 I-1.95 J0.
N240 G1 X-32.
N245 G3 X-33.95 Y-8. I0. J-1.95
N250 G1 Y-10.
N255 G3 X-32. Y-11.95 I1.95 J0.
N260 G1 X-31.
N265 Y-11.35
N270 G0 Z34.5
N275 M9
N280 G53 Z0.
N285 M30
%
