%
(OFEN_S2_V1)
(T1  D=6. CR=0. TAPER=45DEG - ZMIN=15. - CHAMFER MILL)
(T17  D=6. CR=0. - ZMIN=16. - BULLNOSE END MILL)
N10 G90 G94 G17 G91.1
N15 G21
N20 G53 G0 Z0.
(FACE5)
N25 T17 M6
N30 T1
N35 S15000 M3
N40 G54
N45 M8
N50 G0 X7.549 Y-28.04
N55 G43 Z34.5 H17
N60 G0 Z24.5
N65 G1 Z16.6 F400.
N70 G18 G3 X6.949 Z16. I-0.6 K0. F600.
N75 G1 X-106.949
N80 X-109.924
N85 G17 G2 Y-25.11 I0. J1.465
N90 G1 X9.924
N95 X11.673
N100 G3 Y-22.18 I0. J1.465
N105 G1 X-111.673
N110 X-112.649
N115 G2 Y-19.25 I0. J1.465
N120 G1 X12.649
N125 X13.002
N130 G3 Y-16.32 I0. J1.465
N135 G1 X-113.002
N140 X-113.01
N145 G2 Y-13.39 I0. J1.465
N150 G1 X13.01
N155 G3 Y-10.46 I0. J1.465
N160 G1 X-113.01
N165 G2 Y-7.53 I0. J1.465
N170 G1 X13.01
N175 G3 Y-4.6 I0. J1.465
N180 G1 X-113.01
N185 G2 Y-1.67 I0. J1.465
N190 G1 X-113.002
N195 X13.002
N200 G3 Y1.26 I0. J1.465
N205 G1 X12.647
N210 X-112.647
N215 G2 Y4.19 I0. J1.465
N220 G1 X-111.668
N225 X11.668
N230 G3 Y7.12 I0. J1.465
N235 G1 X9.917
N240 X-109.917
N245 G18 G3 X-110.517 Z16.6 I0. K0.6
N250 G0 Z34.5
N255 G17
N260 M5
N265 G53 G0 Z0.
(2D CHAMFER3)
N270 M9
N275 M1
N280 T1 M6
N285 T17
N290 S14000 M3
N295 G54
N300 M8
N305 G0 X-95. Y1.65
N310 G43 Z34.5 H1
N315 G0 Z24.5
N320 G1 Z21.5 F281.87
N325 Z15.
N330 Y1.05 F845.6
N335 X-5.
N340 G2 X1.05 Y-5. I0. J-6.05
N345 G1 Y-13.
N350 G2 X-5. Y-19.05 I-6.05 J0.
N355 G1 X-95.
N360 G2 X-101.05 Y-13. I0. J6.05
N365 G1 Y-5.
N370 G2 X-95. Y1.05 I6.05 J0.
N375 G1 Y1.65
N380 G0 Z24.5
N385 X-67.15 Y-9.
N390 G1 Z21.5 F281.87
N395 Z15.
N400 X-66.55 F845.6
N405 Y-8.
N410 G3 X-68. Y-6.55 I-1.45 J0.
N415 G1 X-92.
N420 G3 X-93.45 Y-8. I0. J-1.45
N425 G1 Y-10.
N430 G3 X-92. Y-11.45 I1.45 J0.
N435 G1 X-68.
N440 G3 X-66.55 Y-10. I0. J1.45
N445 G1 Y-9.
N450 X-67.15
N455 G0 Z24.5
N460 X-31. Y-10.85
N465 G1 Z21.5 F281.87
N470 Z15.
N475 Y-11.45 F845.6
N480 X-8.
N485 G3 X-6.55 Y-10. I0. J1.45
N490 G1 Y-8.
N495 G3 X-8. Y-6.55 I-1.45 J0.
N500 G1 X-32.
N505 G3 X-33.45 Y-8. I0. J-1.45
N510 G1 Y-10.
N515 G3 X-32. Y-11.45 I1.45 J0.
N520 G1 X-31.
N525 Y-10.85
N530 G0 Z34.5
N535 M9
N540 G53 Z0.
N545 M30
%
