%
(SCHIEBER_S1_V1)
(T1  D=3. CR=0. TAPER=118DEG - ZMIN=-11.401 - DRILL)
(T2  D=6. CR=0. TAPER=90DEG - ZMIN=-12. - SPOT DRILL)
(T6  D=4. CR=0. - ZMIN=-16.9 - FLAT END MILL)
(T17  D=6. CR=0. - ZMIN=-16.9 - BULLNOSE END MILL)
N10 G90 G94 G17 G91.1
N15 G21
N20 G53 G0 Z0.
(FACE1)
N25 T17 M6
N30 T2
N35 S15000 M3
N40 G54
N45 M8
N50 G0 X4.912 Y-24.2
N55 G43 Z15. H17
N60 G0 Z5.
N65 G1 Z0.1 F400.
N70 G18 G3 X4.312 Z-0.5 I-0.6 K0. F900.
N75 G1 X-108.312
N80 X-110.443
N85 G17 G2 Y-20.441 I0. J1.879
N90 G1 X6.443
N95 X7.
N100 G3 Y-16.683 I0. J1.879
N105 G1 X-111.
N110 G2 Y-12.925 I0. J1.879
N115 G1 X7.
N120 G3 Y-9.167 I0. J1.879
N125 G1 X-111.
N130 G2 Y-5.409 I0. J1.879
N135 G1 X7.
N140 G3 Y-1.65 I0. J1.879
N145 G1 X6.915
N150 X-110.915
N155 G2 Y2.108 I0. J1.879
N160 G1 X-109.738
N165 X5.738
N170 G18 G2 X6.338 Z0.1 I0. K0.6
N175 G0 Z15.
N180 G17
N185 M5
N190 G53 G0 Z0.
(DRILL1)
N195 M9
N200 M1
N205 T2 M6
N210 T1
N215 S8488 M3
N220 G54
N225 M8
N230 G0 X-47.95 Y-14.05
N235 G43 Z15. H2
N240 G0 Z5.
N245 G98 G81 X-47.95 Y-14.05 Z-2.15 R4.5 F333.33
N250 X-56.05
N255 Y-5.95
N260 X-47.95
N265 G80
N270 G0 Z15.
N275 M5
N280 G53 Z0.
(DRILL2)
N285 M9
N290 M1
N295 T1 M6
N300 T17
N305 S17023 M3
N310 G54
N315 M8
N320 G0 X-47.95 Y-14.05
N325 G43 Z15. H1
N330 G0 Z5.
N335 G83 X-47.95 Y-14.05 Z-11.401 R4.5 Q1.5 F255.35
N340 X-56.05
N345 Y-5.95
N350 X-47.95
N355 G80
N360 G0 Z15.
N365 M5
N370 G53 Z0.
(ADAPTIVE1)
N375 M9
N380 M1
N385 T17 M6
N390 T6
N395 S15000 M3
N400 G54
N405 M8
N410 G0 X-104.605 Y-26.886
N415 G43 Z15. H17
N420 G0 Z5.
N425 Z-8.8
N430 G1 Z-9.4 F900.
N435 X-104.603 Y-26.879 Z-9.494
N440 X-104.598 Y-26.858 Z-9.585
N445 X-104.589 Y-26.823 Z-9.672
N450 X-104.577 Y-26.775 Z-9.753
N455 X-104.562 Y-26.716 Z-9.824
N460 X-104.544 Y-26.647 Z-9.885
N465 X-104.524 Y-26.569 Z-9.935
N470 X-104.502 Y-26.485 Z-9.971
N475 X-104.48 Y-26.396 Z-9.993
N480 X-104.456 Y-26.305 Z-10.
N485 G3 X-103.987 Y-23.039 I-14.839 J3.801
N490 G1 Y-22.945
N495 X-104.625 Y-22.231
N500 X-105.097 Y-21.398
N505 X-105.426 Y-20.498
N510 X-105.644 Y-19.566
N515 X-105.782 Y-18.618
N520 X-105.866 Y-17.664
N525 X-105.917 Y-16.708
N530 X-105.946 Y-15.751
N535 X-105.963 Y-14.793
N540 X-105.973 Y-13.835
N545 X-105.979 Y-12.878
N550 X-105.982 Y-11.92
N555 X-105.985 Y-10.005
N560 X-105.987 Y-5.216
N565 Y-1.864
N570 X-105.901 Y-1.393
N575 X-105.558 Y-0.499
N580 X-104.954 Y0.245
N585 X-104.187 Y0.817
N590 X-103.323 Y1.23
N595 X-102.407 Y1.512
N600 X-101.467 Y1.696
N605 X-100.517 Y1.81
N610 X-99.561 Y1.88
N615 X-98.605 Y1.921
N620 X-97.647 Y1.945
N625 X-96.69 Y1.959
N630 X-95.732 Y1.967
N635 X-94.774 Y1.971
N640 X-93.817 Y1.974
N645 X-91.901 Y1.976
N650 X-85.197 Y1.977
N655 X-78.493
N660 X-60.272
N665 X-60.032 Y1.989
N670 X-59.794 Y2.026
N675 X-59.562 Y2.088
N680 X-59.177 Y2.21
N685 X-58.96 Y2.256
N690 X-58.525 Y2.327
N695 X-58.307 Y2.358
N700 X-57.872 Y2.415
N705 X-57.655 Y2.441
N710 X-57.22 Y2.483
N715 X-57.002 Y2.499
N720 X-47.65 Y2.5
N725 X-46.998 Y2.499
N730 X-46.78 Y2.483
N735 X-46.345 Y2.441
N740 X-46.128 Y2.415
N745 X-45.693 Y2.358
N750 X-45.475 Y2.327
N755 X-45.258 Y2.291
N760 X-44.306 Y2.186
N765 X-43.829 Y2.139
N770 X-42.874 Y2.067
N775 X-41.917 Y2.028
N780 X-40.96 Y2.006
N785 X-40.002 Y1.993
N790 X-39.045 Y1.986
N795 X-38.087 Y1.982
N800 X-36.172 Y1.978
N805 X-32.341 Y1.977
N810 X-1.694 Y1.976
N815 X-0.767 Y1.739
N820 X0.029 Y1.205
N825 X0.654 Y0.48
N830 X1.115 Y-0.359
N835 X1.435 Y-1.262
N840 X1.646 Y-2.196
N845 X1.78 Y-3.145
N850 X1.862 Y-4.099
N855 X1.911 Y-5.055
N860 X1.94 Y-6.012
N865 X1.957 Y-6.97
N870 X1.967 Y-7.928
N875 X1.973 Y-8.885
N880 X1.977 Y-9.843
N885 X1.981 Y-11.758
N890 X1.985 Y-17.505
N895 X1.986 Y-18.462
N900 X1.692 Y-19.374
N905 X1.121 Y-20.143
N910 X0.374 Y-20.741
N915 X-0.479 Y-21.177
N920 X-1.389 Y-21.477
N925 X-2.326 Y-21.673
N930 X-3.276 Y-21.796
N935 X-4.231 Y-21.871
N940 X-5.187 Y-21.916
N945 X-6.145 Y-21.942
N950 X-7.102 Y-21.957
N955 X-8.06 Y-21.965
N960 X-9.018 Y-21.97
N965 X-9.975 Y-21.973
N970 X-11.891 Y-21.976
N975 X-18.595
N980 X-32.002 Y-21.975
N985 X-43.719 Y-21.974
N990 X-43.959 Y-21.986
N995 X-44.196 Y-22.023
N1000 X-44.429 Y-22.085
N1005 X-44.823 Y-22.21
N1010 X-45.04 Y-22.256
N1015 X-45.475 Y-22.327
N1020 X-45.693 Y-22.358
N1025 X-46.128 Y-22.415
N1030 X-46.345 Y-22.441
N1035 X-46.78 Y-22.483
N1040 X-46.998 Y-22.499
N1045 X-56.35 Y-22.5
N1050 X-57.002 Y-22.499
N1055 X-57.22 Y-22.483
N1060 X-57.655 Y-22.441
N1065 X-57.872 Y-22.415
N1070 X-58.307 Y-22.358
N1075 X-58.525 Y-22.327
N1080 X-58.742 Y-22.291
N1085 X-59.694 Y-22.186
N1090 X-60.171 Y-22.138
N1095 X-61.126 Y-22.065
N1100 X-62.082 Y-22.024
N1105 X-63.04 Y-22.002
N1110 X-63.997 Y-21.989
N1115 X-64.955 Y-21.982
N1120 X-65.913 Y-21.978
N1125 X-66.871 Y-21.975
N1130 X-69.744 Y-21.972
N1135 X-100.39 Y-21.969
N1140 X-101.345 Y-21.902
N1145 X-102.23 Y-21.537
N1150 X-102.984 Y-20.946
N1155 X-103.585 Y-20.2
N1160 X-104.038 Y-19.356
N1165 X-104.364 Y-18.456
N1170 X-104.588 Y-17.525
N1175 X-104.737 Y-16.579
N1180 X-104.832 Y-15.626
N1185 X-104.892 Y-14.67
N1190 X-104.93 Y-13.713
N1195 X-104.952 Y-12.755
N1200 X-104.966 Y-11.798
N1205 X-104.974 Y-10.84
N1210 X-104.979 Y-9.882
N1215 X-104.982 Y-8.925
N1220 X-104.985 Y-7.009
N1225 X-104.986 Y-4.136
N1230 X-104.948 Y-3.179
N1235 X-104.663 Y-2.265
N1240 X-104.154 Y-1.454
N1245 X-103.474 Y-0.78
N1250 X-102.676 Y-0.25
N1255 X-101.804 Y0.146
N1260 X-100.889 Y0.43
N1265 X-99.951 Y0.625
N1270 X-99.002 Y0.755
N1275 X-98.048 Y0.839
N1280 X-97.092 Y0.893
N1285 X-96.135 Y0.926
N1290 X-95.178 Y0.946
N1295 X-94.22 Y0.959
N1300 X-93.262 Y0.966
N1305 X-92.305 Y0.971
N1310 X-91.347 Y0.974
N1315 X-89.432 Y0.976
N1320 X-83.685 Y0.977
N1325 X-68.362
N1330 X-62.519
N1335 X-62.172 Y1.003
N1340 X-61.833 Y1.08
N1345 X-61.509 Y1.207
N1350 X-61.207 Y1.381
N1355 X-61.173 Y1.404
N1360 X-61.147 Y1.418
N1365 X-60.482 Y1.711
N1370 X-59.765 Y2.009
N1375 X-59.612 Y2.072
N1380 X-59.562 Y2.088
N1385 X-59.54 Y2.102 Z-9.994
N1390 G2 X-58.882 Y2.739 Z-9.8 I7.226 J-6.807
N1395 X-55.986 Y4.518 I6.568 J-7.444
N1400 G1 X-55.917 Y4.541
N1405 X-55.846 Y4.555
N1410 X-55.773 Y4.561
N1415 X-49.123 Y4.656
N1420 X-49.05 Y4.653
N1425 X-48.978 Y4.641
N1430 X-48.908 Y4.62
N1435 G2 X-45.957 Y2.92 I-3.406 J-9.325
N1440 X-45.286 Y2.307 Z-9.993 I-6.357 J-7.625
N1445 G1 X-45.273 Y2.297 Z-9.996
N1450 X-45.258 Y2.291 Z-10.
N1455 X-45.04 Y2.256
N1460 X-44.823 Y2.21
N1465 X-44.388 Y2.072
N1470 X-43.735 Y1.802
N1475 X-43.518 Y1.711
N1480 X-43.304 Y1.629
N1485 X-43.079 Y1.554
N1490 X-42.795 Y1.473
N1495 X-42.447 Y1.39
N1500 X-41.99 Y1.301
N1505 X-41.379 Y1.21
N1510 X-40.472 Y1.115
N1515 X-39.516 Y1.057
N1520 X-38.559 Y1.024
N1525 X-37.601 Y1.004
N1530 X-36.644 Y0.993
N1535 X-35.686 Y0.986
N1540 X-34.728 Y0.982
N1545 X-32.813 Y0.979
N1550 X-28.982 Y0.977
N1555 X-4.082 Y0.976
N1560 X-3.125 Y0.936
N1565 X-2.214 Y0.643
N1570 X-1.409 Y0.124
N1575 X-0.742 Y-0.563
N1580 X-0.219 Y-1.366
N1585 X0.17 Y-2.241
N1590 X0.447 Y-3.158
N1595 X0.637 Y-4.097
N1600 X0.763 Y-5.046
N1605 X0.845 Y-6.
N1610 X0.897 Y-6.956
N1615 X0.93 Y-7.913
N1620 X0.95 Y-8.871
N1625 X0.963 Y-9.829
N1630 X0.97 Y-10.786
N1635 X0.975 Y-11.744
N1640 X0.979 Y-12.702
N1645 X0.982 Y-14.617
N1650 X0.984 Y-16.532
N1655 X0.783 Y-17.469
N1660 X0.341 Y-18.318
N1665 X-0.293 Y-19.037
N1670 X-1.06 Y-19.609
N1675 X-1.914 Y-20.044
N1680 X-2.818 Y-20.358
N1685 X-3.751 Y-20.577
N1690 X-4.697 Y-20.724
N1695 X-5.65 Y-20.819
N1700 X-6.606 Y-20.88
N1705 X-7.563 Y-20.918
N1710 X-8.52 Y-20.941
N1715 X-9.478 Y-20.955
N1720 X-10.435 Y-20.964
N1725 X-11.393 Y-20.969
N1730 X-12.351 Y-20.972
N1735 X-14.266 Y-20.975
N1740 X-19.054 Y-20.976
N1745 X-38.208 Y-20.975
N1750 X-41.476 Y-20.974
N1755 X-41.823 Y-21.
N1760 X-42.163 Y-21.077
N1765 X-42.487 Y-21.204
N1770 X-42.788 Y-21.378
N1775 X-42.827 Y-21.404
N1780 X-42.853 Y-21.418
N1785 X-43.518 Y-21.711
N1790 X-44.235 Y-22.009
N1795 X-44.388 Y-22.072
N1800 X-44.429 Y-22.085
N1805 X-44.45 Y-22.099 Z-9.994
N1810 G2 X-45.108 Y-22.736 Z-9.8 I-7.232 J6.813
N1815 X-48.007 Y-24.517 I-6.575 J7.45
N1820 G1 X-48.076 Y-24.54
N1825 X-48.148 Y-24.554
N1830 X-48.221 Y-24.56
N1835 X-54.873 Y-24.657
N1840 X-54.946 Y-24.653
N1845 X-55.018 Y-24.641
N1850 X-55.088 Y-24.62
N1855 G2 X-58.043 Y-22.92 I3.405 J9.334
N1860 X-58.714 Y-22.307 Z-9.993 I6.36 J7.634
N1865 G1 X-58.727 Y-22.297 Z-9.996
N1870 X-58.742 Y-22.291 Z-10.
N1875 X-58.96 Y-22.256
N1880 X-59.177 Y-22.21
N1885 X-59.612 Y-22.072
N1890 X-60.265 Y-21.802
N1895 X-60.482 Y-21.711
N1900 X-60.706 Y-21.625
N1905 X-60.931 Y-21.55
N1910 X-61.216 Y-21.469
N1915 X-61.564 Y-21.386
N1920 X-62.022 Y-21.297
N1925 X-62.634 Y-21.206
N1930 X-63.542 Y-21.111
N1935 X-64.498 Y-21.053
N1940 X-65.455 Y-21.019
N1945 X-66.412 Y-21.
N1950 X-67.37 Y-20.988
N1955 X-68.328 Y-20.982
N1960 X-69.285 Y-20.978
N1965 X-71.201 Y-20.974
N1970 X-75.031 Y-20.972
N1975 X-98.974 Y-20.969
N1980 X-99.924 Y-20.848
N1985 X-100.815 Y-20.497
N1990 X-101.598 Y-19.945
N1995 X-102.247 Y-19.241
N2000 X-102.757 Y-18.431
N2005 X-103.141 Y-17.554
N2010 X-103.419 Y-16.637
N2015 X-103.614 Y-15.699
N2020 X-103.745 Y-14.751
N2025 X-103.833 Y-13.797
N2030 X-103.89 Y-12.841
N2035 X-103.926 Y-11.884
N2040 X-103.949 Y-10.927
N2045 X-103.963 Y-9.969
N2050 X-103.972 Y-9.011
N2055 X-103.978 Y-8.054
N2060 X-103.981 Y-7.096
N2065 X-103.983 Y-6.138
N2070 X-103.98 Y-5.181
N2075 X-103.849 Y-4.232
N2080 X-103.504 Y-3.338
N2085 X-102.964 Y-2.547
N2090 X-102.273 Y-1.884
N2095 X-101.475 Y-1.355
N2100 X-100.607 Y-0.95
N2105 X-99.697 Y-0.652
N2110 X-98.763 Y-0.441
N2115 X-97.816 Y-0.296
N2120 X-96.864 Y-0.199
N2125 X-95.908 Y-0.135
N2130 X-94.951 Y-0.094
N2135 X-93.994 Y-0.067
N2140 X-93.036 Y-0.05
N2145 X-92.079 Y-0.04
N2150 X-91.121 Y-0.033
N2155 X-90.163 Y-0.029
N2160 X-88.248 Y-0.025
N2165 X-84.417 Y-0.023
N2170 X-64.306
N2175 X-63.702 Y-0.016
N2180 X-63.297 Y0.007
N2185 X-63.018 Y0.035
N2190 X-62.985 Y0.043
N2195 X-62.954 Y0.058
N2200 X-62.927 Y0.078
N2205 X-62.891 Y0.113
N2210 X-62.63 Y0.33
N2215 X-62.44 Y0.486
N2220 X-61.787 Y0.987
N2225 X-61.207 Y1.381
N2230 X-61.193 Y1.398 Z-9.995
N2235 G2 X-60.741 Y2.199 Z-9.8 I8.916 J-4.502
N2240 X-58.456 Y4.744 I8.464 J-5.303
N2245 X-58.096 Y4.872 I0.371 J-0.471
N2250 G1 X-46.765 Y5.086
N2255 G2 X-46.4 Y4.971 I0.011 J-0.6
N2260 X-44.016 Y2.509 I-5.878 J-8.075
N2265 X-43.538 Y1.73 Z-9.994 I-8.261 J-5.613
N2270 G1 X-43.518 Y1.711 Z-10.
N2275 X-42.853 Y1.418
N2280 X-42.827 Y1.404
N2285 X-42.43 Y1.135
N2290 X-42.225 Y1.009
N2295 X-42.093 Y0.937
N2300 X-41.933 Y0.858
N2305 X-41.766 Y0.784
N2310 X-41.559 Y0.703
N2315 X-41.299 Y0.614
N2320 X-41.004 Y0.527
N2325 X-40.63 Y0.434
N2330 X-40.161 Y0.34
N2335 X-39.533 Y0.241
N2340 X-38.644 Y0.141
N2345 X-37.689 Y0.075
N2350 X-36.732 Y0.036
N2355 X-35.774 Y0.013
N2360 X-34.817 Y-0.002
N2365 X-33.859 Y-0.01
N2370 X-32.901 Y-0.015
N2375 X-31.944 Y-0.019
N2380 X-30.028 Y-0.022
N2385 X-25.24 Y-0.023
N2390 X-6.086 Y-0.024
N2395 X-5.128 Y-0.029
N2400 X-4.181 Y-0.168
N2405 X-3.291 Y-0.522
N2410 X-2.505 Y-1.07
N2415 X-1.849 Y-1.767
N2420 X-1.327 Y-2.57
N2425 X-0.928 Y-3.441
N2430 X-0.636 Y-4.353
N2435 X-0.429 Y-5.288
N2440 X-0.288 Y-6.235
N2445 X-0.192 Y-7.188
N2450 X-0.129 Y-8.143
N2455 X-0.089 Y-9.1
N2460 X-0.062 Y-10.058
N2465 X-0.046 Y-11.015
N2470 X-0.035 Y-11.973
N2475 X-0.028 Y-12.93
N2480 X-0.023 Y-13.888
N2485 X-0.02 Y-14.846
N2490 X-0.152 Y-15.794
N2495 X-0.502 Y-16.686
N2500 X-1.046 Y-17.474
N2505 X-1.74 Y-18.134
N2510 X-2.541 Y-18.659
N2515 X-3.41 Y-19.061
N2520 X-4.321 Y-19.355
N2525 X-5.256 Y-19.564
N2530 X-6.203 Y-19.707
N2535 X-7.156 Y-19.804
N2540 X-8.111 Y-19.867
N2545 X-9.068 Y-19.908
N2550 X-10.026 Y-19.933
N2555 X-10.983 Y-19.95
N2560 X-11.941 Y-19.96
N2565 X-12.899 Y-19.966
N2570 X-13.856 Y-19.97
N2575 X-15.772 Y-19.974
N2580 X-19.602 Y-19.976
N2585 X-39.714 Y-19.974
N2590 X-40.17 Y-19.98
N2595 X-40.545 Y-20.017
N2600 X-40.908 Y-20.115
N2605 X-41.25 Y-20.273
N2610 X-41.56 Y-20.486
N2615 X-42.213 Y-20.987
N2620 X-42.788 Y-21.378
N2625 X-42.805 Y-21.398 Z-9.994
N2630 G2 X-43.255 Y-22.195 Z-9.8 I-8.915 J4.501
N2635 X-45.543 Y-24.744 I-8.465 J5.299
N2640 X-45.903 Y-24.872 I-0.371 J0.471
N2645 G1 X-57.23 Y-25.088
N2650 G2 X-57.595 Y-24.973 I-0.011 J0.6
N2655 X-59.983 Y-22.507 I5.874 J8.077
N2660 X-60.458 Y-21.734 Z-9.993 I8.262 J5.611
N2665 G1 X-60.468 Y-21.721 Z-9.996
N2670 X-60.482 Y-21.711 Z-10.
N2675 X-61.147 Y-21.418
N2680 X-61.173 Y-21.404
N2685 X-61.57 Y-21.135
N2690 X-61.781 Y-21.006
N2695 X-61.913 Y-20.933
N2700 X-62.073 Y-20.854
N2705 X-62.241 Y-20.78
N2710 X-62.447 Y-20.699
N2715 X-62.707 Y-20.61
N2720 X-63.003 Y-20.523
N2725 X-63.377 Y-20.43
N2730 X-63.848 Y-20.335
N2735 X-64.476 Y-20.237
N2740 X-65.366 Y-20.136
N2745 X-66.321 Y-20.071
N2750 X-67.278 Y-20.031
N2755 X-68.235 Y-20.008
N2760 X-69.193 Y-19.994
N2765 X-70.151 Y-19.985
N2770 X-71.108 Y-19.98
N2775 X-72.066 Y-19.976
N2780 X-73.981 Y-19.973
N2785 X-78.77 Y-19.971
N2790 X-96.966 Y-19.97
N2795 X-97.924 Y-19.949
N2800 X-98.863 Y-19.762
N2805 X-99.738 Y-19.373
N2810 X-100.508 Y-18.803
N2815 X-101.151 Y-18.094
N2820 X-101.665 Y-17.286
N2825 X-102.059 Y-16.413
N2830 X-102.35 Y-15.5
N2835 X-102.557 Y-14.565
N2840 X-102.702 Y-13.619
N2845 X-102.8 Y-12.666
N2850 X-102.866 Y-11.711
N2855 X-102.909 Y-10.754
N2860 X-102.937 Y-9.797
N2865 X-102.955 Y-8.839
N2870 X-102.967 Y-7.881
N2875 X-102.973 Y-6.924
N2880 X-102.92 Y-5.967
N2885 X-102.689 Y-5.038
N2890 X-102.261 Y-4.181
N2895 X-101.664 Y-3.432
N2900 X-100.937 Y-2.809
N2905 X-100.119 Y-2.312
N2910 X-99.24 Y-1.931
N2915 X-98.325 Y-1.648
N2920 X-97.389 Y-1.445
N2925 X-96.442 Y-1.304
N2930 X-95.489 Y-1.208
N2935 X-94.533 Y-1.143
N2940 X-93.577 Y-1.1
N2945 X-92.619 Y-1.072
N2950 X-91.662 Y-1.054
N2955 X-90.704 Y-1.043
N2960 X-89.746 Y-1.035
N2965 X-88.789 Y-1.031
N2970 X-87.831 Y-1.028
N2975 X-85.916 Y-1.024
N2980 X-81.127 Y-1.023
N2985 X-65.804
N2990 X-64.961 Y-1.019
N2995 X-64.55 Y-0.98
N3000 X-64.152 Y-0.87
N3005 X-63.78 Y-0.692
N3010 X-63.445 Y-0.45
N3015 X-63.158 Y-0.154
N3020 X-63.15 Y-0.138 Z-9.996
N3025 G2 X-62.814 Y0.722 Z-9.8 I10.62 J-3.656
N3030 X-59.899 Y4.682 I10.284 J-4.517
N3035 X-59.543 Y4.828 I0.394 J-0.453
N3040 G1 X-46.645 Y5.634
N3045 G2 X-46.273 Y5.533 I0.037 J-0.599
N3050 X-42.884 Y1.959 I-6.257 J-9.328
N3055 X-42.447 Y1.155 Z-9.994 I-9.646 J-5.754
N3060 G1 X-42.43 Y1.135 Z-10.
N3065 X-42.208 Y0.983
N3070 X-41.56 Y0.486
N3075 X-41.455 Y0.4
N3080 X-41.277 Y0.269
N3085 X-41.153 Y0.186
N3090 X-41.016 Y0.103
N3095 X-40.869 Y0.023
N3100 X-40.695 Y-0.062
N3105 X-40.477 Y-0.156
N3110 X-40.229 Y-0.252
N3115 X-39.949 Y-0.346
N3120 X-39.587 Y-0.45
N3125 X-39.179 Y-0.548
N3130 X-38.64 Y-0.654
N3135 X-37.945 Y-0.759
N3140 X-36.992 Y-0.86
N3145 X-36.037 Y-0.922
N3150 X-35.08 Y-0.961
N3155 X-34.122 Y-0.984
N3160 X-33.165 Y-0.999
N3165 X-32.207 Y-1.008
N3170 X-31.25 Y-1.014
N3175 X-30.292 Y-1.018
N3180 X-28.376 Y-1.021
N3185 X-24.546 Y-1.023
N3190 X-7.307 Y-1.024
N3195 X-6.35 Y-1.041
N3200 X-5.404 Y-1.193
N3205 X-4.513 Y-1.544
N3210 X-3.717 Y-2.077
N3215 X-3.041 Y-2.755
N3220 X-2.493 Y-3.541
N3225 X-2.068 Y-4.399
N3230 X-1.749 Y-5.302
N3235 X-1.517 Y-6.231
N3240 X-1.353 Y-7.175
N3245 X-1.24 Y-8.126
N3250 X-1.164 Y-9.08
N3255 X-1.112 Y-10.037
N3260 X-1.079 Y-10.994
N3265 X-1.056 Y-11.951
N3270 X-1.042 Y-12.909
N3275 X-1.067 Y-13.866
N3280 X-1.261 Y-14.804
N3285 X-1.652 Y-15.678
N3290 X-2.221 Y-16.448
N3295 X-2.928 Y-17.095
N3300 X-3.733 Y-17.614
N3305 X-4.603 Y-18.014
N3310 X-5.513 Y-18.312
N3315 X-6.446 Y-18.526
N3320 X-7.392 Y-18.676
N3325 X-8.344 Y-18.778
N3330 X-9.3 Y-18.847
N3335 X-10.256 Y-18.893
N3340 X-11.213 Y-18.923
N3345 X-12.171 Y-18.942
N3350 X-13.129 Y-18.955
N3355 X-14.086 Y-18.963
N3360 X-15.044 Y-18.968
N3365 X-16.002 Y-18.971
N3370 X-17.917 Y-18.974
N3375 X-21.748 Y-18.976
N3380 X-38.029 Y-18.975
N3385 X-38.85 Y-18.977
N3390 X-39.231 Y-18.995
N3395 X-39.243 Y-18.996
N3400 X-39.61 Y-19.059
N3405 X-39.963 Y-19.18
N3410 X-40.292 Y-19.356
N3415 X-40.589 Y-19.582
N3420 X-40.846 Y-19.852
N3425 X-40.881 Y-19.895
N3430 X-40.908 Y-19.923
N3435 X-41.109 Y-20.113
N3440 X-41.37 Y-20.33
N3445 X-41.56 Y-20.486
N3450 X-41.575 Y-20.507 Z-9.994
N3455 G2 X-41.95 Y-21.343 Z-9.8 I-10.13 J4.04
N3460 X-44.232 Y-24.41 I-9.756 J4.875
N3465 X-44.623 Y-24.573 I-0.411 J0.437
N3470 G1 X-58.247 Y-25.015
N3475 G2 X-58.649 Y-24.878 I-0.019 J0.6
N3480 X-61.125 Y-21.964 I6.943 J8.41
N3485 X-61.552 Y-21.156 Z-9.994 I9.42 J5.496
N3490 G1 X-61.57 Y-21.135 Z-10.
N3495 X-61.792 Y-20.983
N3500 X-62.44 Y-20.486
N3505 X-62.545 Y-20.4
N3510 X-62.728 Y-20.265
N3515 X-62.852 Y-20.182
N3520 X-62.989 Y-20.099
N3525 X-63.137 Y-20.019
N3530 X-63.311 Y-19.934
N3535 X-63.529 Y-19.839
N3540 X-63.778 Y-19.744
N3545 X-64.058 Y-19.65
N3550 X-64.42 Y-19.546
N3555 X-64.828 Y-19.447
N3560 X-65.367 Y-19.342
N3565 X-66.063 Y-19.237
N3570 X-67.015 Y-19.135
N3575 X-67.971 Y-19.073
N3580 X-68.928 Y-19.035
N3585 X-69.885 Y-19.011
N3590 X-70.843 Y-18.996
N3595 X-71.8 Y-18.987
N3600 X-72.758 Y-18.981
N3605 X-73.716 Y-18.977
N3610 X-75.631 Y-18.974
N3615 X-79.462 Y-18.971
N3620 X-94.785 Y-18.97
N3625 X-95.743 Y-18.969
N3630 X-96.7 Y-18.936
N3635 X-97.64 Y-18.751
N3640 X-98.52 Y-18.374
N3645 X-99.304 Y-17.824
N3650 X-99.969 Y-17.134
N3655 X-100.508 Y-16.343
N3660 X-100.928 Y-15.482
N3665 X-101.244 Y-14.578
N3670 X-101.476 Y-13.649
N3675 X-101.64 Y-12.706
N3680 X-101.755 Y-11.755
N3685 X-101.833 Y-10.8
N3690 X-101.886 Y-9.844
N3695 X-101.921 Y-8.887
N3700 X-101.934 Y-7.929
N3705 X-101.853 Y-6.975
N3710 X-101.591 Y-6.054
N3715 X-101.144 Y-5.207
N3720 X-100.538 Y-4.466
N3725 X-99.807 Y-3.847
N3730 X-98.987 Y-3.351
N3735 X-98.109 Y-2.969
N3740 X-97.195 Y-2.683
N3745 X-96.26 Y-2.477
N3750 X-95.314 Y-2.33
N3755 X-94.361 Y-2.228
N3760 X-93.406 Y-2.159
N3765 X-92.45 Y-2.112
N3770 X-91.492 Y-2.081
N3775 X-90.535 Y-2.061
N3780 X-89.577 Y-2.047
N3785 X-88.62 Y-2.038
N3790 X-87.662 Y-2.033
N3795 X-86.704 Y-2.029
N3800 X-84.789 Y-2.025
N3805 X-80.958 Y-2.023
N3810 X-67.55
N3815 X-66.593 Y-2.022
N3820 X-66.065 Y-2.01
N3825 X-65.683 Y-1.985
N3830 X-65.401 Y-1.954
N3835 X-65.368 Y-1.949
N3840 X-65.021 Y-1.868
N3845 X-64.691 Y-1.735
N3850 X-64.385 Y-1.554
N3855 X-64.109 Y-1.328
N3860 X-63.872 Y-1.063
N3865 X-63.527 Y-0.614
N3870 X-63.253 Y-0.271
N3875 X-63.158 Y-0.154
N3880 G3 X-63.165 Y0.577 I-0.479 J0.361
N3885 G1 X-63.223 Y0.651 Z-9.993
N3890 X-63.279 Y0.723 Z-9.971
N3895 X-63.333 Y0.791 Z-9.935
N3900 X-63.382 Y0.855 Z-9.885
N3905 X-63.426 Y0.911 Z-9.824
N3910 X-63.464 Y0.959 Z-9.753
N3915 X-63.494 Y0.998 Z-9.672
N3920 X-63.516 Y1.026 Z-9.585
N3925 X-63.53 Y1.044 Z-9.494
N3930 X-63.534 Y1.049 Z-9.4
N3935 G0 Z5.
N3940 X-61.896 Y-21.612
N3945 Z-8.8
N3950 G1 Z-9.4 F900.
N3955 X-61.898 Y-21.605 Z-9.494
N3960 X-61.906 Y-21.585 Z-9.585
N3965 X-61.918 Y-21.551 Z-9.672
N3970 X-61.935 Y-21.505 Z-9.753
N3975 X-61.956 Y-21.447 Z-9.824
N3980 X-61.98 Y-21.38 Z-9.885
N3985 X-62.008 Y-21.305 Z-9.935
N3990 X-62.038 Y-21.223 Z-9.971
N3995 X-62.069 Y-21.137 Z-9.993
N4000 X-62.101 Y-21.049 Z-10.
N4005 G3 X-62.545 Y-20.4 I-1.487 J-0.541
N4010 G1 X-62.657 Y-20.308
N4015 X-62.891 Y-20.113
N4020 X-63.092 Y-19.923
N4025 X-63.119 Y-19.895
N4030 X-63.215 Y-19.776
N4035 X-63.316 Y-19.664
N4040 X-63.424 Y-19.56
N4045 X-63.539 Y-19.465
N4050 X-63.66 Y-19.375
N4055 X-63.788 Y-19.29
N4060 X-63.938 Y-19.199
N4065 X-64.101 Y-19.11
N4070 X-64.305 Y-19.01
N4075 X-64.531 Y-18.911
N4080 X-64.795 Y-18.809
N4085 X-65.133 Y-18.694
N4090 X-65.489 Y-18.591
N4095 X-65.953 Y-18.478
N4100 X-66.497 Y-18.37
N4105 X-67.228 Y-18.257
N4110 X-68.18 Y-18.153
N4115 X-69.136 Y-18.088
N4120 X-70.093 Y-18.046
N4125 X-71.05 Y-18.019
N4130 X-72.007 Y-18.002
N4135 X-72.965 Y-17.991
N4140 X-73.923 Y-17.984
N4145 X-74.88 Y-17.979
N4150 X-75.838 Y-17.976
N4155 X-77.754 Y-17.973
N4160 X-82.542 Y-17.971
N4165 X-94.034 Y-17.97
N4170 X-94.992 Y-17.961
N4175 X-95.945 Y-17.867
N4180 X-96.866 Y-17.603
N4185 X-97.715 Y-17.161
N4190 X-98.46 Y-16.559
N4195 X-99.086 Y-15.834
N4200 X-99.591 Y-15.02
N4205 X-99.984 Y-14.147
N4210 X-100.28 Y-13.236
N4215 X-100.497 Y-12.303
N4220 X-100.652 Y-11.358
N4225 X-100.761 Y-10.407
N4230 X-100.832 Y-9.452
N4235 X-100.822 Y-8.494
N4240 X-100.649 Y-7.552
N4245 X-100.289 Y-6.665
N4250 X-99.755 Y-5.87
N4255 X-99.08 Y-5.19
N4260 X-98.302 Y-4.632
N4265 X-97.452 Y-4.191
N4270 X-96.555 Y-3.854
N4275 X-95.631 Y-3.604
N4280 X-94.69 Y-3.423
N4285 X-93.741 Y-3.295
N4290 X-92.788 Y-3.206
N4295 X-91.832 Y-3.145
N4300 X-90.875 Y-3.104
N4305 X-89.918 Y-3.076
N4310 X-88.96 Y-3.058
N4315 X-88.003 Y-3.045
N4320 X-87.045 Y-3.037
N4325 X-86.087 Y-3.032
N4330 X-85.13 Y-3.029
N4335 X-83.214 Y-3.025
N4340 X-79.383 Y-3.023
N4345 X-67.891 Y-3.022
N4350 X-67.053 Y-3.009
N4355 X-66.594 Y-2.982
N4360 X-66.288 Y-2.951
N4365 X-65.986 Y-2.906
N4370 X-65.95 Y-2.899
N4375 X-65.564 Y-2.79
N4380 X-65.202 Y-2.616
N4385 X-64.875 Y-2.383
N4390 X-64.593 Y-2.097
N4395 X-64.364 Y-1.767
N4400 X-64.284 Y-1.627
N4405 X-64.132 Y-1.41
N4410 X-63.962 Y-1.181
N4415 X-63.872 Y-1.063
N4420 G3 X-63.897 Y-0.333 I-0.488 J0.348
N4425 G1 X-63.957 Y-0.261 Z-9.993
N4430 X-64.015 Y-0.19 Z-9.971
N4435 X-64.071 Y-0.123 Z-9.935
N4440 X-64.122 Y-0.061 Z-9.885
N4445 X-64.167 Y-0.006 Z-9.824
N4450 X-64.206 Y0.042 Z-9.753
N4455 X-64.237 Y0.08 Z-9.672
N4460 X-64.26 Y0.107 Z-9.585
N4465 X-64.274 Y0.124 Z-9.494
N4470 X-64.279 Y0.13 Z-9.4
N4475 G0 Z5.
N4480 X-62.827 Y-21.094
N4485 Z-8.8
N4490 G1 Z-9.4 F900.
N4495 X-62.828 Y-21.087 Z-9.494
N4500 X-62.831 Y-21.065 Z-9.585
N4505 X-62.836 Y-21.03 Z-9.672
N4510 X-62.844 Y-20.981 Z-9.753
N4515 X-62.852 Y-20.921 Z-9.824
N4520 X-62.863 Y-20.85 Z-9.885
N4525 X-62.874 Y-20.77 Z-9.935
N4530 X-62.887 Y-20.684 Z-9.971
N4535 X-62.9 Y-20.594 Z-9.993
N4540 X-62.913 Y-20.501 Z-10.
N4545 G3 X-63.215 Y-19.776 I-1.566 J-0.227
N4550 G1 X-63.31 Y-19.659
N4555 X-63.527 Y-19.386
N4560 X-63.804 Y-19.025
N4565 X-63.901 Y-18.911
N4570 X-64.005 Y-18.802
N4575 X-64.115 Y-18.701
N4580 X-64.23 Y-18.605
N4585 X-64.35 Y-18.515
N4590 X-64.495 Y-18.417
N4595 X-64.648 Y-18.322
N4600 X-64.84 Y-18.215
N4605 X-65.041 Y-18.113
N4610 X-65.289 Y-18.002
N4615 X-65.574 Y-17.888
N4620 X-65.897 Y-17.775
N4625 X-66.311 Y-17.65
N4630 X-66.754 Y-17.537
N4635 X-67.329 Y-17.417
N4640 X-68.057 Y-17.297
N4645 X-69.008 Y-17.184
N4650 X-69.963 Y-17.11
N4655 X-70.919 Y-17.062
N4660 X-71.876 Y-17.031
N4665 X-72.834 Y-17.01
N4670 X-73.791 Y-16.996
N4675 X-74.749 Y-16.988
N4680 X-75.707 Y-16.982
N4685 X-76.664 Y-16.978
N4690 X-78.58 Y-16.974
N4695 X-82.411 Y-16.971
N4700 X-91.988 Y-16.97
N4705 X-92.945 Y-16.969
N4710 X-93.903 Y-16.953
N4715 X-94.855 Y-16.848
N4720 X-95.774 Y-16.581
N4725 X-96.624 Y-16.138
N4730 X-97.373 Y-15.542
N4735 X-98.006 Y-14.823
N4740 X-98.521 Y-14.015
N4745 X-98.924 Y-13.147
N4750 X-99.23 Y-12.239
N4755 X-99.455 Y-11.308
N4760 X-99.603 Y-10.362
N4765 X-99.616 Y-9.405
N4770 X-99.436 Y-8.464
N4775 X-99.06 Y-7.583
N4780 X-98.51 Y-6.799
N4785 X-97.822 Y-6.133
N4790 X-97.034 Y-5.589
N4795 X-96.178 Y-5.16
N4800 X-95.278 Y-4.833
N4805 X-94.351 Y-4.591
N4810 X-93.41 Y-4.415
N4815 X-92.46 Y-4.291
N4820 X-91.506 Y-4.205
N4825 X-90.55 Y-4.145
N4830 X-89.594 Y-4.105
N4835 X-88.636 Y-4.077
N4840 X-87.679 Y-4.059
N4845 X-86.721 Y-4.046
N4850 X-85.763 Y-4.038
N4855 X-84.806 Y-4.033
N4860 X-83.848 Y-4.029
N4865 X-81.933 Y-4.025
N4870 X-78.102 Y-4.023
N4875 X-69.483
N4880 X-68.525 Y-4.018
N4885 X-67.725 Y-3.998
N4890 X-67.296 Y-3.969
N4895 X-66.92 Y-3.927
N4900 X-66.666 Y-3.887
N4905 X-66.389 Y-3.831
N4910 X-66.171 Y-3.776
N4915 X-65.787 Y-3.626
N4920 X-65.436 Y-3.409
N4925 X-65.128 Y-3.135
N4930 X-64.874 Y-2.81
N4935 X-64.68 Y-2.446
N4940 X-64.518 Y-2.062
N4945 X-64.408 Y-1.845
N4950 X-64.364 Y-1.767
N4955 G3 X-64.488 Y-1.047 I-0.531 J0.28
N4960 G1 X-64.556 Y-0.983 Z-9.993
N4965 X-64.624 Y-0.921 Z-9.971
N4970 X-64.687 Y-0.862 Z-9.935
N4975 X-64.746 Y-0.808 Z-9.885
N4980 X-64.799 Y-0.759 Z-9.824
N4985 X-64.844 Y-0.717 Z-9.753
N4990 X-64.88 Y-0.684 Z-9.672
N4995 X-64.906 Y-0.66 Z-9.585
N5000 X-64.922 Y-0.645 Z-9.494
N5005 X-64.928 Y-0.64 Z-9.4
N5010 G0 Z5.
N5015 X-63.45 Y-20.354
N5020 Z-8.8
N5025 G1 Z-9.4 F900.
N5030 X-63.451 Y-20.346 Z-9.494
N5035 X-63.454 Y-20.325 Z-9.585
N5040 X-63.458 Y-20.289 Z-9.672
N5045 X-63.464 Y-20.24 Z-9.753
N5050 X-63.471 Y-20.179 Z-9.824
N5055 X-63.479 Y-20.108 Z-9.885
N5060 X-63.489 Y-20.028 Z-9.935
N5065 X-63.499 Y-19.942 Z-9.971
N5070 X-63.51 Y-19.851 Z-9.993
N5075 X-63.521 Y-19.758 Z-10.
N5080 G3 X-63.804 Y-19.025 I-1.572 J-0.186
N5085 G1 X-63.971 Y-18.808
N5090 X-64.132 Y-18.59
N5095 X-64.284 Y-18.373
N5100 X-64.303 Y-18.34
N5105 X-64.384 Y-18.214
N5110 X-64.475 Y-18.095
N5115 X-64.575 Y-17.983
N5120 X-64.683 Y-17.878
N5125 X-64.795 Y-17.779
N5130 X-64.919 Y-17.681
N5135 X-65.052 Y-17.584
N5140 X-65.214 Y-17.476
N5145 X-65.386 Y-17.373
N5150 X-65.6 Y-17.256
N5155 X-65.827 Y-17.146
N5160 X-66.106 Y-17.024
N5165 X-66.418 Y-16.903
N5170 X-66.789 Y-16.779
N5175 X-67.234 Y-16.65
N5180 X-67.746 Y-16.526
N5185 X-68.374 Y-16.403
N5190 X-69.194 Y-16.279
N5195 X-70.146 Y-16.176
N5200 X-71.101 Y-16.108
N5205 X-72.058 Y-16.062
N5210 X-73.015 Y-16.032
N5215 X-73.972 Y-16.012
N5220 X-74.93 Y-15.998
N5225 X-75.888 Y-15.989
N5230 X-76.845 Y-15.983
N5235 X-77.803 Y-15.979
N5240 X-79.718 Y-15.974
N5245 X-82.591 Y-15.972
N5250 X-91.211 Y-15.97
N5255 X-92.168 Y-15.966
N5260 X-93.125 Y-15.928
N5265 X-94.07 Y-15.772
N5270 X-94.971 Y-15.448
N5275 X-95.795 Y-14.959
N5280 X-96.514 Y-14.326
N5285 X-97.116 Y-13.581
N5290 X-97.601 Y-12.755
N5295 X-97.967 Y-11.871
N5300 X-98.178 Y-10.936
N5305 X-98.174 Y-9.979
N5310 X-97.939 Y-9.05
N5315 X-97.496 Y-8.201
N5320 X-96.886 Y-7.463
N5325 X-96.15 Y-6.851
N5330 X-95.326 Y-6.362
N5335 X-94.446 Y-5.985
N5340 X-93.531 Y-5.702
N5345 X-92.595 Y-5.496
N5350 X-91.649 Y-5.349
N5355 X-90.697 Y-5.245
N5360 X-89.742 Y-5.173
N5365 X-88.786 Y-5.124
N5370 X-87.829 Y-5.09
N5375 X-86.871 Y-5.068
N5380 X-85.914 Y-5.053
N5385 X-84.956 Y-5.042
N5390 X-83.998 Y-5.036
N5395 X-83.041 Y-5.031
N5400 X-82.083 Y-5.028
N5405 X-80.167 Y-5.025
N5410 X-76.337 Y-5.023
N5415 X-70.59 Y-5.022
N5420 X-69.633 Y-5.019
N5425 X-68.675 Y-5.003
N5430 X-68.042 Y-4.966
N5435 X-67.598 Y-4.921
N5440 X-67.262 Y-4.872
N5445 X-66.968 Y-4.816
N5450 X-66.75 Y-4.764
N5455 X-66.505 Y-4.695
N5460 X-66.475 Y-4.686
N5465 X-66.103 Y-4.525
N5470 X-65.765 Y-4.302
N5475 X-65.47 Y-4.023
N5480 X-65.23 Y-3.697
N5485 X-65.05 Y-3.334
N5490 X-64.793 Y-2.714
N5495 X-64.68 Y-2.446
N5500 G3 X-64.889 Y-1.746 I-0.561 J0.214
N5505 G1 X-64.965 Y-1.69 Z-9.993
N5510 X-65.039 Y-1.637 Z-9.971
N5515 X-65.11 Y-1.586 Z-9.935
N5520 X-65.175 Y-1.539 Z-9.885
N5525 X-65.233 Y-1.497 Z-9.824
N5530 X-65.282 Y-1.461 Z-9.753
N5535 X-65.322 Y-1.432 Z-9.672
N5540 X-65.351 Y-1.411 Z-9.585
N5545 X-65.369 Y-1.398 Z-9.494
N5550 X-65.375 Y-1.394 Z-9.4
N5555 G0 Z5.
N5560 X-64.13 Y-19.704
N5565 Z-8.8
N5570 G1 Z-9.4 F900.
N5575 Y-19.697 Z-9.494
N5580 Y-19.675 Z-9.585
N5585 X-64.129 Y-19.639 Z-9.672
N5590 Y-19.589 Z-9.753
N5595 X-64.128 Y-19.528 Z-9.824
N5600 X-64.126 Y-19.457 Z-9.885
N5605 X-64.125 Y-19.376 Z-9.935
N5610 X-64.124 Y-19.289 Z-9.971
N5615 X-64.122 Y-19.198 Z-9.993
N5620 X-64.121 Y-19.104 Z-10.
N5625 G3 X-64.303 Y-18.34 I-1.582 J0.026
N5630 G1 X-64.408 Y-18.155
N5635 X-64.518 Y-17.938
N5640 X-64.591 Y-17.765
N5645 X-64.657 Y-17.629
N5650 X-64.731 Y-17.499
N5655 X-64.817 Y-17.376
N5660 X-64.911 Y-17.259
N5665 X-65.012 Y-17.148
N5670 X-65.119 Y-17.043
N5675 X-65.231 Y-16.944
N5680 X-65.363 Y-16.836
N5685 X-65.506 Y-16.729
N5690 X-65.678 Y-16.612
N5695 X-65.863 Y-16.497
N5700 X-66.087 Y-16.372
N5705 X-66.327 Y-16.251
N5710 X-66.62 Y-16.119
N5715 X-66.935 Y-15.993
N5720 X-67.332 Y-15.854
N5725 X-67.755 Y-15.726
N5730 X-68.294 Y-15.589
N5735 X-68.926 Y-15.457
N5740 X-69.712 Y-15.328
N5745 X-70.663 Y-15.214
N5750 X-71.617 Y-15.137
N5755 X-72.573 Y-15.084
N5760 X-73.53 Y-15.047
N5765 X-74.488 Y-15.023
N5770 X-75.445 Y-15.006
N5775 X-76.403 Y-14.994
N5780 X-77.361 Y-14.987
N5785 X-78.318 Y-14.981
N5790 X-79.276 Y-14.978
N5795 X-81.191 Y-14.974
N5800 X-85.022 Y-14.971
N5805 X-89.811 Y-14.97
N5810 X-90.768 Y-14.969
N5815 X-91.726 Y-14.945
N5820 X-92.677 Y-14.836
N5825 X-93.598 Y-14.573
N5830 X-94.453 Y-14.141
N5835 X-95.211 Y-13.556
N5840 X-95.841 Y-12.835
N5845 X-96.261 Y-11.974
N5850 X-96.401 Y-11.027
N5855 X-96.257 Y-10.08
N5860 X-95.867 Y-9.205
N5865 X-95.283 Y-8.446
N5870 X-94.558 Y-7.821
N5875 X-93.738 Y-7.326
N5880 X-92.858 Y-6.949
N5885 X-91.941 Y-6.67
N5890 X-91.005 Y-6.469
N5895 X-90.058 Y-6.327
N5900 X-89.105 Y-6.229
N5905 X-88.15 Y-6.161
N5910 X-87.193 Y-6.115
N5915 X-86.236 Y-6.084
N5920 X-85.279 Y-6.064
N5925 X-84.321 Y-6.05
N5930 X-83.364 Y-6.041
N5935 X-82.406 Y-6.035
N5940 X-81.448 Y-6.03
N5945 X-79.533 Y-6.026
N5950 X-76.66 Y-6.024
N5955 X-71.871 Y-6.023
N5960 X-70.914 Y-6.021
N5965 X-69.956 Y-6.013
N5970 X-69.045 Y-5.985
N5975 X-68.424 Y-5.938
N5980 X-67.957 Y-5.883
N5985 X-67.634 Y-5.83
N5990 X-67.312 Y-5.763
N5995 X-67.091 Y-5.707
N6000 X-66.855 Y-5.636
N6005 X-66.645 Y-5.563
N6010 X-66.31 Y-5.397
N6015 X-66.006 Y-5.18
N6020 X-65.74 Y-4.917
N6025 X-65.52 Y-4.615
N6030 X-65.351 Y-4.282
N6035 X-65.237 Y-3.926
N6040 G3 X-65.561 Y-3.272 I-0.589 J0.116
N6045 G1 X-65.645 Y-3.23 Z-9.993
N6050 X-65.727 Y-3.19 Z-9.971
N6055 X-65.806 Y-3.152 Z-9.935
N6060 X-65.878 Y-3.116 Z-9.885
N6065 X-65.942 Y-3.085 Z-9.824
N6070 X-65.997 Y-3.058 Z-9.753
N6075 X-66.041 Y-3.036 Z-9.672
N6080 X-66.073 Y-3.02 Z-9.585
N6085 X-66.093 Y-3.01 Z-9.494
N6090 X-66.1 Y-3.007 Z-9.4
N6095 G0 Z5.
N6100 X-64.584 Y-19.139
N6105 Z-8.8
N6110 G1 Z-9.4 F900.
N6115 X-64.583 Y-19.132 Z-9.494
N6120 X-64.58 Y-19.11 Z-9.585
N6125 X-64.575 Y-19.074 Z-9.672
N6130 X-64.568 Y-19.026 Z-9.753
N6135 X-64.56 Y-18.965 Z-9.824
N6140 X-64.55 Y-18.894 Z-9.885
N6145 X-64.539 Y-18.815 Z-9.935
N6150 X-64.527 Y-18.729 Z-9.971
N6155 X-64.515 Y-18.638 Z-9.993
N6160 X-64.502 Y-18.545 Z-10.
N6165 G3 X-64.591 Y-17.765 I-1.568 J0.216
N6170 G1 X-64.793 Y-17.286
N6175 X-64.91 Y-17.002
N6180 X-64.975 Y-16.867
N6185 X-65.041 Y-16.732
N6190 X-65.119 Y-16.604
N6195 X-65.205 Y-16.481
N6200 X-65.299 Y-16.365
N6205 X-65.4 Y-16.253
N6210 X-65.505 Y-16.147
N6215 X-65.616 Y-16.045
N6220 X-65.73 Y-15.948
N6225 X-65.848 Y-15.855
N6230 X-65.969 Y-15.766
N6235 X-66.092 Y-15.681
N6240 X-66.218 Y-15.6
N6245 X-66.347 Y-15.522
N6250 X-66.477 Y-15.448
N6255 X-66.609 Y-15.377
N6260 X-66.743 Y-15.309
N6265 X-66.878 Y-15.244
N6270 X-67.015 Y-15.182
N6275 X-67.152 Y-15.122
N6280 X-67.291 Y-15.065
N6285 X-67.431 Y-15.011
N6290 X-67.571 Y-14.958
N6295 X-67.713 Y-14.908
N6300 X-67.855 Y-14.86
N6305 X-67.998 Y-14.814
N6310 X-68.141 Y-14.771
N6315 X-68.285 Y-14.729
N6320 X-68.43 Y-14.689
N6325 X-68.575 Y-14.651
N6330 X-68.72 Y-14.614
N6335 X-68.866 Y-14.579
N6340 X-69.012 Y-14.545
N6345 X-69.159 Y-14.513
N6350 X-69.306 Y-14.483
N6355 X-69.453 Y-14.454
N6360 X-69.6 Y-14.426
N6365 X-69.748 Y-14.399
N6370 X-69.896 Y-14.374
N6375 X-70.044 Y-14.35
N6380 X-70.192 Y-14.327
N6385 X-70.489 Y-14.284
N6390 X-70.638 Y-14.264
N6395 X-70.935 Y-14.227
N6400 X-71.233 Y-14.194
N6405 X-71.532 Y-14.163
N6410 X-71.83 Y-14.135
N6415 X-72.135 Y-14.11
N6420 X-72.451 Y-14.086
N6425 X-72.799 Y-14.063
N6430 X-73.212 Y-14.038
N6435 X-73.652 Y-14.015
N6440 X-73.911 Y-14.003
N6445 X-74.196 Y-13.991
N6450 X-74.491 Y-13.98
N6455 X-74.83 Y-13.968
N6460 X-75.215 Y-13.956
N6465 X-75.641 Y-13.945
N6470 X-76.155 Y-13.934
N6475 X-76.759 Y-13.922
N6480 X-77.522 Y-13.911
N6485 X-78.48 Y-13.901
N6490 X-79.437 Y-13.894
N6495 X-80.395 Y-13.89
N6500 X-82.31 Y-13.885
N6505 X-85.183 Y-13.882
N6510 X-89.014 Y-13.88
N6515 X-89.972 Y-13.874
N6520 X-90.928 Y-13.828
N6525 X-91.873 Y-13.668
N6530 X-92.097 Y-13.583
N6535 X-92.311 Y-13.476
N6540 X-92.513 Y-13.348
N6545 X-92.701 Y-13.199
N6550 X-92.872 Y-13.032
N6555 X-93.026 Y-12.849
N6560 X-93.16 Y-12.65
N6565 X-93.273 Y-12.439
N6570 X-93.364 Y-12.218
N6575 X-93.431 Y-11.988
N6580 X-93.475 Y-11.753
N6585 X-93.494 Y-11.514
N6590 X-93.489 Y-11.274
N6595 X-93.459 Y-11.037
N6600 X-93.406 Y-10.804
N6605 X-93.328 Y-10.577
N6610 X-92.927 Y-9.708
N6615 X-92.267 Y-9.013
N6620 X-91.481 Y-8.467
N6625 X-90.616 Y-8.056
N6630 X-89.706 Y-7.757
N6635 X-88.772 Y-7.546
N6640 X-87.825 Y-7.402
N6645 X-86.872 Y-7.304
N6650 X-85.917 Y-7.239
N6655 X-84.96 Y-7.195
N6660 X-84.003 Y-7.167
N6665 X-83.045 Y-7.148
N6670 X-82.088 Y-7.136
N6675 X-81.13 Y-7.128
N6680 X-80.172 Y-7.123
N6685 X-79.215 Y-7.119
N6690 X-77.299 Y-7.115
N6695 X-75.384 Y-7.114
N6700 X-74.426 Y-7.113
N6705 X-73.469 Y-7.075
N6710 X-72.512 Y-7.053
N6715 X-71.554 Y-7.037
N6720 X-70.597 Y-7.019
N6725 X-69.64 Y-6.984
N6730 X-68.954 Y-6.932
N6735 X-68.43 Y-6.869
N6740 X-68.016 Y-6.801
N6745 X-67.715 Y-6.738
N6750 X-67.423 Y-6.663
N6755 X-67.211 Y-6.599
N6760 X-66.978 Y-6.518
N6765 X-66.791 Y-6.443
N6770 X-66.625 Y-6.368
N6775 X-66.604 Y-6.357
N6780 X-66.287 Y-6.164
N6785 X-66.004 Y-5.923
N6790 X-65.763 Y-5.64
N6795 X-65.571 Y-5.322
N6800 X-65.431 Y-4.978
N6805 X-65.347 Y-4.616
N6810 X-65.259 Y-4.019
N6815 X-65.237 Y-3.926
N6820 G3 X-65.561 Y-3.272 I-0.589 J0.116
N6825 G1 X-65.645 Y-3.23 Z-9.993
N6830 X-65.727 Y-3.19 Z-9.971
N6835 X-65.806 Y-3.152 Z-9.935
N6840 X-65.878 Y-3.116 Z-9.885
N6845 X-65.942 Y-3.085 Z-9.824
N6850 X-65.997 Y-3.058 Z-9.753
N6855 X-66.041 Y-3.036 Z-9.672
N6860 X-66.073 Y-3.02 Z-9.585
N6865 X-66.093 Y-3.01 Z-9.494
N6870 X-66.1 Y-3.007 Z-9.4
N6875 G0 Z5.
N6880 X-64.912 Y-18.377
N6885 Z-8.8
N6890 G1 Z-9.4 F900.
N6895 X-64.911 Y-18.37 Z-9.494
N6900 X-64.908 Y-18.348 Z-9.585
N6905 X-64.903 Y-18.312 Z-9.672
N6910 X-64.896 Y-18.264 Z-9.753
N6915 X-64.887 Y-18.203 Z-9.824
N6920 X-64.877 Y-18.132 Z-9.885
N6925 X-64.866 Y-18.053 Z-9.935
N6930 X-64.853 Y-17.967 Z-9.971
N6935 X-64.84 Y-17.876 Z-9.993
N6940 X-64.827 Y-17.783 Z-10.
N6945 G3 X-64.91 Y-17.002 I-1.566 J0.227
N6950 G1 X-65.05 Y-16.666
N6955 X-65.063 Y-16.633
N6960 X-65.14 Y-16.416
N6965 X-65.194 Y-16.242
N6970 X-65.246 Y-16.102
N6975 X-65.303 Y-15.963
N6980 X-65.372 Y-15.829
N6985 X-65.45 Y-15.702
N6990 X-65.537 Y-15.58
N6995 X-65.631 Y-15.463
N7000 X-65.731 Y-15.351
N7005 X-65.836 Y-15.243
N7010 X-65.945 Y-15.14
N7015 X-66.058 Y-15.042
N7020 X-66.175 Y-14.947
N7025 X-66.294 Y-14.857
N7030 X-66.416 Y-14.77
N7035 X-66.541 Y-14.687
N7040 X-66.668 Y-14.607
N7045 X-66.797 Y-14.53
N7050 X-66.928 Y-14.457
N7055 X-67.06 Y-14.386
N7060 X-67.194 Y-14.319
N7065 X-67.33 Y-14.254
N7070 X-67.466 Y-14.192
N7075 X-67.604 Y-14.132
N7080 X-67.742 Y-14.075
N7085 X-67.882 Y-14.02
N7090 X-68.022 Y-13.967
N7095 X-68.164 Y-13.917
N7100 X-68.306 Y-13.868
N7105 X-68.448 Y-13.822
N7110 X-68.591 Y-13.777
N7115 X-68.735 Y-13.735
N7120 X-68.879 Y-13.694
N7125 X-69.024 Y-13.654
N7130 X-69.169 Y-13.617
N7135 X-69.315 Y-13.581
N7140 X-69.461 Y-13.546
N7145 X-69.607 Y-13.513
N7150 X-69.754 Y-13.481
N7155 X-69.901 Y-13.451
N7160 X-70.048 Y-13.422
N7165 X-70.195 Y-13.394
N7170 X-70.343 Y-13.367
N7175 X-70.491 Y-13.341
N7180 X-70.639 Y-13.317
N7185 X-70.787 Y-13.293
N7190 X-71.084 Y-13.249
N7195 X-71.381 Y-13.209
N7200 X-71.679 Y-13.172
N7205 X-71.977 Y-13.138
N7210 X-72.275 Y-13.107
N7215 X-72.574 Y-13.078
N7220 X-72.967 Y-13.044
N7225 X-73.312 Y-13.018
N7230 X-73.693 Y-12.991
N7235 X-74.123 Y-12.965
N7240 X-74.615 Y-12.939
N7245 X-74.883 Y-12.926
N7250 X-75.189 Y-12.913
N7255 X-75.503 Y-12.9
N7260 X-75.859 Y-12.887
N7265 X-76.269 Y-12.874
N7270 X-76.698 Y-12.862
N7275 X-77.218 Y-12.85
N7280 X-77.803 Y-12.838
N7285 X-78.532 Y-12.826
N7290 X-79.479 Y-12.815
N7295 X-80.436 Y-12.807
N7300 X-81.394 Y-12.802
N7305 X-82.352 Y-12.798
N7310 X-84.267 Y-12.794
N7315 X-87.26 Y-12.791
N7320 G3 X-87.84 Y-13.41 Z-9.8 I0.02 J-0.6
N7325 X-87.323 Y-13.985 I0.6 J0.019
N7330 G1 X-65.856 Y-16.996
N7335 X-65.774 Y-17.002
N7340 X-65.693 Y-16.996
N7345 X-65.612 Y-16.98
N7350 G3 X-65.194 Y-16.242 Z-10. I-0.16 J0.578
N7355 G1 X-65.208 Y-16.198
N7360 X-65.259 Y-15.981
N7365 X-65.309 Y-15.644
N7370 X-65.338 Y-15.497
N7375 X-65.384 Y-15.354
N7380 X-65.442 Y-15.216
N7385 X-65.512 Y-15.083
N7390 X-65.59 Y-14.955
N7395 X-65.675 Y-14.831
N7400 X-65.767 Y-14.713
N7405 X-65.865 Y-14.599
N7410 X-65.975 Y-14.48
N7415 X-66.101 Y-14.356
N7420 X-66.243 Y-14.229
N7425 X-66.404 Y-14.096
N7430 X-66.585 Y-13.959
N7435 X-66.79 Y-13.818
N7440 X-67.022 Y-13.673
N7445 X-67.284 Y-13.524
N7450 X-67.582 Y-13.372
N7455 X-67.92 Y-13.218
N7460 X-68.308 Y-13.06
N7465 X-68.532 Y-12.981
N7470 X-68.652 Y-12.941
N7475 X-68.776 Y-12.901
N7480 X-69.29 Y-12.742
N7485 X-69.902 Y-12.581
N7490 X-70.646 Y-12.421
N7495 X-70.882 Y-12.381
N7500 G3 X-71.554 Y-12.898 Z-9.8 I-0.078 J-0.595
N7505 X-71.245 Y-13.503 I0.595 J-0.078
N7510 G1 X-66.19 Y-16.239
N7515 G3 X-65.837 Y-16.307 I0.286 J0.528
N7520 X-65.309 Y-15.644 Z-10. I-0.068 J0.596
N7525 G1 X-65.355 Y-15.328
N7530 X-65.407 Y-14.937
N7535 X-65.434 Y-14.79
N7540 X-65.47 Y-14.644
N7545 X-65.52 Y-14.503
N7550 X-65.581 Y-14.366
N7555 X-65.651 Y-14.233
N7560 X-65.729 Y-14.105
N7565 X-65.813 Y-13.981
N7570 X-65.903 Y-13.861
N7575 X-65.999 Y-13.745
N7580 X-66.099 Y-13.634
N7585 X-66.203 Y-13.526
N7590 X-66.312 Y-13.422
N7595 X-66.423 Y-13.322
N7600 X-66.538 Y-13.225
N7605 X-66.655 Y-13.131
N7610 X-66.775 Y-13.041
N7615 X-66.897 Y-12.954
N7620 X-67.022 Y-12.871
N7625 X-67.148 Y-12.79
N7630 X-67.277 Y-12.712
N7635 X-67.406 Y-12.637
N7640 X-67.606 Y-12.504
N7645 X-67.79 Y-12.352
N7650 X-67.958 Y-12.181
N7655 X-68.107 Y-11.994
N7660 X-68.237 Y-11.793
N7665 X-68.345 Y-11.579
N7670 X-68.431 Y-11.355
N7675 X-68.493 Y-11.124
N7680 X-68.531 Y-10.888
N7685 X-68.545 Y-10.649
N7690 X-68.535 Y-10.41
N7695 X-68.5 Y-10.173
N7700 X-68.44 Y-9.941
N7705 X-68.358 Y-9.716
N7710 X-68.253 Y-9.501
N7715 X-67.746 Y-8.689
N7720 X-66.997 Y-8.091
N7725 X-66.763 Y-7.904
N7730 X-66.646 Y-7.809
N7735 X-66.532 Y-7.713
N7740 X-66.418 Y-7.615
N7745 X-66.306 Y-7.515
N7750 X-66.242 Y-7.458
N7755 X-66.002 Y-7.202
N7760 X-65.802 Y-6.913
N7765 X-65.648 Y-6.597
N7770 X-65.543 Y-6.262
N7775 X-65.489 Y-5.915
N7780 X-65.46 Y-5.542
N7785 X-65.441 Y-5.324
N7790 X-65.351 Y-4.641
N7795 X-65.347 Y-4.616
N7800 G3 X-65.724 Y-3.99 I-0.596 J0.067
N7805 G1 X-65.812 Y-3.956 Z-9.993
N7810 X-65.897 Y-3.923 Z-9.971
N7815 X-65.978 Y-3.891 Z-9.935
N7820 X-66.052 Y-3.862 Z-9.885
N7825 X-66.119 Y-3.835 Z-9.824
N7830 X-66.176 Y-3.813 Z-9.753
N7835 X-66.222 Y-3.795 Z-9.672
N7840 X-66.255 Y-3.782 Z-9.585
N7845 X-66.276 Y-3.774 Z-9.494
N7850 X-66.283 Y-3.771 Z-9.4
N7855 G0 Z5.
N7860 X-65.765 Y-16.265
N7865 Z-8.8
N7870 G1 Z-9.4 F900.
N7875 X-65.762 Y-16.258 Z-9.494
N7880 X-65.753 Y-16.238 Z-9.585
N7885 X-65.739 Y-16.205 Z-9.672
N7890 X-65.719 Y-16.159 Z-9.753
N7895 X-65.695 Y-16.103 Z-9.824
N7900 X-65.667 Y-16.037 Z-9.885
N7905 X-65.635 Y-15.964 Z-9.935
N7910 X-65.601 Y-15.884 Z-9.971
N7915 X-65.565 Y-15.8 Z-9.993
N7920 X-65.528 Y-15.713 Z-10.
N7925 G3 X-65.407 Y-14.937 I-1.454 J0.624
N7930 G1 X-65.441 Y-14.676
N7935 X-65.46 Y-14.458
N7940 X-65.477 Y-14.241
N7945 X-65.496 Y-14.092
N7950 X-65.527 Y-13.945
N7955 X-65.571 Y-13.802
N7960 X-65.627 Y-13.663
N7965 X-65.692 Y-13.527
N7970 X-66.157 Y-12.69
N7975 X-66.362 Y-11.755
N7980 X-66.295 Y-10.799
N7985 X-66.033 Y-9.878
N7990 X-65.684 Y-9.054
N7995 X-65.583 Y-8.76
N8000 X-65.521 Y-8.455
N8005 X-65.5 Y-8.145
N8010 G3 X-66.12 Y-7.566 Z-9.8 I-0.6 J-0.021
N8015 X-66.7 Y-8.168 I0.02 J-0.6
N8020 G1 X-66.677 Y-14.269
N8025 G3 X-66.051 Y-14.866 I0.6 J0.002
N8030 X-65.477 Y-14.241 Z-10. I-0.026 J0.599
N8035 G1 X-65.494 Y-14.023
N8040 X-65.5 Y-13.806
N8045 Y-6.194
N8050 X-65.494 Y-5.977
N8055 X-65.489 Y-5.915
N8060 G3 X-65.909 Y-5.317 I-0.599 J0.026
N8065 G1 X-65.999 Y-5.289 Z-9.993
N8070 X-66.086 Y-5.262 Z-9.971
N8075 X-66.169 Y-5.235 Z-9.935
N8080 X-66.246 Y-5.211 Z-9.885
N8085 X-66.314 Y-5.19 Z-9.824
N8090 X-66.372 Y-5.172 Z-9.753
N8095 X-66.419 Y-5.157 Z-9.672
N8100 X-66.454 Y-5.146 Z-9.585
N8105 X-66.474 Y-5.14 Z-9.494
N8110 X-66.482 Y-5.137 Z-9.4
N8115 G0 Z5.
N8120 X-42.104 Y1.612
N8125 Z-8.8
N8130 G1 Z-9.4 F900.
N8135 X-42.102 Y1.605 Z-9.494
N8140 X-42.094 Y1.585 Z-9.585
N8145 X-42.082 Y1.551 Z-9.672
N8150 X-42.065 Y1.505 Z-9.753
N8155 X-42.044 Y1.447 Z-9.824
N8160 X-42.02 Y1.38 Z-9.885
N8165 X-41.992 Y1.305 Z-9.935
N8170 X-41.962 Y1.223 Z-9.971
N8175 X-41.931 Y1.137 Z-9.993
N8180 X-41.899 Y1.049 Z-10.
N8185 G3 X-41.455 Y0.4 I1.487 J0.541
N8190 G1 X-41.343 Y0.308
N8195 X-41.109 Y0.113
N8200 X-40.908 Y-0.077
N8205 X-40.881 Y-0.105
N8210 X-40.828 Y-0.17
N8215 X-40.725 Y-0.285
N8220 X-40.62 Y-0.393
N8225 X-40.508 Y-0.492
N8230 X-40.389 Y-0.584
N8235 X-40.266 Y-0.67
N8240 X-40.122 Y-0.761
N8245 X-39.97 Y-0.847
N8250 X-39.785 Y-0.943
N8255 X-39.562 Y-1.045
N8260 X-39.324 Y-1.143
N8265 X-39.021 Y-1.252
N8270 X-38.67 Y-1.361
N8275 X-38.262 Y-1.468
N8280 X-37.752 Y-1.579
N8285 X-37.098 Y-1.692
N8290 X-36.229 Y-1.804
N8295 X-35.274 Y-1.884
N8300 X-34.318 Y-1.935
N8305 X-33.361 Y-1.967
N8310 X-32.403 Y-1.987
N8315 X-31.446 Y-2.
N8320 X-30.488 Y-2.009
N8325 X-29.53 Y-2.014
N8330 X-28.573 Y-2.018
N8335 X-26.657 Y-2.021
N8340 X-22.827 Y-2.023
N8345 X-9.419 Y-2.024
N8350 X-8.461 Y-2.025
N8355 X-7.504 Y-2.053
N8360 X-6.56 Y-2.215
N8365 X-5.668 Y-2.564
N8370 X-4.866 Y-3.088
N8375 X-4.179 Y-3.755
N8380 X-3.616 Y-4.53
N8385 X-3.172 Y-5.378
N8390 X-2.835 Y-6.274
N8395 X-2.585 Y-7.199
N8400 X-2.406 Y-8.14
N8405 X-2.28 Y-9.089
N8410 X-2.192 Y-10.043
N8415 X-2.133 Y-10.999
N8420 X-2.099 Y-11.956
N8425 X-2.153 Y-12.912
N8430 X-2.387 Y-13.841
N8435 X-2.808 Y-14.701
N8440 X-3.396 Y-15.456
N8445 X-4.114 Y-16.09
N8450 X-4.925 Y-16.6
N8455 X-5.797 Y-16.995
N8460 X-6.708 Y-17.291
N8465 X-7.642 Y-17.505
N8470 X-8.587 Y-17.657
N8475 X-9.539 Y-17.763
N8480 X-10.494 Y-17.835
N8485 X-11.451 Y-17.883
N8490 X-12.408 Y-17.916
N8495 X-13.365 Y-17.937
N8500 X-14.323 Y-17.951
N8505 X-15.281 Y-17.96
N8510 X-16.238 Y-17.966
N8515 X-17.196 Y-17.97
N8520 X-19.111 Y-17.973
N8525 X-22.942 Y-17.975
N8530 X-36.35
N8535 X-37.308
N8540 X-37.884 Y-17.986
N8545 X-38.238 Y-18.007
N8550 X-38.567 Y-18.042
N8555 X-38.621 Y-18.05
N8560 X-38.97 Y-18.13
N8565 X-39.303 Y-18.262
N8570 X-39.612 Y-18.444
N8575 X-39.889 Y-18.671
N8580 X-40.128 Y-18.937
N8585 X-40.473 Y-19.386
N8590 X-40.748 Y-19.73
N8595 X-40.846 Y-19.852
N8600 G3 X-40.84 Y-20.582 I0.479 J-0.361
N8605 G1 X-40.782 Y-20.656 Z-9.993
N8610 X-40.725 Y-20.728 Z-9.971
N8615 X-40.672 Y-20.797 Z-9.935
N8620 X-40.622 Y-20.86 Z-9.885
N8625 X-40.578 Y-20.917 Z-9.824
N8630 X-40.541 Y-20.965 Z-9.753
N8635 X-40.51 Y-21.003 Z-9.672
N8640 X-40.488 Y-21.032 Z-9.585
N8645 X-40.475 Y-21.049 Z-9.494
N8650 X-40.47 Y-21.055 Z-9.4
N8655 G0 Z5.
N8660 X-41.217 Y1.148
N8665 Z-8.8
N8670 G1 Z-9.4 F900.
N8675 X-41.215 Y1.141 Z-9.494
N8680 X-41.212 Y1.119 Z-9.585
N8685 X-41.207 Y1.084 Z-9.672
N8690 X-41.2 Y1.035 Z-9.753
N8695 X-41.191 Y0.974 Z-9.824
N8700 X-41.181 Y0.903 Z-9.885
N8705 X-41.169 Y0.824 Z-9.935
N8710 X-41.157 Y0.738 Z-9.971
N8715 X-41.144 Y0.647 Z-9.993
N8720 X-41.13 Y0.554 Z-10.
N8725 G3 X-40.828 Y-0.17 I1.566 J0.227
N8730 G1 X-40.69 Y-0.341
N8735 X-40.473 Y-0.614
N8740 X-40.196 Y-0.975
N8745 X-40.099 Y-1.089
N8750 X-39.995 Y-1.197
N8755 X-39.885 Y-1.299
N8760 X-39.769 Y-1.394
N8765 X-39.643 Y-1.487
N8770 X-39.508 Y-1.579
N8775 X-39.34 Y-1.682
N8780 X-39.163 Y-1.781
N8785 X-38.946 Y-1.889
N8790 X-38.7 Y-2.
N8795 X-38.418 Y-2.111
N8800 X-38.062 Y-2.235
N8805 X-37.691 Y-2.346
N8810 X-37.202 Y-2.47
N8815 X-36.646 Y-2.584
N8820 X-35.914 Y-2.703
N8825 X-34.963 Y-2.814
N8830 X-34.008 Y-2.887
N8835 X-33.051 Y-2.934
N8840 X-32.094 Y-2.965
N8845 X-31.137 Y-2.985
N8850 X-30.179 Y-2.999
N8855 X-29.221 Y-3.007
N8860 X-28.264 Y-3.013
N8865 X-27.306 Y-3.017
N8870 X-25.391 Y-3.021
N8875 X-21.56 Y-3.023
N8880 X-10.067 Y-3.024
N8885 X-9.11 Y-3.033
N8890 X-8.156 Y-3.123
N8895 X-7.233 Y-3.379
N8900 X-6.379 Y-3.812
N8905 X-5.626 Y-4.403
N8910 X-4.99 Y-5.12
N8915 X-4.474 Y-5.927
N8920 X-4.07 Y-6.795
N8925 X-3.764 Y-7.702
N8930 X-3.538 Y-8.633
N8935 X-3.375 Y-9.577
N8940 X-3.266 Y-10.528
N8945 X-3.246 Y-11.486
N8950 X-3.399 Y-12.431
N8955 X-3.749 Y-13.322
N8960 X-4.277 Y-14.122
N8965 X-4.947 Y-14.806
N8970 X-5.723 Y-15.367
N8975 X-6.573 Y-15.809
N8980 X-7.469 Y-16.147
N8985 X-8.393 Y-16.397
N8990 X-9.334 Y-16.578
N8995 X-10.283 Y-16.705
N9000 X-11.237 Y-16.794
N9005 X-12.192 Y-16.855
N9010 X-13.149 Y-16.896
N9015 X-14.106 Y-16.923
N9020 X-15.064 Y-16.942
N9025 X-16.022 Y-16.954
N9030 X-16.979 Y-16.962
N9035 X-17.937 Y-16.967
N9040 X-18.895 Y-16.97
N9045 X-20.81 Y-16.973
N9050 X-24.641 Y-16.975
N9055 X-35.175
N9060 X-36.133 Y-16.976
N9065 X-36.937 Y-16.988
N9070 X-37.404 Y-17.016
N9075 X-37.709 Y-17.048
N9080 X-38.014 Y-17.093
N9085 X-38.05 Y-17.1
N9090 X-38.437 Y-17.209
N9095 X-38.798 Y-17.383
N9100 X-39.125 Y-17.616
N9105 X-39.406 Y-17.902
N9110 X-39.635 Y-18.232
N9115 X-39.716 Y-18.373
N9120 X-39.868 Y-18.59
N9125 X-40.038 Y-18.819
N9130 X-40.128 Y-18.937
N9135 G3 X-40.103 Y-19.667 I0.488 J-0.348
N9140 G1 X-40.043 Y-19.74 Z-9.993
N9145 X-39.985 Y-19.81 Z-9.971
N9150 X-39.93 Y-19.877 Z-9.935
N9155 X-39.879 Y-19.939 Z-9.885
N9160 X-39.833 Y-19.995 Z-9.824
N9165 X-39.794 Y-20.042 Z-9.753
N9170 X-39.763 Y-20.08 Z-9.672
N9175 X-39.74 Y-20.108 Z-9.585
N9180 X-39.726 Y-20.125 Z-9.494
N9185 X-39.721 Y-20.13 Z-9.4
N9190 G0 Z5.
N9195 X-40.55 Y0.354
N9200 Z-8.8
N9205 G1 Z-9.4 F900.
N9210 X-40.549 Y0.346 Z-9.494
N9215 X-40.546 Y0.325 Z-9.585
N9220 X-40.542 Y0.289 Z-9.672
N9225 X-40.536 Y0.24 Z-9.753
N9230 X-40.529 Y0.179 Z-9.824
N9235 X-40.521 Y0.108 Z-9.885
N9240 X-40.511 Y0.028 Z-9.935
N9245 X-40.501 Y-0.058 Z-9.971
N9250 X-40.49 Y-0.149 Z-9.993
N9255 X-40.479 Y-0.242 Z-10.
N9260 G3 X-40.196 Y-0.975 I1.572 J0.186
N9265 G1 X-40.029 Y-1.192
N9270 X-39.868 Y-1.41
N9275 X-39.716 Y-1.627
N9280 X-39.697 Y-1.66
N9285 X-39.616 Y-1.786
N9290 X-39.524 Y-1.905
N9295 X-39.424 Y-2.016
N9300 X-39.316 Y-2.121
N9305 X-39.204 Y-2.22
N9310 X-39.08 Y-2.318
N9315 X-38.948 Y-2.414
N9320 X-38.784 Y-2.522
N9325 X-38.611 Y-2.626
N9330 X-38.397 Y-2.742
N9335 X-38.168 Y-2.854
N9340 X-37.89 Y-2.975
N9345 X-37.575 Y-3.096
N9350 X-37.207 Y-3.219
N9355 X-36.758 Y-3.348
N9360 X-36.245 Y-3.472
N9365 X-35.611 Y-3.595
N9370 X-34.784 Y-3.72
N9375 X-33.832 Y-3.821
N9380 X-32.876 Y-3.888
N9385 X-31.92 Y-3.933
N9390 X-30.962 Y-3.964
N9395 X-30.005 Y-3.984
N9400 X-29.047 Y-3.997
N9405 X-28.09 Y-4.006
N9410 X-27.132 Y-4.012
N9415 X-26.174 Y-4.016
N9420 X-24.259 Y-4.02
N9425 X-21.386 Y-4.023
N9430 X-11.809 Y-4.024
N9435 X-10.851 Y-4.026
N9440 X-9.894 Y-4.055
N9445 X-8.947 Y-4.198
N9450 X-8.042 Y-4.512
N9455 X-7.214 Y-4.994
N9460 X-6.492 Y-5.623
N9465 X-5.887 Y-6.365
N9470 X-5.398 Y-7.188
N9475 X-5.016 Y-8.067
N9480 X-4.732 Y-8.981
N9485 X-4.559 Y-9.923
N9490 X-4.563 Y-10.881
N9495 X-4.781 Y-11.813
N9500 X-5.203 Y-12.673
N9505 X-5.793 Y-13.427
N9510 X-6.514 Y-14.058
N9515 X-7.326 Y-14.566
N9520 X-8.198 Y-14.961
N9525 X-9.109 Y-15.258
N9530 X-10.041 Y-15.476
N9535 X-10.986 Y-15.633
N9540 X-11.937 Y-15.743
N9545 X-12.892 Y-15.819
N9550 X-13.848 Y-15.871
N9555 X-14.805 Y-15.906
N9560 X-15.763 Y-15.93
N9565 X-16.72 Y-15.946
N9570 X-17.678 Y-15.956
N9575 X-18.635 Y-15.963
N9580 X-19.593 Y-15.967
N9585 X-20.551 Y-15.97
N9590 X-22.466 Y-15.974
N9595 X-26.297 Y-15.975
N9600 X-33.959
N9605 X-34.916 Y-15.976
N9610 X-35.874 Y-15.985
N9615 X-36.479 Y-16.012
N9620 X-36.899 Y-16.049
N9625 X-37.194 Y-16.088
N9630 X-37.46 Y-16.136
N9635 X-37.712 Y-16.192
N9640 X-37.776 Y-16.209
N9645 X-38.109 Y-16.326
N9650 X-38.42 Y-16.492
N9655 X-38.703 Y-16.703
N9660 X-38.951 Y-16.955
N9665 X-39.158 Y-17.241
N9670 X-39.32 Y-17.555
N9675 X-39.482 Y-17.938
N9680 X-39.592 Y-18.155
N9685 X-39.635 Y-18.232
N9690 G3 X-39.512 Y-18.952 I0.531 J-0.28
N9695 G1 X-39.443 Y-19.016 Z-9.993
N9700 X-39.376 Y-19.078 Z-9.971
N9705 X-39.312 Y-19.137 Z-9.935
N9710 X-39.253 Y-19.191 Z-9.885
N9715 X-39.201 Y-19.24 Z-9.824
N9720 X-39.156 Y-19.282 Z-9.753
N9725 X-39.12 Y-19.315 Z-9.672
N9730 X-39.093 Y-19.34 Z-9.585
N9735 X-39.077 Y-19.354 Z-9.494
N9740 X-39.072 Y-19.359 Z-9.4
N9745 G0 Z5.
N9750 X-39.87 Y-0.296
N9755 Z-8.8
N9760 G1 Z-9.4 F900.
N9765 Y-0.303 Z-9.494
N9770 Y-0.325 Z-9.585
N9775 X-39.871 Y-0.361 Z-9.672
N9780 Y-0.411 Z-9.753
N9785 X-39.872 Y-0.472 Z-9.824
N9790 X-39.874 Y-0.543 Z-9.885
N9795 X-39.875 Y-0.624 Z-9.935
N9800 X-39.876 Y-0.711 Z-9.971
N9805 X-39.878 Y-0.802 Z-9.993
N9810 X-39.879 Y-0.896 Z-10.
N9815 G3 X-39.697 Y-1.66 I1.582 J-0.026
N9820 G1 X-39.592 Y-1.845
N9825 X-39.482 Y-2.062
N9830 X-39.409 Y-2.235
N9835 X-39.343 Y-2.371
N9840 X-39.269 Y-2.501
N9845 X-39.183 Y-2.624
N9850 X-39.088 Y-2.74
N9855 X-38.987 Y-2.851
N9860 X-38.88 Y-2.956
N9865 X-38.768 Y-3.055
N9870 X-38.636 Y-3.163
N9875 X-38.492 Y-3.27
N9880 X-38.319 Y-3.387
N9885 X-38.134 Y-3.502
N9890 X-37.909 Y-3.627
N9895 X-37.669 Y-3.748
N9900 X-37.374 Y-3.88
N9905 X-37.059 Y-4.006
N9910 X-36.658 Y-4.145
N9915 X-36.235 Y-4.272
N9920 X-35.693 Y-4.41
N9925 X-35.058 Y-4.542
N9930 X-34.265 Y-4.671
N9935 X-33.314 Y-4.783
N9940 X-32.359 Y-4.86
N9945 X-31.403 Y-4.913
N9950 X-30.446 Y-4.948
N9955 X-29.489 Y-4.973
N9960 X-28.531 Y-4.989
N9965 X-27.574 Y-5.001
N9970 X-26.616 Y-5.008
N9975 X-25.658 Y-5.013
N9980 X-24.701 Y-5.017
N9985 X-22.785 Y-5.021
N9990 X-18.954 Y-5.023
N9995 X-13.208 Y-5.024
N10000 X-12.25
N10005 X-11.293 Y-5.042
N10010 X-10.34 Y-5.142
N10015 X-9.417 Y-5.396
N10020 X-8.559 Y-5.82
N10025 X-7.795 Y-6.399
N10030 X-7.145 Y-7.102
N10035 X-6.617 Y-7.901
N10040 X-6.251 Y-8.786
N10045 X-6.118 Y-9.734
N10050 X-6.241 Y-10.684
N10055 X-6.602 Y-11.571
N10060 X-7.156 Y-12.352
N10065 X-7.854 Y-13.007
N10070 X-8.655 Y-13.533
N10075 X-9.521 Y-13.941
N10080 X-10.429 Y-14.247
N10085 X-11.36 Y-14.471
N10090 X-12.304 Y-14.629
N10095 X-13.256 Y-14.741
N10100 X-14.21 Y-14.817
N10105 X-15.166 Y-14.87
N10110 X-16.123 Y-14.905
N10115 X-17.081 Y-14.929
N10120 X-18.038 Y-14.945
N10125 X-18.996 Y-14.955
N10130 X-19.954 Y-14.962
N10135 X-20.911 Y-14.967
N10140 X-21.869 Y-14.97
N10145 X-23.785 Y-14.973
N10150 X-27.615 Y-14.975
N10155 X-33.361
N10160 X-34.319 Y-14.978
N10165 X-35.277 Y-14.993
N10170 X-35.915 Y-15.028
N10175 X-36.358 Y-15.072
N10180 X-36.731 Y-15.125
N10185 X-36.991 Y-15.174
N10190 X-37.258 Y-15.236
N10195 X-37.468 Y-15.295
N10200 X-37.516 Y-15.31
N10205 X-37.891 Y-15.47
N10210 X-38.231 Y-15.694
N10215 X-38.527 Y-15.974
N10220 X-38.769 Y-16.301
N10225 X-38.95 Y-16.666
N10230 X-39.207 Y-17.286
N10235 X-39.32 Y-17.555
N10240 G3 X-39.111 Y-18.255 I0.561 J-0.214
N10245 G1 X-39.035 Y-18.31 Z-9.993
N10250 X-38.961 Y-18.363 Z-9.971
N10255 X-38.89 Y-18.414 Z-9.935
N10260 X-38.825 Y-18.461 Z-9.885
N10265 X-38.767 Y-18.503 Z-9.824
N10270 X-38.718 Y-18.539 Z-9.753
N10275 X-38.678 Y-18.568 Z-9.672
N10280 X-38.649 Y-18.589 Z-9.585
N10285 X-38.631 Y-18.602 Z-9.494
N10290 X-38.625 Y-18.606 Z-9.4
N10295 G0 Z5.
N10300 X-39.416 Y-0.861
N10305 Z-8.8
N10310 G1 Z-9.4 F900.
N10315 X-39.417 Y-0.868 Z-9.494
N10320 X-39.42 Y-0.89 Z-9.585
N10325 X-39.425 Y-0.926 Z-9.672
N10330 X-39.432 Y-0.974 Z-9.753
N10335 X-39.44 Y-1.035 Z-9.824
N10340 X-39.45 Y-1.106 Z-9.885
N10345 X-39.461 Y-1.185 Z-9.935
N10350 X-39.473 Y-1.271 Z-9.971
N10355 X-39.485 Y-1.362 Z-9.993
N10360 X-39.498 Y-1.455 Z-10.
N10365 G3 X-39.409 Y-2.235 I1.568 J-0.216
N10370 G1 X-39.207 Y-2.714
N10375 X-39.09 Y-2.998
N10380 X-39.025 Y-3.133
N10385 X-38.953 Y-3.265
N10390 X-38.871 Y-3.39
N10395 X-38.78 Y-3.51
N10400 X-38.683 Y-3.624
N10405 X-38.579 Y-3.732
N10410 X-38.465 Y-3.842
N10415 X-38.343 Y-3.948
N10420 X-38.193 Y-4.068
N10425 X-38.035 Y-4.184
N10430 X-37.844 Y-4.312
N10435 X-37.64 Y-4.436
N10440 X-37.393 Y-4.571
N10445 X-37.126 Y-4.703
N10450 X-36.808 Y-4.843
N10455 X-36.453 Y-4.981
N10460 X-36.033 Y-5.123
N10465 X-35.548 Y-5.265
N10470 X-34.98 Y-5.405
N10475 X-34.276 Y-5.545
N10480 X-33.399 Y-5.681
N10485 X-32.447 Y-5.786
N10490 X-31.492 Y-5.859
N10495 X-30.536 Y-5.91
N10500 X-29.579 Y-5.946
N10505 X-28.621 Y-5.97
N10510 X-27.664 Y-5.987
N10515 X-26.706 Y-5.999
N10520 X-25.749 Y-6.007
N10525 X-24.791 Y-6.012
N10530 X-23.833 Y-6.016
N10535 X-21.918 Y-6.02
N10540 X-19.045 Y-6.023
N10545 X-14.256 Y-6.024
N10550 X-13.298 Y-6.026
N10555 X-12.341 Y-6.048
N10560 X-11.389 Y-6.155
N10565 X-10.467 Y-6.412
N10570 X-9.609 Y-6.838
N10575 X-8.869 Y-7.446
N10580 X-8.625 Y-7.858
N10585 X-8.459 Y-8.307
N10590 X-8.294 Y-9.251
N10595 X-8.445 Y-10.196
N10600 X-8.859 Y-11.06
N10605 X-9.472 Y-11.796
N10610 X-10.223 Y-12.39
N10615 X-11.064 Y-12.849
N10620 X-11.958 Y-13.191
N10625 X-12.883 Y-13.438
N10630 X-13.825 Y-13.612
N10635 X-14.775 Y-13.732
N10640 X-15.73 Y-13.814
N10645 X-16.686 Y-13.869
N10650 X-17.643 Y-13.905
N10655 X-18.6 Y-13.929
N10660 X-19.558 Y-13.945
N10665 X-20.515 Y-13.956
N10670 X-21.473 Y-13.963
N10675 X-22.431 Y-13.967
N10680 X-23.388 Y-13.97
N10685 X-25.304 Y-13.973
N10690 X-29.135 Y-13.975
N10695 X-32.008
N10700 X-32.965 Y-13.976
N10705 X-33.923 Y-13.983
N10710 X-34.874 Y-14.008
N10715 X-35.51 Y-14.053
N10720 X-35.996 Y-14.108
N10725 X-36.325 Y-14.16
N10730 X-36.656 Y-14.227
N10735 X-36.882 Y-14.284
N10740 X-37.116 Y-14.353
N10745 X-37.332 Y-14.427
N10750 X-37.344 Y-14.432
N10755 X-37.682 Y-14.597
N10760 X-37.988 Y-14.814
N10765 X-38.256 Y-15.077
N10770 X-38.478 Y-15.38
N10775 X-38.648 Y-15.715
N10780 X-38.763 Y-16.073
N10785 G3 X-38.439 Y-16.727 I0.589 J-0.116
N10790 G1 X-38.354 Y-16.769 Z-9.993
N10795 X-38.272 Y-16.809 Z-9.971
N10800 X-38.194 Y-16.847 Z-9.935
N10805 X-38.122 Y-16.883 Z-9.885
N10810 X-38.058 Y-16.914 Z-9.824
N10815 X-38.003 Y-16.941 Z-9.753
N10820 X-37.959 Y-16.963 Z-9.672
N10825 X-37.927 Y-16.979 Z-9.585
N10830 X-37.907 Y-16.989 Z-9.494
N10835 X-37.9 Y-16.992 Z-9.4
N10840 G0 Z5.
N10845 X-39.088 Y-1.623
N10850 Z-8.8
N10855 G1 Z-9.4 F900.
N10860 X-39.089 Y-1.63 Z-9.494
N10865 X-39.092 Y-1.652 Z-9.585
N10870 X-39.097 Y-1.688 Z-9.672
N10875 X-39.104 Y-1.736 Z-9.753
N10880 X-39.113 Y-1.797 Z-9.824
N10885 X-39.123 Y-1.868 Z-9.885
N10890 X-39.134 Y-1.947 Z-9.935
N10895 X-39.147 Y-2.033 Z-9.971
N10900 X-39.16 Y-2.124 Z-9.993
N10905 X-39.173 Y-2.217 Z-10.
N10910 G3 X-39.09 Y-2.998 I1.566 J-0.227
N10915 G1 X-38.95 Y-3.334
N10920 X-38.937 Y-3.367
N10925 X-38.86 Y-3.584
N10930 X-38.823 Y-3.704
N10935 X-38.771 Y-3.845
N10940 X-38.714 Y-3.983
N10945 X-38.644 Y-4.116
N10950 X-38.564 Y-4.243
N10955 X-38.477 Y-4.365
N10960 X-38.383 Y-4.482
N10965 X-38.283 Y-4.594
N10970 X-38.178 Y-4.701
N10975 X-38.068 Y-4.804
N10980 X-37.955 Y-4.902
N10985 X-37.839 Y-4.996
N10990 X-37.719 Y-5.087
N10995 X-37.597 Y-5.174
N11000 X-37.472 Y-5.257
N11005 X-37.345 Y-5.336
N11010 X-37.216 Y-5.413
N11015 X-37.085 Y-5.486
N11020 X-36.953 Y-5.557
N11025 X-36.819 Y-5.624
N11030 X-36.683 Y-5.689
N11035 X-36.547 Y-5.752
N11040 X-36.409 Y-5.811
N11045 X-36.271 Y-5.868
N11050 X-36.131 Y-5.924
N11055 X-35.991 Y-5.976
N11060 X-35.849 Y-6.027
N11065 X-35.707 Y-6.075
N11070 X-35.565 Y-6.122
N11075 X-35.422 Y-6.166
N11080 X-35.278 Y-6.209
N11085 X-35.134 Y-6.251
N11090 X-34.989 Y-6.29
N11095 X-34.844 Y-6.327
N11100 X-34.698 Y-6.363
N11105 X-34.552 Y-6.398
N11110 X-34.406 Y-6.431
N11115 X-34.259 Y-6.463
N11120 X-34.112 Y-6.493
N11125 X-33.965 Y-6.522
N11130 X-33.818 Y-6.55
N11135 X-33.67 Y-6.576
N11140 X-33.522 Y-6.602
N11145 X-33.374 Y-6.626
N11150 X-33.226 Y-6.649
N11155 X-32.929 Y-6.692
N11160 X-32.632 Y-6.732
N11165 X-32.334 Y-6.768
N11170 X-32.036 Y-6.8
N11175 X-31.737 Y-6.83
N11180 X-31.438 Y-6.857
N11185 X-31.129 Y-6.882
N11190 X-30.783 Y-6.908
N11195 X-30.422 Y-6.932
N11200 X-29.988 Y-6.957
N11205 X-29.517 Y-6.981
N11210 X-29.243 Y-6.993
N11215 X-28.936 Y-7.005
N11220 X-28.622 Y-7.017
N11225 X-28.256 Y-7.029
N11230 X-27.843 Y-7.041
N11235 X-27.375 Y-7.052
N11240 X-26.816 Y-7.064
N11245 X-26.129 Y-7.076
N11250 X-25.262 Y-7.087
N11255 X-24.305 Y-7.096
N11260 X-23.347 Y-7.102
N11265 X-22.389 Y-7.106
N11270 X-20.474 Y-7.11
N11275 X-17.601 Y-7.113
N11280 X-15.685
N11285 X-14.728 Y-7.114
N11290 X-13.77 Y-7.127
N11295 X-13.293 Y-7.164
N11300 X-13.061 Y-7.226
N11305 X-12.838 Y-7.312
N11310 X-12.624 Y-7.42
N11315 X-12.423 Y-7.55
N11320 X-12.236 Y-7.699
N11325 X-12.065 Y-7.867
N11330 X-11.913 Y-8.051
N11335 X-11.78 Y-8.251
N11340 X-11.668 Y-8.462
N11345 X-11.578 Y-8.684
N11350 X-11.512 Y-8.914
N11355 X-11.469 Y-9.15
N11360 X-11.451 Y-9.389
N11365 X-11.458 Y-9.628
N11370 X-11.489 Y-9.865
N11375 X-11.544 Y-10.098
N11380 X-11.623 Y-10.325
N11385 X-11.724 Y-10.541
N11390 X-11.848 Y-10.747
N11395 X-11.991 Y-10.938
N11400 X-12.154 Y-11.114
N11405 X-12.333 Y-11.272
N11410 X-13.113 Y-11.829
N11415 X-14.013 Y-12.155
N11420 X-14.942 Y-12.388
N11425 X-15.886 Y-12.551
N11430 X-16.837 Y-12.662
N11435 X-17.792 Y-12.738
N11440 X-18.748 Y-12.788
N11445 X-19.705 Y-12.822
N11450 X-20.663 Y-12.844
N11455 X-21.62 Y-12.858
N11460 X-22.578 Y-12.868
N11465 X-23.536 Y-12.874
N11470 X-24.493 Y-12.878
N11475 X-26.409 Y-12.882
N11480 X-29.282 Y-12.884
N11485 X-30.24 Y-12.885
N11490 X-31.197
N11495 X-32.154 Y-12.925
N11500 X-33.111 Y-12.955
N11505 X-34.068 Y-12.99
N11510 X-34.848 Y-13.041
N11515 X-35.412 Y-13.102
N11520 X-35.873 Y-13.173
N11525 X-36.189 Y-13.235
N11530 X-36.503 Y-13.312
N11535 X-36.726 Y-13.377
N11540 X-36.958 Y-13.455
N11545 X-37.16 Y-13.533
N11550 X-37.326 Y-13.606
N11555 X-37.373 Y-13.629
N11560 X-37.696 Y-13.821
N11565 X-37.983 Y-14.063
N11570 X-38.229 Y-14.347
N11575 X-38.425 Y-14.668
N11580 X-38.568 Y-15.016
N11585 X-38.653 Y-15.382
N11590 X-38.741 Y-15.981
N11595 X-38.763 Y-16.073
N11600 G3 X-38.439 Y-16.727 I0.589 J-0.116
N11605 G1 X-38.354 Y-16.769 Z-9.993
N11610 X-38.272 Y-16.809 Z-9.971
N11615 X-38.194 Y-16.847 Z-9.935
N11620 X-38.122 Y-16.883 Z-9.885
N11625 X-38.058 Y-16.914 Z-9.824
N11630 X-38.003 Y-16.941 Z-9.753
N11635 X-37.959 Y-16.963 Z-9.672
N11640 X-37.927 Y-16.979 Z-9.585
N11645 X-37.907 Y-16.989 Z-9.494
N11650 X-37.9 Y-16.992 Z-9.4
N11655 G0 Z5.
N11660 X-38.699 Y-2.335
N11665 Z-8.8
N11670 G1 Z-9.4 F900.
N11675 X-38.701 Y-2.342 Z-9.494
N11680 X-38.706 Y-2.363 Z-9.585
N11685 X-38.714 Y-2.398 Z-9.672
N11690 X-38.725 Y-2.446 Z-9.753
N11695 X-38.739 Y-2.506 Z-9.824
N11700 X-38.756 Y-2.576 Z-9.885
N11705 X-38.774 Y-2.654 Z-9.935
N11710 X-38.794 Y-2.738 Z-9.971
N11715 X-38.816 Y-2.827 Z-9.993
N11720 X-38.837 Y-2.919 Z-10.
N11725 G3 X-38.823 Y-3.704 I1.54 J-0.365
N11730 G1 X-38.792 Y-3.802
N11735 X-38.741 Y-4.019
N11740 X-38.699 Y-4.303
N11745 X-38.67 Y-4.45
N11750 X-38.625 Y-4.593
N11755 X-38.566 Y-4.731
N11760 X-38.497 Y-4.864
N11765 X-38.419 Y-4.992
N11770 X-38.333 Y-5.115
N11775 X-38.241 Y-5.234
N11780 X-38.144 Y-5.348
N11785 X-38.033 Y-5.466
N11790 X-37.907 Y-5.59
N11795 X-37.765 Y-5.717
N11800 X-37.603 Y-5.851
N11805 X-37.422 Y-5.987
N11810 X-37.217 Y-6.128
N11815 X-36.984 Y-6.274
N11820 X-36.721 Y-6.423
N11825 X-36.424 Y-6.575
N11830 X-36.086 Y-6.729
N11835 X-35.701 Y-6.885
N11840 X-35.257 Y-7.042
N11845 X-35.129 Y-7.082
N11850 X-34.596 Y-7.239
N11855 X-33.964 Y-7.397
N11860 X-33.194 Y-7.553
N11865 X-33.076 Y-7.572
N11870 G3 X-32.407 Y-7.05 Z-9.8 I0.073 J0.596
N11875 X-32.719 Y-6.448 I-0.595 J0.074
N11880 G1 X-37.819 Y-3.707
N11885 G3 X-38.171 Y-3.639 I-0.284 J-0.529
N11890 X-38.699 Y-4.303 Z-10. I0.068 J-0.596
N11895 G1 X-38.645 Y-4.672
N11900 X-38.6 Y-5.009
N11905 X-38.573 Y-5.156
N11910 X-38.537 Y-5.302
N11915 X-38.487 Y-5.443
N11920 X-38.426 Y-5.58
N11925 X-38.356 Y-5.713
N11930 X-38.279 Y-5.842
N11935 X-38.194 Y-5.966
N11940 X-38.104 Y-6.085
N11945 X-38.008 Y-6.201
N11950 X-37.908 Y-6.312
N11955 X-37.804 Y-6.42
N11960 X-37.696 Y-6.524
N11965 X-37.584 Y-6.625
N11970 X-37.469 Y-6.721
N11975 X-37.352 Y-6.815
N11980 X-37.232 Y-6.905
N11985 X-37.11 Y-6.992
N11990 X-36.986 Y-7.076
N11995 X-36.859 Y-7.157
N12000 X-36.731 Y-7.234
N12005 X-36.601 Y-7.309
N12010 X-36.402 Y-7.442
N12015 X-36.218 Y-7.595
N12020 X-36.05 Y-7.766
N12025 X-35.9 Y-7.953
N12030 X-35.771 Y-8.154
N12035 X-35.663 Y-8.368
N12040 X-35.577 Y-8.591
N12045 X-35.514 Y-8.822
N12050 X-35.476 Y-9.059
N12055 X-35.462 Y-9.298
N12060 X-35.473 Y-9.537
N12065 X-35.508 Y-9.774
N12070 X-35.567 Y-10.006
N12075 X-35.649 Y-10.231
N12080 X-35.755 Y-10.446
N12085 X-36.261 Y-11.258
N12090 X-36.999 Y-11.869
N12095 X-37.232 Y-12.058
N12100 X-37.347 Y-12.155
N12105 X-37.461 Y-12.252
N12110 X-37.574 Y-12.351
N12115 X-37.685 Y-12.451
N12120 X-37.8 Y-12.557
N12125 X-38.026 Y-12.809
N12130 X-38.214 Y-13.092
N12135 X-38.359 Y-13.398
N12140 X-38.458 Y-13.723
N12145 X-38.508 Y-14.058
N12150 X-38.54 Y-14.458
N12155 X-38.559 Y-14.676
N12160 X-38.649 Y-15.358
N12165 X-38.653 Y-15.382
N12170 G3 X-38.275 Y-16.007 I0.596 J-0.067
N12175 G1 X-38.188 Y-16.042 Z-9.993
N12180 X-38.103 Y-16.075 Z-9.971
N12185 X-38.022 Y-16.107 Z-9.935
N12190 X-37.947 Y-16.136 Z-9.885
N12195 X-37.881 Y-16.162 Z-9.824
N12200 X-37.824 Y-16.185 Z-9.753
N12205 X-37.778 Y-16.203 Z-9.672
N12210 X-37.744 Y-16.216 Z-9.585
N12215 X-37.724 Y-16.224 Z-9.494
N12220 X-37.717 Y-16.226 Z-9.4
N12225 G0 Z5.
N12230 X-38.243 Y-3.681
N12235 Z-8.8
N12240 G1 Z-9.4 F900.
N12245 X-38.245 Y-3.688 Z-9.494
N12250 X-38.254 Y-3.708 Z-9.585
N12255 X-38.268 Y-3.742 Z-9.672
N12260 X-38.288 Y-3.787 Z-9.753
N12265 X-38.312 Y-3.843 Z-9.824
N12270 X-38.34 Y-3.909 Z-9.885
N12275 X-38.372 Y-3.983 Z-9.935
N12280 X-38.406 Y-4.062 Z-9.971
N12285 X-38.442 Y-4.147 Z-9.993
N12290 X-38.479 Y-4.233 Z-10.
N12295 G3 X-38.6 Y-5.009 I1.454 J-0.624
N12300 G1 X-38.559 Y-5.324
N12305 X-38.54 Y-5.542
N12310 X-38.526 Y-5.715
N12315 X-38.507 Y-5.864
N12320 X-38.476 Y-6.011
N12325 X-38.431 Y-6.154
N12330 X-38.375 Y-6.293
N12335 X-38.309 Y-6.428
N12340 X-37.841 Y-7.263
N12345 X-37.632 Y-8.198
N12350 X-37.695 Y-9.154
N12355 X-37.954 Y-10.076
N12360 X-38.317 Y-10.937
N12365 X-38.418 Y-11.23
N12370 X-38.479 Y-11.534
N12375 X-38.5 Y-11.843
N12380 G3 X-37.88 Y-12.422 Z-9.8 I0.6 J0.021
N12385 X-37.3 Y-11.82 I-0.02 J0.6
N12390 G1 X-37.327 Y-5.687
N12395 G3 X-37.953 Y-5.09 I-0.6 J-0.003
N12400 X-38.526 Y-5.715 Z-10. I0.026 J-0.599
N12405 G1 X-38.506 Y-5.977
N12410 X-38.5 Y-6.194
N12415 Y-13.806
N12420 X-38.506 Y-14.023
N12425 X-38.508 Y-14.058
N12430 X-38.505 Y-14.151
N12435 X-38.488 Y-14.242
N12440 X-38.456 Y-14.308 Z-9.995
N12445 X-38.424 Y-14.374 Z-9.982
N12450 X-38.394 Y-14.437 Z-9.959
N12455 X-38.336 Y-14.492 Z-9.921
N12460 X-38.283 Y-14.542 Z-9.871
N12465 X-38.236 Y-14.586 Z-9.812
N12470 X-38.185 Y-14.611 Z-9.741
N12475 X-38.144 Y-14.63 Z-9.663
N12480 X-38.113 Y-14.644 Z-9.579
N12485 X-38.095 Y-14.653 Z-9.491
N12490 X-38.089 Y-14.656 Z-9.4
N12495 G0 Z5.
N12500 X-109.743 Y-23.899
N12505 Z-15.3
N12510 G1 Z-15.9 F900.
N12515 X-109.736 Y-23.896 Z-15.994
N12520 X-109.717 Y-23.886 Z-16.085
N12525 X-109.684 Y-23.871 Z-16.172
N12530 X-109.64 Y-23.85 Z-16.253
N12535 X-109.584 Y-23.823 Z-16.324
N12540 X-109.52 Y-23.793 Z-16.385
N12545 X-109.447 Y-23.758 Z-16.435
N12550 X-109.369 Y-23.721 Z-16.471
N12555 X-109.286 Y-23.681 Z-16.493
N12560 X-109.201 Y-23.641 Z-16.5
N12565 G3 X-106.394 Y-21.907 I-6.596 J13.825
N12570 G1 X-106.302 Y-21.83
N12575 X-106.216 Y-21.273
N12580 X-106.127 Y-20.451
N12585 X-106.065 Y-19.495
N12590 X-106.031 Y-18.538
N12595 X-106.012 Y-17.581
N12600 X-106.001 Y-16.623
N12605 X-105.995 Y-15.665
N12610 X-105.991 Y-14.708
N12615 X-105.988 Y-12.792
N12620 X-105.987 Y-8.004
N12625 Y-2.018
N12630 X-105.962 Y-1.78
N12635 X-105.864 Y-1.311
N12640 X-105.494 Y-0.428
N12645 X-104.873 Y0.301
N12650 X-104.095 Y0.859
N12655 X-103.225 Y1.26
N12660 X-102.307 Y1.532
N12665 X-101.365 Y1.708
N12670 X-100.476 Y1.811
N12675 X-100.263 Y1.845
N12680 X-100.055 Y1.899
N12685 X-99.852 Y1.973
N12690 X-99.616 Y2.07
N12695 X-99.414 Y2.141
N12700 X-99.197 Y2.208
N12705 X-98.979 Y2.261
N12710 X-98.762 Y2.293
N12715 X-98.327 Y2.355
N12720 X-97.674 Y2.441
N12725 X-97.457 Y2.463
N12730 X-97.022 Y2.491
N12735 X-96.804 Y2.5
N12740 X-7.196
N12745 X-6.978 Y2.491
N12750 X-6.543 Y2.463
N12755 X-6.326 Y2.441
N12760 X-5.673 Y2.355
N12765 X-5.2 Y2.288
N12770 X-5.021 Y2.261
N12775 X-4.643 Y2.203
N12780 X-3.808 Y2.114
N12785 X-2.852 Y2.053
N12790 X-1.895 Y2.02
N12795 X-1.423 Y1.94
N12800 X-0.525 Y1.606
N12805 X0.224 Y1.008
N12810 X0.801 Y0.244
N12815 X1.219 Y-0.617
N12820 X1.505 Y-1.531
N12825 X1.691 Y-2.471
N12830 X1.807 Y-3.421
N12835 X1.878 Y-4.376
N12840 X1.921 Y-5.333
N12845 X1.946 Y-6.291
N12850 X1.96 Y-7.248
N12855 X1.969 Y-8.206
N12860 X1.974 Y-9.164
N12865 X1.977 Y-10.121
N12870 X1.981 Y-12.037
N12875 X1.985 Y-17.783
N12880 X1.98 Y-18.022
N12885 X1.922 Y-18.497
N12890 X1.616 Y-19.405
N12895 X1.037 Y-20.168
N12900 X0.284 Y-20.76
N12905 X-0.571 Y-21.19
N12910 X-1.482 Y-21.486
N12915 X-2.42 Y-21.679
N12920 X-3.37 Y-21.8
N12925 X-3.443 Y-21.805
N12930 X-3.686 Y-21.837
N12935 X-3.924 Y-21.894
N12940 X-4.156 Y-21.976
N12945 X-4.384 Y-22.07
N12950 X-4.586 Y-22.141
N12955 X-4.803 Y-22.208
N12960 X-5.021 Y-22.261
N12965 X-5.238 Y-22.293
N12970 X-5.673 Y-22.355
N12975 X-6.326 Y-22.441
N12980 X-6.543 Y-22.463
N12985 X-6.978 Y-22.491
N12990 X-7.196 Y-22.5
N12995 X-96.804
N13000 X-97.022 Y-22.491
N13005 X-97.457 Y-22.463
N13010 X-97.674 Y-22.441
N13015 X-98.327 Y-22.355
N13020 X-98.8 Y-22.288
N13025 X-98.979 Y-22.261
N13030 X-99.404 Y-22.196
N13035 X-100.239 Y-22.107
N13040 X-101.195 Y-22.046
N13045 X-101.667 Y-21.967
N13050 X-102.564 Y-21.63
N13055 X-103.306 Y-21.026
N13060 X-103.874 Y-20.254
N13065 X-104.279 Y-19.387
N13070 X-104.553 Y-18.469
N13075 X-104.713 Y-17.612
N13080 X-104.748 Y-17.454
N13085 X-104.794 Y-17.298
N13090 X-104.851 Y-17.146
N13095 G3 X-105.496 Y-16.803 I-0.546 J-0.249
N13100 G1 X-105.588 Y-16.819 Z-16.493
N13105 X-105.679 Y-16.834 Z-16.471
N13110 X-105.764 Y-16.848 Z-16.435
N13115 X-105.844 Y-16.862 Z-16.385
N13120 X-105.914 Y-16.874 Z-16.324
N13125 X-105.974 Y-16.884 Z-16.253
N13130 X-106.023 Y-16.892 Z-16.172
N13135 X-106.059 Y-16.898 Z-16.085
N13140 X-106.08 Y-16.901 Z-15.994
N13145 X-106.088 Y-16.903 Z-15.9
N13150 G0 Z5.
N13155 X-97.869 Y-23.072
N13160 Z-15.3
N13165 G1 Z-15.9 F900.
N13170 X-97.875 Y-23.067 Z-15.994
N13175 X-97.89 Y-23.051 Z-16.085
N13180 X-97.916 Y-23.026 Z-16.172
N13185 X-97.951 Y-22.992 Z-16.253
N13190 X-97.995 Y-22.949 Z-16.324
N13195 X-98.046 Y-22.899 Z-16.385
N13200 X-98.104 Y-22.843 Z-16.435
N13205 X-98.166 Y-22.782 Z-16.471
N13210 X-98.231 Y-22.718 Z-16.493
N13215 X-98.299 Y-22.653 Z-16.5
N13220 G3 X-98.979 Y-22.261 I-1.106 J-1.132
N13225 G1 X-99.197 Y-22.208
N13230 X-99.414 Y-22.141
N13235 X-99.616 Y-22.07
N13240 X-100.284 Y-21.794
N13245 X-100.936 Y-21.519
N13250 X-101.154 Y-21.413
N13255 X-101.371 Y-21.276
N13260 X-101.589 Y-21.134
N13265 X-101.806 Y-20.972
N13270 X-102.241 Y-20.638
N13275 X-102.357 Y-20.548
N13280 X-102.983 Y-20.036
N13285 X-103.012 Y-20.002
N13290 X-103.464 Y-19.46
N13295 X-103.546 Y-19.361
N13300 X-103.981 Y-18.794
N13305 X-104.13 Y-18.59
N13310 X-104.278 Y-18.373
N13315 X-104.411 Y-18.155
N13320 X-104.416 Y-18.145
N13325 X-104.516 Y-17.938
N13330 X-104.793 Y-17.286
N13335 X-105.063 Y-16.633
N13340 X-105.141 Y-16.416
N13345 X-105.207 Y-16.198
N13350 X-105.259 Y-15.981
N13355 X-105.355 Y-15.328
N13360 X-105.441 Y-14.676
N13365 X-105.46 Y-14.458
N13370 X-105.494 Y-14.023
N13375 X-105.5 Y-13.806
N13380 Y-6.194
N13385 X-105.494 Y-5.977
N13390 X-105.46 Y-5.542
N13395 X-105.441 Y-5.324
N13400 X-105.355 Y-4.672
N13405 X-105.259 Y-4.019
N13410 X-105.25 Y-3.983
N13415 X-105.074 Y-3.042
N13420 X-104.732 Y-2.147
N13425 X-104.186 Y-1.36
N13430 X-104.036 Y-1.222
N13435 X-103.942 Y-1.129
N13440 X-103.853 Y-1.032
N13445 X-103.769 Y-0.929
N13450 G3 X-103.909 Y-0.093 Z-16.3 I-0.488 J0.348
N13455 X-104.798 Y-0.319 I-0.349 J-0.488
N13460 G1 X-106.368 Y-3.562
N13465 G3 X-105.988 Y-4.402 I0.54 J-0.262
N13470 X-105.25 Y-3.983 Z-16.5 I0.159 J0.578
N13475 G1 X-105.207 Y-3.802
N13480 X-105.141 Y-3.584
N13485 X-105.063 Y-3.367
N13490 X-104.793 Y-2.714
N13495 X-104.516 Y-2.062
N13500 X-104.416 Y-1.855
N13505 X-104.411 Y-1.845
N13510 X-104.278 Y-1.627
N13515 X-104.13 Y-1.41
N13520 X-103.971 Y-1.192
N13525 X-103.546 Y-0.639
N13530 X-103.329 Y-0.377
N13535 X-102.998 Y0.019
N13540 X-102.983 Y0.036
N13545 X-102.357 Y0.548
N13550 X-102.241 Y0.638
N13555 X-101.792 Y0.983
N13560 X-101.589 Y1.134
N13565 X-101.371 Y1.276
N13570 X-101.154 Y1.413
N13575 X-100.936 Y1.519
N13580 X-100.284 Y1.794
N13585 X-99.852 Y1.973
N13590 G3 X-99.508 Y2.617 I-0.249 J0.546
N13595 G1 X-99.524 Y2.71 Z-16.493
N13600 X-99.539 Y2.8 Z-16.471
N13605 X-99.553 Y2.886 Z-16.435
N13610 X-99.567 Y2.965 Z-16.385
N13615 X-99.578 Y3.036 Z-16.324
N13620 X-99.588 Y3.096 Z-16.253
N13625 X-99.596 Y3.145 Z-16.172
N13630 X-99.602 Y3.18 Z-16.085
N13635 X-99.606 Y3.202 Z-15.994
N13640 X-99.607 Y3.209 Z-15.9
N13645 G0 Z5.
N13650 X-6.131 Y3.072
N13655 Z-15.3
N13660 G1 Z-15.9 F900.
N13665 X-6.125 Y3.067 Z-15.994
N13670 X-6.11 Y3.051 Z-16.085
N13675 X-6.084 Y3.026 Z-16.172
N13680 X-6.049 Y2.992 Z-16.253
N13685 X-6.005 Y2.949 Z-16.324
N13690 X-5.954 Y2.899 Z-16.385
N13695 X-5.896 Y2.843 Z-16.435
N13700 X-5.834 Y2.782 Z-16.471
N13705 X-5.769 Y2.718 Z-16.493
N13710 X-5.701 Y2.653 Z-16.5
N13715 G3 X-5.021 Y2.261 I1.106 J1.132
N13720 G1 X-4.803 Y2.208
N13725 X-4.586 Y2.141
N13730 X-4.384 Y2.07
N13735 X-3.716 Y1.794
N13740 X-3.064 Y1.519
N13745 X-2.846 Y1.413
N13750 X-1.993 Y0.977
N13755 X-1.246 Y0.378
N13760 X-0.63 Y-0.355
N13765 X-0.571 Y-0.455
N13770 X-0.52 Y-0.539
N13775 X-0.465 Y-0.62
N13780 X-0.407 Y-0.7
N13785 G3 X0.437 Y-0.781 Z-16.3 I0.463 J0.382
N13790 X0.449 Y0.135 I-0.381 J0.463
N13795 G1 X-2.115 Y2.362
N13800 G3 X-3.005 Y2.246 I-0.393 J-0.453
N13805 X-2.846 Y1.413 Z-16.5 I0.496 J-0.337
N13810 G1 X-2.629 Y1.276
N13815 X-2.411 Y1.134
N13820 X-2.194 Y0.972
N13825 X-1.759 Y0.638
N13830 X-1.643 Y0.548
N13835 X-1.017 Y0.036
N13840 X-0.988 Y0.002
N13845 X-0.49 Y-0.594
N13850 X-0.454 Y-0.639
N13855 X-0.019 Y-1.206
N13860 X0.13 Y-1.41
N13865 X0.278 Y-1.627
N13870 X0.411 Y-1.845
N13875 X0.416 Y-1.855
N13880 X0.516 Y-2.062
N13885 X0.793 Y-2.714
N13890 X1.063 Y-3.367
N13895 X1.141 Y-3.584
N13900 X1.207 Y-3.802
N13905 X1.259 Y-4.019
N13910 X1.355 Y-4.672
N13915 X1.441 Y-5.324
N13920 X1.46 Y-5.542
N13925 X1.494 Y-5.977
N13930 X1.5 Y-6.194
N13935 Y-13.806
N13940 X1.494 Y-14.023
N13945 X1.46 Y-14.458
N13950 X1.441 Y-14.676
N13955 X1.355 Y-15.328
N13960 X1.291 Y-15.763
N13965 X1.198 Y-16.716
N13970 X0.908 Y-17.629
N13975 X0.407 Y-18.445
N13980 X-0.236 Y-19.105
N13985 X-0.299 Y-19.172
N13990 X-0.359 Y-19.241
N13995 X-0.417 Y-19.313
N14000 G3 X-0.277 Y-20.15 Z-16.3 I0.488 J-0.348
N14005 X0.613 Y-19.92 I0.349 J0.488
N14010 G1 X2.422 Y-16.131
N14015 G3 X1.989 Y-15.282 I-0.541 J0.259
N14020 X1.291 Y-15.763 Z-16.5 I-0.108 J-0.59
N14025 G1 X1.259 Y-15.981
N14030 X1.207 Y-16.198
N14035 X1.141 Y-16.416
N14040 X1.063 Y-16.633
N14045 X0.793 Y-17.286
N14050 X0.516 Y-17.938
N14055 X0.416 Y-18.145
N14060 X0.411 Y-18.155
N14065 X0.278 Y-18.373
N14070 X0.13 Y-18.59
N14075 X-0.029 Y-18.808
N14080 X-0.454 Y-19.361
N14085 X-0.671 Y-19.623
N14090 X-1.002 Y-20.019
N14095 X-1.017 Y-20.036
N14100 X-1.643 Y-20.548
N14105 X-1.759 Y-20.638
N14110 X-2.208 Y-20.983
N14115 X-2.411 Y-21.134
N14120 X-2.629 Y-21.276
N14125 X-2.846 Y-21.413
N14130 X-3.064 Y-21.519
N14135 X-3.716 Y-21.794
N14140 X-4.156 Y-21.976
N14145 G3 X-4.499 Y-22.62 I0.249 J-0.546
N14150 G1 X-4.483 Y-22.713 Z-16.493
N14155 X-4.468 Y-22.803 Z-16.471
N14160 X-4.454 Y-22.889 Z-16.435
N14165 X-4.441 Y-22.968 Z-16.385
N14170 X-4.429 Y-23.039 Z-16.324
N14175 X-4.419 Y-23.099 Z-16.253
N14180 X-4.411 Y-23.148 Z-16.172
N14185 X-4.405 Y-23.183 Z-16.085
N14190 X-4.401 Y-23.205 Z-15.994
N14195 X-4.4 Y-23.212 Z-15.9
N14200 G0 Z15.
(2D POCKET1)
N14205 G0 X-104.679 Y-23.731
N14210 Z15.
N14215 Z5.
N14220 G1 Z-9.9 F400.
N14225 X-104.681 Y-23.724 Z-9.994 F900.
N14230 X-104.685 Y-23.702 Z-10.085
N14235 X-104.691 Y-23.667 Z-10.172
N14240 X-104.7 Y-23.618 Z-10.253
N14245 X-104.711 Y-23.558 Z-10.324
N14250 X-104.723 Y-23.488 Z-10.385
N14255 X-104.738 Y-23.409 Z-10.435
N14260 X-104.753 Y-23.323 Z-10.471
N14265 X-104.769 Y-23.233 Z-10.493
N14270 X-104.786 Y-23.141 Z-10.5
N14275 X-104.873 Y-22.659
N14280 G2 X-105.65 Y-14. I47.873 J8.659
N14285 G1 Y-6.
N14290 G2 X-104.874 Y2.655 I48.65 J0.
N14295 G3 X-105.5 Y3.504 I-0.713 J0.129
N14300 X-106.311 Y2.829 I-0.087 J-0.72
N14305 G1 X-107.104 Y-9.872
N14310 X-107.105 Y-9.937
N14315 X-107.1 Y-10.002
N14320 X-105.587 Y-22.788
N14325 G3 X-104.971 Y-23.42 I0.72 J0.085
N14330 G1 X-102.693 Y-23.752
N14335 G3 X-101.877 Y-22.894 I0.105 J0.717
N14340 G2 X-102.75 Y-14. I44.877 J8.894
N14345 G1 Y-6.
N14350 G2 X-101.877 Y2.896 I45.75 J0.
N14355 G3 X-102.492 Y3.756 I-0.711 J0.141
N14360 X-103.311 Y3.087 I-0.096 J-0.719
N14365 G1 X-104.204 Y-9.86
N14370 X-104.205 Y-9.929
N14375 X-104.2 Y-9.999
N14380 X-102.588 Y-23.034
N14385 G3 X-101.9 Y-23.67 I0.72 J0.089
N14390 G1 X-99.658 Y-23.766
N14395 G3 X-98.917 Y-22.891 I0.031 J0.724
N14400 G2 X-99.85 Y-14. I41.917 J8.891
N14405 G1 Y-6.
N14410 G2 X-98.918 Y2.888 I42.85 J0.
N14415 G3 X-99.525 Y3.756 I-0.709 J0.15
N14420 X-100.35 Y3.092 I-0.102 J-0.718
N14425 G1 X-101.304 Y-9.856
N14430 X-101.306 Y-9.929
N14435 X-101.3 Y-10.001
N14440 X-99.627 Y-23.041
N14445 G3 X-98.943 Y-23.673 I0.719 J0.092
N14450 G1 X-96.689 Y-23.784
N14455 G3 X-95.946 Y-22.898 I0.035 J0.724
N14460 G2 X-96.95 Y-14. I38.946 J8.898
N14465 G1 Y-6.
N14470 G2 X-95.948 Y2.89 I39.95 J0.
N14475 G3 X-96.545 Y3.768 I-0.707 J0.161
N14480 X-97.378 Y3.109 I-0.11 J-0.717
N14485 G1 X-98.404 Y-9.851
N14490 X-98.406 Y-9.927
N14495 X-98.4 Y-10.004
N14500 X-96.653 Y-23.06
N14505 G3 X-95.967 Y-23.688 I0.719 J0.096
N14510 G1 X-93.704 Y-23.789
N14515 G3 X-92.967 Y-22.891 I0.033 J0.724
N14520 G2 X-94.05 Y-14. I35.967 J8.891
N14525 G1 Y-6.
N14530 G2 X-92.968 Y2.89 I37.05 J0.
N14535 G3 X-93.553 Y3.779 I-0.704 J0.174
N14540 X-94.394 Y3.126 I-0.118 J-0.715
N14545 G1 X-95.504 Y-9.838
N14550 X-95.507 Y-9.92
N14555 X-95.5 Y-10.001
N14560 X-93.671 Y-23.065
N14565 G3 X-92.99 Y-23.689 I0.718 J0.101
N14570 G1 X-90.709 Y-23.805
N14575 G3 X-89.972 Y-22.892 I0.037 J0.724
N14580 G2 X-91.15 Y-14. I32.972 J8.892
N14585 G1 Y-6.
N14590 G2 X-89.971 Y2.897 I34.15 J0.
N14595 G3 X-90.542 Y3.8 I-0.7 J0.189
N14600 X-91.392 Y3.154 I-0.129 J-0.714
N14605 G1 X-92.605 Y-9.824
N14610 X-92.607 Y-9.911
N14615 X-92.6 Y-9.997
N14620 X-90.672 Y-23.081
N14625 G3 X-89.992 Y-23.699 I0.717 J0.106
N14630 G1 X-87.692 Y-23.819
N14635 G3 X-86.959 Y-22.889 I0.038 J0.724
N14640 G2 X-88.25 Y-14. I29.959 J8.889
N14645 G1 Y-6.
N14650 G2 X-86.959 Y2.889 I31.25 J0.
N14655 G3 X-87.514 Y3.806 I-0.695 J0.206
N14660 X-88.375 Y3.169 I-0.141 J-0.711
N14665 G1 X-89.705 Y-9.814
N14670 X-89.708 Y-9.907
N14675 X-89.7 Y-10.
N14680 X-87.654 Y-23.095
N14685 G3 X-86.98 Y-23.707 I0.716 J0.112
N14690 G1 X-84.65 Y-23.841
N14695 G3 X-83.92 Y-22.89 I0.042 J0.724
N14700 G2 X-85.35 Y-14. I26.92 J8.89
N14705 G1 Y-6.
N14710 G2 X-83.918 Y2.896 I28.35 J0.
N14715 G3 X-84.451 Y3.832 I-0.688 J0.228
N14720 X-85.327 Y3.206 I-0.156 J-0.708
N14725 G1 X-86.805 Y-9.795
N14730 X-86.81 Y-9.896
N14735 X-86.8 Y-9.997
N14740 X-84.608 Y-23.118
N14745 G3 X-83.938 Y-23.722 I0.715 J0.119
N14750 G1 X-81.57 Y-23.869
N14755 G3 X-80.846 Y-22.892 I0.045 J0.724
N14760 G2 X-82.45 Y-14. I23.846 J8.892
N14765 G1 Y-6.
N14770 G2 X-80.845 Y2.894 I25.45 J0.
N14775 G3 X-81.351 Y3.851 I-0.679 J0.253
N14780 X-82.244 Y3.239 I-0.174 J-0.704
N14785 G1 X-83.906 Y-9.779
N14790 X-83.911 Y-9.852
N14795 X-83.909 Y-9.926
N14800 X-83.9 Y-9.999
N14805 X-81.525 Y-23.146
N14810 G3 X-80.859 Y-23.74 I0.713 J0.129
N14815 G1 X-78.437 Y-23.899
N14820 G3 X-77.724 Y-22.89 I0.047 J0.723
N14825 G2 X-79.55 Y-14. I20.724 J8.89
N14830 G1 Y-6.
N14835 G2 X-77.721 Y2.897 I22.55 J0.
N14840 G3 X-78.19 Y3.88 I-0.666 J0.286
N14845 X-79.104 Y3.287 I-0.197 J-0.698
N14850 G1 X-81.006 Y-9.751
N14855 X-81.013 Y-9.832
N14860 X-81.011 Y-9.915
N14865 X-81. Y-9.996
N14870 X-78.39 Y-23.175
N14875 G3 X-77.732 Y-23.758 I0.711 J0.141
N14880 G1 X-75.223 Y-23.943
N14885 G3 X-74.523 Y-22.892 I0.053 J0.723
N14890 G2 X-76.65 Y-14. I17.523 J8.892
N14895 G1 Y-6.
N14900 G2 X-74.522 Y2.894 I19.65 J0.
N14905 G3 X-74.941 Y3.91 I-0.646 J0.328
N14910 X-75.883 Y3.344 I-0.227 J-0.688
N14915 G1 X-78.107 Y-9.72
N14920 G3 X-78.1 Y-9.999 I0.715 J-0.122
N14925 G1 X-75.17 Y-23.22
N14930 G3 X-74.521 Y-23.785 I0.708 J0.157
N14935 G1 X-71.867 Y-24.002
N14940 G3 X-71.193 Y-22.894 I0.059 J0.723
N14945 G2 X-73.75 Y-14. I14.193 J8.894
N14950 G1 Y-6.
N14955 G2 X-71.195 Y2.892 I16.75 J0.
N14960 G3 X-71.522 Y3.942 I-0.614 J0.385
N14965 X-72.511 Y3.46 I-0.288 J-0.666
N14970 G1 X-75.934 Y-9.603
N14975 G3 X-75.925 Y-10.001 I0.701 J-0.184
N14980 G1 X-71.808 Y-23.279
N14985 G3 X-71.188 Y-23.786 I0.692 J0.215
N14990 G1 X-68.245 Y-24.081
N14995 G3 X-67.617 Y-22.894 I0.072 J0.721
N15000 G2 X-70.85 Y-14. I10.617 J8.894
N15005 G1 Y-6.
N15010 G2 X-67.615 Y2.897 I13.85 J0.
N15015 G3 X-68.726 Y3.828 I-0.556 J0.466
N15020 X-68.849 Y3.617 I0.556 J-0.466
N15025 G1 X-73.76 Y-9.464
N15030 G3 X-73.75 Y-9.998 I0.679 J-0.255
N15035 G1 X-68.173 Y-23.359
N15040 G3 X-67.583 Y-23.801 I0.669 J0.279
N15045 G1 X-63.887 Y-24.205
N15050 G3 X-63.385 Y-22.896 I0.079 J0.721
N15055 G2 X-67.95 Y-14. I6.385 J8.896
N15060 G1 Y-6.
N15065 G2 X-63.386 Y2.895 I10.95 J0.
N15070 G1 X-63.367 Y2.908
N15075 X-63.291 Y2.963 Z-10.493
N15080 X-63.217 Y3.017 Z-10.471
N15085 X-63.146 Y3.067 Z-10.435
N15090 X-63.081 Y3.114 Z-10.385
N15095 X-63.023 Y3.156 Z-10.324
N15100 X-62.973 Y3.191 Z-10.253
N15105 X-62.933 Y3.22 Z-10.172
N15110 X-62.904 Y3.241 Z-10.085
N15115 X-62.886 Y3.254 Z-9.994
N15120 X-62.88 Y3.258 Z-9.9
N15125 G0 Z5.
N15130 X3.133 Y-22.179
N15135 G1 Z-9.96 F400.
N15140 X3.126 Y-22.178 Z-10.044 F900.
N15145 X3.106 Y-22.175 Z-10.127
N15150 X3.074 Y-22.169 Z-10.205
N15155 X3.031 Y-22.163 Z-10.277
N15160 X2.976 Y-22.154 Z-10.342
N15165 X2.913 Y-22.144 Z-10.397
N15170 X2.841 Y-22.133 Z-10.441
N15175 X2.764 Y-22.12 Z-10.474
N15180 X2.683 Y-22.107 Z-10.493
N15185 X2.599 Y-22.094 Z-10.5
N15190 X2.051 Y-22.007
N15195 X1.957 Y-22.
N15200 X-57.
N15205 G2 X-65. Y-14. I0. J8.
N15210 G1 Y-6.
N15215 G2 X-57. Y2. I8. J0.
N15220 G1 X1.953
N15225 X2.047 Y2.007
N15230 X2.371 Y2.059
N15235 X2.463 Y2.073 Z-10.493
N15240 X2.554 Y2.088 Z-10.471
N15245 X2.64 Y2.101 Z-10.435
N15250 X2.719 Y2.114 Z-10.385
N15255 X2.79 Y2.125 Z-10.324
N15260 X2.85 Y2.135 Z-10.253
N15265 X2.899 Y2.142 Z-10.172
N15270 X2.934 Y2.148 Z-10.085
N15275 X2.956 Y2.151 Z-9.994
N15280 X2.963 Y2.153 Z-9.9
N15285 G0 Z15.
(2D POCKET1 2)
N15290 G0 X-1.811 Y1.184
N15295 Z15.
N15300 Z5.
N15305 G1 Z-9.9 F400.
N15310 X-1.81 Y1.176 Z-9.994 F900.
N15315 X-1.807 Y1.155 Z-10.085
N15320 X-1.802 Y1.119 Z-10.172
N15325 X-1.796 Y1.07 Z-10.253
N15330 X-1.788 Y1.01 Z-10.324
N15335 X-1.779 Y0.939 Z-10.385
N15340 X-1.768 Y0.859 Z-10.435
N15345 X-1.757 Y0.773 Z-10.471
N15350 X-1.745 Y0.682 Z-10.493
N15355 X-1.733 Y0.589 Z-10.5
N15360 X-1.625 Y-0.23
N15365 G2 X-1.249 Y-6. I-44.034 J-5.77
N15370 G1 Y-14.
N15375 G2 X-1.625 Y-19.769 I-44.411 J0.
N15380 G3 X-0.968 Y-20.585 I0.719 J-0.094
N15385 X-0.182 Y-19.891 I0.061 J0.722
N15390 G1 X0.205 Y-10.109
N15395 Y-10.054
N15400 X0.201 Y-9.999
N15405 X-0.907 Y-0.136
N15410 G3 X-1.184 Y0.358 I-0.72 J-0.081
N15415 G1 X-3.7 Y2.299
N15420 G3 X-4.856 Y1.594 I-0.443 J-0.574
N15425 G2 X-4.149 Y-6. I-42.533 J-7.788
N15430 G1 Y-14.
N15435 G2 X-4.832 Y-21.58 I-42.425 J0.
N15440 G3 X-4.205 Y-22.43 I0.713 J-0.13
N15445 X-3.395 Y-21.753 I0.087 J0.72
N15450 G1 X-2.695 Y-10.124
N15455 X-2.694 Y-10.058
N15460 X-2.699 Y-9.992
N15465 X-4.142 Y1.725
N15470 G3 X-4.736 Y2.35 I-0.72 J-0.089
N15475 G1 X-7.026 Y2.753
N15480 G3 X-7.862 Y1.894 I-0.126 J-0.714
N15485 G2 X-7.049 Y-6. I-39.367 J-8.045
N15490 G1 Y-14.
N15495 G2 X-7.842 Y-21.892 I-39.679 J0.
N15500 G3 X-7.228 Y-22.755 I0.711 J-0.144
N15505 X-6.408 Y-22.086 I0.097 J0.718
N15510 G1 X-5.595 Y-10.14
N15515 X-5.593 Y-10.069
N15520 X-5.599 Y-9.998
N15525 X-7.152 Y2.039
N15530 G3 X-7.837 Y2.67 I-0.719 J-0.093
N15535 G1 X-10.081 Y2.774
N15540 G3 X-10.822 Y1.894 I-0.034 J-0.724
N15545 G2 X-9.949 Y-6. I-36.306 J-8.011
N15550 G1 Y-14.
N15555 G2 X-10.804 Y-21.896 I-36.879 J0.
N15560 G3 X-10.2 Y-22.768 I0.708 J-0.155
N15565 X-9.373 Y-22.104 I0.104 J0.717
N15570 G1 X-8.495 Y-10.149
N15575 X-8.493 Y-10.075
N15580 X-8.499 Y-10.
N15585 X-10.114 Y2.05
N15590 G3 X-10.799 Y2.678 I-0.719 J-0.096
N15595 G1 X-13.053 Y2.784
N15600 G3 X-13.792 Y1.89 I-0.034 J-0.724
N15605 G2 X-12.849 Y-6. I-33.27 J-7.978
N15610 G1 Y-14.
N15615 G2 X-13.777 Y-21.897 I-34.044 J0.
N15620 G3 X-13.186 Y-22.781 I0.705 J-0.168
N15625 X-12.35 Y-22.122 I0.113 J0.716
N15630 G1 X-11.394 Y-10.16
N15635 X-11.392 Y-10.081
N15640 X-11.399 Y-10.002
N15645 X-13.087 Y2.06
N15650 G3 X-13.769 Y2.683 I-0.718 J-0.1
N15655 G1 X-16.038 Y2.797
N15660 G3 X-16.775 Y1.889 I-0.036 J-0.724
N15665 G2 X-15.75 Y-6. I-30.234 J-7.941
N15670 G1 Y-14.
N15675 G2 X-16.765 Y-21.894 I-31.197 J0.
N15680 G3 X-16.188 Y-22.793 I0.702 J-0.184
N15685 X-15.341 Y-22.141 I0.124 J0.715
N15690 G1 X-14.295 Y-10.171
N15695 X-14.292 Y-10.086
N15700 X-14.3 Y-10.002
N15705 X-16.074 Y2.073
N15710 G3 X-16.751 Y2.691 I-0.718 J-0.105
N15715 G1 X-19.034 Y2.819
N15720 G3 X-19.771 Y1.893 I-0.04 J-0.724
N15725 G2 X-18.65 Y-6. I-27.229 J-7.893
N15730 G1 Y-14.
N15735 G2 X-19.773 Y-21.899 I-28.35 J0.
N15740 G3 X-19.213 Y-22.813 I0.696 J-0.202
N15745 X-18.355 Y-22.171 I0.137 J0.712
N15750 G1 X-17.195 Y-10.184
N15755 X-17.192 Y-10.094
N15760 X-17.2 Y-10.003
N15765 X-19.075 Y2.095
N15770 G3 X-19.748 Y2.708 I-0.716 J-0.111
N15775 G1 X-22.074 Y2.844
N15780 G3 X-22.806 Y1.896 I-0.043 J-0.724
N15785 G2 X-21.55 Y-6. I-24.194 J-7.896
N15790 G1 Y-14.
N15795 G2 X-22.806 Y-21.897 I-25.45 J0.
N15800 G3 X-22.269 Y-22.83 I0.689 J-0.225
N15805 X-21.396 Y-22.2 I0.152 J0.709
N15810 G1 X-20.094 Y-10.198
N15815 X-20.09 Y-10.099
N15820 X-20.1 Y-10.001
N15825 X-22.116 Y2.12
N15830 G3 X-22.786 Y2.725 I-0.715 J-0.119
N15835 G1 X-25.153 Y2.876
N15840 G3 X-25.878 Y1.898 I-0.046 J-0.724
N15845 G2 X-24.45 Y-6. I-21.122 J-7.898
N15850 G1 Y-14.
N15855 G2 X-25.877 Y-21.894 I-22.55 J0.
N15860 G3 X-25.37 Y-22.852 I0.679 J-0.254
N15865 X-24.478 Y-22.237 I0.173 J0.704
N15870 G1 X-22.994 Y-10.216
N15875 X-22.989 Y-10.143
N15880 X-22.991 Y-10.07
N15885 X-23. Y-9.998
N15890 X-25.199 Y2.152
N15895 G3 X-25.865 Y2.746 I-0.713 J-0.129
N15900 G1 X-28.293 Y2.908
N15905 G3 X-29.005 Y1.893 I-0.048 J-0.723
N15910 G2 X-27.35 Y-6. I-17.995 J-7.893
N15915 G1 Y-14.
N15920 G2 X-29.006 Y-21.896 I-19.65 J0.
N15925 G3 X-28.541 Y-22.884 I0.664 J-0.291
N15930 X-27.625 Y-22.29 I0.199 J0.697
N15935 G1 X-25.893 Y-10.247
N15940 X-25.886 Y-10.165
N15945 X-25.888 Y-10.083
N15950 X-25.9 Y-10.001
N15955 X-28.341 Y2.185
N15960 G3 X-28.996 Y2.765 I-0.711 J-0.142
N15965 G1 X-31.533 Y2.962
N15970 G3 X-32.229 Y1.898 I-0.056 J-0.723
N15975 G2 X-30.25 Y-6. I-14.771 J-7.898
N15980 G1 Y-14.
N15985 G2 X-32.227 Y-21.895 I-16.75 J0.
N15990 G3 X-30.949 Y-22.579 I0.639 J-0.342
N15995 X-30.874 Y-22.36 I-0.639 J0.342
N16000 G1 X-28.792 Y-10.283
N16005 G3 X-28.8 Y-9.999 I-0.714 J0.123
N16010 G1 X-31.589 Y2.24
N16015 G3 X-32.236 Y2.801 I-0.707 J-0.161
N16020 G1 X-34.963 Y3.028
N16025 G3 X-35.619 Y1.892 I-0.06 J-0.722
N16030 G2 X-33.15 Y-6. I-11.381 J-7.892
N16035 G1 Y-14.
N16040 G2 X-35.621 Y-21.895 I-13.85 J0.
N16045 G3 X-34.43 Y-22.722 I0.596 J-0.413
N16050 X-34.327 Y-22.503 I-0.596 J0.413
N16055 G1 X-30.965 Y-10.423
N16060 G3 X-30.975 Y-10.002 I-0.698 J0.194
N16065 G1 X-35.023 Y2.306
N16070 G3 X-35.635 Y2.8 I-0.689 J-0.227
N16075 G1 X-38.837 Y3.143
N16080 G3 X-39.416 Y1.899 I-0.077 J-0.721
N16085 G2 X-36.05 Y-6. I-7.584 J-7.899
N16090 G1 Y-14.
N16095 G2 X-39.415 Y-21.898 I-10.95 J0.
N16100 G3 X-38.411 Y-22.943 I0.502 J-0.523
N16105 X-38.26 Y-22.736 I-0.502 J0.523
N16110 G1 X-32.415 Y-10.651
N16115 G3 X-32.425 Y-9.999 I-0.653 J0.316
N16120 G1 X-38.914 Y2.422
N16125 G3 X-39.494 Y2.808 I-0.643 J-0.336
N16130 G1 X-45.555 Y3.337
N16135 G3 X-45.733 Y1.899 I-0.063 J-0.722
N16140 G2 X-39. Y-6. I-1.267 J-7.899
N16145 G1 Y-14.
N16150 G2 X-45.733 Y-21.899 I-8. J0.
N16155 G1 X-46.149 Y-21.966
N16160 X-46.242 Y-21.981 Z-10.493
N16165 X-46.332 Y-21.995 Z-10.471
N16170 X-46.418 Y-22.009 Z-10.435
N16175 X-46.497 Y-22.022 Z-10.385
N16180 X-46.568 Y-22.033 Z-10.324
N16185 X-46.629 Y-22.043 Z-10.253
N16190 X-46.677 Y-22.051 Z-10.172
N16195 X-46.713 Y-22.056 Z-10.085
N16200 X-46.734 Y-22.06 Z-9.994
N16205 X-46.742 Y-22.061 Z-9.9
N16210 G0 Z15.
(2D CONTOUR2)
N16215 G0 X-56.4 Y-23.8
N16220 Z15.
N16225 Z5.
N16230 G1 Z1. F400.
N16235 Z-9.9
N16240 G19 G3 Y-23.2 Z-10.5 J0.6 K0. F900.
N16245 G1 Y-22.6
N16250 G17 G3 X-57. Y-22. I-0.6 J0.
N16255 G2 X-65. Y-14. I0. J8.
N16260 G1 Y-6.
N16265 G2 X-57. Y2. I8. J0.
N16270 G3 X-56.4 Y2.6 I0. J0.6
N16275 G1 Y3.2
N16280 G19 G3 Y3.8 Z-9.9 J0. K0.6
N16285 G0 Z15.
N16290 G17
(2D CONTOUR4)
N16295 G0 X-47.6 Y3.8
N16300 Z15.
N16305 Z5.
N16310 G1 Z1. F400.
N16315 Z-9.9
N16320 G19 G2 Y3.2 Z-10.5 J-0.6 K0. F900.
N16325 G1 Y2.6
N16330 G17 G3 X-47. Y2. I0.6 J0.
N16335 G2 X-39. Y-6. I0. J-8.
N16340 G1 Y-14.
N16345 G2 X-47. Y-22. I-8. J0.
N16350 G3 X-47.6 Y-22.6 I0. J-0.6
N16355 G1 Y-23.2
N16360 G19 G2 Y-23.8 Z-9.9 J0. K0.6
N16365 G0 Z15.
N16370 G17
(2D CONTOUR5)
N16375 G0 X-97.6 Y3.8
N16380 Z15.
N16385 Z5.
N16390 G1 Z1. F400.
N16395 Z-16.3
N16400 G19 G2 Y3.2 Z-16.9 J-0.6 K0. F600.
N16405 G1 Y2.6
N16410 G17 G3 X-97. Y2. I0.6 J0.
N16415 G1 X-7.
N16420 G2 X1. Y-6. I0. J-8.
N16425 G1 Y-14.
N16430 G2 X-7. Y-22. I-8. J0.
N16435 G1 X-97.
N16440 G2 X-105. Y-14. I0. J8.
N16445 G1 Y-6.
N16450 G2 X-97. Y2. I8. J0.
N16455 G3 X-96.4 Y2.6 I0. J0.6
N16460 G1 Y3.2
N16465 G19 G3 Y3.8 Z-16.3 J0. K0.6
N16470 G0 Z15.
N16475 G17
N16480 M5
N16485 G53 G0 Z0.
(2D ADAPTIVE4)
N16490 M9
N16495 M1
N16500 T6 M6
N16505 T2
N16510 S16000 M3
N16515 G54
N16520 M8
N16525 G0 X-53.033 Y-11.454
N16530 G43 Z15. H6
N16535 G0 Z5.
N16540 Z2.55
N16545 G3 X-50.238 Y-10.274 Z2.423 I1.033 J1.454 F266.67
N16550 X-52.54 Y-8.304 Z2.297 I-1.76 J0.273
N16555 X-53.272 Y-11.24 Z2.17 I0.542 J-1.695
N16560 X-50.322 Y-10.583 Z2.043 I1.272 J1.241
N16565 X-52.226 Y-8.241 Z1.917 I-1.676 J0.582
N16570 X-53.468 Y-10.988 Z1.79 I0.228 J-1.758
N16575 X-50.459 Y-10.871 Z1.663 I1.468 J0.989
N16580 X-51.908 Y-8.235 Z1.536 I-1.539 J0.87
N16585 X-53.616 Y-10.706 Z1.41 I-0.09 J-1.764
N16590 X-50.645 Y-11.129 Z1.283 I1.616 J0.707
N16595 X-51.594 Y-8.286 Z1.156 I-1.353 J1.128
N16600 X-53.71 Y-10.403 Z1.03 I-0.403 J-1.712
N16605 X-50.874 Y-11.348 Z0.903 I1.71 J0.404
N16610 X-51.296 Y-8.393 Z0.776 I-1.125 J1.347
N16615 X-53.748 Y-10.09 Z0.65 I-0.701 J-1.606
N16620 X-51.137 Y-11.522 Z0.523 I1.748 J0.091
N16625 X-51.023 Y-8.55 Z0.396 I-0.862 J1.521
N16630 X-53.729 Y-9.775 Z0.269 I-0.974 J-1.449
N16635 X-51.426 Y-11.645 Z0.143 I1.729 J-0.223
N16640 X-50.784 Y-8.753 Z0.016 I-0.573 J1.645
N16645 X-53.655 Y-9.471 Z-0.111 I-1.214 J-1.246
N16650 X-51.732 Y-11.715 Z-0.237 I1.655 J-0.528
N16655 X-50.586 Y-8.995 Z-0.364 I-0.267 J1.714
N16660 X-53.527 Y-9.186 Z-0.491 I-1.412 J-1.004
N16665 X-52.044 Y-11.728 Z-0.617 I1.528 J-0.813
N16670 X-50.434 Y-9.268 Z-0.744 I0.044 J1.728
N16675 X-53.351 Y-8.929 Z-0.871 I-1.563 J-0.732
N16680 X-52.351 Y-11.686 Z-0.998 I1.352 J-1.069
N16685 X-50.335 Y-9.562 Z-1.124 I0.352 J1.685
N16690 X-53.133 Y-8.709 Z-1.251 I-1.663 J-0.438
N16695 X-52.646 Y-11.589 Z-1.378 I1.134 J-1.29
N16700 X-50.29 Y-9.867 Z-1.504 I0.646 J1.589
N16705 X-52.88 Y-8.532 Z-1.631 I-1.708 J-0.133
N16710 X-52.916 Y-11.442 Z-1.758 I0.881 J-1.466
N16715 X-50.301 Y-10.175 Z-1.884 I0.916 J1.442
N16720 X-52.6 Y-8.404 Z-2.011 I-1.697 J0.175
N16725 X-53.156 Y-11.249 Z-2.138 I0.601 J-1.594
N16730 X-50.366 Y-10.475 Z-2.265 I1.156 J1.249
N16735 X-52.303 Y-8.329 Z-2.391 I-1.632 J0.475
N16740 X-53.356 Y-11.017 Z-2.518 I0.305 J-1.67
N16745 X-50.484 Y-10.757 Z-2.645 I1.356 J1.018
N16750 X-51.998 Y-8.308 Z-2.771 I-1.514 J0.757
N16755 X-53.51 Y-10.755 Z-2.898 I0. J-1.691
N16760 X-50.649 Y-11.013 Z-3.025 I1.51 J0.755
N16765 X-51.696 Y-8.342 Z-3.151 I-1.349 J1.012
N16770 X-53.615 Y-10.47 Z-3.278 I-0.302 J-1.657
N16775 X-50.857 Y-11.233 Z-3.405 I1.615 J0.47
N16780 X-51.406 Y-8.429 Z-3.532 I-1.141 J1.232
N16785 X-53.666 Y-10.171 Z-3.658 I-0.591 J-1.57
N16790 X-51.101 Y-11.412 Z-3.785 I1.666 J0.173
N16795 X-51.138 Y-8.566 Z-3.912 I-0.898 J1.411
N16800 X-53.663 Y-9.87 Z-4.038 I-0.86 J-1.433
N16805 X-51.371 Y-11.544 Z-4.165 I1.664 J-0.128
N16810 X-50.899 Y-8.749 Z-4.292 I-0.628 J1.543
N16815 X-53.607 Y-9.576 Z-4.418 I-1.098 J-1.25
N16820 X-51.659 Y-11.625 Z-4.545 I1.607 J-0.423
N16825 X-50.698 Y-8.97 Z-4.672 I-0.34 J1.625
N16830 X-53.499 Y-9.297 Z-4.799 I-1.299 J-1.029
N16835 X-51.957 Y-11.653 Z-4.925 I1.499 J-0.701
N16840 X-50.54 Y-9.223 Z-5.052 I-0.043 J1.652
N16845 X-53.343 Y-9.043 Z-5.179 I-1.457 J-0.776
N16850 X-52.253 Y-11.627 Z-5.305 I1.344 J-0.955
N16855 X-50.431 Y-9.5 Z-5.432 I0.253 J1.627
N16860 X-53.145 Y-8.822 Z-5.559 I-1.566 J-0.5
N16865 X-52.538 Y-11.549 Z-5.685 I1.146 J-1.176
N16870 X-50.374 Y-9.79 Z-5.812 I0.539 J1.549
N16875 X-52.912 Y-8.641 Z-5.939 I-1.624 J-0.21
N16880 X-52.804 Y-11.422 Z-6.066 I0.913 J-1.357
N16885 X-50.369 Y-10.084 Z-6.192 I0.804 J1.421
N16890 X-52.651 Y-8.506 Z-6.319 I-1.629 J0.084
N16895 X-53.042 Y-11.249 Z-6.446 I0.652 J-1.492
N16900 X-50.417 Y-10.373 Z-6.572 I1.042 J1.249
N16905 X-52.371 Y-8.42 Z-6.699 I-1.581 J0.373
N16910 X-53.244 Y-11.037 Z-6.826 I0.373 J-1.579
N16915 X-50.516 Y-10.648 Z-6.952 I1.244 J1.038
N16920 X-52.081 Y-8.385 Z-7.079 I-1.482 J0.648
N16925 X-53.404 Y-10.794 Z-7.206 I0.083 J-1.613
N16930 X-50.662 Y-10.9 Z-7.333 I1.404 J0.795
N16935 X-51.792 Y-8.403 Z-7.459 I-1.337 J0.899
N16940 X-53.517 Y-10.527 Z-7.586 I-0.206 J-1.596
N16945 X-50.849 Y-11.12 Z-7.713 I1.517 J0.528
N16950 X-51.511 Y-8.472 Z-7.839 I-1.149 J1.12
N16955 X-53.581 Y-10.245 Z-7.966 I-0.487 J-1.526
N16960 X-51.073 Y-11.303 Z-8.093 I1.581 J0.246
N16965 X-51.248 Y-8.59 Z-8.219 I-0.926 J1.302
N16970 X-53.593 Y-9.958 Z-8.346 I-0.75 J-1.408
N16975 X-51.324 Y-11.442 Z-8.473 I1.593 J-0.041
N16980 X-51.012 Y-8.753 Z-8.6 I-0.675 J1.441
N16985 X-53.553 Y-9.674 Z-8.726 I-0.986 J-1.246
N16990 X-51.596 Y-11.533 Z-8.853 I1.553 J-0.324
N16995 X-50.809 Y-8.955 Z-8.98 I-0.404 J1.532
N17000 X-53.463 Y-9.403 Z-9.106 I-1.188 J-1.045
N17005 X-51.878 Y-11.574 Z-9.233 I1.464 J-0.595
N17010 X-50.647 Y-9.188 Z-9.36 I-0.122 J1.573
N17015 X-53.327 Y-9.154 Z-9.486 I-1.351 J-0.811
N17020 X-52.161 Y-11.563 Z-9.613 I1.328 J-0.844
N17025 X-50.529 Y-9.446 Z-9.74 I0.162 J1.563
N17030 X-53.149 Y-8.934 Z-9.867 I-1.468 J-0.554
N17035 X-52.437 Y-11.503 Z-9.993 I1.15 J-1.064
N17040 X-50.461 Y-9.72 Z-10.12 I0.437 J1.502
N17045 X-52.935 Y-8.75 Z-10.247 I-1.537 J-0.28
N17050 X-52.696 Y-11.394 Z-10.373 I0.936 J-1.248
N17055 X-50.442 Y-10. Z-10.5 I0.697 J1.394
N17060 X-53.558 I-1.558 J0.
N17065 X-50.442 I1.558 J0.
N17070 G1 X-50.422 Y-9.278 F800.
N17075 X-50.394 Y-9.193
N17080 X-50.366 Y-9.045
N17085 X-50.365 Y-8.895
N17090 X-50.387 Y-8.747
N17095 X-50.428 Y-8.603
N17100 X-50.487 Y-8.465
N17105 X-50.508 Y-8.428
N17110 X-50.656 Y-8.23
N17115 X-50.85 Y-8.078
N17120 X-51.078 Y-7.983
N17125 X-51.322 Y-7.95
N17130 X-52.656
N17135 X-52.814 Y-7.958
N17140 X-52.962 Y-7.977
N17145 X-53.108 Y-8.011
N17150 X-53.251 Y-8.058
N17155 X-53.389 Y-8.117
N17160 X-53.521 Y-8.188
N17165 X-53.651 Y-8.271
N17170 X-53.682 Y-8.295
N17175 X-53.836 Y-8.443
N17180 X-53.953 Y-8.623
N17185 X-54.025 Y-8.825
N17190 X-54.05 Y-9.037
N17195 G3 X-53.637 Y-9.423 Z-10.3 I0.4 J0.014
N17200 G1 X-53.562 Y-9.414
N17205 X-53.49 Y-9.39
N17210 X-53.424 Y-9.353
N17215 X-52.444 Y-8.679
N17220 G3 X-52.27 Y-8.363 I-0.227 J0.33
N17225 X-52.656 Y-7.95 Z-10.5 I-0.4 J0.014
N17230 G1 X-53.641
N17235 X-53.682 Y-7.953
N17240 X-53.723 Y-7.96
N17245 X-53.764 Y-7.972
N17250 X-53.805 Y-7.989
N17255 X-53.839 Y-8.008
N17260 X-53.873 Y-8.031
N17265 X-53.926 Y-8.079
N17270 X-53.969 Y-8.127
N17275 X-53.992 Y-8.161
N17280 X-54.011 Y-8.195
N17285 X-54.028 Y-8.236
N17290 X-54.04 Y-8.277
N17295 X-54.047 Y-8.318
N17300 X-54.05 Y-8.359
N17305 Y-10.656
N17310 X-54.042 Y-10.814
N17315 X-54.023 Y-10.963
N17320 X-53.989 Y-11.109
N17325 X-53.942 Y-11.251
N17330 X-53.883 Y-11.389
N17335 X-53.812 Y-11.521
N17340 X-53.729 Y-11.651
N17345 X-53.705 Y-11.682
N17350 X-53.557 Y-11.836
N17355 X-53.377 Y-11.953
N17360 X-53.176 Y-12.025
N17365 X-52.963 Y-12.05
N17370 G3 X-52.577 Y-11.637 Z-10.3 I-0.014 J0.4
N17375 G1 X-52.587 Y-11.562
N17380 X-52.61 Y-11.49
N17385 X-52.647 Y-11.424
N17390 X-53.321 Y-10.444
N17395 G3 X-53.637 Y-10.27 I-0.33 J-0.227
N17400 X-54.05 Y-10.656 Z-10.5 I-0.014 J-0.4
N17405 G1 Y-11.641
N17410 X-54.047 Y-11.682
N17415 X-54.04 Y-11.723
N17420 X-54.028 Y-11.764
N17425 X-54.011 Y-11.805
N17430 X-53.992 Y-11.839
N17435 X-53.969 Y-11.873
N17440 X-53.926 Y-11.921
N17445 X-53.873 Y-11.969
N17450 X-53.839 Y-11.992
N17455 X-53.805 Y-12.011
N17460 X-53.764 Y-12.028
N17465 X-53.723 Y-12.04
N17470 X-53.682 Y-12.047
N17475 X-53.641 Y-12.05
N17480 X-51.344
N17485 X-51.186 Y-12.042
N17490 X-51.037 Y-12.023
N17495 X-50.891 Y-11.989
N17500 X-50.749 Y-11.942
N17505 X-50.611 Y-11.883
N17510 X-50.478 Y-11.812
N17515 X-50.349 Y-11.729
N17520 X-50.318 Y-11.705
N17525 X-50.163 Y-11.557
N17530 X-50.047 Y-11.377
N17535 X-49.975 Y-11.176
N17540 X-49.95 Y-10.963
N17545 G3 X-50.363 Y-10.577 Z-10.3 I-0.4 J-0.014
N17550 G1 X-50.438 Y-10.587
N17555 X-50.51 Y-10.61
N17560 X-50.576 Y-10.647
N17565 X-51.556 Y-11.321
N17570 G3 X-51.73 Y-11.637 I0.227 J-0.33
N17575 X-51.344 Y-12.05 Z-10.5 I0.4 J-0.014
N17580 G1 X-50.359
N17585 X-50.318 Y-12.047
N17590 X-50.277 Y-12.04
N17595 X-50.236 Y-12.028
N17600 X-50.195 Y-12.011
N17605 X-50.161 Y-11.992
N17610 X-50.127 Y-11.969
N17615 X-50.074 Y-11.921
N17620 X-50.031 Y-11.873
N17625 X-50.008 Y-11.839
N17630 X-49.989 Y-11.805
N17635 X-49.972 Y-11.764
N17640 X-49.96 Y-11.723
N17645 X-49.953 Y-11.682
N17650 X-49.95 Y-11.641
N17655 Y-8.433
N17660 Y-8.359
N17665 X-49.953 Y-8.318
N17670 X-49.96 Y-8.277
N17675 X-49.972 Y-8.236
N17680 X-49.989 Y-8.195
N17685 X-50.008 Y-8.161
N17690 X-50.031 Y-8.127
N17695 X-50.074 Y-8.079
N17700 X-50.127 Y-8.031
N17705 X-50.161 Y-8.008
N17710 X-50.195 Y-7.989
N17715 X-50.236 Y-7.972
N17720 X-50.277 Y-7.96
N17725 X-50.318 Y-7.953
N17730 X-50.359 Y-7.95
N17735 X-51.322
N17740 G3 X-51.672 Y-8.516 I0.014 J-0.4
N17745 G1 X-51.64 Y-8.587 Z-10.492
N17750 X-51.609 Y-8.655 Z-10.47
N17755 X-51.58 Y-8.718 Z-10.433
N17760 X-51.555 Y-8.773 Z-10.383
N17765 X-51.534 Y-8.818 Z-10.322
N17770 X-51.519 Y-8.852 Z-10.253
N17775 X-51.51 Y-8.873 Z-10.178
N17780 X-51.506 Y-8.88 Z-10.1
N17785 G0 Z15.
(2D ADAPTIVE5)
N17790 S17573 M3
N17795 G0 X-80.828 Y-9.426
N17800 Z15.
N17805 Z5.
N17810 Z2.55
N17815 G3 X-83.067 Y-9.248 Z2.456 I-1.172 J-0.574 F333.33
N17820 X-82.148 Y-11.294 Z2.361 I1.065 J-0.751
N17825 X-80.797 Y-9.508 Z2.267 I0.147 J1.293
N17830 X-83.01 Y-9.181 Z2.172 I-1.203 J-0.492
N17835 X-82.234 Y-11.276 Z2.078 I1.008 J-0.818
N17840 X-80.771 Y-9.592 Z1.983 I0.233 J1.276
N17845 X-82.948 Y-9.118 Z1.889 I-1.229 J-0.408
N17850 X-82.319 Y-11.253 Z1.795 I0.947 J-0.881
N17855 X-80.751 Y-9.677 Z1.7 I0.317 J1.252
N17860 X-82.883 Y-9.06 Z1.606 I-1.249 J-0.323
N17865 X-82.401 Y-11.224 Z1.511 I0.882 J-0.939
N17870 X-80.737 Y-9.764 Z1.417 I0.4 J1.223
N17875 X-82.814 Y-9.006 Z1.323 I-1.263 J-0.237
N17880 X-82.481 Y-11.189 Z1.228 I0.813 J-0.993
N17885 X-80.729 Y-9.85 Z1.134 I0.48 J1.189
N17890 X-82.743 Y-8.957 Z1.039 I-1.271 J-0.15
N17895 X-82.559 Y-11.15 Z0.945 I0.741 J-1.042
N17900 X-80.726 Y-9.937 Z0.85 I0.557 J1.149
N17905 X-82.668 Y-8.914 Z0.756 I-1.274 J-0.064
N17910 X-82.632 Y-11.105 Z0.662 I0.667 J-1.085
N17915 X-80.73 Y-10.023 Z0.567 I0.631 J1.105
N17920 X-82.591 Y-8.876 Z0.473 I-1.27 J0.023
N17925 X-82.703 Y-11.056 Z0.378 I0.59 J-1.123
N17930 X-80.739 Y-10.108 Z0.284 I0.701 J1.055
N17935 X-82.511 Y-8.843 Z0.19 I-1.261 J0.108
N17940 X-82.77 Y-11.002 Z0.095 I0.51 J-1.156
N17945 X-80.754 Y-10.193 Z0.001 I0.768 J1.002
N17950 X-82.43 Y-8.816 Z-0.094 I-1.246 J0.192
N17955 X-82.832 Y-10.944 Z-0.188 I0.429 J-1.183
N17960 X-80.775 Y-10.275 Z-0.283 I0.831 J0.944
N17965 X-82.348 Y-8.794 Z-0.377 I-1.225 J0.275
N17970 X-82.891 Y-10.882 Z-0.471 I0.347 J-1.205
N17975 X-80.801 Y-10.356 Z-0.566 I0.889 J0.882
N17980 X-82.264 Y-8.778 Z-0.66 I-1.199 J0.356
N17985 X-82.945 Y-10.817 Z-0.755 I0.264 J-1.221
N17990 X-80.833 Y-10.435 Z-0.849 I0.943 J0.817
N17995 X-82.18 Y-8.768 Z-0.943 I-1.168 J0.434
N18000 X-82.994 Y-10.748 Z-1.038 I0.18 J-1.231
N18005 X-80.869 Y-10.511 Z-1.132 I0.992 J0.748
N18010 X-82.096 Y-8.764 Z-1.227 I-1.131 J0.51
N18015 X-83.038 Y-10.677 Z-1.321 I0.096 J-1.235
N18020 X-80.911 Y-10.584 Z-1.416 I1.036 J0.677
N18025 X-82.013 Y-8.765 Z-1.51 I-1.09 J0.583
N18030 X-83.077 Y-10.603 Z-1.604 I0.012 J-1.234
N18035 X-80.957 Y-10.653 Z-1.699 I1.075 J0.603
N18040 X-81.929 Y-8.772 Z-1.793 I-1.044 J0.653
N18045 X-83.111 Y-10.526 Z-1.888 I-0.071 J-1.227
N18050 X-81.007 Y-10.72 Z-1.982 I1.109 J0.526
N18055 X-81.847 Y-8.785 Z-2.076 I-0.993 J0.719
N18060 X-83.139 Y-10.448 Z-2.171 I-0.153 J-1.215
N18065 X-81.062 Y-10.782 Z-2.265 I1.137 J0.449
N18070 X-81.766 Y-8.803 Z-2.36 I-0.938 J0.781
N18075 X-83.162 Y-10.369 Z-2.454 I-0.234 J-1.197
N18080 X-81.121 Y-10.84 Z-2.549 I1.16 J0.369
N18085 X-81.687 Y-8.826 Z-2.643 I-0.88 J0.839
N18090 X-83.18 Y-10.288 Z-2.737 I-0.313 J-1.173
N18095 X-81.183 Y-10.894 Z-2.832 I1.178 J0.289
N18100 X-81.61 Y-8.854 Z-2.926 I-0.818 J0.893
N18105 X-83.192 Y-10.207 Z-3.021 I-0.39 J-1.145
N18110 X-81.248 Y-10.943 Z-3.115 I1.19 J0.208
N18115 X-81.536 Y-8.888 Z-3.209 I-0.753 J0.943
N18120 X-83.198 Y-10.126 Z-3.304 I-0.465 J-1.111
N18125 X-81.317 Y-10.988 Z-3.398 I1.196 J0.126
N18130 X-81.464 Y-8.926 Z-3.493 I-0.684 J0.987
N18135 X-83.199 Y-10.044 Z-3.587 I-0.536 J-1.073
N18140 X-81.387 Y-11.028 Z-3.682 I1.197 J0.045
N18145 X-81.395 Y-8.97 Z-3.776 I-0.613 J1.027
N18150 X-83.194 Y-9.963 Z-3.87 I-0.605 J-1.03
N18155 X-81.461 Y-11.063 Z-3.965 I1.192 J-0.036
