%
(TEST2)
(T17  D=6. CR=0. - ZMIN=-7. - BULLNOSE END MILL)
N10 G90 G94 G17 G91.1
N15 G21
N20 G53 G0 Z0.
(FACE1)
N25 T17 M6
N30 S15000 M3
N35 G54
N40 M8
N45 G0 X25.61 Y-0.947
N50 G43 Z15. H17
N55 G0 Z5.
N60 G1 Z-0.4 F900.
N65 G18 G3 X25.01 Z-1. I-0.6 K0.
N70 G1 X-5.01
N75 G17 G2 Y3.064 I0. J2.006
N80 G1 X25.01
N85 G3 Y7.075 I0. J2.006
N90 G1 X-5.01
N95 G2 Y11.086 I0. J2.005
N100 G1 X25.01
N105 G3 Y15.097 I0. J2.005
N110 G1 X-5.01
N115 G2 Y19.108 I0. J2.006
N120 G1 X25.01
N125 G18 G2 X25.61 Z-0.4 I0. K0.6
N130 G0 Z15.
N135 G17
(2D ADAPTIVE1)
G42
N140 G0 X-0.47 Y-6.277
N145 Z15.
N150 Z5.
N155 Z-1.
N160 G1 Z-5. F900.
N165 Z-7.
N170 G3 X0. Y-3.011 I-14.839 J3.801
N175 G1 Y-2.924
N180 X-0.638 Y-2.211
N185 X-1.11 Y-1.377
N190 X-1.439 Y-0.478
N195 X-1.657 Y0.455
N200 X-1.795 Y1.403
N205 X-1.879 Y2.357
N210 X-1.93 Y3.313
N215 X-1.96 Y4.27
N220 X-1.977 Y5.228
N225 X-1.987 Y6.185
N230 X-1.992 Y7.143
N235 X-1.996 Y8.101
N240 X-1.999 Y10.016
N245 X-2. Y14.805
N250 Y18.157
N255 X-1.915 Y18.628
N260 X-1.572 Y19.522
N265 X-0.969 Y20.266
N270 X-0.201 Y20.839
N275 X0.663 Y21.252
N280 X1.578 Y21.534
N285 X2.518 Y21.718
N290 X3.469 Y21.833
N295 X4.424 Y21.902
N300 X5.381 Y21.943
N305 X6.338 Y21.967
N310 X7.295 Y21.981
N315 X8.253 Y21.989
N320 X9.211 Y21.994
N325 X10.169 Y21.996
N330 X12.084 Y21.999
N335 X17.83 Y22.
N340 X18.069 Y21.992
N345 X18.544 Y21.928
N350 X19.449 Y21.613
N355 X20.207 Y21.029
N360 X20.795 Y20.273
N365 X21.221 Y19.415
N370 X21.514 Y18.503
N375 X21.705 Y17.565
N380 X21.825 Y16.615
N385 X21.897 Y15.66
N390 X21.94 Y14.703
N395 X21.966 Y13.746
N400 X21.98 Y12.788
N405 X21.989 Y11.831
N410 X21.994 Y10.873
N415 X21.996 Y9.915
N420 X21.999 Y8.
N425 X22. Y2.014
N430 X21.951 Y1.538
N435 X21.665 Y0.624
N440 X21.1 Y-0.149
N445 X20.355 Y-0.751
N450 X19.504 Y-1.191
N455 X18.596 Y-1.493
N460 X17.659 Y-1.692
N465 X16.709 Y-1.817
N470 X15.754 Y-1.892
N475 X14.798 Y-1.938
N480 X13.84 Y-1.964
N485 X12.883 Y-1.979
N490 X11.925 Y-1.988
N495 X10.967 Y-1.993
N500 X10.01 Y-1.996
N505 X8.094 Y-1.999
N510 X3.306 Y-2.
N515 X2.363 Y-1.834
N520 X2.056 Y-1.674
N525 X1.852 Y-1.58
N530 X1.641 Y-1.505
N535 X1.424 Y-1.45
N540 X1.178 Y-1.399
N545 X0.989 Y-1.346
N550 X0.772 Y-1.272
N555 X0.338 Y-1.072
N560 X0.146 Y-0.965
N565 X-0.096 Y-0.8
N570 X-0.162 Y-0.748
N575 X-0.415 Y-0.53
N580 X-0.53 Y-0.415
N585 X-0.748 Y-0.162
N590 X-0.8 Y-0.096
N595 X-0.965 Y0.146
N600 X-1.072 Y0.338
N605 X-1.272 Y0.772
N610 X-1.346 Y0.989
N615 X-1.399 Y1.178
N620 X-1.45 Y1.424
N625 X-1.5 Y2.075
N630 Y17.925
N635 X-1.45 Y18.576
N640 X-1.399 Y18.822
N645 X-1.346 Y19.011
N650 X-1.272 Y19.228
N655 X-1.072 Y19.662
N660 X-0.965 Y19.854
N665 X-0.8 Y20.096
N670 X-0.748 Y20.162
N675 X-0.53 Y20.415
N680 X-0.415 Y20.53
N685 X-0.162 Y20.748
N690 X-0.096 Y20.8
N695 X0.146 Y20.965
N700 X0.338 Y21.072
N705 X0.772 Y21.272
N710 X0.989 Y21.346
N715 X1.178 Y21.399
N720 X1.424 Y21.45
N725 X2.075 Y21.5
N730 X17.925
N735 X18.576 Y21.45
N740 X18.822 Y21.399
N745 X19.011 Y21.346
N750 X19.228 Y21.272
N755 X19.662 Y21.072
N760 X19.854 Y20.965
N765 X20.096 Y20.8
N770 X20.162 Y20.748
N775 X20.415 Y20.53
N780 X20.53 Y20.415
N785 X20.748 Y20.162
N790 X20.8 Y20.096
N795 X20.965 Y19.854
N800 X21.072 Y19.662
N805 X21.272 Y19.228
N810 X21.346 Y19.011
N815 X21.399 Y18.822
N820 X21.45 Y18.576
N825 X21.5 Y17.925
N830 Y2.075
N835 X21.45 Y1.424
N840 X21.399 Y1.178
N845 X21.346 Y0.989
N850 X21.272 Y0.772
N855 X21.072 Y0.338
N860 X20.965 Y0.146
N865 X20.8 Y-0.096
N870 X20.748 Y-0.162
N875 X20.53 Y-0.415
N880 X20.415 Y-0.53
N885 X20.162 Y-0.748
N890 X20.096 Y-0.8
N895 X19.854 Y-0.965
N900 X19.662 Y-1.072
N905 X19.228 Y-1.272
N910 X19.011 Y-1.346
N915 X18.822 Y-1.399
N920 X18.576 Y-1.45
N925 X17.925 Y-1.5
N930 X2.075
N935 X1.424 Y-1.45
N940 X1.254 Y-1.446
N945 X1.253
N950 G3 X-0.119 Y-1.689 I0. J-4.
N955 G1 X-0.355 Y-1.775 Z-6.992
N960 X-0.59 Y-1.861 Z-6.968
N965 X-0.823 Y-1.946 Z-6.929
N970 X-1.053 Y-2.03 Z-6.874
N975 X-1.28 Y-2.113 Z-6.804
N980 X-1.502 Y-2.194 Z-6.719
N985 X-1.718 Y-2.273 Z-6.619
N990 X-1.929 Y-2.35 Z-6.505
N995 X-2.132 Y-2.424 Z-6.377
N1000 X-2.327 Y-2.495 Z-6.236
N1005 X-2.514 Y-2.563 Z-6.082
N1010 X-2.691 Y-2.628 Z-5.916
N1015 X-2.858 Y-2.689 Z-5.738
N1020 X-3.014 Y-2.746 Z-5.55
N1025 X-3.158 Y-2.799 Z-5.351
N1030 X-3.291 Y-2.847 Z-5.143
N1035 X-3.411 Y-2.891 Z-4.927
N1040 X-3.518 Y-2.93 Z-4.703
N1045 X-3.612 Y-2.964 Z-4.472
N1050 X-3.692 Y-2.994 Z-4.236
N1055 X-3.758 Y-3.018 Z-3.995
N1060 X-3.809 Y-3.036 Z-3.75
N1065 X-3.846 Y-3.05 Z-3.501
N1070 X-3.869 Y-3.058 Z-3.251
N1075 X-3.876 Y-3.061 Z-3.
N1080 G0 Z15.
(2D CONTOUR1)
N1085 G0 X29.6 Y14.
N1090 Z15.
N1095 Z5.
N1100 G1 Z1. F400.
N1105 Z-3.
N1110 G18 G3 X25.6 Z-7. I-4. K0. F900.
N1115 G1 X25.
N1120 G17 G3 X21. Y10. I0. J-4.
N1125 G1 Y2.
N1130 G2 X18. Y-1. I-3. J0.
N1135 G1 X2.
N1140 G2 X-1. Y2. I0. J3.
N1145 G1 Y18.
N1150 G2 X2. Y21. I3. J0.
N1155 G1 X18.
N1160 G2 X21. Y18. I0. J-3.
N1165 G1 Y10.
N1170 G3 X25. Y6. I4. J0.
N1175 G1 X25.6
N1180 G18 G2 X29.6 Z-3. I0. K4.
N1185 G0 Z15.
N1190 G17
N1195 M9
G40
N1200 G53 G0 Z0.
N1205 M30
%
