%
(TESTCUT_R15)
(T17  D=6. CR=0. - ZMIN=-7. - BULLNOSE END MILL)
N10 G90 G94 G17 G91.1
N15 G21
N20 G53 G0 Z0.
(FACE1)
N25 T17 M6
N30 S15000 M3
N35 G54
N40 M8
N45 G0 X25.61 Y-0.947
N50 G43 Z15. H17
N55 G0 Z5.
N60 G1 Z-0.4 F900.
N65 G18 G3 X25.01 Z-1. I-0.6 K0.
N70 G1 X-5.01
N75 G17 G2 Y3.064 I0. J2.006
N80 G1 X25.01
N85 G3 Y7.075 I0. J2.006
N90 G1 X-5.01
N95 G2 Y11.086 I0. J2.005
N100 G1 X25.01
N105 G3 Y15.097 I0. J2.005
N110 G1 X-5.01
N115 G2 Y19.108 I0. J2.006
N120 G1 X25.01
N125 G18 G2 X25.61 Z-0.4 I0. K0.6
N130 G0 Z15.
N135 G17
(2D ADAPTIVE1)
N140 G0 X-0.47 Y-6.31
N145 Z15.
N150 Z5.
N155 Z-1.
N160 G1 Z-5. F900.
N165 Z-7.
N170 G3 X0. Y-3.044 I-14.839 J3.801
N175 G1 Y-2.954
N180 X-0.61 Y-2.271
N185 X-1.069 Y-1.479
N190 X-1.396 Y-0.624
N195 X-1.619 Y0.264
N200 X-1.764 Y1.168
N205 X-1.857 Y2.078
N210 X-1.914 Y2.992
N215 X-1.948 Y3.907
N220 X-1.969 Y4.822
N225 X-1.982 Y5.737
N230 X-1.989 Y6.653
N235 X-1.994 Y7.568
N240 X-1.996 Y8.484
N245 X-1.999 Y10.314
N250 X-2. Y16.722
N255 Y18.553
N260 X-1.697 Y19.417
N265 X-1.146 Y20.148
N270 X-0.434 Y20.724
N275 X0.375 Y21.152
N280 X1.239 Y21.453
N285 X2.132 Y21.657
N290 X3.038 Y21.789
N295 X3.949 Y21.872
N300 X4.863 Y21.923
N305 X5.778 Y21.954
N310 X6.694 Y21.973
N315 X7.609 Y21.984
N320 X8.524 Y21.99
N325 X9.44 Y21.994
N330 X11.271 Y21.998
N335 X14.932 Y22.
N340 X18.136
N345 X19.038 Y21.844
N350 X19.835 Y21.394
N355 X20.482 Y20.746
N360 X20.975 Y19.974
N365 X21.33 Y19.131
N370 X21.575 Y18.249
N375 X21.736 Y17.348
N380 X21.839 Y16.438
N385 X21.903 Y15.525
N390 X21.942 Y14.61
N395 X21.965 Y13.695
N400 X21.979 Y12.78
N405 X21.988 Y11.864
N410 X21.993 Y10.949
N415 X21.996 Y10.034
N420 X21.999 Y8.203
N425 X22. Y2.71
N430 Y1.795
N435 X21.818 Y0.897
N440 X21.35 Y0.111
N445 X20.691 Y-0.524
N450 X19.912 Y-1.006
N455 X19.065 Y-1.352
N460 X18.181 Y-1.589
N465 X17.279 Y-1.745
N470 X16.368 Y-1.845
N475 X15.455 Y-1.906
N480 X14.541 Y-1.944
N485 X13.625 Y-1.967
N490 X12.71 Y-1.98
N495 X11.795 Y-1.988
N500 X10.879 Y-1.993
N505 X9.964 Y-1.996
N510 X8.133 Y-1.999
N515 X3.556 Y-2.
N520 X2.644 Y-1.919
N525 X1.798 Y-1.569
N530 X1.479 Y-1.324
N535 X1.296 Y-1.197
N540 X1.102 Y-1.088
N545 X0.898 Y-0.998
N550 X0.768 Y-0.948
N555 X0.632 Y-0.892
N560 X0.561 Y-0.854
N565 X0.353 Y-0.742
N570 X0.266 Y-0.684
N575 X0.146 Y-0.602
N580 X-0.018 Y-0.477
N585 X-0.253 Y-0.269
N590 X-0.477 Y-0.017
N595 X-0.602 Y0.146
N600 X-0.684 Y0.266
N605 X-0.742 Y0.353
N610 X-0.854 Y0.561
N615 X-0.892 Y0.632
N620 X-0.948 Y0.768
N625 X-1.028 Y0.975
N630 X-1.099 Y1.205
N635 X-1.132 Y1.39
N640 X-1.163 Y1.598
N645 X-1.192 Y1.805
N650 X-1.2 Y2.428
N655 Y17.572
N660 X-1.192 Y18.195
N665 X-1.163 Y18.402
N670 X-1.132 Y18.61
N675 X-1.099 Y18.795
N680 X-1.028 Y19.025
N685 X-0.948 Y19.232
N690 X-0.892 Y19.368
N695 X-0.854 Y19.439
N700 X-0.742 Y19.647
N705 X-0.684 Y19.734
N710 X-0.602 Y19.854
N715 X-0.477 Y20.017
N720 X-0.253 Y20.269
N725 X-0.018 Y20.477
N730 X0.146 Y20.602
N735 X0.266 Y20.684
N740 X0.353 Y20.742
N745 X0.561 Y20.854
N750 X0.632 Y20.892
N755 X0.768 Y20.948
N760 X0.975 Y21.028
N765 X1.205 Y21.099
N770 X1.39 Y21.132
N775 X1.598 Y21.163
N780 X1.805 Y21.192
N785 X2.428 Y21.2
N790 X17.572
N795 X18.195 Y21.192
N800 X18.402 Y21.163
N805 X18.61 Y21.132
N810 X18.795 Y21.099
N815 X19.025 Y21.028
N820 X19.232 Y20.948
N825 X19.368 Y20.892
N830 X19.439 Y20.854
N835 X19.647 Y20.742
N840 X19.734 Y20.684
N845 X19.854 Y20.602
N850 X20.018 Y20.477
N855 X20.253 Y20.269
N860 X20.477 Y20.017
N865 X20.602 Y19.854
N870 X20.684 Y19.734
N875 X20.742 Y19.647
N880 X20.854 Y19.439
N885 X20.892 Y19.368
N890 X20.948 Y19.232
N895 X21.028 Y19.025
N900 X21.099 Y18.795
N905 X21.132 Y18.61
N910 X21.163 Y18.402
N915 X21.192 Y18.195
N920 X21.2 Y17.572
N925 Y2.428
N930 X21.192 Y1.805
N935 X21.163 Y1.598
N940 X21.132 Y1.39
N945 X21.099 Y1.205
N950 X21.028 Y0.975
N955 X20.948 Y0.768
N960 X20.892 Y0.632
N965 X20.854 Y0.561
N970 X20.742 Y0.353
N975 X20.684 Y0.266
N980 X20.602 Y0.146
N985 X20.477 Y-0.018
N990 X20.269 Y-0.253
N995 X20.017 Y-0.477
N1000 X19.854 Y-0.602
N1005 X19.734 Y-0.684
N1010 X19.647 Y-0.742
N1015 X19.439 Y-0.854
N1020 X19.368 Y-0.892
N1025 X19.232 Y-0.948
N1030 X19.025 Y-1.028
N1035 X18.795 Y-1.099
N1040 X18.61 Y-1.132
N1045 X18.402 Y-1.163
N1050 X18.195 Y-1.192
N1055 X17.572 Y-1.2
N1060 X2.428
N1065 X1.95 Y-1.194
N1070 G3 X0.426 Y-1.532 I0.088 J-3.999
N1075 G1 X0.197 Y-1.633 Z-6.992
N1080 X-0.032 Y-1.734 Z-6.968
N1085 X-0.26 Y-1.834 Z-6.929
N1090 X-0.484 Y-1.933 Z-6.874
N1095 X-0.705 Y-2.03 Z-6.804
N1100 X-0.921 Y-2.126 Z-6.719
N1105 X-1.132 Y-2.218 Z-6.619
N1110 X-1.337 Y-2.309 Z-6.505
N1115 X-1.535 Y-2.396 Z-6.377
N1120 X-1.725 Y-2.48 Z-6.236
N1125 X-1.907 Y-2.56 Z-6.082
N1130 X-2.08 Y-2.636 Z-5.916
N1135 X-2.242 Y-2.707 Z-5.738
N1140 X-2.394 Y-2.774 Z-5.55
N1145 X-2.535 Y-2.836 Z-5.351
N1150 X-2.665 Y-2.893 Z-5.143
N1155 X-2.782 Y-2.945 Z-4.927
N1160 X-2.886 Y-2.991 Z-4.703
N1165 X-2.977 Y-3.031 Z-4.472
N1170 X-3.055 Y-3.065 Z-4.236
N1175 X-3.119 Y-3.093 Z-3.995
N1180 X-3.17 Y-3.116 Z-3.75
N1185 X-3.206 Y-3.131 Z-3.501
N1190 X-3.227 Y-3.141 Z-3.251
N1195 X-3.234 Y-3.144 Z-3.
N1200 G0 Z15.
(2D CONTOUR1)
N1205 G0 X51.6 Y25.
N1210 Z15.
N1215 Z8.
N1220 G18 G3 X36.6 Z-7. I-15. K0. F900.
N1225 G1 X36.
N1230 G17 G3 X21. Y10. I0. J-15.
N1235 G1 Y2.
N1240 G2 X18. Y-1. I-3. J0.
N1245 G1 X2.
N1250 G2 X-1. Y2. I0. J3.
N1255 G1 Y18.
N1260 G2 X2. Y21. I3. J0.
N1265 G1 X18.
N1270 G2 X21. Y18. I0. J-3.
N1275 G1 Y10.
N1280 G3 X36. Y-5. I15. J0.
N1285 G1 X36.6
N1290 G18 G2 X51.6 Z8. I0. K15.
N1295 G0 Z15.
N1300 G17
N1305 M9
N1310 G53 G0 Z0.
N1315 M30
%
