(Exported by FreeCAD)
(Post Processor: linuxcnc_post)
(Output Time:2022-02-14 20:17:48.946224)
(begin preamble)
G17 G54 G40 G49 G80 G90
G21
(begin operation: Fixture)
(machine units: mm/min)
G54 
(finish operation: Fixture)
(begin operation: TC: 6mm_Endmill_Alu)
(machine units: mm/min)
(TC: 6mm_Endmill_Alu) 
M5
M6 T5 
G43 H5 
M3 S12000 
(finish operation: TC: 6mm_Endmill_Alu)
(begin operation: MillFace)
(machine units: mm/min)
(MillFace) 
G0 Z12.000 
G0 X-3.310 Y48.870 
G0 Z7.000 
G1 X-3.310 Y48.870 Z0.000 F277.800 
G1 X-8.870 Y43.310 Z0.000 F916.800 
G2 X-3.310 Y48.870 Z0.000 I6.845 J-1.285 F916.800 
G2 X-2.000 Y49.000 Z0.000 I1.273 J-6.167 F916.800 
G1 X1.063 Y49.000 Z0.000 F916.800 
G1 X-9.000 Y38.937 Z0.000 F916.800 
G1 X-9.000 Y34.695 Z0.000 F916.800 
G1 X5.305 Y49.000 Z0.000 F916.800 
G1 X9.548 Y49.000 Z0.000 F916.800 
G1 X-9.000 Y30.452 Z0.000 F916.800 
G1 X-9.000 Y26.210 Z0.000 F916.800 
G1 X13.790 Y49.000 Z0.000 F916.800 
G1 X18.033 Y49.000 Z0.000 F916.800 
G1 X-9.000 Y21.967 Z0.000 F916.800 
G1 X-9.000 Y17.724 Z0.000 F916.800 
G1 X22.276 Y49.000 Z0.000 F916.800 
G1 X26.518 Y49.000 Z0.000 F916.800 
G1 X-9.000 Y13.482 Z0.000 F916.800 
G1 X-9.000 Y9.239 Z0.000 F916.800 
G1 X30.761 Y49.000 Z0.000 F916.800 
G1 X35.004 Y49.000 Z0.000 F916.800 
G1 X-9.000 Y4.996 Z0.000 F916.800 
G1 X-9.000 Y0.754 Z0.000 F916.800 
G1 X39.246 Y49.000 Z0.000 F916.800 
G1 X42.000 Y49.000 Z0.000 F916.800 
G2 X43.352 Y48.863 Z0.000 I0.026 J-6.502 F916.800 
G1 X-8.863 Y-3.352 Z0.000 F916.800 
G3 X-7.538 Y-6.269 Z0.000 I6.658 J1.266 F916.800 
G1 X46.269 Y47.538 Z0.000 F916.800 
G2 X48.201 Y45.227 Z0.000 I-4.006 J-5.312 F916.800 
G1 X-5.227 Y-8.201 Z0.000 F916.800 
G3 X-1.783 Y-9.000 Z0.000 I3.233 J6.118 F916.800 
G1 X49.000 Y41.783 Z0.000 F916.800 
G1 X49.000 Y37.540 Z0.000 F916.800 
G1 X2.460 Y-9.000 Z0.000 F916.800 
G1 X6.702 Y-9.000 Z0.000 F916.800 
G1 X49.000 Y33.298 Z0.000 F916.800 
G1 X49.000 Y29.055 Z0.000 F916.800 
G1 X10.945 Y-9.000 Z0.000 F916.800 
G1 X15.187 Y-9.000 Z0.000 F916.800 
G1 X49.000 Y24.813 Z0.000 F916.800 
G1 X49.000 Y20.570 Z0.000 F916.800 
G1 X19.430 Y-9.000 Z0.000 F916.800 
G1 X23.673 Y-9.000 Z0.000 F916.800 
G1 X49.000 Y16.327 Z0.000 F916.800 
G1 X49.000 Y12.085 Z0.000 F916.800 
G1 X27.915 Y-9.000 Z0.000 F916.800 
G1 X32.158 Y-9.000 Z0.000 F916.800 
G1 X49.000 Y7.842 Z0.000 F916.800 
G1 X49.000 Y3.599 Z0.000 F916.800 
G1 X36.401 Y-9.000 Z0.000 F916.800 
G1 X40.643 Y-9.000 Z0.000 F916.800 
G1 X49.000 Y-0.643 Z0.000 F916.800 
G1 X49.000 Y-2.000 Z0.000 F916.800 
G2 X46.684 Y-7.202 Z0.000 I-7.000 J0.000 F916.800 
G0 Z12.000 
G0 Z12.000 
(finish operation: MillFace)
(begin operation: Adaptive002)
(machine units: mm/min)
(Coolant On:Mist)
M7
(Adaptive002) 
G0 Z12.000 
G0 X43.312 Y-4.013 Z12.000 
G1 X43.312 Y-4.013 Z-4.000 F277.800 
(Adaptive - depth: -4.000000) 
G1 X43.312 Y-4.013 F916.800 
G1 X43.069 Y-3.925 F916.800 
G1 X42.919 Y-3.888 F916.800 
G1 X42.281 Y-3.844 F916.800 
G1 X40.631 Y-3.819 F916.800 
G1 X3.631 Y-3.750 F916.800 
G1 X2.131 Y-3.781 F916.800 
G1 X0.631 Y-3.788 F916.800 
G1 X-0.113 Y-3.731 F916.800 
G1 X-0.806 Y-3.456 F916.800 
G1 X-1.244 Y-3.163 F916.800 
G1 X-1.512 Y-2.931 F916.800 
G1 X-1.863 Y-2.569 F916.800 
G1 X-2.200 Y-2.119 F916.800 
G1 X-2.444 Y-1.731 F916.800 
G1 X-2.669 Y-1.275 F916.800 
G1 X-2.862 Y-0.812 F916.800 
G1 X-3.069 Y-0.194 F916.800 
G1 X-3.225 Y0.425 F916.800 
G1 X-3.362 Y1.100 F916.800 
G1 X-3.475 Y1.837 F916.800 
G1 X-3.556 Y2.581 F916.800 
G1 X-3.619 Y37.075 F916.800 
G1 X-3.719 Y39.306 F916.800 
G1 X-3.681 Y40.050 F916.800 
G1 X-3.419 Y40.750 F916.800 
G1 X-3.138 Y41.175 F916.800 
G1 X-2.919 Y41.431 F916.800 
G1 X-2.550 Y41.788 F916.800 
G1 X-2.094 Y42.131 F916.800 
G1 X-1.712 Y42.375 F916.800 
G1 X-1.256 Y42.606 F916.800 
G1 X-0.794 Y42.806 F916.800 
G1 X-0.163 Y43.025 F916.800 
G1 X0.487 Y43.188 F916.800 
G1 X1.075 Y43.312 F916.800 
G1 X1.812 Y43.438 F916.800 
G1 X2.556 Y43.531 F916.800 
G1 X37.144 Y43.587 F916.800 
G1 X38.631 Y43.688 F916.800 
G1 X39.375 Y43.719 F916.800 
G1 X40.119 Y43.663 F916.800 
G1 X40.806 Y43.388 F916.800 
G1 X41.019 Y43.250 F916.800 
G1 X41.438 Y42.906 F916.800 
G1 X41.888 Y42.438 F916.800 
G1 X42.231 Y41.975 F916.800 
G1 X42.462 Y41.575 F916.800 
G1 X42.650 Y41.175 F916.800 
G1 X42.837 Y40.725 F916.800 
G1 X43.056 Y40.062 F916.800 
G1 X43.237 Y39.337 F916.800 
G1 X43.375 Y38.606 F916.800 
G1 X43.481 Y37.888 F916.800 
G1 X43.675 Y10.838 F916.800 
G1 X43.694 Y10.088 F916.800 
G1 X43.763 Y8.588 F916.800 
G1 X43.788 Y6.338 F916.800 
G1 X43.775 Y4.838 F916.800 
G1 X43.794 Y4.088 F916.800 
G1 X43.806 Y1.837 F916.800 
G1 X43.756 Y1.087 F916.800 
G1 X43.481 Y0.388 F916.800 
G1 X43.337 Y0.150 F916.800 
G1 X43.194 Y-0.044 F916.800 
G1 X42.975 Y-0.300 F916.800 
G1 X42.594 Y-0.669 F916.800 
G1 X42.150 Y-0.994 F916.800 
G1 X41.769 Y-1.231 F916.800 
G1 X41.312 Y-1.456 F916.800 
G1 X40.850 Y-1.656 F916.800 
G1 X40.175 Y-1.900 F916.800 
G1 X39.444 Y-2.081 F916.800 
G1 X38.819 Y-2.200 F916.800 
G1 X38.131 Y-2.300 F916.800 
G1 X37.381 Y-2.381 F916.800 
G1 X35.881 Y-2.481 F916.800 
G1 X34.381 Y-2.525 F916.800 
G1 X29.831 Y-2.569 F916.800 
G1 X29.531 Y-2.631 F916.800 
G1 X29.175 Y-2.825 F916.800 
G1 X28.581 Y-3.000 F916.800 
G1 X27.981 Y-3.062 F916.800 
G1 X4.681 Y-3.056 F916.800 
G1 X2.681 Y-2.769 F916.800 
G1 X1.481 Y-2.475 F916.800 
G1 X0.631 Y-2.081 F916.800 
G1 X0.037 Y-1.650 F916.800 
G1 X-0.650 Y-0.931 F916.800 
G1 X-1.962 Y0.931 F916.800 
G1 X-2.544 Y2.131 F916.800 
G1 X-2.888 Y3.344 F916.800 
G1 X-3.056 Y4.656 F916.800 
G1 X-3.056 Y35.312 F916.800 
G1 X-2.900 Y36.625 F916.800 
G1 X-2.438 Y38.406 F916.800 
G1 X-2.044 Y39.206 F916.800 
G1 X-1.431 Y39.981 F916.800 
G1 X-0.375 Y41.006 F916.800 
G1 X0.475 Y41.663 F916.800 
G1 X1.381 Y42.194 F916.800 
G1 X2.081 Y42.519 F916.800 
G1 X3.481 Y42.906 F916.800 
G1 X4.606 Y43.044 F916.800 
G1 X35.263 Y43.050 F916.800 
G1 X36.669 Y42.881 F916.800 
G1 X38.075 Y42.487 F916.800 
G1 X38.950 Y42.038 F916.800 
G1 X40.388 Y40.987 F916.800 
G1 X41.006 Y40.369 F916.800 
G1 X41.906 Y39.144 F916.800 
G1 X42.575 Y37.763 F916.800 
G1 X42.969 Y36.163 F916.800 
G1 X43.050 Y11.762 F916.800 
G1 X42.869 Y10.863 F916.800 
G1 X42.737 Y10.363 F916.800 
G1 X42.638 Y9.162 F916.800 
G1 X42.606 Y6.912 F916.800 
G1 X42.612 Y4.662 F916.800 
G1 X42.600 Y3.913 F916.800 
G1 X42.487 Y3.169 F916.800 
G1 X42.263 Y2.525 F916.800 
G1 X42.106 Y2.200 F916.800 
G1 X41.919 Y1.887 F916.800 
G1 X41.663 Y1.544 F916.800 
G1 X41.331 Y1.175 F916.800 
G1 X40.938 Y0.831 F916.800 
G1 X40.556 Y0.537 F916.800 
G1 X40.075 Y0.244 F916.800 
G1 X39.619 Y-0.006 F916.800 
G1 X38.925 Y-0.294 F916.800 
G1 X38.369 Y-0.500 F916.800 
G1 X37.644 Y-0.706 F916.800 
G1 X36.281 Y-0.963 F916.800 
G1 X35.538 Y-1.062 F916.800 
G1 X34.788 Y-1.144 F916.800 
G1 X34.038 Y-1.206 F916.800 
G1 X31.788 Y-1.319 F916.800 
G1 X31.038 Y-1.375 F916.800 
G1 X30.738 Y-1.444 F916.800 
G1 X30.656 Y-1.500 F916.800 
G1 X30.556 Y-1.669 F916.800 
G1 X30.556 Y-1.669 F916.800 
G1 X30.488 Y-1.775 F916.800 
G0 Z12.000 
G0 X30.488 Y-1.775 
G0 X31.056 Y-0.056 
G1 Z-4.000 F277.800 
G1 X31.056 Y-0.056 F916.800 
G1 X31.050 Y-0.188 F916.800 
G1 X31.050 Y-0.188 F916.800 
G1 X31.031 Y-0.375 F916.800 
G1 X31.031 Y-0.375 F916.800 
G1 X31.050 Y-0.613 F916.800 
G1 X31.087 Y-0.725 F916.800 
G1 X31.106 Y-0.781 F916.800 
G0 X31.119 Y-0.838 
G0 X31.131 Y-1.863 
G0 X31.081 Y-2.031 
G0 X30.375 Y-2.862 
G0 X29.494 Y-3.400 
G0 X28.238 Y-3.656 
G0 X24.025 Y-3.725 
G0 X3.644 Y-3.625 
G0 X3.475 Y-3.575 
G0 X3.019 Y-3.188 
G1 X2.969 Y-3.138 F916.800 
G1 X2.775 Y-2.944 F916.800 
G1 X2.562 Y-2.719 F916.800 
G1 X2.413 Y-2.625 F916.800 
G1 X2.413 Y-2.625 F916.800 
G1 X1.275 Y-2.150 F916.800 
G1 X0.219 Y-1.488 F916.800 
G1 X-0.406 Y-0.981 F916.800 
G1 X-0.750 Y-0.637 F916.800 
G1 X-0.750 Y-0.637 F916.800 
G1 X-0.900 Y-0.537 F916.800 
G0 X-0.950 Y-0.519 
G0 X-1.663 Y-0.531 
G0 X-1.756 Y-0.481 
G0 X-2.900 Y1.325 
G0 X-3.425 Y2.788 
G0 X-3.650 Y3.844 
G0 X-3.669 Y11.319 
G0 X-3.656 Y19.656 
G0 X-3.712 Y33.638 
G0 X-3.569 Y36.138 
G0 X-3.331 Y37.550 
G0 X-3.263 Y37.644 
G0 X-3.212 Y37.681 
G1 X-3.156 Y37.706 F916.800 
G1 X-3.100 Y37.731 F916.800 
G1 X-2.638 Y37.881 F916.800 
G1 X-2.500 Y37.994 F916.800 
G1 X-2.431 Y38.094 F916.800 
G1 X-2.431 Y38.094 F916.800 
G1 X-2.225 Y38.538 F916.800 
G1 X-2.225 Y38.538 F916.800 
G1 X-2.175 Y38.775 F916.800 
G1 X-2.175 Y38.956 F916.800 
G0 X-2.175 Y39.019 
G0 X-1.994 Y40.219 
G0 X-1.719 Y40.562 
G0 X-0.094 Y42.019 
G0 X2.025 Y43.175 
G0 X3.431 Y43.569 
G0 X4.713 Y43.681 
G0 X16.238 Y43.706 
G0 X35.356 Y43.650 
G0 X36.625 Y43.519 
G0 X37.913 Y43.212 
G0 X38.944 Y42.812 
G0 X40.744 Y41.531 
G0 X42.144 Y39.931 
G0 X43.112 Y38.169 
G0 X43.519 Y36.781 
G0 X43.694 Y34.438 
G0 X43.675 Y15.044 
G0 X43.681 Y12.075 
G0 X43.237 Y11.231 
G1 X43.206 Y11.175 F916.800 
G1 X43.038 Y10.963 F916.800 
G1 X42.806 Y10.756 F916.800 
G1 X42.706 Y10.606 F916.800 
G1 X42.706 Y10.606 F916.800 
G1 X42.106 Y9.625 F916.800 
G1 X41.819 Y8.631 F916.800 
G1 X41.675 Y7.787 F916.800 
G1 X41.469 Y5.537 F916.800 
G1 X41.306 Y4.800 F916.800 
G1 X41.038 Y4.094 F916.800 
G1 X40.837 Y3.719 F916.800 
G1 X40.638 Y3.406 F916.800 
G1 X40.344 Y3.025 F916.800 
G1 X39.956 Y2.612 F916.800 
G1 X39.544 Y2.244 F916.800 
G1 X39.119 Y1.925 F916.800 
G1 X38.656 Y1.625 F916.800 
G1 X38.100 Y1.325 F916.800 
G1 X37.494 Y1.062 F916.800 
G1 X36.919 Y0.863 F916.800 
G1 X36.312 Y0.675 F916.800 
G1 X35.575 Y0.525 F916.800 
G1 X34.894 Y0.512 F916.800 
G1 X34.119 Y0.594 F916.800 
G1 X32.825 Y0.800 F916.800 
G1 X32.075 Y0.844 F916.800 
G1 X31.337 Y0.694 F916.800 
G1 X31.163 Y0.575 F916.800 
G1 X31.094 Y0.494 F916.800 
G1 X31.056 Y0.400 F916.800 
G1 X31.056 Y0.300 F916.800 
G1 X31.056 Y0.300 F916.800 
G1 X31.100 Y0.050 F916.800 
G1 X31.156 Y-0.050 F916.800 
G1 X31.194 Y-0.087 F916.800 
G0 X31.238 Y-0.113 
G0 X31.462 Y-0.150 
G0 X35.694 Y-0.106 
G0 X37.938 Y0.525 
G0 X39.150 Y1.169 
G0 X40.719 Y2.487 
G0 X41.400 Y3.344 
G0 X41.931 Y4.644 
G0 X42.188 Y5.856 
G0 X42.475 Y8.225 
G0 X42.550 Y9.675 
G1 X42.556 Y9.738 F916.800 
G1 X42.556 Y9.912 F916.800 
G1 X42.550 Y9.956 F916.800 
G1 X42.525 Y9.988 F916.800 
G1 X42.438 Y10.000 F916.800 
G1 X42.288 Y9.944 F916.800 
G1 X42.144 Y9.838 F916.800 
G1 X42.144 Y9.838 F916.800 
G1 X41.538 Y9.262 F916.800 
G1 X41.413 Y9.094 F916.800 
G1 X41.031 Y8.238 F916.800 
G1 X40.794 Y7.525 F916.800 
G1 X40.575 Y6.806 F916.800 
G1 X40.319 Y6.094 F916.800 
G1 X39.981 Y5.419 F916.800 
G1 X39.606 Y4.844 F916.800 
G1 X39.306 Y4.463 F916.800 
G1 X38.969 Y4.100 F916.800 
G1 X38.569 Y3.731 F916.800 
G1 X38.094 Y3.381 F916.800 
G1 X37.631 Y3.094 F916.800 
G1 X37.131 Y2.844 F916.800 
G1 X36.606 Y2.650 F916.800 
G1 X36.131 Y2.519 F916.800 
G1 X35.087 Y2.344 F916.800 
G1 X33.587 Y2.175 F916.800 
G1 X32.844 Y2.069 F916.800 
G1 X32.112 Y1.894 F916.800 
G1 X31.425 Y1.587 F916.800 
G1 X31.188 Y1.387 F916.800 
G1 X31.119 Y1.312 F916.800 
G1 X31.069 Y1.219 F916.800 
G1 X31.056 Y1.119 F916.800 
G1 X31.056 Y1.119 F916.800 
G1 X31.100 Y0.863 F916.800 
G1 X31.150 Y0.756 F916.800 
G1 X31.188 Y0.719 F916.800 
G0 X31.231 Y0.700 
G0 X31.450 Y0.713 
G0 X37.513 Y2.275 
G0 X39.112 Y3.325 
G0 X40.438 Y4.906 
G0 X40.956 Y5.931 
G0 X41.594 Y7.925 
G0 X41.856 Y9.050 
G1 X41.875 Y9.106 F916.800 
G1 X41.913 Y9.281 F916.800 
G1 X41.906 Y9.331 F916.800 
G1 X41.888 Y9.363 F916.800 
G1 X41.806 Y9.400 F916.800 
G1 X41.638 Y9.394 F916.800 
G1 X41.475 Y9.338 F916.800 
G1 X41.475 Y9.338 F916.800 
G1 X40.944 Y9.012 F916.800 
G1 X40.788 Y8.881 F916.800 
G1 X40.250 Y8.113 F916.800 
G1 X39.850 Y7.475 F916.800 
G1 X39.431 Y6.850 F916.800 
G1 X38.969 Y6.250 F916.800 
G1 X38.444 Y5.706 F916.800 
G1 X37.994 Y5.319 F916.800 
G1 X37.562 Y5.019 F916.800 
G1 X37.138 Y4.775 F916.800 
G1 X36.656 Y4.537 F916.800 
G1 X36.069 Y4.294 F916.800 
G1 X35.356 Y4.050 F916.800 
G1 X33.906 Y3.625 F916.800 
G1 X33.188 Y3.400 F916.800 
G1 X32.475 Y3.150 F916.800 
G1 X31.794 Y2.825 F916.800 
G1 X31.288 Y2.438 F916.800 
G1 X31.137 Y2.288 F916.800 
G1 X31.087 Y2.200 F916.800 
G1 X31.056 Y2.100 F916.800 
G1 X31.056 Y2.100 F916.800 
G1 X31.100 Y1.844 F916.800 
G1 X31.150 Y1.744 F916.800 
G1 X31.188 Y1.706 F916.800 
G0 X31.231 Y1.688 
G0 X31.444 Y1.719 
G0 X34.544 Y2.919 
G0 X37.938 Y4.475 
G0 X38.812 Y5.219 
G0 X39.844 Y6.338 
G0 X40.831 Y7.912 
G0 X41.237 Y8.713 
G1 X41.263 Y8.769 F916.800 
G1 X41.337 Y8.931 F916.800 
G1 X41.350 Y8.975 F916.800 
G1 X41.337 Y9.019 F916.800 
G1 X41.269 Y9.075 F916.800 
G1 X41.106 Y9.106 F916.800 
G1 X40.931 Y9.094 F916.800 
G1 X40.931 Y9.094 F916.800 
G1 X40.250 Y8.844 F916.800 
G1 X39.375 Y8.119 F916.800 
G1 X38.806 Y7.619 F916.800 
G1 X38.219 Y7.144 F916.800 
G1 X37.600 Y6.706 F916.800 
G1 X36.956 Y6.312 F916.800 
G1 X36.288 Y5.969 F916.800 
G1 X35.631 Y5.675 F916.800 
G1 X33.538 Y4.831 F916.800 
G1 X32.844 Y4.531 F916.800 
G1 X32.175 Y4.188 F916.800 
G1 X31.544 Y3.781 F916.800 
G1 X31.163 Y3.425 F916.800 
G1 X31.056 Y3.244 F916.800 
G1 X31.056 Y3.244 F916.800 
G1 X31.100 Y2.987 F916.800 
G1 X31.150 Y2.888 F916.800 
G1 X31.188 Y2.850 F916.800 
G0 X31.231 Y2.831 
G0 X31.381 Y2.862 
G0 X37.869 Y6.094 
G0 X39.044 Y6.950 
G0 X40.112 Y7.994 
G0 X40.569 Y8.550 
G1 X40.606 Y8.594 F916.800 
G1 X40.719 Y8.738 F916.800 
G1 X40.737 Y8.775 F916.800 
G1 X40.731 Y8.819 F916.800 
G1 X40.675 Y8.887 F916.800 
G1 X40.519 Y8.950 F916.800 
G1 X40.344 Y8.969 F916.800 
G1 X40.344 Y8.969 F916.800 
G1 X39.744 Y8.900 F916.800 
G1 X39.344 Y8.787 F916.800 
G1 X37.350 Y7.806 F916.800 
G1 X35.981 Y7.181 F916.800 
G1 X33.906 Y6.281 F916.800 
G1 X33.225 Y5.963 F916.800 
G1 X32.556 Y5.612 F916.800 
G1 X31.913 Y5.219 F916.800 
G1 X31.312 Y4.763 F916.800 
G1 X31.106 Y4.531 F916.800 
G1 X31.062 Y4.438 F916.800 
G1 X31.062 Y4.438 F916.800 
G1 X31.094 Y4.181 F916.800 
G1 X31.144 Y4.075 F916.800 
G1 X31.175 Y4.037 F916.800 
G0 X31.219 Y4.019 
G0 X31.312 Y4.025 
G0 X38.375 Y7.606 
G0 X39.081 Y7.925 
G0 X39.794 Y8.512 
G1 X39.837 Y8.550 F916.800 
G1 X39.969 Y8.675 F916.800 
G1 X39.994 Y8.713 F916.800 
G1 X40.000 Y8.750 F916.800 
G1 X39.950 Y8.825 F916.800 
G1 X39.800 Y8.906 F916.800 
G1 X39.625 Y8.944 F916.800 
G1 X39.625 Y8.944 F916.800 
G1 X38.425 Y8.912 F916.800 
G1 X37.725 Y8.794 F916.800 
G1 X34.400 Y7.638 F916.800 
G1 X33.706 Y7.350 F916.800 
G1 X33.025 Y7.031 F916.800 
G1 X32.362 Y6.675 F916.800 
G1 X31.725 Y6.269 F916.800 
G1 X31.175 Y5.794 F916.800 
G1 X31.062 Y5.619 F916.800 
G1 X31.062 Y5.619 F916.800 
G1 X31.094 Y5.362 F916.800 
G1 X31.144 Y5.256 F916.800 
G1 X31.175 Y5.219 F916.800 
G0 X31.219 Y5.194 
G0 X31.369 Y5.219 
G0 X37.831 Y8.181 
G0 X38.337 Y8.537 
G1 X38.388 Y8.575 F916.800 
G1 X38.525 Y8.681 F916.800 
G1 X38.556 Y8.719 F916.800 
G1 X38.556 Y8.756 F916.800 
G1 X38.513 Y8.825 F916.800 
G1 X38.362 Y8.906 F916.800 
G1 X38.188 Y8.944 F916.800 
G1 X38.188 Y8.944 F916.800 
G1 X35.888 Y8.894 F916.800 
G1 X35.288 Y8.806 F916.800 
G1 X33.306 Y8.125 F916.800 
G1 X32.612 Y7.831 F916.800 
G1 X31.944 Y7.481 F916.800 
G1 X31.125 Y6.819 F916.800 
G1 X31.075 Y6.731 F916.800 
G1 X31.056 Y6.631 F916.800 
G1 X31.056 Y6.631 F916.800 
G1 X31.100 Y6.375 F916.800 
G1 X31.150 Y6.275 F916.800 
G1 X31.188 Y6.237 F916.800 
G0 X31.231 Y6.219 
G0 X31.381 Y6.244 
G0 X35.300 Y8.137 
G0 X35.925 Y8.550 
G1 X35.975 Y8.581 F916.800 
G1 X36.125 Y8.688 F916.800 
G1 X36.150 Y8.719 F916.800 
G1 X36.156 Y8.756 F916.800 
G1 X36.112 Y8.825 F916.800 
G1 X35.962 Y8.906 F916.800 
G1 X35.788 Y8.944 F916.800 
G1 X35.788 Y8.944 F916.800 
G1 X33.688 Y8.912 F916.800 
G1 X33.087 Y8.812 F916.800 
G1 X32.125 Y8.431 F916.800 
G1 X31.575 Y8.125 F916.800 
G1 X31.337 Y7.919 F916.800 
G1 X31.269 Y7.838 F916.800 
G1 X31.175 Y7.650 F916.800 
G1 X31.100 Y7.350 F916.800 
G1 X31.100 Y7.350 F916.800 
G1 X31.100 Y7.088 F916.800 
G1 X31.131 Y6.969 F916.800 
G1 X31.156 Y6.931 F916.800 
G0 X31.188 Y6.912 
G0 X31.269 Y6.931 
G0 X33.525 Y8.537 
G1 X33.581 Y8.575 F916.800 
G1 X33.725 Y8.681 F916.800 
G1 X33.750 Y8.719 F916.800 
G1 X33.756 Y8.756 F916.800 
G1 X33.712 Y8.825 F916.800 
G1 X33.562 Y8.906 F916.800 
G1 X33.388 Y8.944 F916.800 
G1 X33.388 Y8.944 F916.800 
G1 X32.587 Y8.894 F916.800 
G1 X32.288 Y8.800 F916.800 
G1 X31.837 Y8.544 F916.800 
G1 X31.531 Y8.262 F916.800 
G1 X31.462 Y8.181 F916.800 
G1 X31.462 Y8.181 F916.800 
G1 X31.450 Y8.150 F916.800 
G1 X31.450 Y8.137 F916.800 
G1 X31.462 Y8.162 F916.800 
G1 X31.438 Y8.188 F916.800 
G1 X31.387 Y8.175 F916.800 
G1 X31.387 Y8.175 F916.800 
G1 X31.231 Y7.906 F916.800 
G1 X31.094 Y7.569 F916.800 
G1 X31.038 Y7.306 F916.800 
G1 X31.000 Y6.850 F916.800 
G1 X30.988 Y-0.188 F916.800 
G1 X30.938 Y-0.575 F916.800 
G1 X30.837 Y-0.950 F916.800 
G1 X30.694 Y-1.306 F916.800 
G1 X30.500 Y-1.644 F916.800 
G1 X30.269 Y-1.950 F916.800 
G1 X30.137 Y-2.094 F916.800 
G1 X29.850 Y-2.350 F916.800 
G1 X29.694 Y-2.469 F916.800 
G1 X29.181 Y-2.750 F916.800 
G1 X28.819 Y-2.875 F916.800 
G1 X28.444 Y-2.962 F916.800 
G1 X27.994 Y-2.994 F916.800 
G1 X4.737 Y-2.994 F916.800 
G1 X3.531 Y-2.862 F916.800 
G1 X2.575 Y-2.638 F916.800 
G1 X1.844 Y-2.350 F916.800 
G1 X1.019 Y-1.944 F916.800 
G1 X0.287 Y-1.469 F916.800 
G1 X-0.344 Y-0.956 F916.800 
G1 X-0.988 Y-0.312 F916.800 
G1 X-1.456 Y0.281 F916.800 
G1 X-2.006 Y1.131 F916.800 
G1 X-2.431 Y2.013 F916.800 
G1 X-2.594 Y2.456 F916.800 
G1 X-2.881 Y3.619 F916.800 
G1 X-2.919 Y3.869 F916.800 
G1 X-2.994 Y4.794 F916.800 
G1 X-2.981 Y35.519 F916.800 
G1 X-2.862 Y36.494 F916.800 
G1 X-2.644 Y37.394 F916.800 
G1 X-2.312 Y38.244 F916.800 
G1 X-1.981 Y38.906 F916.800 
G1 X-1.475 Y39.694 F916.800 
G1 X-0.938 Y40.356 F916.800 
G1 X-0.312 Y40.981 F916.800 
G1 X0.381 Y41.525 F916.800 
G1 X1.212 Y42.044 F916.800 
G1 X2.106 Y42.456 F916.800 
G1 X2.556 Y42.612 F916.800 
G1 X3.331 Y42.819 F916.800 
G1 X3.800 Y42.906 F916.800 
G1 X4.912 Y42.994 F916.800 
G1 X35.306 Y42.987 F916.800 
G1 X35.750 Y42.956 F916.800 
G1 X36.744 Y42.800 F916.800 
G1 X37.438 Y42.625 F916.800 
G1 X38.150 Y42.344 F916.800 
G1 X38.975 Y41.938 F916.800 
G1 X39.706 Y41.462 F916.800 
G1 X40.381 Y40.913 F916.800 
G1 X41.019 Y40.256 F916.800 
G1 X41.450 Y39.712 F916.800 
G1 X42.000 Y38.862 F916.800 
G1 X42.456 Y37.900 F916.800 
G1 X42.769 Y36.850 F916.800 
G1 X42.906 Y36.175 F916.800 
G1 X42.994 Y35.081 F916.800 
G1 X42.987 Y11.812 F916.800 
G1 X42.938 Y11.425 F916.800 
G1 X42.837 Y11.056 F916.800 
G1 X42.694 Y10.694 F916.800 
G1 X42.500 Y10.356 F916.800 
G1 X42.269 Y10.050 F916.800 
G1 X42.000 Y9.775 F916.800 
G1 X41.694 Y9.531 F916.800 
G1 X41.362 Y9.338 F916.800 
G1 X41.006 Y9.181 F916.800 
G1 X40.631 Y9.075 F916.800 
G1 X40.444 Y9.037 F916.800 
G1 X40.000 Y9.006 F916.800 
G1 X32.987 Y8.994 F916.800 
G1 X32.587 Y8.950 F916.800 
G1 X32.263 Y8.850 F916.800 
G1 X32.044 Y8.744 F916.800 
G1 X31.894 Y8.650 F916.800 
G1 X31.650 Y8.463 F916.800 
G1 X31.500 Y8.312 F916.800 
G1 X31.387 Y8.175 F916.800 
G1 X31.387 Y8.175 F916.800 
G0 Z12.000 
(Helix to depth: -4.000000) 
G0 Z12.000 
G0 X22.528 Y22.432 Z12.000 
G0 X22.528 Y22.432 Z7.000 
G1 X22.528 Y22.432 Z2.000 F277.800 
G1 X22.528 Y22.432 Z2.000 F277.800 
G1 X22.822 Y22.759 Z1.961 F277.800 
G1 X23.047 Y23.136 Z1.923 F277.800 
G1 X23.193 Y23.550 Z1.884 F277.800 
G1 X23.256 Y23.985 Z1.845 F277.800 
G1 X23.233 Y24.423 Z1.807 F277.800 
G1 X23.125 Y24.849 Z1.768 F277.800 
G1 X22.936 Y25.245 Z1.729 F277.800 
G1 X22.674 Y25.597 Z1.691 F277.800 
G1 X22.347 Y25.891 Z1.652 F277.800 
G1 X21.970 Y26.115 Z1.613 F277.800 
G1 X21.556 Y26.262 Z1.575 F277.800 
G1 X21.122 Y26.325 Z1.536 F277.800 
G1 X20.683 Y26.302 Z1.498 F277.800 
G1 X20.258 Y26.194 Z1.459 F277.800 
G1 X19.861 Y26.005 Z1.420 F277.800 
G1 X19.509 Y25.743 Z1.382 F277.800 
G1 X19.215 Y25.416 Z1.343 F277.800 
G1 X18.991 Y25.039 Z1.304 F277.800 
G1 X18.844 Y24.625 Z1.266 F277.800 
G1 X18.781 Y24.190 Z1.227 F277.800 
G1 X18.804 Y23.752 Z1.188 F277.800 
G1 X18.912 Y23.326 Z1.150 F277.800 
G1 X19.101 Y22.930 Z1.111 F277.800 
G1 X19.364 Y22.578 Z1.072 F277.800 
G1 X19.690 Y22.284 Z1.034 F277.800 
G1 X20.067 Y22.060 Z0.995 F277.800 
G1 X20.481 Y21.913 Z0.956 F277.800 
G1 X20.916 Y21.850 Z0.918 F277.800 
G1 X21.354 Y21.873 Z0.879 F277.800 
G1 X21.780 Y21.981 Z0.840 F277.800 
G1 X22.176 Y22.170 Z0.802 F277.800 
G1 X22.528 Y22.432 Z0.763 F277.800 
G1 X22.822 Y22.759 Z0.725 F277.800 
G1 X23.047 Y23.136 Z0.686 F277.800 
G1 X23.193 Y23.550 Z0.647 F277.800 
G1 X23.256 Y23.985 Z0.609 F277.800 
G1 X23.233 Y24.423 Z0.570 F277.800 
G1 X23.125 Y24.849 Z0.531 F277.800 
G1 X22.936 Y25.245 Z0.493 F277.800 
G1 X22.674 Y25.597 Z0.454 F277.800 
G1 X22.347 Y25.891 Z0.415 F277.800 
G1 X21.970 Y26.115 Z0.377 F277.800 
G1 X21.556 Y26.262 Z0.338 F277.800 
G1 X21.122 Y26.325 Z0.299 F277.800 
G1 X20.683 Y26.302 Z0.261 F277.800 
G1 X20.258 Y26.194 Z0.222 F277.800 
G1 X19.861 Y26.005 Z0.183 F277.800 
G1 X19.509 Y25.743 Z0.145 F277.800 
G1 X19.215 Y25.416 Z0.106 F277.800 
G1 X18.991 Y25.039 Z0.067 F277.800 
G1 X18.844 Y24.625 Z0.029 F277.800 
G1 X18.781 Y24.190 Z-0.010 F277.800 
G1 X18.804 Y23.752 Z-0.049 F277.800 
G1 X18.912 Y23.326 Z-0.087 F277.800 
G1 X19.101 Y22.930 Z-0.126 F277.800 
G1 X19.364 Y22.578 Z-0.164 F277.800 
G1 X19.690 Y22.284 Z-0.203 F277.800 
G1 X20.067 Y22.060 Z-0.242 F277.800 
G1 X20.481 Y21.913 Z-0.280 F277.800 
G1 X20.916 Y21.850 Z-0.319 F277.800 
G1 X21.354 Y21.873 Z-0.358 F277.800 
G1 X21.780 Y21.981 Z-0.396 F277.800 
G1 X22.176 Y22.170 Z-0.435 F277.800 
G1 X22.528 Y22.432 Z-0.474 F277.800 
G1 X22.822 Y22.759 Z-0.512 F277.800 
G1 X23.047 Y23.136 Z-0.551 F277.800 
G1 X23.193 Y23.550 Z-0.590 F277.800 
G1 X23.256 Y23.985 Z-0.628 F277.800 
G1 X23.233 Y24.423 Z-0.667 F277.800 
G1 X23.125 Y24.849 Z-0.706 F277.800 
G1 X22.936 Y25.245 Z-0.744 F277.800 
G1 X22.674 Y25.597 Z-0.783 F277.800 
G1 X22.347 Y25.891 Z-0.822 F277.800 
G1 X21.970 Y26.115 Z-0.860 F277.800 
G1 X21.556 Y26.262 Z-0.899 F277.800 
G1 X21.122 Y26.325 Z-0.937 F277.800 
G1 X20.683 Y26.302 Z-0.976 F277.800 
G1 X20.258 Y26.194 Z-1.015 F277.800 
G1 X19.861 Y26.005 Z-1.053 F277.800 
G1 X19.509 Y25.743 Z-1.092 F277.800 
G1 X19.215 Y25.416 Z-1.131 F277.800 
G1 X18.991 Y25.039 Z-1.169 F277.800 
G1 X18.844 Y24.625 Z-1.208 F277.800 
G1 X18.781 Y24.190 Z-1.247 F277.800 
G1 X18.804 Y23.752 Z-1.285 F277.800 
G1 X18.912 Y23.326 Z-1.324 F277.800 
G1 X19.101 Y22.930 Z-1.363 F277.800 
G1 X19.364 Y22.578 Z-1.401 F277.800 
G1 X19.690 Y22.284 Z-1.440 F277.800 
G1 X20.067 Y22.060 Z-1.479 F277.800 
G1 X20.481 Y21.913 Z-1.517 F277.800 
G1 X20.916 Y21.850 Z-1.556 F277.800 
G1 X21.354 Y21.873 Z-1.595 F277.800 
G1 X21.780 Y21.981 Z-1.633 F277.800 
G1 X22.176 Y22.170 Z-1.672 F277.800 
G1 X22.528 Y22.432 Z-1.711 F277.800 
G1 X22.822 Y22.759 Z-1.749 F277.800 
G1 X23.047 Y23.136 Z-1.788 F277.800 
G1 X23.193 Y23.550 Z-1.826 F277.800 
G1 X23.256 Y23.985 Z-1.865 F277.800 
G1 X23.233 Y24.423 Z-1.904 F277.800 
G1 X23.125 Y24.849 Z-1.942 F277.800 
G1 X22.936 Y25.245 Z-1.981 F277.800 
G1 X22.674 Y25.597 Z-2.020 F277.800 
G1 X22.347 Y25.891 Z-2.058 F277.800 
G1 X21.970 Y26.115 Z-2.097 F277.800 
G1 X21.556 Y26.262 Z-2.136 F277.800 
G1 X21.122 Y26.325 Z-2.174 F277.800 
G1 X20.683 Y26.302 Z-2.213 F277.800 
G1 X20.258 Y26.194 Z-2.252 F277.800 
G1 X19.861 Y26.005 Z-2.290 F277.800 
G1 X19.509 Y25.743 Z-2.329 F277.800 
G1 X19.215 Y25.416 Z-2.368 F277.800 
G1 X18.991 Y25.039 Z-2.406 F277.800 
G1 X18.844 Y24.625 Z-2.445 F277.800 
G1 X18.781 Y24.190 Z-2.484 F277.800 
G1 X18.804 Y23.752 Z-2.522 F277.800 
G1 X18.912 Y23.326 Z-2.561 F277.800 
G1 X19.101 Y22.930 Z-2.600 F277.800 
G1 X19.364 Y22.578 Z-2.638 F277.800 
G1 X19.690 Y22.284 Z-2.677 F277.800 
G1 X20.067 Y22.060 Z-2.715 F277.800 
G1 X20.481 Y21.913 Z-2.754 F277.800 
G1 X20.916 Y21.850 Z-2.793 F277.800 
G1 X21.354 Y21.873 Z-2.831 F277.800 
G1 X21.780 Y21.981 Z-2.870 F277.800 
G1 X22.176 Y22.170 Z-2.909 F277.800 
G1 X22.528 Y22.432 Z-2.947 F277.800 
G1 X22.822 Y22.759 Z-2.986 F277.800 
G1 X23.047 Y23.136 Z-3.025 F277.800 
G1 X23.193 Y23.550 Z-3.063 F277.800 
G1 X23.256 Y23.985 Z-3.102 F277.800 
G1 X23.233 Y24.423 Z-3.141 F277.800 
G1 X23.125 Y24.849 Z-3.179 F277.800 
G1 X22.936 Y25.245 Z-3.218 F277.800 
G1 X22.674 Y25.597 Z-3.257 F277.800 
G1 X22.347 Y25.891 Z-3.295 F277.800 
G1 X21.970 Y26.115 Z-3.334 F277.800 
G1 X21.556 Y26.262 Z-3.373 F277.800 
G1 X21.122 Y26.325 Z-3.411 F277.800 
G1 X20.683 Y26.302 Z-3.450 F277.800 
G1 X20.258 Y26.194 Z-3.488 F277.800 
G1 X19.861 Y26.005 Z-3.527 F277.800 
G1 X19.509 Y25.743 Z-3.566 F277.800 
G1 X19.215 Y25.416 Z-3.604 F277.800 
G1 X18.991 Y25.039 Z-3.643 F277.800 
G1 X18.844 Y24.625 Z-3.682 F277.800 
G1 X18.781 Y24.190 Z-3.720 F277.800 
G1 X18.804 Y23.752 Z-3.759 F277.800 
G1 X18.912 Y23.326 Z-3.798 F277.800 
G1 X19.101 Y22.930 Z-3.836 F277.800 
G1 X19.364 Y22.578 Z-3.875 F277.800 
G1 X19.690 Y22.284 Z-3.914 F277.800 
G1 X20.067 Y22.060 Z-3.952 F277.800 
G1 X20.481 Y21.913 Z-3.991 F277.800 
G1 X20.916 Y21.850 Z-4.000 F916.800 
G1 X21.354 Y21.873 Z-4.000 F916.800 
G1 X21.780 Y21.981 Z-4.000 F916.800 
G1 X22.176 Y22.170 Z-4.000 F916.800 
G1 X22.528 Y22.432 Z-4.000 F916.800 
G1 X22.822 Y22.759 Z-4.000 F916.800 
G1 X23.047 Y23.136 Z-4.000 F916.800 
G1 X23.193 Y23.550 Z-4.000 F916.800 
G1 X23.256 Y23.985 Z-4.000 F916.800 
G1 X23.233 Y24.423 Z-4.000 F916.800 
G1 X23.125 Y24.849 Z-4.000 F916.800 
G1 X22.936 Y25.245 Z-4.000 F916.800 
G1 X22.674 Y25.597 Z-4.000 F916.800 
G1 X22.347 Y25.891 Z-4.000 F916.800 
G1 X21.970 Y26.115 Z-4.000 F916.800 
G1 X21.556 Y26.262 Z-4.000 F916.800 
G1 X21.122 Y26.325 Z-4.000 F916.800 
G1 X20.683 Y26.302 Z-4.000 F916.800 
G1 X20.258 Y26.194 Z-4.000 F916.800 
G1 X19.861 Y26.005 Z-4.000 F916.800 
G1 X19.509 Y25.743 Z-4.000 F916.800 
G1 X19.215 Y25.416 Z-4.000 F916.800 
G1 X18.991 Y25.039 Z-4.000 F916.800 
G1 X18.844 Y24.625 Z-4.000 F916.800 
G1 X18.781 Y24.190 Z-4.000 F916.800 
G1 X18.804 Y23.752 Z-4.000 F916.800 
G1 X18.912 Y23.326 Z-4.000 F916.800 
G1 X19.101 Y22.930 Z-4.000 F916.800 
G1 X19.364 Y22.578 Z-4.000 F916.800 
G1 X19.690 Y22.284 Z-4.000 F916.800 
G1 X20.067 Y22.060 Z-4.000 F916.800 
G1 X20.481 Y21.913 Z-4.000 F916.800 
(Adaptive - depth: -4.000000) 
G1 X21.019 Y21.837 F916.800 
G1 X21.087 Y21.762 F916.800 
G1 X21.363 Y21.644 F916.800 
G1 X21.644 Y21.600 F916.800 
G1 X21.831 Y21.606 F916.800 
G1 X22.481 Y21.794 F916.800 
G1 X22.812 Y22.000 F916.800 
G1 X23.000 Y22.150 F916.800 
G1 X23.188 Y22.344 F916.800 
G1 X23.387 Y22.606 F916.800 
G1 X23.594 Y22.962 F916.800 
G1 X23.731 Y23.331 F916.800 
G1 X23.812 Y23.663 F916.800 
G1 X23.856 Y24.038 F916.800 
G1 X23.844 Y24.406 F916.800 
G1 X23.775 Y24.769 F916.800 
G1 X23.669 Y25.094 F916.800 
G1 X23.512 Y25.419 F916.800 
G1 X23.325 Y25.719 F916.800 
G1 X23.069 Y26.031 F916.800 
G1 X22.769 Y26.312 F916.800 
G1 X22.444 Y26.531 F916.800 
G1 X22.131 Y26.681 F916.800 
G1 X21.825 Y26.794 F916.800 
G1 X21.438 Y26.881 F916.800 
G1 X21.019 Y26.913 F916.800 
G1 X20.644 Y26.887 F916.800 
G1 X20.294 Y26.825 F916.800 
G1 X19.931 Y26.700 F916.800 
G1 X19.594 Y26.544 F916.800 
G1 X19.250 Y26.319 F916.800 
G1 X18.962 Y26.062 F916.800 
G1 X18.738 Y25.806 F916.800 
G1 X18.531 Y25.494 F916.800 
G1 X18.375 Y25.163 F916.800 
G1 X18.262 Y24.819 F916.800 
G1 X18.188 Y24.462 F916.800 
G1 X18.156 Y24.056 F916.800 
G1 X18.181 Y23.637 F916.800 
G1 X18.269 Y23.250 F916.800 
G1 X18.387 Y22.938 F916.800 
G1 X18.538 Y22.637 F916.800 
G1 X18.750 Y22.319 F916.800 
G1 X19.025 Y22.012 F916.800 
G1 X19.306 Y21.769 F916.800 
G1 X19.619 Y21.544 F916.800 
G1 X20.012 Y21.312 F916.800 
G1 X20.500 Y21.106 F916.800 
G1 X20.931 Y20.994 F916.800 
G1 X21.288 Y20.950 F916.800 
G1 X21.631 Y20.944 F916.800 
G1 X22.050 Y21.000 F916.800 
G1 X22.406 Y21.100 F916.800 
G1 X22.756 Y21.244 F916.800 
G1 X23.094 Y21.438 F916.800 
G1 X23.394 Y21.669 F916.800 
G1 X23.669 Y21.938 F916.800 
G1 X23.906 Y22.238 F916.800 
G1 X24.106 Y22.562 F916.800 
G1 X24.275 Y22.950 F916.800 
G1 X24.400 Y23.325 F916.800 
G1 X24.481 Y23.750 F916.800 
G1 X24.506 Y24.163 F916.800 
G1 X24.469 Y24.575 F916.800 
G1 X24.400 Y24.913 F916.800 
G1 X24.281 Y25.288 F916.800 
G1 X24.100 Y25.688 F916.800 
G1 X23.869 Y26.069 F916.800 
G1 X23.613 Y26.406 F916.800 
G1 X23.300 Y26.712 F916.800 
G1 X23.000 Y26.950 F916.800 
G1 X22.644 Y27.163 F916.800 
G1 X22.262 Y27.331 F916.800 
G1 X21.881 Y27.450 F916.800 
G1 X21.481 Y27.531 F916.800 
G1 X21.025 Y27.562 F916.800 
G1 X20.606 Y27.544 F916.800 
G1 X20.188 Y27.462 F916.800 
G1 X19.825 Y27.363 F916.800 
G1 X19.400 Y27.181 F916.800 
G1 X19.031 Y26.969 F916.800 
G1 X18.694 Y26.725 F916.800 
G1 X18.387 Y26.419 F916.800 
G1 X18.156 Y26.131 F916.800 
G1 X17.944 Y25.788 F916.800 
G1 X17.769 Y25.431 F916.800 
G1 X17.619 Y24.988 F916.800 
G1 X17.531 Y24.575 F916.800 
G1 X17.488 Y24.150 F916.800 
G1 X17.494 Y23.719 F916.800 
G1 X17.550 Y23.294 F916.800 
G1 X17.669 Y22.881 F916.800 
G1 X17.806 Y22.544 F916.800 
G1 X17.994 Y22.188 F916.800 
G1 X18.238 Y21.825 F916.800 
G1 X18.550 Y21.469 F916.800 
G1 X18.869 Y21.169 F916.800 
G1 X19.231 Y20.900 F916.800 
G1 X19.619 Y20.663 F916.800 
G1 X20.069 Y20.456 F916.800 
G1 X20.512 Y20.319 F916.800 
G1 X20.906 Y20.238 F916.800 
G1 X21.356 Y20.200 F916.800 
G1 X21.794 Y20.231 F916.800 
G1 X22.169 Y20.294 F916.800 
G1 X22.575 Y20.413 F916.800 
G1 X22.956 Y20.562 F916.800 
G1 X23.394 Y20.806 F916.800 
G1 X23.756 Y21.056 F916.800 
G1 X24.081 Y21.356 F916.800 
G1 X24.344 Y21.656 F916.800 
G1 X24.587 Y22.006 F916.800 
G1 X24.794 Y22.375 F916.800 
G1 X24.975 Y22.825 F916.800 
G1 X25.094 Y23.250 F916.800 
G1 X25.169 Y23.688 F916.800 
G1 X25.194 Y24.144 F916.800 
G1 X25.169 Y24.587 F916.800 
G1 X25.094 Y25.038 F916.800 
G1 X24.975 Y25.475 F916.800 
G1 X24.806 Y25.900 F916.800 
G1 X24.594 Y26.300 F916.800 
G1 X24.337 Y26.675 F916.800 
G1 X24.044 Y27.019 F916.800 
G1 X23.700 Y27.319 F916.800 
G1 X23.387 Y27.538 F916.800 
G1 X23.019 Y27.756 F916.800 
G1 X22.556 Y27.969 F916.800 
G1 X22.062 Y28.137 F916.800 
G1 X21.587 Y28.225 F916.800 
G1 X21.194 Y28.262 F916.800 
G1 X20.738 Y28.262 F916.800 
G1 X20.250 Y28.200 F916.800 
G1 X19.812 Y28.100 F916.800 
G1 X19.369 Y27.956 F916.800 
G1 X18.887 Y27.738 F916.800 
G1 X18.488 Y27.475 F916.800 
G1 X18.194 Y27.231 F916.800 
G1 X17.913 Y26.950 F916.800 
G1 X17.606 Y26.587 F916.800 
G1 X17.319 Y26.137 F916.800 
G1 X17.106 Y25.731 F916.800 
G1 X16.925 Y25.281 F916.800 
G1 X16.806 Y24.806 F916.800 
G1 X16.744 Y24.400 F916.800 
G1 X16.725 Y23.944 F916.800 
G1 X16.762 Y23.494 F916.800 
G1 X16.844 Y23.062 F916.800 
G1 X16.962 Y22.631 F916.800 
G1 X17.163 Y22.150 F916.800 
G1 X17.381 Y21.738 F916.800 
G1 X17.644 Y21.344 F916.800 
G1 X17.956 Y20.969 F916.800 
G1 X18.294 Y20.637 F916.800 
G1 X18.669 Y20.337 F916.800 
G1 X19.069 Y20.069 F916.800 
G1 X19.556 Y19.819 F916.800 
G1 X20.019 Y19.631 F916.800 
G1 X20.506 Y19.512 F916.800 
G1 X20.894 Y19.456 F916.800 
G1 X21.350 Y19.431 F916.800 
G1 X21.856 Y19.469 F916.800 
G1 X22.294 Y19.544 F916.800 
G1 X22.750 Y19.669 F916.800 
G1 X23.188 Y19.837 F916.800 
G1 X23.644 Y20.069 F916.800 
G1 X24.050 Y20.331 F916.800 
G1 X24.431 Y20.637 F916.800 
G1 X24.775 Y20.994 F916.800 
G1 X25.031 Y21.319 F916.800 
G1 X25.288 Y21.706 F916.800 
G1 X25.525 Y22.156 F916.800 
G1 X25.712 Y22.637 F916.800 
G1 X25.850 Y23.113 F916.800 
G1 X25.919 Y23.613 F916.800 
G1 X25.950 Y24.019 F916.800 
G1 X25.938 Y24.531 F916.800 
G1 X25.863 Y25.062 F916.800 
G1 X25.756 Y25.531 F916.800 
G1 X25.594 Y26.012 F916.800 
G1 X25.381 Y26.475 F916.800 
G1 X25.106 Y26.894 F916.800 
G1 X24.863 Y27.206 F916.800 
G1 X24.544 Y27.544 F916.800 
G1 X24.169 Y27.881 F916.800 
G1 X23.706 Y28.212 F916.800 
G1 X23.269 Y28.469 F916.800 
G1 X22.794 Y28.694 F916.800 
G1 X22.281 Y28.850 F916.800 
G1 X21.875 Y28.938 F916.800 
G1 X21.394 Y29.000 F916.800 
G1 X20.863 Y29.019 F916.800 
G1 X20.312 Y28.988 F916.800 
G1 X19.800 Y28.894 F916.800 
G1 X19.356 Y28.775 F916.800 
G1 X18.881 Y28.587 F916.800 
G1 X18.438 Y28.356 F916.800 
G1 X18.031 Y28.094 F916.800 
G1 X17.644 Y27.781 F916.800 
G1 X17.294 Y27.438 F916.800 
G1 X16.975 Y27.062 F916.800 
G1 X16.700 Y26.656 F916.800 
G1 X16.469 Y26.225 F916.800 
G1 X16.269 Y25.775 F916.800 
G1 X16.100 Y25.244 F916.800 
G1 X15.994 Y24.744 F916.800 
G1 X15.944 Y24.225 F916.800 
G1 X15.938 Y23.769 F916.800 
G1 X15.988 Y23.275 F916.800 
G1 X16.087 Y22.794 F916.800 
G1 X16.219 Y22.331 F916.800 
G1 X16.425 Y21.825 F916.800 
G1 X16.656 Y21.381 F916.800 
G1 X16.931 Y20.956 F916.800 
G1 X17.250 Y20.544 F916.800 
G1 X17.644 Y20.131 F916.800 
G1 X18.044 Y19.781 F916.800 
G1 X18.475 Y19.462 F916.800 
G1 X18.944 Y19.188 F916.800 
G1 X19.438 Y18.975 F916.800 
G1 X19.875 Y18.825 F916.800 
G1 X20.369 Y18.706 F916.800 
G1 X20.863 Y18.644 F916.800 
G1 X21.344 Y18.619 F916.800 
G1 X21.900 Y18.650 F916.800 
G1 X22.400 Y18.731 F916.800 
G1 X22.900 Y18.856 F916.800 
G1 X23.394 Y19.038 F916.800 
G1 X23.863 Y19.256 F916.800 
G1 X24.312 Y19.519 F916.800 
G1 X24.731 Y19.825 F916.800 
G1 X25.119 Y20.169 F916.800 
G1 X25.475 Y20.550 F916.800 
G1 X25.794 Y20.962 F916.800 
G1 X26.069 Y21.406 F916.800 
G1 X26.300 Y21.875 F916.800 
G1 X26.488 Y22.363 F916.800 
G1 X26.631 Y22.863 F916.800 
G1 X26.725 Y23.375 F916.800 
G1 X26.769 Y23.894 F916.800 
G1 X26.762 Y24.413 F916.800 
G1 X26.706 Y24.931 F916.800 
G1 X26.600 Y25.444 F916.800 
G1 X26.456 Y25.944 F916.800 
G1 X26.238 Y26.494 F916.800 
G1 X25.975 Y26.969 F916.800 
G1 X25.725 Y27.350 F916.800 
G1 X25.406 Y27.762 F916.800 
G1 X25.000 Y28.181 F916.800 
G1 X24.606 Y28.525 F916.800 
G1 X24.169 Y28.844 F916.800 
G1 X23.700 Y29.119 F916.800 
G1 X23.219 Y29.344 F916.800 
G1 X22.712 Y29.525 F916.800 
G1 X22.188 Y29.663 F916.800 
G1 X21.656 Y29.750 F916.800 
G1 X21.119 Y29.800 F916.800 
G1 X20.512 Y29.794 F916.800 
G1 X19.956 Y29.744 F916.800 
G1 X19.406 Y29.613 F916.800 
G1 X18.988 Y29.481 F916.800 
G1 X18.506 Y29.294 F916.800 
G1 X17.988 Y29.025 F916.800 
G1 X17.500 Y28.719 F916.800 
G1 X17.075 Y28.356 F916.800 
G1 X16.781 Y28.062 F916.800 
G1 X16.450 Y27.688 F916.800 
G1 X16.087 Y27.194 F916.800 
G1 X15.769 Y26.663 F916.800 
G1 X15.531 Y26.137 F916.800 
G1 X15.369 Y25.694 F916.800 
G1 X15.231 Y25.163 F916.800 
G1 X15.150 Y24.637 F916.800 
G1 X15.119 Y24.125 F916.800 
G1 X15.125 Y23.600 F916.800 
G1 X15.194 Y23.006 F916.800 
G1 X15.300 Y22.469 F916.800 
G1 X15.456 Y21.938 F916.800 
G1 X15.669 Y21.413 F916.800 
G1 X15.919 Y20.919 F916.800 
G1 X16.212 Y20.444 F916.800 
G1 X16.550 Y20.000 F916.800 
G1 X16.925 Y19.587 F916.800 
G1 X17.331 Y19.212 F916.800 
G1 X17.775 Y18.875 F916.800 
G1 X18.244 Y18.575 F916.800 
G1 X18.738 Y18.319 F916.800 
G1 X19.250 Y18.113 F916.800 
G1 X19.781 Y17.950 F916.800 
G1 X20.325 Y17.837 F916.800 
G1 X20.875 Y17.775 F916.800 
G1 X21.425 Y17.762 F916.800 
G1 X21.975 Y17.800 F916.800 
G1 X22.519 Y17.887 F916.800 
G1 X23.056 Y18.019 F916.800 
G1 X23.575 Y18.200 F916.800 
G1 X24.081 Y18.419 F916.800 
G1 X24.625 Y18.719 F916.800 
G1 X25.100 Y19.031 F916.800 
G1 X25.538 Y19.406 F916.800 
G1 X25.875 Y19.744 F916.800 
G1 X26.231 Y20.150 F916.800 
G1 X26.587 Y20.644 F916.800 
G1 X26.906 Y21.175 F916.800 
G1 X27.144 Y21.712 F916.800 
G1 X27.306 Y22.156 F916.800 
G1 X27.444 Y22.694 F916.800 
G1 X27.538 Y23.219 F916.800 
G1 X27.587 Y23.819 F916.800 
G1 X27.581 Y24.375 F916.800 
G1 X27.531 Y24.938 F916.800 
G1 X27.431 Y25.500 F916.800 
G1 X27.281 Y26.044 F916.800 
G1 X27.087 Y26.575 F916.800 
G1 X26.844 Y27.094 F916.800 
G1 X26.556 Y27.581 F916.800 
G1 X26.225 Y28.050 F916.800 
G1 X25.856 Y28.488 F916.800 
G1 X25.450 Y28.894 F916.800 
G1 X25.006 Y29.262 F916.800 
G1 X24.531 Y29.594 F916.800 
G1 X24.031 Y29.881 F916.800 
G1 X23.506 Y30.125 F916.800 
G1 X22.962 Y30.319 F916.800 
G1 X22.406 Y30.469 F916.800 
G1 X21.837 Y30.569 F916.800 
G1 X21.262 Y30.619 F916.800 
G1 X20.688 Y30.619 F916.800 
G1 X20.113 Y30.581 F916.800 
G1 X19.469 Y30.481 F916.800 
G1 X18.894 Y30.319 F916.800 
G1 X18.425 Y30.156 F916.800 
G1 X17.900 Y29.925 F916.800 
G1 X17.350 Y29.613 F916.800 
G1 X16.887 Y29.300 F916.800 
G1 X16.438 Y28.913 F916.800 
G1 X16.100 Y28.569 F916.800 
G1 X15.744 Y28.163 F916.800 
G1 X15.363 Y27.644 F916.800 
G1 X15.012 Y27.069 F916.800 
G1 X14.762 Y26.512 F916.800 
G1 X14.594 Y26.069 F916.800 
G1 X14.444 Y25.512 F916.800 
G1 X14.344 Y24.981 F916.800 
G1 X14.269 Y24.344 F916.800 
G1 X14.250 Y23.688 F916.800 
G1 X14.300 Y23.081 F916.800 
G1 X14.375 Y22.587 F916.800 
G1 X14.519 Y22.025 F916.800 
G1 X14.688 Y21.494 F916.800 
G1 X14.950 Y20.875 F916.800 
G1 X15.225 Y20.350 F916.800 
G1 X15.544 Y19.844 F916.800 
G1 X15.919 Y19.350 F916.800 
G1 X16.325 Y18.900 F916.800 
G1 X16.781 Y18.488 F916.800 
G1 X17.194 Y18.163 F916.800 
G1 X17.681 Y17.850 F916.800 
G1 X18.188 Y17.587 F916.800 
G1 X18.694 Y17.363 F916.800 
G1 X19.312 Y17.156 F916.800 
G1 X19.887 Y17.012 F916.800 
G1 X20.475 Y16.913 F916.800 
G1 X21.081 Y16.869 F916.800 
G1 X21.675 Y16.869 F916.800 
G1 X22.275 Y16.919 F916.800 
G1 X22.869 Y17.019 F916.800 
G1 X23.444 Y17.188 F916.800 
G1 X23.913 Y17.350 F916.800 
G1 X24.494 Y17.619 F916.800 
G1 X24.994 Y17.894 F916.800 
G1 X25.525 Y18.250 F916.800 
G1 X26.006 Y18.631 F916.800 
G1 X26.450 Y19.044 F916.800 
G1 X26.869 Y19.506 F916.800 
G1 X27.244 Y19.994 F916.800 
G1 X27.562 Y20.519 F916.800 
G1 X27.794 Y20.975 F916.800 
G1 X28.006 Y21.512 F916.800 
G1 X28.181 Y22.050 F916.800 
G1 X28.331 Y22.706 F916.800 
G1 X28.419 Y23.300 F916.800 
G1 X28.462 Y23.906 F916.800 
G1 X28.450 Y24.531 F916.800 
G1 X28.394 Y25.137 F916.800 
G1 X28.269 Y25.738 F916.800 
G1 X28.125 Y26.225 F916.800 
G1 X27.938 Y26.775 F916.800 
G1 X27.631 Y27.419 F916.800 
G1 X27.344 Y27.938 F916.800 
G1 X27.000 Y28.456 F916.800 
G1 X26.600 Y28.956 F916.800 
G1 X26.181 Y29.406 F916.800 
G1 X25.706 Y29.812 F916.800 
G1 X25.300 Y30.106 F916.800 
G1 X24.812 Y30.419 F916.800 
G1 X24.231 Y30.731 F916.800 
G1 X23.600 Y31.006 F916.800 
G1 X23.000 Y31.219 F916.800 
G1 X22.350 Y31.369 F916.800 
G1 X21.831 Y31.450 F916.800 
G1 X21.231 Y31.494 F916.800 
G1 X20.644 Y31.494 F916.800 
G1 X19.981 Y31.438 F916.800 
G1 X19.369 Y31.337 F916.800 
G1 X18.756 Y31.188 F916.800 
G1 X18.150 Y30.988 F916.800 
G1 X17.569 Y30.744 F916.800 
G1 X17.025 Y30.431 F916.800 
G1 X16.619 Y30.163 F916.800 
G1 X16.163 Y29.819 F916.800 
G1 X15.644 Y29.356 F916.800 
G1 X15.162 Y28.850 F916.800 
G1 X14.762 Y28.337 F916.800 
G1 X14.456 Y27.881 F916.800 
G1 X14.150 Y27.337 F916.800 
G1 X13.900 Y26.788 F916.800 
G1 X13.700 Y26.231 F916.800 
G1 X13.544 Y25.650 F916.800 
G1 X13.438 Y25.062 F916.800 
G1 X13.369 Y24.469 F916.800 
G1 X13.350 Y23.788 F916.800 
G1 X13.381 Y23.163 F916.800 
G1 X13.463 Y22.531 F916.800 
G1 X13.594 Y21.900 F916.800 
G1 X13.769 Y21.294 F916.800 
G1 X13.994 Y20.694 F916.800 
G1 X14.269 Y20.113 F916.800 
G1 X14.588 Y19.556 F916.800 
G1 X14.969 Y19.044 F916.800 
G1 X15.281 Y18.656 F916.800 
G1 X15.744 Y18.169 F916.800 
G1 X16.256 Y17.725 F916.800 
G1 X16.731 Y17.363 F916.800 
G1 X17.275 Y17.019 F916.800 
G1 X17.837 Y16.719 F916.800 
G1 X18.413 Y16.469 F916.800 
G1 X19.012 Y16.262 F916.800 
G1 X19.625 Y16.106 F916.800 
G1 X20.244 Y15.994 F916.800 
G1 X20.875 Y15.931 F916.800 
G1 X21.506 Y15.919 F916.800 
G1 X22.137 Y15.956 F916.800 
G1 X22.762 Y16.044 F916.800 
G1 X23.381 Y16.181 F916.800 
G1 X23.988 Y16.369 F916.800 
G1 X24.575 Y16.600 F916.800 
G1 X25.144 Y16.881 F916.800 
G1 X25.688 Y17.206 F916.800 
G1 X26.206 Y17.569 F916.800 
G1 X26.694 Y17.975 F916.800 
G1 X27.150 Y18.419 F916.800 
G1 X27.569 Y18.894 F916.800 
G1 X27.950 Y19.400 F916.800 
G1 X28.288 Y19.938 F916.800 
G1 X28.581 Y20.500 F916.800 
G1 X28.831 Y21.081 F916.800 
G1 X29.031 Y21.681 F916.800 
G1 X29.188 Y22.294 F916.800 
G1 X29.294 Y22.919 F916.800 
G1 X29.350 Y23.550 F916.800 
G1 X29.356 Y24.181 F916.800 
G1 X29.312 Y24.812 F916.800 
G1 X29.231 Y25.444 F916.800 
G1 X29.081 Y26.150 F916.800 
G1 X28.894 Y26.781 F916.800 
G1 X28.637 Y27.400 F916.800 
G1 X28.400 Y27.875 F916.800 
G1 X28.094 Y28.413 F916.800 
G1 X27.700 Y29.000 F916.800 
G1 X27.238 Y29.581 F916.800 
G1 X26.744 Y30.062 F916.800 
G1 X26.381 Y30.381 F916.800 
G1 X25.900 Y30.756 F916.800 
G1 X25.275 Y31.175 F916.800 
G1 X24.619 Y31.544 F916.800 
G1 X23.969 Y31.812 F916.800 
G1 X23.488 Y31.981 F916.800 
G1 X22.875 Y32.156 F916.800 
G1 X22.175 Y32.281 F916.800 
G1 X21.569 Y32.350 F916.800 
G1 X20.925 Y32.375 F916.800 
G1 X20.275 Y32.344 F916.800 
G1 X19.644 Y32.269 F916.800 
G1 X19.006 Y32.163 F916.800 
G1 X18.275 Y31.975 F916.800 
G1 X17.619 Y31.719 F916.800 
G1 X17.137 Y31.506 F916.800 
G1 X16.556 Y31.181 F916.800 
G1 X16.044 Y30.837 F916.800 
G1 X15.562 Y30.481 F916.800 
G1 X15.012 Y29.981 F916.800 
G1 X14.562 Y29.512 F916.800 
G1 X14.144 Y29.012 F916.800 
G1 X13.750 Y28.456 F916.800 
G1 X13.412 Y27.887 F916.800 
G1 X13.113 Y27.294 F916.800 
G1 X12.887 Y26.669 F916.800 
G1 X12.744 Y26.181 F916.800 
G1 X12.606 Y25.594 F916.800 
G1 X12.494 Y24.856 F916.800 
G1 X12.431 Y24.106 F916.800 
G1 X12.419 Y23.419 F916.800 
G1 X12.494 Y22.694 F916.800 
G1 X12.575 Y22.175 F916.800 
G1 X12.713 Y21.556 F916.800 
G1 X12.919 Y20.863 F916.800 
G1 X13.188 Y20.163 F916.800 
G1 X13.506 Y19.538 F916.800 
G1 X13.781 Y19.062 F916.800 
G1 X14.156 Y18.525 F916.800 
G1 X14.562 Y18.044 F916.800 
G1 X14.981 Y17.606 F916.800 
G1 X15.438 Y17.175 F916.800 
G1 X16.031 Y16.712 F916.800 
G1 X16.587 Y16.331 F916.800 
G1 X17.188 Y15.975 F916.800 
G1 X17.837 Y15.656 F916.800 
G1 X18.494 Y15.419 F916.800 
G1 X19.000 Y15.269 F916.800 
G1 X19.631 Y15.137 F916.800 
G1 X20.238 Y15.044 F916.800 
G1 X20.981 Y14.981 F916.800 
G1 X21.725 Y14.975 F916.800 
G1 X22.438 Y15.044 F916.800 
G1 X22.994 Y15.125 F916.800 
G1 X23.644 Y15.281 F916.800 
G1 X24.262 Y15.469 F916.800 
G1 X25.800 Y16.150 F916.800 
G1 X26.988 Y16.950 F916.800 
G1 X27.831 Y17.738 F916.800 
G1 X28.306 Y18.312 F916.800 
G1 X28.744 Y18.913 F916.800 
G1 X29.137 Y19.544 F916.800 
G1 X29.475 Y20.206 F916.800 
G1 X29.706 Y20.800 F916.800 
G1 X29.875 Y21.331 F916.800 
G1 X30.044 Y21.956 F916.800 
G1 X30.188 Y22.688 F916.800 
G1 X30.275 Y23.431 F916.800 
G1 X30.275 Y24.169 F916.800 
G1 X30.250 Y24.694 F916.800 
G1 X30.163 Y25.356 F916.800 
G1 X30.044 Y25.981 F916.800 
G1 X29.850 Y26.706 F916.800 
G1 X29.625 Y27.363 F916.800 
G1 X29.350 Y28.012 F916.800 
G1 X29.019 Y28.663 F916.800 
G1 X28.631 Y29.256 F916.800 
G1 X28.300 Y29.700 F916.800 
G1 X27.869 Y30.194 F916.800 
G1 X27.431 Y30.644 F916.800 
G1 X26.869 Y31.137 F916.800 
G1 X26.331 Y31.562 F916.800 
G1 X25.712 Y31.988 F916.800 
G1 X25.044 Y32.331 F916.800 
G1 X24.562 Y32.550 F916.800 
G1 X23.931 Y32.794 F916.800 
G1 X23.206 Y32.994 F916.800 
G1 X22.581 Y33.125 F916.800 
G1 X21.800 Y33.225 F916.800 
G1 X19.900 Y33.206 F916.800 
G1 X19.400 Y33.138 F916.800 
G1 X18.663 Y32.994 F916.800 
G1 X17.931 Y32.800 F916.800 
G1 X17.225 Y32.538 F916.800 
G1 X16.650 Y32.275 F916.800 
G1 X16.100 Y31.981 F916.800 
G1 X15.512 Y31.600 F916.800 
G1 X15.000 Y31.206 F916.800 
G1 X14.506 Y30.775 F916.800 
G1 X14.031 Y30.306 F916.800 
G1 X13.162 Y29.225 F916.800 
G1 X12.575 Y28.244 F916.800 
G1 X12.150 Y27.306 F916.800 
G1 X11.887 Y26.600 F916.800 
G1 X11.700 Y25.869 F916.800 
G1 X11.562 Y25.125 F916.800 
G1 X11.494 Y24.456 F916.800 
G1 X11.469 Y23.837 F916.800 
G1 X11.500 Y23.144 F916.800 
G1 X11.562 Y22.488 F916.800 
G1 X11.694 Y21.744 F916.800 
G1 X11.863 Y21.062 F916.800 
G1 X12.081 Y20.387 F916.800 
G1 X12.350 Y19.719 F916.800 
G1 X12.656 Y19.081 F916.800 
G1 X13.031 Y18.475 F916.800 
G1 X13.363 Y18.006 F916.800 
G1 X13.775 Y17.494 F916.800 
G1 X14.275 Y16.950 F916.800 
G1 X14.819 Y16.438 F916.800 
G1 X15.369 Y15.981 F916.800 
G1 X15.969 Y15.544 F916.800 
G1 X16.606 Y15.169 F916.800 
G1 X17.156 Y14.887 F916.800 
G1 X17.800 Y14.619 F916.800 
G1 X18.450 Y14.406 F916.800 
G1 X19.094 Y14.244 F916.800 
G1 X19.762 Y14.125 F916.800 
G1 X20.431 Y14.044 F916.800 
G1 X21.175 Y14.012 F916.800 
G1 X21.881 Y14.031 F916.800 
G1 X22.600 Y14.094 F916.800 
G1 X23.331 Y14.213 F916.800 
G1 X24.781 Y14.606 F916.800 
G1 X25.106 Y14.806 F916.800 
G1 X26.106 Y15.706 F916.800 
G1 X27.113 Y16.419 F916.800 
G1 X28.413 Y17.225 F916.800 
G1 X29.206 Y18.056 F916.800 
G1 X29.431 Y18.356 F916.800 
G1 X29.844 Y18.975 F916.800 
G1 X30.200 Y19.631 F916.800 
G1 X30.506 Y20.312 F916.800 
G1 X30.725 Y20.931 F916.800 
G1 X30.894 Y21.494 F916.800 
G1 X31.044 Y22.225 F916.800 
G1 X31.131 Y22.894 F916.800 
G1 X31.175 Y23.562 F916.800 
G1 X31.181 Y24.262 F916.800 
G1 X31.131 Y25.006 F916.800 
G1 X31.038 Y25.731 F916.800 
G1 X30.894 Y26.462 F916.800 
G1 X30.700 Y27.188 F916.800 
G1 X30.431 Y27.887 F916.800 
G1 X30.200 Y28.413 F916.800 
G1 X29.869 Y29.012 F916.800 
G1 X29.525 Y29.575 F916.800 
G1 X29.081 Y30.181 F916.800 
G1 X28.619 Y30.731 F916.800 
G1 X28.119 Y31.256 F916.800 
G1 X27.562 Y31.762 F916.800 
G1 X26.988 Y32.219 F916.800 
G1 X26.381 Y32.638 F916.800 
G1 X25.750 Y33.019 F916.800 
G1 X25.081 Y33.331 F916.800 
G1 X23.506 Y33.819 F916.800 
G1 X22.506 Y33.944 F916.800 
G1 X18.906 Y33.894 F916.800 
G1 X17.906 Y33.694 F916.800 
G1 X16.625 Y33.237 F916.800 
G1 X15.669 Y32.769 F916.800 
G1 X15.025 Y32.375 F916.800 
G1 X14.412 Y31.931 F916.800 
G1 X13.912 Y31.506 F916.800 
G1 X13.181 Y30.750 F916.800 
G1 X13.062 Y30.581 F916.800 
G1 X13.019 Y30.488 F916.800 
G1 X12.900 Y29.887 F916.800 
G1 X12.637 Y29.212 F916.800 
G1 X12.431 Y28.844 F916.800 
G1 X11.512 Y27.688 F916.800 
G1 X11.144 Y26.944 F916.800 
G1 X10.994 Y26.544 F916.800 
G1 X10.781 Y25.819 F916.800 
G1 X10.631 Y25.081 F916.800 
G1 X10.550 Y24.331 F916.800 
G1 X10.525 Y23.744 F916.800 
G1 X10.544 Y23.100 F916.800 
G1 X10.606 Y22.425 F916.800 
G1 X10.731 Y21.681 F916.800 
G1 X10.875 Y21.006 F916.800 
G1 X11.088 Y20.288 F916.800 
G1 X11.350 Y19.581 F916.800 
G1 X11.650 Y18.894 F916.800 
G1 X12.031 Y18.244 F916.800 
G1 X12.325 Y17.788 F916.800 
G1 X12.725 Y17.231 F916.800 
G1 X13.206 Y16.656 F916.800 
G1 X13.725 Y16.113 F916.800 
G1 X14.269 Y15.594 F916.800 
G1 X14.844 Y15.113 F916.800 
G1 X15.469 Y14.694 F916.800 
G1 X15.975 Y14.387 F916.800 
G1 X16.625 Y14.056 F916.800 
G1 X17.269 Y13.775 F916.800 
G1 X17.975 Y13.525 F916.800 
G1 X18.694 Y13.319 F916.800 
G1 X19.425 Y13.156 F916.800 
G1 X20.163 Y13.050 F916.800 
G1 X20.906 Y13.019 F916.800 
G1 X21.494 Y13.025 F916.800 
G1 X22.188 Y13.056 F916.800 
G1 X23.681 Y13.256 F916.800 
G1 X23.775 Y13.287 F916.800 
G1 X23.925 Y13.400 F916.800 
G1 X24.038 Y13.550 F916.800 
G1 X24.038 Y13.550 F916.800 
G1 X24.137 Y13.762 F916.800 
G1 X24.163 Y13.944 F916.800 
G0 X24.156 Y14.000 
G0 X24.025 Y14.594 
G0 X24.038 Y14.700 
G0 X26.387 Y16.681 
G0 X26.619 Y16.775 
G0 X27.363 Y16.894 
G1 X27.425 Y16.906 F916.800 
G1 X27.731 Y16.938 F916.800 
G1 X28.044 Y16.950 F916.800 
G1 X28.231 Y17.006 F916.800 
G1 X28.231 Y17.006 F916.800 
G1 X29.450 Y17.562 F916.800 
G1 X29.781 Y17.762 F916.800 
G1 X30.531 Y18.625 F916.800 
G1 X30.988 Y19.337 F916.800 
G1 X31.325 Y20.006 F916.800 
G1 X31.575 Y20.637 F916.800 
G1 X31.738 Y21.194 F916.800 
G1 X31.863 Y21.712 F916.800 
G1 X32.006 Y22.444 F916.800 
G1 X32.081 Y23.188 F916.800 
G1 X32.112 Y23.881 F916.800 
G1 X32.100 Y24.625 F916.800 
G1 X32.050 Y25.369 F916.800 
G1 X31.950 Y26.106 F916.800 
G1 X31.781 Y26.831 F916.800 
G1 X31.606 Y27.438 F916.800 
G1 X31.350 Y28.137 F916.800 
G1 X31.050 Y28.794 F916.800 
G1 X30.719 Y29.413 F916.800 
G1 X30.331 Y30.031 F916.800 
G1 X29.919 Y30.619 F916.800 
G1 X29.444 Y31.200 F916.800 
G1 X28.938 Y31.750 F916.800 
G1 X28.400 Y32.269 F916.800 
G1 X27.825 Y32.750 F916.800 
G1 X27.219 Y33.194 F916.800 
G1 X26.056 Y33.800 F916.800 
G1 X25.675 Y33.925 F916.800 
G1 X25.575 Y33.944 F916.800 
G1 X23.075 Y33.944 F916.800 
G1 X23.075 Y33.944 F916.800 
G1 X22.819 Y33.894 F916.800 
G1 X22.706 Y33.831 F916.800 
G1 X22.669 Y33.794 F916.800 
G0 X22.650 Y33.750 
G0 X22.669 Y33.600 
G0 X29.000 Y18.038 
G1 X29.044 Y17.931 F916.800 
G1 X29.150 Y17.719 F916.800 
G1 X29.244 Y17.631 F916.800 
G1 X29.356 Y17.587 F916.800 
G1 X29.675 Y17.594 F916.800 
G1 X29.675 Y17.594 F916.800 
G1 X30.238 Y17.756 F916.800 
G1 X30.669 Y17.950 F916.800 
G1 X31.100 Y18.325 F916.800 
G1 X31.519 Y18.837 F916.800 
G1 X31.925 Y19.462 F916.800 
G1 X32.263 Y20.125 F916.800 
G1 X32.500 Y20.712 F916.800 
G1 X32.663 Y21.244 F916.800 
G1 X32.800 Y21.788 F916.800 
G1 X32.938 Y22.506 F916.800 
G1 X33.025 Y23.250 F916.800 
G1 X33.069 Y23.994 F916.800 
G1 X33.062 Y24.738 F916.800 
G1 X33.006 Y25.481 F916.800 
G1 X32.906 Y26.219 F916.800 
G1 X32.756 Y26.950 F916.800 
G1 X32.538 Y27.663 F916.800 
G1 X32.331 Y28.231 F916.800 
G1 X32.056 Y28.887 F916.800 
G1 X31.725 Y29.556 F916.800 
G1 X31.350 Y30.206 F916.800 
G1 X30.944 Y30.831 F916.800 
G1 X30.500 Y31.431 F916.800 
G1 X30.019 Y32.006 F916.800 
G1 X29.506 Y32.550 F916.800 
G1 X28.962 Y33.062 F916.800 
G1 X28.369 Y33.525 F916.800 
G1 X27.863 Y33.850 F916.800 
G1 X27.569 Y33.944 F916.800 
G1 X26.069 Y33.944 F916.800 
G1 X26.069 Y33.944 F916.800 
G1 X25.812 Y33.894 F916.800 
G1 X25.700 Y33.831 F916.800 
G1 X25.663 Y33.794 F916.800 
G0 X25.637 Y33.750 
G0 X25.637 Y33.587 
G0 X29.869 Y18.306 
G1 X29.900 Y18.194 F916.800 
G1 X29.975 Y17.969 F916.800 
G1 X30.056 Y17.875 F916.800 
G1 X30.225 Y17.806 F916.800 
G1 X30.488 Y17.800 F916.800 
G1 X30.488 Y17.800 F916.800 
G1 X31.331 Y18.000 F916.800 
G1 X31.594 Y18.113 F916.800 
G1 X31.894 Y18.350 F916.800 
G1 X32.475 Y19.000 F916.800 
G1 X32.888 Y19.625 F916.800 
G1 X33.225 Y20.294 F916.800 
G1 X33.656 Y21.675 F916.800 
G1 X33.831 Y22.613 F916.800 
G1 X33.913 Y24.956 F916.800 
G1 X33.788 Y26.269 F916.800 
G1 X33.244 Y28.238 F916.800 
G1 X32.869 Y29.219 F916.800 
G1 X32.569 Y29.906 F916.800 
G1 X32.225 Y30.569 F916.800 
G1 X31.837 Y31.212 F916.800 
G1 X31.406 Y31.825 F916.800 
G1 X30.950 Y32.400 F916.800 
G1 X30.444 Y32.956 F916.800 
G1 X29.900 Y33.475 F916.800 
G1 X29.419 Y33.837 F916.800 
G1 X29.231 Y33.919 F916.800 
G1 X29.131 Y33.944 F916.800 
G1 X28.431 Y33.944 F916.800 
G1 X28.431 Y33.944 F916.800 
G1 X28.175 Y33.894 F916.800 
G1 X28.062 Y33.831 F916.800 
G1 X28.025 Y33.794 F916.800 
G0 X28.000 Y33.750 
G0 X27.994 Y33.531 
G0 X30.856 Y18.506 
G1 X30.881 Y18.394 F916.800 
G1 X30.938 Y18.169 F916.800 
G1 X31.012 Y18.069 F916.800 
G1 X31.175 Y17.988 F916.800 
G1 X31.431 Y17.962 F916.800 
G1 X31.431 Y17.962 F916.800 
G1 X32.181 Y18.106 F916.800 
G1 X32.531 Y18.256 F916.800 
G1 X32.837 Y18.494 F916.800 
G1 X33.231 Y18.913 F916.800 
G1 X33.806 Y19.781 F916.800 
G1 X33.931 Y20.150 F916.800 
G1 X33.944 Y23.337 F916.800 
G1 X33.944 Y23.337 F916.800 
G1 X33.894 Y23.575 F916.800 
G1 X33.844 Y23.675 F916.800 
G1 X33.812 Y23.706 F916.800 
G0 X33.781 Y23.706 
G0 X33.731 Y23.656 
G0 X32.575 Y20.712 
G0 X31.887 Y18.538 
G1 X31.863 Y18.469 F916.800 
G1 X31.825 Y18.275 F916.800 
G1 X31.837 Y18.219 F916.800 
G1 X31.913 Y18.144 F916.800 
G1 X32.075 Y18.087 F916.800 
G1 X32.269 Y18.075 F916.800 
G1 X32.269 Y18.075 F916.800 
G1 X32.731 Y18.206 F916.800 
G1 X33.069 Y18.387 F916.800 
G1 X33.431 Y18.694 F916.800 
G1 X33.650 Y19.000 F916.800 
G1 X33.825 Y19.344 F916.800 
G1 X33.906 Y19.625 F916.800 
G1 X33.906 Y19.625 F916.800 
G1 X33.862 Y19.931 F916.800 
G1 X33.812 Y20.044 F916.800 
G0 X33.781 Y20.094 
G0 X33.350 Y20.544 
G0 X33.312 Y20.650 
G0 X33.231 Y23.775 
G0 X33.606 Y24.681 
G1 X33.638 Y24.738 F916.800 
G1 X33.744 Y24.962 F916.800 
G1 X33.894 Y25.244 F916.800 
G1 X33.944 Y25.500 F916.800 
G1 X33.944 Y25.500 F916.800 
G1 X33.913 Y28.125 F916.800 
G1 X33.800 Y28.875 F916.800 
G1 X33.206 Y30.431 F916.800 
G1 X32.788 Y31.281 F916.800 
G1 X32.406 Y31.925 F916.800 
G1 X31.988 Y32.544 F916.800 
G1 X31.512 Y33.125 F916.800 
G1 X31.094 Y33.594 F916.800 
G1 X30.775 Y33.844 F916.800 
G1 X30.594 Y33.925 F916.800 
G1 X30.494 Y33.944 F916.800 
G1 X29.794 Y33.944 F916.800 
G1 X29.794 Y33.944 F916.800 
G1 X29.538 Y33.894 F916.800 
G1 X29.431 Y33.837 F916.800 
G1 X29.394 Y33.800 F916.800 
G0 X29.381 Y33.756 
G0 X29.400 Y33.669 
G0 X33.525 Y28.319 
G1 X33.575 Y28.250 F916.800 
G1 X33.675 Y28.144 F916.800 
G1 X33.719 Y28.106 F916.800 
G1 X33.763 Y28.100 F916.800 
G1 X33.837 Y28.150 F916.800 
G1 X33.913 Y28.306 F916.800 
G1 X33.944 Y28.500 F916.800 
G1 X33.944 Y28.500 F916.800 
G1 X33.919 Y30.094 F916.800 
G1 X33.819 Y30.656 F916.800 
G1 X33.325 Y31.837 F916.800 
G1 X32.706 Y32.925 F916.800 
G1 X32.188 Y33.531 F916.800 
G1 X31.819 Y33.869 F916.800 
G1 X31.631 Y33.944 F916.800 
G1 X31.231 Y33.944 F916.800 
G1 X31.231 Y33.944 F916.800 
G1 X30.975 Y33.894 F916.800 
G1 X30.869 Y33.837 F916.800 
G1 X30.831 Y33.800 F916.800 
G0 X30.819 Y33.756 
G0 X30.844 Y33.669 
G0 X33.531 Y30.225 
G1 X33.581 Y30.163 F916.800 
G1 X33.675 Y30.056 F916.800 
G1 X33.719 Y30.025 F916.800 
G1 X33.763 Y30.019 F916.800 
G1 X33.837 Y30.069 F916.800 
G1 X33.913 Y30.225 F916.800 
G1 X33.944 Y30.419 F916.800 
G1 X33.944 Y30.419 F916.800 
G1 X33.919 Y31.637 F916.800 
G1 X33.806 Y32.200 F916.800 
G1 X33.569 Y32.737 F916.800 
G1 X33.206 Y33.331 F916.800 
G1 X32.856 Y33.694 F916.800 
G1 X32.587 Y33.837 F916.800 
G1 X32.188 Y33.919 F916.800 
G1 X31.887 Y33.938 F916.800 
G1 X31.887 Y33.938 F916.800 
G1 X31.631 Y33.900 F916.800 
G1 X31.525 Y33.850 F916.800 
G1 X31.488 Y33.819 F916.800 
G0 X31.475 Y33.781 
G0 X31.506 Y33.700 
G0 X33.506 Y31.644 
G1 X33.550 Y31.594 F916.800 
G1 X33.681 Y31.475 F916.800 
G1 X33.725 Y31.450 F916.800 
G1 X33.763 Y31.450 F916.800 
G1 X33.837 Y31.512 F916.800 
G1 X33.913 Y31.669 F916.800 
G1 X33.944 Y31.863 F916.800 
G1 X33.944 Y31.863 F916.800 
G1 X33.906 Y32.331 F916.800 
G1 X33.800 Y32.706 F916.800 
G1 X33.669 Y32.969 F916.800 
G1 X33.438 Y33.294 F916.800 
G1 X33.138 Y33.556 F916.800 
G1 X32.881 Y33.712 F916.800 
G1 X32.881 Y33.712 F916.800 
G1 X32.631 Y33.756 F916.800 
G1 X32.444 Y33.731 F916.800 
G0 X32.388 Y33.712 
G0 X31.669 Y33.362 
G0 X25.225 Y33.256 
G0 X20.031 Y33.300 
G0 X19.481 Y33.581 
G1 X19.425 Y33.612 F916.800 
G1 X19.025 Y33.875 F916.800 
G1 X18.731 Y33.944 F916.800 
G1 X18.731 Y33.944 F916.800 
G1 X16.831 Y33.913 F916.800 
G1 X16.231 Y33.806 F916.800 
G1 X15.275 Y33.419 F916.800 
G1 X14.537 Y33.025 F916.800 
G1 X13.738 Y32.494 F916.800 
G1 X13.188 Y32.006 F916.800 
G1 X13.119 Y31.925 F916.800 
G1 X13.069 Y31.831 F916.800 
G1 X13.056 Y31.731 F916.800 
G1 X13.056 Y31.731 F916.800 
G1 X13.100 Y31.475 F916.800 
G1 X13.150 Y31.375 F916.800 
G1 X13.188 Y31.337 F916.800 
G0 X13.231 Y31.325 
G0 X13.375 Y31.363 
G0 X15.419 Y32.612 
G0 X16.725 Y33.550 
G1 X16.775 Y33.587 F916.800 
G1 X16.913 Y33.700 F916.800 
G1 X16.944 Y33.737 F916.800 
G1 X16.944 Y33.775 F916.800 
G1 X16.894 Y33.844 F916.800 
G1 X16.744 Y33.913 F916.800 
G1 X16.569 Y33.944 F916.800 
G1 X16.569 Y33.944 F916.800 
G1 X15.369 Y33.925 F916.800 
G1 X14.769 Y33.812 F916.800 
G1 X14.194 Y33.594 F916.800 
G1 X13.738 Y33.337 F916.800 
G1 X13.406 Y33.075 F916.800 
G1 X13.194 Y32.706 F916.800 
G1 X13.194 Y32.706 F916.800 
G1 X13.156 Y32.381 F916.800 
G1 X13.181 Y32.281 F916.800 
G0 X13.213 Y32.263 
G0 X13.294 Y32.269 
G0 X14.669 Y33.125 
G0 X15.181 Y33.538 
G1 X15.225 Y33.581 F916.800 
G1 X15.363 Y33.694 F916.800 
G1 X15.387 Y33.731 F916.800 
G1 X15.387 Y33.775 F916.800 
G1 X15.338 Y33.844 F916.800 
G1 X15.188 Y33.913 F916.800 
G1 X15.012 Y33.944 F916.800 
G1 X15.012 Y33.944 F916.800 
G1 X14.613 Y33.900 F916.800 
G1 X14.219 Y33.769 F916.800 
G1 X13.856 Y33.556 F916.800 
G1 X13.694 Y33.431 F916.800 
G1 X13.694 Y33.431 F916.800 
G1 X13.544 Y33.212 F916.800 
G1 X13.488 Y33.031 F916.800 
G0 X13.488 Y32.969 
G0 X13.750 Y31.594 
G0 X13.662 Y30.194 
G0 X12.825 Y28.325 
G0 X12.713 Y28.200 
G0 X12.319 Y28.075 
G1 X12.256 Y28.056 F916.800 
G1 X12.050 Y28.019 F916.800 
G1 X11.738 Y27.956 F916.800 
G1 X11.531 Y27.844 F916.800 
G1 X11.531 Y27.844 F916.800 
G1 X10.787 Y27.281 F916.800 
G1 X10.644 Y27.131 F916.800 
G1 X10.144 Y26.212 F916.800 
G1 X9.894 Y25.500 F916.800 
G1 X9.731 Y24.762 F916.800 
G1 X9.656 Y24.200 F916.800 
G1 X9.613 Y23.675 F916.800 
G1 X9.613 Y23.012 F916.800 
G1 X9.656 Y22.325 F916.800 
G1 X9.756 Y21.613 F916.800 
G1 X9.900 Y20.938 F916.800 
G1 X10.075 Y20.256 F916.800 
G1 X10.325 Y19.544 F916.800 
G1 X10.613 Y18.856 F916.800 
G1 X10.944 Y18.181 F916.800 
G1 X11.319 Y17.531 F916.800 
G1 X11.731 Y16.906 F916.800 
G1 X12.188 Y16.306 F916.800 
G1 X12.681 Y15.738 F916.800 
G1 X13.206 Y15.200 F916.800 
G1 X13.762 Y14.700 F916.800 
G1 X14.350 Y14.238 F916.800 
G1 X14.969 Y13.812 F916.800 
G1 X15.613 Y13.431 F916.800 
G1 X16.281 Y13.094 F916.800 
G1 X16.969 Y12.800 F916.800 
G1 X17.675 Y12.550 F916.800 
G1 X18.394 Y12.344 F916.800 
G1 X19.125 Y12.181 F916.800 
G1 X19.863 Y12.069 F916.800 
G1 X20.606 Y12.006 F916.800 
G1 X21.350 Y11.988 F916.800 
G1 X22.094 Y12.019 F916.800 
G1 X23.019 Y12.162 F916.800 
G1 X23.113 Y12.194 F916.800 
G1 X23.194 Y12.244 F916.800 
G1 X23.256 Y12.312 F916.800 
G1 X23.256 Y12.312 F916.800 
G1 X23.319 Y12.537 F916.800 
G1 X23.306 Y12.713 F916.800 
G0 X23.288 Y12.769 
G0 X23.156 Y12.963 
G0 X11.581 Y27.069 
G1 X11.512 Y27.163 F916.800 
G1 X11.325 Y27.369 F916.800 
G1 X11.225 Y27.425 F916.800 
G1 X11.056 Y27.444 F916.800 
G1 X10.825 Y27.387 F916.800 
G1 X10.825 Y27.387 F916.800 
G1 X10.181 Y27.044 F916.800 
G1 X10.012 Y26.913 F916.800 
G1 X9.688 Y26.506 F916.800 
G1 X9.469 Y26.150 F916.800 
G1 X9.144 Y25.469 F916.800 
G1 X8.925 Y24.750 F916.800 
G1 X8.825 Y24.244 F916.800 
G1 X8.756 Y23.794 F916.800 
G1 X8.713 Y23.181 F916.800 
G1 X8.719 Y22.500 F916.800 
G1 X8.775 Y21.819 F916.800 
G1 X8.875 Y21.169 F916.800 
G1 X9.012 Y20.506 F916.800 
G1 X9.206 Y19.781 F916.800 
G1 X9.450 Y19.069 F916.800 
G1 X9.731 Y18.375 F916.800 
G1 X10.056 Y17.700 F916.800 
G1 X10.425 Y17.044 F916.800 
G1 X10.831 Y16.413 F916.800 
G1 X11.275 Y15.806 F916.800 
G1 X11.756 Y15.231 F916.800 
G1 X12.269 Y14.681 F916.800 
G1 X12.812 Y14.169 F916.800 
G1 X13.387 Y13.688 F916.800 
G1 X13.994 Y13.244 F916.800 
G1 X14.625 Y12.838 F916.800 
G1 X15.275 Y12.469 F916.800 
G1 X15.950 Y12.144 F916.800 
G1 X16.644 Y11.856 F916.800 
G1 X17.350 Y11.600 F916.800 
G1 X18.069 Y11.394 F916.800 
G1 X18.800 Y11.225 F916.800 
G1 X19.538 Y11.094 F916.800 
G1 X20.281 Y11.012 F916.800 
G1 X21.025 Y10.969 F916.800 
G1 X21.769 Y11.012 F916.800 
G1 X22.519 Y11.156 F916.800 
G1 X22.613 Y11.188 F916.800 
G1 X22.762 Y11.300 F916.800 
G1 X22.762 Y11.300 F916.800 
G1 X22.812 Y11.531 F916.800 
G1 X22.794 Y11.706 F916.800 
G0 X22.769 Y11.762 
G0 X22.637 Y11.963 
G0 X10.912 Y26.712 
G1 X10.838 Y26.812 F916.800 
G1 X10.625 Y27.044 F916.800 
G1 X10.456 Y27.119 F916.800 
G1 X10.162 Y27.119 F916.800 
G1 X10.162 Y27.119 F916.800 
G1 X9.669 Y26.956 F916.800 
G1 X9.394 Y26.806 F916.800 
G1 X9.031 Y26.431 F916.800 
G1 X8.787 Y26.094 F916.800 
G1 X8.412 Y25.438 F916.800 
G1 X8.144 Y24.731 F916.800 
G1 X8.019 Y24.275 F916.800 
G1 X7.931 Y23.856 F916.800 
G1 X7.862 Y23.306 F916.800 
G1 X7.825 Y22.663 F916.800 
G1 X7.831 Y21.975 F916.800 
G1 X7.894 Y21.256 F916.800 
G1 X8.000 Y20.581 F916.800 
G1 X8.156 Y19.906 F916.800 
G1 X8.350 Y19.231 F916.800 
G1 X8.594 Y18.519 F916.800 
G1 X8.887 Y17.825 F916.800 
G1 X9.219 Y17.150 F916.800 
G1 X9.588 Y16.494 F916.800 
G1 X9.994 Y15.863 F916.800 
G1 X10.438 Y15.256 F916.800 
G1 X10.912 Y14.675 F916.800 
G1 X11.412 Y14.119 F916.800 
G1 X11.950 Y13.594 F916.800 
G1 X12.512 Y13.100 F916.800 
G1 X13.100 Y12.631 F916.800 
G1 X13.713 Y12.200 F916.800 
G1 X14.344 Y11.800 F916.800 
G1 X15.000 Y11.438 F916.800 
G1 X15.675 Y11.113 F916.800 
G1 X16.363 Y10.825 F916.800 
G1 X17.069 Y10.575 F916.800 
G1 X17.788 Y10.363 F916.800 
G1 X18.512 Y10.188 F916.800 
G1 X19.250 Y10.056 F916.800 
G1 X19.994 Y10.000 F916.800 
G1 X20.625 Y9.975 F916.800 
G1 X21.369 Y10.000 F916.800 
G1 X22.100 Y10.156 F916.800 
G1 X22.281 Y10.219 F916.800 
G1 X22.363 Y10.275 F916.800 
G1 X22.419 Y10.356 F916.800 
G1 X22.419 Y10.356 F916.800 
G1 X22.431 Y10.594 F916.800 
G1 X22.387 Y10.769 F916.800 
G0 X22.363 Y10.819 
G0 X10.325 Y26.500 
G1 X10.256 Y26.594 F916.800 
G1 X10.031 Y26.856 F916.800 
G1 X9.875 Y26.950 F916.800 
G1 X9.575 Y26.994 F916.800 
G1 X9.575 Y26.994 F916.800 
G1 X9.175 Y26.925 F916.800 
G1 X8.881 Y26.825 F916.800 
G1 X8.706 Y26.712 F916.800 
G1 X8.319 Y26.356 F916.800 
G1 X8.119 Y26.113 F916.800 
G1 X7.694 Y25.488 F916.800 
G1 X7.381 Y24.800 F916.800 
G1 X7.244 Y24.387 F916.800 
G1 X7.138 Y24.000 F916.800 
G1 X7.037 Y23.494 F916.800 
G1 X6.956 Y22.800 F916.800 
G1 X6.931 Y22.075 F916.800 
G1 X6.950 Y21.444 F916.800 
G1 X7.019 Y20.762 F916.800 
G1 X7.125 Y20.094 F916.800 
G1 X7.300 Y19.363 F916.800 
G1 X7.494 Y18.675 F916.800 
G1 X7.750 Y17.969 F916.800 
G1 X8.050 Y17.281 F916.800 
G1 X8.375 Y16.606 F916.800 
G1 X8.750 Y15.956 F916.800 
G1 X9.144 Y15.319 F916.800 
G1 X9.575 Y14.706 F916.800 
G1 X10.037 Y14.119 F916.800 
G1 X10.525 Y13.550 F916.800 
G1 X11.044 Y13.006 F916.800 
G1 X11.594 Y12.494 F916.800 
G1 X12.162 Y12.006 F916.800 
G1 X12.756 Y11.550 F916.800 
G1 X13.375 Y11.125 F916.800 
G1 X14.012 Y10.738 F916.800 
G1 X14.681 Y10.406 F916.800 
G1 X15.344 Y10.113 F916.800 
G1 X16.038 Y9.831 F916.800 
G1 X16.744 Y9.581 F916.800 
G1 X17.462 Y9.369 F916.800 
G1 X18.194 Y9.213 F916.800 
G1 X18.931 Y9.081 F916.800 
G1 X19.675 Y8.994 F916.800 
G1 X20.419 Y8.975 F916.800 
G1 X21.094 Y9.025 F916.800 
G1 X21.719 Y9.162 F916.800 
G1 X22.075 Y9.312 F916.800 
G1 X22.137 Y9.381 F916.800 
G1 X22.137 Y9.381 F916.800 
G1 X22.125 Y9.619 F916.800 
G1 X22.062 Y9.787 F916.800 
G0 X22.031 Y9.844 
G0 X9.706 Y26.394 
G1 X9.637 Y26.494 F916.800 
G1 X9.425 Y26.762 F916.800 
G1 X9.275 Y26.869 F916.800 
G1 X8.981 Y26.944 F916.800 
G1 X8.981 Y26.944 F916.800 
G1 X8.581 Y26.913 F916.800 
G1 X8.281 Y26.819 F916.800 
G1 X8.012 Y26.663 F916.800 
G1 X7.544 Y26.250 F916.800 
G1 X7.081 Y25.681 F916.800 
G1 X6.537 Y24.675 F916.800 
G1 X6.169 Y23.481 F916.800 
G1 X6.056 Y22.481 F916.800 
G1 X6.088 Y19.981 F916.800 
G1 X6.200 Y19.181 F916.800 
G1 X6.869 Y17.163 F916.800 
G1 X7.569 Y15.825 F916.800 
G1 X8.375 Y14.556 F916.800 
G1 X8.825 Y13.956 F916.800 
G1 X9.294 Y13.375 F916.800 
G1 X9.787 Y12.812 F916.800 
G1 X10.312 Y12.275 F916.800 
G1 X10.856 Y11.762 F916.800 
G1 X11.425 Y11.275 F916.800 
G1 X12.012 Y10.812 F916.800 
G1 X12.619 Y10.375 F916.800 
G1 X13.244 Y9.969 F916.800 
G1 X13.912 Y9.625 F916.800 
G1 X14.512 Y9.338 F916.800 
G1 X15.200 Y9.037 F916.800 
G1 X15.900 Y8.769 F916.800 
G1 X16.613 Y8.531 F916.800 
G1 X17.331 Y8.325 F916.800 
G1 X18.062 Y8.175 F916.800 
G1 X18.800 Y8.050 F916.800 
G1 X19.544 Y7.987 F916.800 
G1 X20.275 Y8.006 F916.800 
G1 X20.825 Y8.062 F916.800 
G1 X21.637 Y8.275 F916.800 
G1 X21.894 Y8.400 F916.800 
G1 X21.962 Y8.469 F916.800 
G1 X22.012 Y8.550 F916.800 
G1 X22.012 Y8.550 F916.800 
G1 X22.000 Y8.787 F916.800 
G1 X21.938 Y8.956 F916.800 
G0 X21.906 Y9.012 
G0 X9.231 Y26.387 
G1 X9.156 Y26.488 F916.800 
G1 X8.944 Y26.762 F916.800 
G1 X8.794 Y26.869 F916.800 
G1 X8.500 Y26.944 F916.800 
G1 X8.500 Y26.944 F916.800 
G1 X8.000 Y26.925 F916.800 
G1 X7.600 Y26.825 F916.800 
G1 X7.237 Y26.631 F916.800 
G1 X6.906 Y26.369 F916.800 
G1 X6.350 Y25.744 F916.800 
G1 X6.181 Y25.481 F916.800 
G1 X6.094 Y25.294 F916.800 
G1 X6.056 Y24.394 F916.800 
G1 X6.056 Y24.394 F916.800 
G1 X6.094 Y24.137 F916.800 
G1 X6.144 Y24.031 F916.800 
G1 X6.175 Y24.000 F916.800 
G0 X6.206 Y23.994 
G0 X6.275 Y24.038 
G0 X7.919 Y26.475 
G1 X7.956 Y26.531 F916.800 
G1 X8.050 Y26.681 F916.800 
G1 X8.069 Y26.731 F916.800 
G1 X8.062 Y26.769 F916.800 
G1 X8.000 Y26.837 F916.800 
G1 X7.844 Y26.894 F916.800 
G1 X7.662 Y26.906 F916.800 
G1 X7.662 Y26.906 F916.800 
G1 X7.263 Y26.794 F916.800 
G1 X6.812 Y26.525 F916.800 
G1 X6.513 Y26.244 F916.800 
G1 X6.194 Y25.706 F916.800 
G1 X6.194 Y25.706 F916.800 
G1 X6.144 Y25.444 F916.800 
G1 X6.162 Y25.256 F916.800 
G0 X6.181 Y25.200 
G0 X6.769 Y24.050 
G0 X6.769 Y23.600 
G0 X6.694 Y22.262 
G0 X6.725 Y21.394 
G0 X6.344 Y20.438 
G1 X6.319 Y20.375 F916.800 
G1 X6.231 Y20.188 F916.800 
G1 X6.094 Y19.900 F916.800 
G1 X6.056 Y19.663 F916.800 
G1 X6.056 Y19.663 F916.800 
G1 X6.075 Y17.262 F916.800 
G1 X6.162 Y16.663 F916.800 
G1 X6.875 Y14.975 F916.800 
G1 X7.700 Y13.719 F916.800 
G1 X8.150 Y13.119 F916.800 
G1 X8.619 Y12.531 F916.800 
G1 X9.106 Y11.963 F916.800 
G1 X9.637 Y11.438 F916.800 
G1 X10.181 Y10.925 F916.800 
G1 X10.750 Y10.438 F916.800 
G1 X11.344 Y9.981 F916.800 
G1 X11.956 Y9.550 F916.800 
G1 X12.588 Y9.150 F916.800 
G1 X13.238 Y8.781 F916.800 
G1 X13.906 Y8.444 F916.800 
G1 X14.588 Y8.137 F916.800 
G1 X15.287 Y7.869 F916.800 
G1 X15.994 Y7.631 F916.800 
G1 X16.712 Y7.425 F916.800 
G1 X17.444 Y7.256 F916.800 
G1 X18.181 Y7.119 F916.800 
G1 X18.919 Y7.019 F916.800 
G1 X19.663 Y7.000 F916.800 
G1 X20.294 Y7.037 F916.800 
G1 X21.125 Y7.194 F916.800 
G1 X21.488 Y7.325 F916.800 
G1 X21.744 Y7.463 F916.800 
G1 X21.875 Y7.606 F916.800 
G1 X21.913 Y7.694 F916.800 
G1 X21.913 Y7.694 F916.800 
G1 X21.881 Y7.987 F916.800 
G1 X21.831 Y8.100 F916.800 
G0 X21.794 Y8.144 
G0 X21.606 Y8.287 
G0 X6.588 Y17.006 
G1 X6.494 Y17.056 F916.800 
G1 X6.312 Y17.163 F916.800 
G1 X6.263 Y17.175 F916.800 
G1 X6.213 Y17.169 F916.800 
G1 X6.144 Y17.113 F916.800 
G1 X6.075 Y16.956 F916.800 
G1 X6.056 Y16.781 F916.800 
G1 X6.056 Y16.781 F916.800 
G1 X6.075 Y15.181 F916.800 
G1 X6.181 Y14.581 F916.800 
G1 X6.675 Y13.469 F916.800 
G1 X6.869 Y13.119 F916.800 
G1 X7.300 Y12.506 F916.800 
G1 X7.763 Y11.912 F916.800 
G1 X8.256 Y11.344 F916.800 
G1 X8.775 Y10.800 F916.800 
G1 X9.319 Y10.281 F916.800 
G1 X9.887 Y9.794 F916.800 
G1 X10.481 Y9.331 F916.800 
G1 X11.081 Y8.887 F916.800 
G1 X11.706 Y8.475 F916.800 
G1 X12.350 Y8.088 F916.800 
G1 X13.006 Y7.725 F916.800 
G1 X13.681 Y7.400 F916.800 
G1 X14.369 Y7.100 F916.800 
G1 X17.038 Y6.225 F916.800 
G1 X18.444 Y6.050 F916.800 
G1 X20.225 Y6.075 F916.800 
G1 X20.413 Y6.100 F916.800 
G1 X20.781 Y6.225 F916.800 
G1 X21.031 Y6.356 F916.800 
G1 X21.331 Y6.594 F916.800 
G1 X21.469 Y6.731 F916.800 
G1 X21.637 Y6.963 F916.800 
G1 X21.769 Y7.213 F916.800 
G1 X21.769 Y7.213 F916.800 
G1 X21.800 Y7.438 F916.800 
G1 X21.788 Y7.562 F916.800 
G1 X21.769 Y7.619 F916.800 
G0 X21.738 Y7.662 
G0 X21.550 Y7.794 
G0 X6.600 Y15.113 
G1 X6.506 Y15.162 F916.800 
G1 X6.312 Y15.250 F916.800 
G1 X6.219 Y15.256 F916.800 
G1 X6.144 Y15.194 F916.800 
G1 X6.075 Y15.037 F916.800 
G1 X6.056 Y14.863 F916.800 
G1 X6.056 Y14.863 F916.800 
G1 X6.081 Y13.363 F916.800 
G1 X6.169 Y12.863 F916.800 
G1 X6.537 Y12.031 F916.800 
G1 X6.906 Y11.419 F916.800 
G1 X7.381 Y10.838 F916.800 
G1 X7.875 Y10.275 F916.800 
G1 X8.400 Y9.738 F916.800 
G1 X8.944 Y9.225 F916.800 
G1 X9.512 Y8.738 F916.800 
G1 X10.106 Y8.281 F916.800 
G1 X10.719 Y7.850 F916.800 
G1 X11.350 Y7.450 F916.800 
G1 X11.994 Y7.069 F916.800 
G1 X13.706 Y6.181 F916.800 
G1 X14.081 Y6.062 F916.800 
G1 X16.144 Y6.050 F916.800 
G1 X16.144 Y6.050 F916.800 
G1 X16.381 Y6.088 F916.800 
G1 X16.481 Y6.138 F916.800 
G1 X16.512 Y6.162 F916.800 
G0 X16.519 Y6.200 
G0 X16.475 Y6.269 
G0 X6.544 Y13.269 
G1 X6.469 Y13.325 F916.800 
G1 X6.306 Y13.438 F916.800 
G1 X6.256 Y13.450 F916.800 
G1 X6.213 Y13.450 F916.800 
G1 X6.144 Y13.394 F916.800 
G1 X6.075 Y13.238 F916.800 
G1 X6.056 Y13.062 F916.800 
G1 X6.056 Y13.062 F916.800 
G1 X6.069 Y11.963 F916.800 
G1 X6.169 Y11.363 F916.800 
G1 X6.650 Y10.363 F916.800 
G1 X6.875 Y10.025 F916.800 
G1 X7.331 Y9.431 F916.800 
G1 X7.844 Y8.881 F916.800 
G1 X8.381 Y8.363 F916.800 
G1 X8.950 Y7.875 F916.800 
G1 X9.537 Y7.412 F916.800 
G1 X10.144 Y6.975 F916.800 
G1 X11.425 Y6.131 F916.800 
G1 X11.613 Y6.062 F916.800 
G1 X12.363 Y6.050 F916.800 
G1 X12.363 Y6.050 F916.800 
G1 X12.600 Y6.088 F916.800 
G1 X12.700 Y6.138 F916.800 
G1 X12.731 Y6.169 F916.800 
G0 X12.744 Y6.200 
G0 X12.706 Y6.275 
G0 X6.506 Y11.688 
G1 X6.444 Y11.744 F916.800 
G1 X6.294 Y11.863 F916.800 
G1 X6.250 Y11.881 F916.800 
G1 X6.213 Y11.881 F916.800 
G1 X6.138 Y11.831 F916.800 
G1 X6.075 Y11.675 F916.800 
G1 X6.056 Y11.500 F916.800 
G1 X6.056 Y11.500 F916.800 
G1 X6.075 Y10.400 F916.800 
G1 X6.162 Y9.900 F916.800 
G1 X6.319 Y9.519 F916.800 
G1 X6.900 Y8.575 F916.800 
G1 X7.388 Y8.006 F916.800 
G1 X7.912 Y7.469 F916.800 
G1 X8.469 Y6.963 F916.800 
G1 X9.419 Y6.156 F916.800 
G1 X9.594 Y6.069 F916.800 
G1 X9.688 Y6.050 F916.800 
G1 X10.156 Y6.050 F916.800 
G1 X10.156 Y6.050 F916.800 
G1 X10.394 Y6.088 F916.800 
G1 X10.494 Y6.138 F916.800 
G1 X10.525 Y6.169 F916.800 
G0 X10.537 Y6.206 
G0 X10.500 Y6.281 
G0 X6.475 Y10.244 
G1 X6.425 Y10.294 F916.800 
G1 X6.287 Y10.419 F916.800 
G1 X6.250 Y10.444 F916.800 
G1 X6.206 Y10.444 F916.800 
G1 X6.138 Y10.394 F916.800 
G1 X6.075 Y10.238 F916.800 
G1 X6.056 Y10.062 F916.800 
G1 X6.056 Y10.062 F916.800 
G1 X6.069 Y9.062 F916.800 
G1 X6.169 Y8.463 F916.800 
G1 X6.481 Y7.831 F916.800 
G1 X7.256 Y6.756 F916.800 
G1 X7.794 Y6.169 F916.800 
G1 X7.963 Y6.069 F916.800 
G1 X8.150 Y6.050 F916.800 
G1 X8.150 Y6.050 F916.800 
G1 X8.387 Y6.088 F916.800 
G1 X8.488 Y6.138 F916.800 
G1 X8.525 Y6.169 F916.800 
G0 X8.537 Y6.206 
G0 X8.512 Y6.294 
G0 X7.269 Y7.925 
G0 X6.450 Y8.806 
G1 X6.406 Y8.850 F916.800 
G1 X6.281 Y8.981 F916.800 
G1 X6.244 Y9.000 F916.800 
G1 X6.206 Y9.006 F916.800 
G1 X6.138 Y8.956 F916.800 
G1 X6.075 Y8.800 F916.800 
G1 X6.056 Y8.625 F916.800 
G1 X6.056 Y8.625 F916.800 
G1 X6.062 Y7.925 F916.800 
G1 X6.119 Y7.525 F916.800 
G1 X6.306 Y7.050 F916.800 
G1 X6.544 Y6.719 F916.800 
G1 X6.831 Y6.450 F916.800 
G1 X7.350 Y6.175 F916.800 
G1 X7.350 Y6.175 F916.800 
G1 X7.588 Y6.131 F916.800 
G1 X7.763 Y6.169 F916.800 
G0 X7.819 Y6.194 
G0 X8.363 Y6.681 
G0 X8.531 Y6.737 
G0 X18.750 Y6.675 
G0 X18.919 Y6.625 
G0 X19.262 Y6.388 
G1 X19.312 Y6.356 F916.800 
G1 X19.712 Y6.075 F916.800 
G1 X20.025 Y6.000 F916.800 
G1 X20.025 Y6.000 F916.800 
G1 X20.206 Y6.006 F916.800 
G1 X20.381 Y6.037 F916.800 
G1 X20.831 Y6.181 F916.800 
G1 X21.000 Y6.275 F916.800 
G1 X21.312 Y6.500 F916.800 
G1 X21.519 Y6.713 F916.800 
G1 X21.625 Y6.844 F916.800 
G1 X21.762 Y7.069 F916.800 
G1 X21.881 Y7.350 F916.800 
G1 X21.938 Y7.544 F916.800 
G1 X21.994 Y7.862 F916.800 
G1 X22.100 Y8.713 F916.800 
G1 X22.262 Y9.594 F916.800 
G1 X22.606 Y10.756 F916.800 
G1 X23.000 Y11.688 F916.800 
G1 X23.406 Y12.475 F916.800 
G1 X23.950 Y13.350 F916.800 
G1 X24.694 Y14.275 F916.800 
G1 X24.881 Y14.488 F916.800 
G1 X25.438 Y15.056 F916.800 
G1 X25.894 Y15.463 F916.800 
G1 X26.769 Y16.119 F916.800 
G1 X27.644 Y16.663 F916.800 
G1 X28.750 Y17.188 F916.800 
G1 X29.744 Y17.556 F916.800 
G1 X30.494 Y17.750 F916.800 
G1 X31.131 Y17.875 F916.800 
G1 X32.350 Y18.038 F916.800 
G1 X32.581 Y18.087 F916.800 
G1 X33.038 Y18.300 F916.800 
G1 X33.400 Y18.587 F916.800 
G1 X33.594 Y18.806 F916.800 
G1 X33.837 Y19.238 F916.800 
G1 X33.938 Y19.550 F916.800 
G1 X33.975 Y19.756 F916.800 
G1 X34.000 Y20.156 F916.800 
G1 X33.994 Y32.006 F916.800 
G1 X33.931 Y32.469 F916.800 
G1 X33.844 Y32.744 F916.800 
G1 X33.731 Y32.969 F916.800 
G1 X33.581 Y33.206 F916.800 
G1 X33.356 Y33.456 F916.800 
G1 X33.019 Y33.700 F916.800 
G1 X32.812 Y33.812 F916.800 
G1 X32.644 Y33.875 F916.800 
G1 X32.181 Y33.981 F916.800 
G1 X31.831 Y34.000 F916.800 
G1 X14.988 Y33.994 F916.800 
G1 X14.588 Y33.950 F916.800 
G1 X14.262 Y33.850 F916.800 
G1 X14.044 Y33.744 F916.800 
G1 X13.894 Y33.650 F916.800 
G1 X13.650 Y33.462 F916.800 
G1 X13.519 Y33.331 F916.800 
G1 X13.356 Y33.125 F916.800 
G1 X13.219 Y32.894 F916.800 
G1 X13.150 Y32.737 F916.800 
G1 X13.081 Y32.525 F916.800 
G1 X13.031 Y32.300 F916.800 
G1 X13.012 Y32.106 F916.800 
G1 X12.981 Y30.738 F916.800 
G1 X12.900 Y30.144 F916.800 
G1 X12.744 Y29.631 F916.800 
G1 X12.469 Y29.019 F916.800 
G1 X12.269 Y28.706 F916.800 
G1 X11.894 Y28.244 F916.800 
G1 X11.525 Y27.900 F916.800 
G1 X11.213 Y27.669 F916.800 
G1 X10.644 Y27.356 F916.800 
G1 X10.281 Y27.212 F916.800 
G1 X9.700 Y27.062 F916.800 
G1 X9.169 Y27.006 F916.800 
G1 X7.994 Y26.994 F916.800 
G1 X7.588 Y26.950 F916.800 
G1 X7.263 Y26.850 F916.800 
G1 X7.044 Y26.744 F916.800 
G1 X6.894 Y26.650 F916.800 
G1 X6.650 Y26.462 F916.800 
G1 X6.513 Y26.325 F916.800 
G1 X6.369 Y26.137 F916.800 
G1 X6.225 Y25.900 F916.800 
G1 X6.138 Y25.719 F916.800 
G1 X6.081 Y25.544 F916.800 
G1 X6.025 Y25.256 F916.800 
G1 X6.000 Y24.881 F916.800 
G1 X6.006 Y7.944 F916.800 
G1 X6.050 Y7.581 F916.800 
G1 X6.138 Y7.275 F916.800 
G1 X6.250 Y7.044 F916.800 
G1 X6.406 Y6.800 F916.800 
G1 X6.569 Y6.612 F916.800 
G1 X6.725 Y6.463 F916.800 
G1 X7.144 Y6.200 F916.800 
G1 X7.250 Y6.150 F916.800 
G1 X7.506 Y6.069 F916.800 
G1 X7.831 Y6.013 F916.800 
G1 X8.169 Y5.994 F916.800 
G1 X20.031 Y6.000 F916.800 
G1 X20.025 Y6.000 F916.800 
G0 Z12.000 
G0 Z12.000 
G0 X43.312 Y-4.013 Z12.000 
G1 X43.312 Y-4.013 Z-10.000 F277.800 
(Adaptive - depth: -10.000000) 
G1 X43.312 Y-4.013 F916.800 
G1 X43.069 Y-3.925 F916.800 
G1 X42.919 Y-3.888 F916.800 
G1 X42.281 Y-3.844 F916.800 
G1 X40.631 Y-3.819 F916.800 
G1 X3.631 Y-3.750 F916.800 
G1 X2.131 Y-3.781 F916.800 
G1 X0.631 Y-3.788 F916.800 
G1 X-0.113 Y-3.731 F916.800 
G1 X-0.806 Y-3.456 F916.800 
G1 X-1.244 Y-3.163 F916.800 
G1 X-1.512 Y-2.931 F916.800 
G1 X-1.863 Y-2.569 F916.800 
G1 X-2.200 Y-2.119 F916.800 
G1 X-2.444 Y-1.731 F916.800 
G1 X-2.669 Y-1.275 F916.800 
G1 X-2.862 Y-0.812 F916.800 
G1 X-3.069 Y-0.194 F916.800 
G1 X-3.225 Y0.425 F916.800 
G1 X-3.362 Y1.100 F916.800 
G1 X-3.475 Y1.837 F916.800 
G1 X-3.556 Y2.581 F916.800 
G1 X-3.619 Y37.075 F916.800 
G1 X-3.719 Y39.306 F916.800 
G1 X-3.681 Y40.050 F916.800 
G1 X-3.419 Y40.750 F916.800 
G1 X-3.138 Y41.175 F916.800 
G1 X-2.919 Y41.431 F916.800 
G1 X-2.550 Y41.788 F916.800 
G1 X-2.094 Y42.131 F916.800 
G1 X-1.712 Y42.375 F916.800 
G1 X-1.256 Y42.606 F916.800 
G1 X-0.794 Y42.806 F916.800 
G1 X-0.163 Y43.025 F916.800 
G1 X0.487 Y43.188 F916.800 
G1 X1.075 Y43.312 F916.800 
G1 X1.812 Y43.438 F916.800 
G1 X2.556 Y43.531 F916.800 
G1 X37.144 Y43.587 F916.800 
G1 X38.631 Y43.688 F916.800 
G1 X39.375 Y43.719 F916.800 
G1 X40.119 Y43.663 F916.800 
G1 X40.806 Y43.388 F916.800 
G1 X41.019 Y43.250 F916.800 
G1 X41.438 Y42.906 F916.800 
G1 X41.888 Y42.438 F916.800 
G1 X42.231 Y41.975 F916.800 
G1 X42.462 Y41.575 F916.800 
G1 X42.650 Y41.175 F916.800 
G1 X42.837 Y40.725 F916.800 
G1 X43.056 Y40.062 F916.800 
G1 X43.237 Y39.337 F916.800 
G1 X43.375 Y38.606 F916.800 
G1 X43.481 Y37.888 F916.800 
G1 X43.675 Y10.838 F916.800 
G1 X43.694 Y10.088 F916.800 
G1 X43.763 Y8.588 F916.800 
G1 X43.788 Y6.338 F916.800 
G1 X43.775 Y4.838 F916.800 
G1 X43.794 Y4.088 F916.800 
G1 X43.806 Y1.837 F916.800 
G1 X43.756 Y1.087 F916.800 
G1 X43.481 Y0.388 F916.800 
G1 X43.337 Y0.150 F916.800 
G1 X43.194 Y-0.044 F916.800 
G1 X42.975 Y-0.300 F916.800 
G1 X42.594 Y-0.669 F916.800 
G1 X42.150 Y-0.994 F916.800 
G1 X41.769 Y-1.231 F916.800 
G1 X41.312 Y-1.456 F916.800 
G1 X40.850 Y-1.656 F916.800 
G1 X40.175 Y-1.900 F916.800 
G1 X39.444 Y-2.081 F916.800 
G1 X38.819 Y-2.200 F916.800 
G1 X38.131 Y-2.300 F916.800 
G1 X37.381 Y-2.381 F916.800 
G1 X35.881 Y-2.481 F916.800 
G1 X34.381 Y-2.525 F916.800 
G1 X29.831 Y-2.569 F916.800 
G1 X29.531 Y-2.631 F916.800 
G1 X29.175 Y-2.825 F916.800 
G1 X28.581 Y-3.000 F916.800 
G1 X27.981 Y-3.062 F916.800 
G1 X4.681 Y-3.056 F916.800 
G1 X2.681 Y-2.769 F916.800 
G1 X1.481 Y-2.475 F916.800 
G1 X0.631 Y-2.081 F916.800 
G1 X0.037 Y-1.650 F916.800 
G1 X-0.650 Y-0.931 F916.800 
G1 X-1.962 Y0.931 F916.800 
G1 X-2.544 Y2.131 F916.800 
G1 X-2.888 Y3.344 F916.800 
G1 X-3.056 Y4.656 F916.800 
G1 X-3.056 Y35.312 F916.800 
G1 X-2.900 Y36.625 F916.800 
G1 X-2.438 Y38.406 F916.800 
G1 X-2.044 Y39.206 F916.800 
G1 X-1.431 Y39.981 F916.800 
G1 X-0.375 Y41.006 F916.800 
G1 X0.475 Y41.663 F916.800 
G1 X1.381 Y42.194 F916.800 
G1 X2.081 Y42.519 F916.800 
G1 X3.481 Y42.906 F916.800 
G1 X4.606 Y43.044 F916.800 
G1 X35.263 Y43.050 F916.800 
G1 X36.669 Y42.881 F916.800 
G1 X38.075 Y42.487 F916.800 
G1 X38.950 Y42.038 F916.800 
G1 X40.388 Y40.987 F916.800 
G1 X41.006 Y40.369 F916.800 
G1 X41.906 Y39.144 F916.800 
G1 X42.575 Y37.763 F916.800 
G1 X42.969 Y36.163 F916.800 
G1 X43.050 Y11.762 F916.800 
G1 X42.869 Y10.863 F916.800 
G1 X42.737 Y10.363 F916.800 
G1 X42.638 Y9.162 F916.800 
G1 X42.606 Y6.912 F916.800 
G1 X42.612 Y4.662 F916.800 
G1 X42.600 Y3.913 F916.800 
G1 X42.487 Y3.169 F916.800 
G1 X42.263 Y2.525 F916.800 
G1 X42.106 Y2.200 F916.800 
G1 X41.919 Y1.887 F916.800 
G1 X41.663 Y1.544 F916.800 
G1 X41.331 Y1.175 F916.800 
G1 X40.938 Y0.831 F916.800 
G1 X40.556 Y0.537 F916.800 
G1 X40.075 Y0.244 F916.800 
G1 X39.619 Y-0.006 F916.800 
G1 X38.925 Y-0.294 F916.800 
G1 X38.369 Y-0.500 F916.800 
G1 X37.644 Y-0.706 F916.800 
G1 X36.281 Y-0.963 F916.800 
G1 X35.538 Y-1.062 F916.800 
G1 X34.788 Y-1.144 F916.800 
G1 X34.038 Y-1.206 F916.800 
G1 X31.788 Y-1.319 F916.800 
G1 X31.038 Y-1.375 F916.800 
G1 X30.738 Y-1.444 F916.800 
G1 X30.656 Y-1.500 F916.800 
G1 X30.556 Y-1.669 F916.800 
G1 X30.556 Y-1.669 F916.800 
G1 X30.488 Y-1.775 F916.800 
G0 Z12.000 
G0 X30.488 Y-1.775 
G0 X31.056 Y-0.056 
G1 Z-10.000 F277.800 
G1 X31.056 Y-0.056 F916.800 
G1 X31.050 Y-0.188 F916.800 
G1 X31.050 Y-0.188 F916.800 
G1 X31.031 Y-0.375 F916.800 
G1 X31.031 Y-0.375 F916.800 
G1 X31.050 Y-0.613 F916.800 
G1 X31.087 Y-0.725 F916.800 
G1 X31.106 Y-0.781 F916.800 
G0 X31.119 Y-0.838 
G0 X31.131 Y-1.863 
G0 X31.081 Y-2.031 
G0 X30.375 Y-2.862 
G0 X29.494 Y-3.400 
G0 X28.238 Y-3.656 
G0 X24.025 Y-3.725 
G0 X3.644 Y-3.625 
G0 X3.475 Y-3.575 
G0 X3.019 Y-3.188 
G1 X2.969 Y-3.138 F916.800 
G1 X2.775 Y-2.944 F916.800 
G1 X2.562 Y-2.719 F916.800 
G1 X2.413 Y-2.625 F916.800 
G1 X2.413 Y-2.625 F916.800 
G1 X1.275 Y-2.150 F916.800 
G1 X0.219 Y-1.488 F916.800 
G1 X-0.406 Y-0.981 F916.800 
G1 X-0.750 Y-0.637 F916.800 
G1 X-0.750 Y-0.637 F916.800 
G1 X-0.900 Y-0.537 F916.800 
G0 X-0.950 Y-0.519 
G0 X-1.663 Y-0.531 
G0 X-1.756 Y-0.481 
G0 X-2.900 Y1.325 
G0 X-3.425 Y2.788 
G0 X-3.650 Y3.844 
G0 X-3.669 Y11.319 
G0 X-3.656 Y19.656 
G0 X-3.712 Y33.638 
G0 X-3.569 Y36.138 
G0 X-3.331 Y37.550 
G0 X-3.263 Y37.644 
G0 X-3.212 Y37.681 
G1 X-3.156 Y37.706 F916.800 
G1 X-3.100 Y37.731 F916.800 
G1 X-2.638 Y37.881 F916.800 
G1 X-2.500 Y37.994 F916.800 
G1 X-2.431 Y38.094 F916.800 
G1 X-2.431 Y38.094 F916.800 
G1 X-2.225 Y38.538 F916.800 
G1 X-2.225 Y38.538 F916.800 
G1 X-2.175 Y38.775 F916.800 
G1 X-2.175 Y38.956 F916.800 
G0 X-2.175 Y39.019 
G0 X-1.994 Y40.219 
G0 X-1.719 Y40.562 
G0 X-0.094 Y42.019 
G0 X2.025 Y43.175 
G0 X3.431 Y43.569 
G0 X4.713 Y43.681 
G0 X16.238 Y43.706 
G0 X35.356 Y43.650 
G0 X36.625 Y43.519 
G0 X37.913 Y43.212 
G0 X38.944 Y42.812 
G0 X40.744 Y41.531 
G0 X42.144 Y39.931 
G0 X43.112 Y38.169 
G0 X43.519 Y36.781 
G0 X43.694 Y34.438 
G0 X43.675 Y15.044 
G0 X43.681 Y12.075 
G0 X43.237 Y11.231 
G1 X43.206 Y11.175 F916.800 
G1 X43.038 Y10.963 F916.800 
G1 X42.806 Y10.756 F916.800 
G1 X42.706 Y10.606 F916.800 
G1 X42.706 Y10.606 F916.800 
G1 X42.106 Y9.625 F916.800 
G1 X41.819 Y8.631 F916.800 
G1 X41.675 Y7.787 F916.800 
G1 X41.469 Y5.537 F916.800 
G1 X41.306 Y4.800 F916.800 
G1 X41.038 Y4.094 F916.800 
G1 X40.837 Y3.719 F916.800 
G1 X40.638 Y3.406 F916.800 
G1 X40.344 Y3.025 F916.800 
G1 X39.956 Y2.612 F916.800 
G1 X39.544 Y2.244 F916.800 
G1 X39.119 Y1.925 F916.800 
G1 X38.656 Y1.625 F916.800 
G1 X38.100 Y1.325 F916.800 
G1 X37.494 Y1.062 F916.800 
G1 X36.919 Y0.863 F916.800 
G1 X36.312 Y0.675 F916.800 
G1 X35.575 Y0.525 F916.800 
G1 X34.894 Y0.512 F916.800 
G1 X34.119 Y0.594 F916.800 
G1 X32.825 Y0.800 F916.800 
G1 X32.075 Y0.844 F916.800 
G1 X31.337 Y0.694 F916.800 
G1 X31.163 Y0.575 F916.800 
G1 X31.094 Y0.494 F916.800 
G1 X31.056 Y0.400 F916.800 
G1 X31.056 Y0.300 F916.800 
G1 X31.056 Y0.300 F916.800 
G1 X31.100 Y0.050 F916.800 
G1 X31.156 Y-0.050 F916.800 
G1 X31.194 Y-0.087 F916.800 
G0 X31.238 Y-0.113 
G0 X31.462 Y-0.150 
G0 X35.694 Y-0.106 
G0 X37.938 Y0.525 
G0 X39.150 Y1.169 
G0 X40.719 Y2.487 
G0 X41.400 Y3.344 
G0 X41.931 Y4.644 
G0 X42.188 Y5.856 
G0 X42.475 Y8.225 
G0 X42.550 Y9.675 
G1 X42.556 Y9.738 F916.800 
G1 X42.556 Y9.912 F916.800 
G1 X42.550 Y9.956 F916.800 
G1 X42.525 Y9.988 F916.800 
G1 X42.438 Y10.000 F916.800 
G1 X42.288 Y9.944 F916.800 
G1 X42.144 Y9.838 F916.800 
G1 X42.144 Y9.838 F916.800 
G1 X41.538 Y9.262 F916.800 
G1 X41.413 Y9.094 F916.800 
G1 X41.031 Y8.238 F916.800 
G1 X40.794 Y7.525 F916.800 
G1 X40.575 Y6.806 F916.800 
G1 X40.319 Y6.094 F916.800 
G1 X39.981 Y5.419 F916.800 
G1 X39.606 Y4.844 F916.800 
G1 X39.306 Y4.463 F916.800 
G1 X38.969 Y4.100 F916.800 
G1 X38.569 Y3.731 F916.800 
G1 X38.094 Y3.381 F916.800 
G1 X37.631 Y3.094 F916.800 
G1 X37.131 Y2.844 F916.800 
G1 X36.606 Y2.650 F916.800 
G1 X36.131 Y2.519 F916.800 
G1 X35.087 Y2.344 F916.800 
G1 X33.587 Y2.175 F916.800 
G1 X32.844 Y2.069 F916.800 
G1 X32.112 Y1.894 F916.800 
G1 X31.425 Y1.587 F916.800 
G1 X31.188 Y1.387 F916.800 
G1 X31.119 Y1.312 F916.800 
G1 X31.069 Y1.219 F916.800 
G1 X31.056 Y1.119 F916.800 
G1 X31.056 Y1.119 F916.800 
G1 X31.100 Y0.863 F916.800 
G1 X31.150 Y0.756 F916.800 
G1 X31.188 Y0.719 F916.800 
G0 X31.231 Y0.700 
G0 X31.450 Y0.713 
G0 X37.513 Y2.275 
G0 X39.112 Y3.325 
G0 X40.438 Y4.906 
G0 X40.956 Y5.931 
G0 X41.594 Y7.925 
G0 X41.856 Y9.050 
G1 X41.875 Y9.106 F916.800 
G1 X41.913 Y9.281 F916.800 
G1 X41.906 Y9.331 F916.800 
G1 X41.888 Y9.363 F916.800 
G1 X41.806 Y9.400 F916.800 
G1 X41.638 Y9.394 F916.800 
G1 X41.475 Y9.338 F916.800 
G1 X41.475 Y9.338 F916.800 
G1 X40.944 Y9.012 F916.800 
G1 X40.788 Y8.881 F916.800 
G1 X40.250 Y8.113 F916.800 
G1 X39.850 Y7.475 F916.800 
G1 X39.431 Y6.850 F916.800 
G1 X38.969 Y6.250 F916.800 
G1 X38.444 Y5.706 F916.800 
G1 X37.994 Y5.319 F916.800 
G1 X37.562 Y5.019 F916.800 
G1 X37.138 Y4.775 F916.800 
G1 X36.656 Y4.537 F916.800 
G1 X36.069 Y4.294 F916.800 
G1 X35.356 Y4.050 F916.800 
G1 X33.906 Y3.625 F916.800 
G1 X33.188 Y3.400 F916.800 
G1 X32.475 Y3.150 F916.800 
G1 X31.794 Y2.825 F916.800 
G1 X31.288 Y2.438 F916.800 
G1 X31.137 Y2.288 F916.800 
G1 X31.087 Y2.200 F916.800 
G1 X31.056 Y2.100 F916.800 
G1 X31.056 Y2.100 F916.800 
G1 X31.100 Y1.844 F916.800 
G1 X31.150 Y1.744 F916.800 
G1 X31.188 Y1.706 F916.800 
G0 X31.231 Y1.688 
G0 X31.444 Y1.719 
G0 X34.544 Y2.919 
G0 X37.938 Y4.475 
G0 X38.812 Y5.219 
G0 X39.844 Y6.338 
G0 X40.831 Y7.912 
G0 X41.237 Y8.713 
G1 X41.263 Y8.769 F916.800 
G1 X41.337 Y8.931 F916.800 
G1 X41.350 Y8.975 F916.800 
G1 X41.337 Y9.019 F916.800 
G1 X41.269 Y9.075 F916.800 
G1 X41.106 Y9.106 F916.800 
G1 X40.931 Y9.094 F916.800 
G1 X40.931 Y9.094 F916.800 
G1 X40.250 Y8.844 F916.800 
G1 X39.375 Y8.119 F916.800 
G1 X38.806 Y7.619 F916.800 
G1 X38.219 Y7.144 F916.800 
G1 X37.600 Y6.706 F916.800 
G1 X36.956 Y6.312 F916.800 
G1 X36.288 Y5.969 F916.800 
G1 X35.631 Y5.675 F916.800 
G1 X33.538 Y4.831 F916.800 
G1 X32.844 Y4.531 F916.800 
G1 X32.175 Y4.188 F916.800 
G1 X31.544 Y3.781 F916.800 
G1 X31.163 Y3.425 F916.800 
G1 X31.056 Y3.244 F916.800 
G1 X31.056 Y3.244 F916.800 
G1 X31.100 Y2.987 F916.800 
G1 X31.150 Y2.888 F916.800 
G1 X31.188 Y2.850 F916.800 
G0 X31.231 Y2.831 
G0 X31.381 Y2.862 
G0 X37.869 Y6.094 
G0 X39.044 Y6.950 
G0 X40.112 Y7.994 
G0 X40.569 Y8.550 
G1 X40.606 Y8.594 F916.800 
G1 X40.719 Y8.738 F916.800 
G1 X40.737 Y8.775 F916.800 
G1 X40.731 Y8.819 F916.800 
G1 X40.675 Y8.887 F916.800 
G1 X40.519 Y8.950 F916.800 
G1 X40.344 Y8.969 F916.800 
G1 X40.344 Y8.969 F916.800 
G1 X39.744 Y8.900 F916.800 
G1 X39.344 Y8.787 F916.800 
G1 X37.350 Y7.806 F916.800 
G1 X35.981 Y7.181 F916.800 
G1 X33.906 Y6.281 F916.800 
G1 X33.225 Y5.963 F916.800 
G1 X32.556 Y5.612 F916.800 
G1 X31.913 Y5.219 F916.800 
G1 X31.312 Y4.763 F916.800 
G1 X31.106 Y4.531 F916.800 
G1 X31.062 Y4.438 F916.800 
G1 X31.062 Y4.438 F916.800 
G1 X31.094 Y4.181 F916.800 
G1 X31.144 Y4.075 F916.800 
G1 X31.175 Y4.037 F916.800 
G0 X31.219 Y4.019 
G0 X31.312 Y4.025 
G0 X38.375 Y7.606 
G0 X39.081 Y7.925 
G0 X39.794 Y8.512 
G1 X39.837 Y8.550 F916.800 
G1 X39.969 Y8.675 F916.800 
G1 X39.994 Y8.713 F916.800 
G1 X40.000 Y8.750 F916.800 
G1 X39.950 Y8.825 F916.800 
G1 X39.800 Y8.906 F916.800 
G1 X39.625 Y8.944 F916.800 
G1 X39.625 Y8.944 F916.800 
G1 X38.425 Y8.912 F916.800 
G1 X37.725 Y8.794 F916.800 
G1 X34.400 Y7.638 F916.800 
G1 X33.706 Y7.350 F916.800 
G1 X33.025 Y7.031 F916.800 
G1 X32.362 Y6.675 F916.800 
G1 X31.725 Y6.269 F916.800 
G1 X31.175 Y5.794 F916.800 
G1 X31.062 Y5.619 F916.800 
G1 X31.062 Y5.619 F916.800 
G1 X31.094 Y5.362 F916.800 
G1 X31.144 Y5.256 F916.800 
G1 X31.175 Y5.219 F916.800 
G0 X31.219 Y5.194 
G0 X31.369 Y5.219 
G0 X37.831 Y8.181 
G0 X38.337 Y8.537 
G1 X38.388 Y8.575 F916.800 
G1 X38.525 Y8.681 F916.800 
G1 X38.556 Y8.719 F916.800 
G1 X38.556 Y8.756 F916.800 
G1 X38.513 Y8.825 F916.800 
G1 X38.362 Y8.906 F916.800 
G1 X38.188 Y8.944 F916.800 
G1 X38.188 Y8.944 F916.800 
G1 X35.888 Y8.894 F916.800 
G1 X35.288 Y8.806 F916.800 
G1 X33.306 Y8.125 F916.800 
G1 X32.612 Y7.831 F916.800 
G1 X31.944 Y7.481 F916.800 
G1 X31.125 Y6.819 F916.800 
G1 X31.075 Y6.731 F916.800 
G1 X31.056 Y6.631 F916.800 
G1 X31.056 Y6.631 F916.800 
G1 X31.100 Y6.375 F916.800 
G1 X31.150 Y6.275 F916.800 
G1 X31.188 Y6.237 F916.800 
G0 X31.231 Y6.219 
G0 X31.381 Y6.244 
G0 X35.300 Y8.137 
G0 X35.925 Y8.550 
G1 X35.975 Y8.581 F916.800 
G1 X36.125 Y8.688 F916.800 
G1 X36.150 Y8.719 F916.800 
G1 X36.156 Y8.756 F916.800 
G1 X36.112 Y8.825 F916.800 
G1 X35.962 Y8.906 F916.800 
G1 X35.788 Y8.944 F916.800 
G1 X35.788 Y8.944 F916.800 
G1 X33.688 Y8.912 F916.800 
G1 X33.087 Y8.812 F916.800 
G1 X32.125 Y8.431 F916.800 
G1 X31.575 Y8.125 F916.800 
G1 X31.337 Y7.919 F916.800 
G1 X31.269 Y7.838 F916.800 
G1 X31.175 Y7.650 F916.800 
G1 X31.100 Y7.350 F916.800 
G1 X31.100 Y7.350 F916.800 
G1 X31.100 Y7.088 F916.800 
G1 X31.131 Y6.969 F916.800 
G1 X31.156 Y6.931 F916.800 
G0 X31.188 Y6.912 
G0 X31.269 Y6.931 
G0 X33.525 Y8.537 
G1 X33.581 Y8.575 F916.800 
G1 X33.725 Y8.681 F916.800 
G1 X33.750 Y8.719 F916.800 
G1 X33.756 Y8.756 F916.800 
G1 X33.712 Y8.825 F916.800 
G1 X33.562 Y8.906 F916.800 
G1 X33.388 Y8.944 F916.800 
G1 X33.388 Y8.944 F916.800 
G1 X32.587 Y8.894 F916.800 
G1 X32.288 Y8.800 F916.800 
G1 X31.837 Y8.544 F916.800 
G1 X31.531 Y8.262 F916.800 
G1 X31.462 Y8.181 F916.800 
G1 X31.462 Y8.181 F916.800 
G1 X31.450 Y8.150 F916.800 
G1 X31.450 Y8.137 F916.800 
G1 X31.462 Y8.162 F916.800 
G1 X31.438 Y8.188 F916.800 
G1 X31.387 Y8.175 F916.800 
G1 X31.387 Y8.175 F916.800 
G1 X31.231 Y7.906 F916.800 
G1 X31.094 Y7.569 F916.800 
G1 X31.038 Y7.306 F916.800 
G1 X31.000 Y6.850 F916.800 
G1 X30.988 Y-0.188 F916.800 
G1 X30.938 Y-0.575 F916.800 
G1 X30.837 Y-0.950 F916.800 
G1 X30.694 Y-1.306 F916.800 
G1 X30.500 Y-1.644 F916.800 
G1 X30.269 Y-1.950 F916.800 
G1 X30.137 Y-2.094 F916.800 
G1 X29.850 Y-2.350 F916.800 
G1 X29.694 Y-2.469 F916.800 
G1 X29.181 Y-2.750 F916.800 
G1 X28.819 Y-2.875 F916.800 
G1 X28.444 Y-2.962 F916.800 
G1 X27.994 Y-2.994 F916.800 
G1 X4.737 Y-2.994 F916.800 
G1 X3.531 Y-2.862 F916.800 
G1 X2.575 Y-2.638 F916.800 
G1 X1.844 Y-2.350 F916.800 
G1 X1.019 Y-1.944 F916.800 
G1 X0.287 Y-1.469 F916.800 
G1 X-0.344 Y-0.956 F916.800 
G1 X-0.988 Y-0.312 F916.800 
G1 X-1.456 Y0.281 F916.800 
G1 X-2.006 Y1.131 F916.800 
G1 X-2.431 Y2.013 F916.800 
G1 X-2.594 Y2.456 F916.800 
G1 X-2.881 Y3.619 F916.800 
G1 X-2.919 Y3.869 F916.800 
G1 X-2.994 Y4.794 F916.800 
G1 X-2.981 Y35.519 F916.800 
G1 X-2.862 Y36.494 F916.800 
G1 X-2.644 Y37.394 F916.800 
G1 X-2.312 Y38.244 F916.800 
G1 X-1.981 Y38.906 F916.800 
G1 X-1.475 Y39.694 F916.800 
G1 X-0.938 Y40.356 F916.800 
G1 X-0.312 Y40.981 F916.800 
G1 X0.381 Y41.525 F916.800 
G1 X1.212 Y42.044 F916.800 
G1 X2.106 Y42.456 F916.800 
G1 X2.556 Y42.612 F916.800 
G1 X3.331 Y42.819 F916.800 
G1 X3.800 Y42.906 F916.800 
G1 X4.912 Y42.994 F916.800 
G1 X35.306 Y42.987 F916.800 
G1 X35.750 Y42.956 F916.800 
G1 X36.744 Y42.800 F916.800 
G1 X37.438 Y42.625 F916.800 
G1 X38.150 Y42.344 F916.800 
G1 X38.975 Y41.938 F916.800 
G1 X39.706 Y41.462 F916.800 
G1 X40.381 Y40.913 F916.800 
G1 X41.019 Y40.256 F916.800 
G1 X41.450 Y39.712 F916.800 
G1 X42.000 Y38.862 F916.800 
G1 X42.456 Y37.900 F916.800 
G1 X42.769 Y36.850 F916.800 
G1 X42.906 Y36.175 F916.800 
G1 X42.994 Y35.081 F916.800 
G1 X42.987 Y11.812 F916.800 
G1 X42.938 Y11.425 F916.800 
G1 X42.837 Y11.056 F916.800 
G1 X42.694 Y10.694 F916.800 
G1 X42.500 Y10.356 F916.800 
G1 X42.269 Y10.050 F916.800 
G1 X42.000 Y9.775 F916.800 
G1 X41.694 Y9.531 F916.800 
G1 X41.362 Y9.338 F916.800 
G1 X41.006 Y9.181 F916.800 
G1 X40.631 Y9.075 F916.800 
G1 X40.444 Y9.037 F916.800 
G1 X40.000 Y9.006 F916.800 
G1 X32.987 Y8.994 F916.800 
G1 X32.587 Y8.950 F916.800 
G1 X32.263 Y8.850 F916.800 
G1 X32.044 Y8.744 F916.800 
G1 X31.894 Y8.650 F916.800 
G1 X31.650 Y8.463 F916.800 
G1 X31.500 Y8.312 F916.800 
G1 X31.387 Y8.175 F916.800 
G1 X31.387 Y8.175 F916.800 
G0 Z12.000 
(Helix to depth: -10.000000) 
G0 Z12.000 
G0 X22.528 Y22.432 Z12.000 
G0 X22.528 Y22.432 Z7.000 
G1 X22.528 Y22.432 Z-4.000 F277.800 
G1 X22.528 Y22.432 Z-4.000 F277.800 
G1 X22.822 Y22.759 Z-4.039 F277.800 
G1 X23.047 Y23.136 Z-4.077 F277.800 
G1 X23.193 Y23.550 Z-4.116 F277.800 
G1 X23.256 Y23.985 Z-4.155 F277.800 
G1 X23.233 Y24.423 Z-4.193 F277.800 
G1 X23.125 Y24.849 Z-4.232 F277.800 
G1 X22.936 Y25.245 Z-4.271 F277.800 
G1 X22.674 Y25.597 Z-4.309 F277.800 
G1 X22.347 Y25.891 Z-4.348 F277.800 
G1 X21.970 Y26.115 Z-4.387 F277.800 
G1 X21.556 Y26.262 Z-4.425 F277.800 
G1 X21.122 Y26.325 Z-4.464 F277.800 
G1 X20.683 Y26.302 Z-4.502 F277.800 
G1 X20.258 Y26.194 Z-4.541 F277.800 
G1 X19.861 Y26.005 Z-4.580 F277.800 
G1 X19.509 Y25.743 Z-4.618 F277.800 
G1 X19.215 Y25.416 Z-4.657 F277.800 
G1 X18.991 Y25.039 Z-4.696 F277.800 
G1 X18.844 Y24.625 Z-4.734 F277.800 
G1 X18.781 Y24.190 Z-4.773 F277.800 
G1 X18.804 Y23.752 Z-4.812 F277.800 
G1 X18.912 Y23.326 Z-4.850 F277.800 
G1 X19.101 Y22.930 Z-4.889 F277.800 
G1 X19.364 Y22.578 Z-4.928 F277.800 
G1 X19.690 Y22.284 Z-4.966 F277.800 
G1 X20.067 Y22.060 Z-5.005 F277.800 
G1 X20.481 Y21.913 Z-5.044 F277.800 
G1 X20.916 Y21.850 Z-5.082 F277.800 
G1 X21.354 Y21.873 Z-5.121 F277.800 
G1 X21.780 Y21.981 Z-5.160 F277.800 
G1 X22.176 Y22.170 Z-5.198 F277.800 
G1 X22.528 Y22.432 Z-5.237 F277.800 
G1 X22.822 Y22.759 Z-5.275 F277.800 
G1 X23.047 Y23.136 Z-5.314 F277.800 
G1 X23.193 Y23.550 Z-5.353 F277.800 
G1 X23.256 Y23.985 Z-5.391 F277.800 
G1 X23.233 Y24.423 Z-5.430 F277.800 
G1 X23.125 Y24.849 Z-5.469 F277.800 
G1 X22.936 Y25.245 Z-5.507 F277.800 
G1 X22.674 Y25.597 Z-5.546 F277.800 
G1 X22.347 Y25.891 Z-5.585 F277.800 
G1 X21.970 Y26.115 Z-5.623 F277.800 
G1 X21.556 Y26.262 Z-5.662 F277.800 
G1 X21.122 Y26.325 Z-5.701 F277.800 
G1 X20.683 Y26.302 Z-5.739 F277.800 
G1 X20.258 Y26.194 Z-5.778 F277.800 
G1 X19.861 Y26.005 Z-5.817 F277.800 
G1 X19.509 Y25.743 Z-5.855 F277.800 
G1 X19.215 Y25.416 Z-5.894 F277.800 
G1 X18.991 Y25.039 Z-5.933 F277.800 
G1 X18.844 Y24.625 Z-5.971 F277.800 
G1 X18.781 Y24.190 Z-6.010 F277.800 
G1 X18.804 Y23.752 Z-6.049 F277.800 
G1 X18.912 Y23.326 Z-6.087 F277.800 
G1 X19.101 Y22.930 Z-6.126 F277.800 
G1 X19.364 Y22.578 Z-6.164 F277.800 
G1 X19.690 Y22.284 Z-6.203 F277.800 
G1 X20.067 Y22.060 Z-6.242 F277.800 
G1 X20.481 Y21.913 Z-6.280 F277.800 
G1 X20.916 Y21.850 Z-6.319 F277.800 
G1 X21.354 Y21.873 Z-6.358 F277.800 
G1 X21.780 Y21.981 Z-6.396 F277.800 
G1 X22.176 Y22.170 Z-6.435 F277.800 
G1 X22.528 Y22.432 Z-6.474 F277.800 
G1 X22.822 Y22.759 Z-6.512 F277.800 
G1 X23.047 Y23.136 Z-6.551 F277.800 
G1 X23.193 Y23.550 Z-6.590 F277.800 
G1 X23.256 Y23.985 Z-6.628 F277.800 
G1 X23.233 Y24.423 Z-6.667 F277.800 
G1 X23.125 Y24.849 Z-6.706 F277.800 
G1 X22.936 Y25.245 Z-6.744 F277.800 
G1 X22.674 Y25.597 Z-6.783 F277.800 
G1 X22.347 Y25.891 Z-6.822 F277.800 
G1 X21.970 Y26.115 Z-6.860 F277.800 
G1 X21.556 Y26.262 Z-6.899 F277.800 
G1 X21.122 Y26.325 Z-6.937 F277.800 
G1 X20.683 Y26.302 Z-6.976 F277.800 
G1 X20.258 Y26.194 Z-7.015 F277.800 
G1 X19.861 Y26.005 Z-7.053 F277.800 
G1 X19.509 Y25.743 Z-7.092 F277.800 
G1 X19.215 Y25.416 Z-7.131 F277.800 
G1 X18.991 Y25.039 Z-7.169 F277.800 
G1 X18.844 Y24.625 Z-7.208 F277.800 
G1 X18.781 Y24.190 Z-7.247 F277.800 
G1 X18.804 Y23.752 Z-7.285 F277.800 
G1 X18.912 Y23.326 Z-7.324 F277.800 
G1 X19.101 Y22.930 Z-7.363 F277.800 
G1 X19.364 Y22.578 Z-7.401 F277.800 
G1 X19.690 Y22.284 Z-7.440 F277.800 
G1 X20.067 Y22.060 Z-7.479 F277.800 
G1 X20.481 Y21.913 Z-7.517 F277.800 
G1 X20.916 Y21.850 Z-7.556 F277.800 
G1 X21.354 Y21.873 Z-7.595 F277.800 
G1 X21.780 Y21.981 Z-7.633 F277.800 
G1 X22.176 Y22.170 Z-7.672 F277.800 
G1 X22.528 Y22.432 Z-7.711 F277.800 
G1 X22.822 Y22.759 Z-7.749 F277.800 
G1 X23.047 Y23.136 Z-7.788 F277.800 
G1 X23.193 Y23.550 Z-7.826 F277.800 
G1 X23.256 Y23.985 Z-7.865 F277.800 
G1 X23.233 Y24.423 Z-7.904 F277.800 
G1 X23.125 Y24.849 Z-7.942 F277.800 
G1 X22.936 Y25.245 Z-7.981 F277.800 
G1 X22.674 Y25.597 Z-8.020 F277.800 
G1 X22.347 Y25.891 Z-8.058 F277.800 
G1 X21.970 Y26.115 Z-8.097 F277.800 
G1 X21.556 Y26.262 Z-8.136 F277.800 
G1 X21.122 Y26.325 Z-8.174 F277.800 
G1 X20.683 Y26.302 Z-8.213 F277.800 
G1 X20.258 Y26.194 Z-8.252 F277.800 
G1 X19.861 Y26.005 Z-8.290 F277.800 
G1 X19.509 Y25.743 Z-8.329 F277.800 
G1 X19.215 Y25.416 Z-8.368 F277.800 
G1 X18.991 Y25.039 Z-8.406 F277.800 
G1 X18.844 Y24.625 Z-8.445 F277.800 
G1 X18.781 Y24.190 Z-8.484 F277.800 
G1 X18.804 Y23.752 Z-8.522 F277.800 
G1 X18.912 Y23.326 Z-8.561 F277.800 
G1 X19.101 Y22.930 Z-8.600 F277.800 
G1 X19.364 Y22.578 Z-8.638 F277.800 
G1 X19.690 Y22.284 Z-8.677 F277.800 
G1 X20.067 Y22.060 Z-8.715 F277.800 
G1 X20.481 Y21.913 Z-8.754 F277.800 
G1 X20.916 Y21.850 Z-8.793 F277.800 
G1 X21.354 Y21.873 Z-8.831 F277.800 
G1 X21.780 Y21.981 Z-8.870 F277.800 
G1 X22.176 Y22.170 Z-8.909 F277.800 
G1 X22.528 Y22.432 Z-8.947 F277.800 
G1 X22.822 Y22.759 Z-8.986 F277.800 
G1 X23.047 Y23.136 Z-9.025 F277.800 
G1 X23.193 Y23.550 Z-9.063 F277.800 
G1 X23.256 Y23.985 Z-9.102 F277.800 
G1 X23.233 Y24.423 Z-9.141 F277.800 
G1 X23.125 Y24.849 Z-9.179 F277.800 
G1 X22.936 Y25.245 Z-9.218 F277.800 
G1 X22.674 Y25.597 Z-9.257 F277.800 
G1 X22.347 Y25.891 Z-9.295 F277.800 
G1 X21.970 Y26.115 Z-9.334 F277.800 
G1 X21.556 Y26.262 Z-9.373 F277.800 
G1 X21.122 Y26.325 Z-9.411 F277.800 
G1 X20.683 Y26.302 Z-9.450 F277.800 
G1 X20.258 Y26.194 Z-9.488 F277.800 
G1 X19.861 Y26.005 Z-9.527 F277.800 
G1 X19.509 Y25.743 Z-9.566 F277.800 
G1 X19.215 Y25.416 Z-9.604 F277.800 
G1 X18.991 Y25.039 Z-9.643 F277.800 
G1 X18.844 Y24.625 Z-9.682 F277.800 
G1 X18.781 Y24.190 Z-9.720 F277.800 
G1 X18.804 Y23.752 Z-9.759 F277.800 
G1 X18.912 Y23.326 Z-9.798 F277.800 
G1 X19.101 Y22.930 Z-9.836 F277.800 
G1 X19.364 Y22.578 Z-9.875 F277.800 
G1 X19.690 Y22.284 Z-9.914 F277.800 
G1 X20.067 Y22.060 Z-9.952 F277.800 
G1 X20.481 Y21.913 Z-9.991 F277.800 
G1 X20.916 Y21.850 Z-10.000 F916.800 
G1 X21.354 Y21.873 Z-10.000 F916.800 
G1 X21.780 Y21.981 Z-10.000 F916.800 
G1 X22.176 Y22.170 Z-10.000 F916.800 
G1 X22.528 Y22.432 Z-10.000 F916.800 
G1 X22.822 Y22.759 Z-10.000 F916.800 
G1 X23.047 Y23.136 Z-10.000 F916.800 
G1 X23.193 Y23.550 Z-10.000 F916.800 
G1 X23.256 Y23.985 Z-10.000 F916.800 
G1 X23.233 Y24.423 Z-10.000 F916.800 
G1 X23.125 Y24.849 Z-10.000 F916.800 
G1 X22.936 Y25.245 Z-10.000 F916.800 
G1 X22.674 Y25.597 Z-10.000 F916.800 
G1 X22.347 Y25.891 Z-10.000 F916.800 
G1 X21.970 Y26.115 Z-10.000 F916.800 
G1 X21.556 Y26.262 Z-10.000 F916.800 
G1 X21.122 Y26.325 Z-10.000 F916.800 
G1 X20.683 Y26.302 Z-10.000 F916.800 
G1 X20.258 Y26.194 Z-10.000 F916.800 
G1 X19.861 Y26.005 Z-10.000 F916.800 
G1 X19.509 Y25.743 Z-10.000 F916.800 
G1 X19.215 Y25.416 Z-10.000 F916.800 
G1 X18.991 Y25.039 Z-10.000 F916.800 
G1 X18.844 Y24.625 Z-10.000 F916.800 
G1 X18.781 Y24.190 Z-10.000 F916.800 
G1 X18.804 Y23.752 Z-10.000 F916.800 
G1 X18.912 Y23.326 Z-10.000 F916.800 
G1 X19.101 Y22.930 Z-10.000 F916.800 
G1 X19.364 Y22.578 Z-10.000 F916.800 
G1 X19.690 Y22.284 Z-10.000 F916.800 
G1 X20.067 Y22.060 Z-10.000 F916.800 
G1 X20.481 Y21.913 Z-10.000 F916.800 
(Adaptive - depth: -10.000000) 
G1 X21.019 Y21.837 F916.800 
G1 X21.087 Y21.762 F916.800 
G1 X21.363 Y21.644 F916.800 
G1 X21.644 Y21.600 F916.800 
G1 X21.831 Y21.606 F916.800 
G1 X22.481 Y21.794 F916.800 
G1 X22.812 Y22.000 F916.800 
G1 X23.000 Y22.150 F916.800 
G1 X23.188 Y22.344 F916.800 
G1 X23.387 Y22.606 F916.800 
G1 X23.594 Y22.962 F916.800 
G1 X23.731 Y23.331 F916.800 
G1 X23.812 Y23.663 F916.800 
G1 X23.856 Y24.038 F916.800 
G1 X23.844 Y24.406 F916.800 
G1 X23.775 Y24.769 F916.800 
G1 X23.669 Y25.094 F916.800 
G1 X23.512 Y25.419 F916.800 
G1 X23.325 Y25.719 F916.800 
G1 X23.069 Y26.031 F916.800 
G1 X22.769 Y26.312 F916.800 
G1 X22.444 Y26.531 F916.800 
G1 X22.131 Y26.681 F916.800 
G1 X21.825 Y26.794 F916.800 
G1 X21.438 Y26.881 F916.800 
G1 X21.019 Y26.913 F916.800 
G1 X20.644 Y26.887 F916.800 
G1 X20.294 Y26.825 F916.800 
G1 X19.931 Y26.700 F916.800 
G1 X19.594 Y26.544 F916.800 
G1 X19.250 Y26.319 F916.800 
G1 X18.962 Y26.062 F916.800 
G1 X18.738 Y25.806 F916.800 
G1 X18.531 Y25.494 F916.800 
G1 X18.375 Y25.163 F916.800 
G1 X18.262 Y24.819 F916.800 
G1 X18.188 Y24.462 F916.800 
G1 X18.156 Y24.056 F916.800 
G1 X18.181 Y23.637 F916.800 
G1 X18.269 Y23.250 F916.800 
G1 X18.387 Y22.938 F916.800 
G1 X18.538 Y22.637 F916.800 
G1 X18.750 Y22.319 F916.800 
G1 X19.025 Y22.012 F916.800 
G1 X19.306 Y21.769 F916.800 
G1 X19.619 Y21.544 F916.800 
G1 X20.012 Y21.312 F916.800 
G1 X20.500 Y21.106 F916.800 
G1 X20.931 Y20.994 F916.800 
G1 X21.288 Y20.950 F916.800 
G1 X21.631 Y20.944 F916.800 
G1 X22.050 Y21.000 F916.800 
G1 X22.406 Y21.100 F916.800 
G1 X22.756 Y21.244 F916.800 
G1 X23.094 Y21.438 F916.800 
G1 X23.394 Y21.669 F916.800 
G1 X23.669 Y21.938 F916.800 
G1 X23.906 Y22.238 F916.800 
G1 X24.106 Y22.562 F916.800 
G1 X24.275 Y22.950 F916.800 
G1 X24.400 Y23.325 F916.800 
G1 X24.481 Y23.750 F916.800 
G1 X24.506 Y24.163 F916.800 
G1 X24.469 Y24.575 F916.800 
G1 X24.400 Y24.913 F916.800 
G1 X24.281 Y25.288 F916.800 
G1 X24.100 Y25.688 F916.800 
G1 X23.869 Y26.069 F916.800 
G1 X23.613 Y26.406 F916.800 
G1 X23.300 Y26.712 F916.800 
G1 X23.000 Y26.950 F916.800 
G1 X22.644 Y27.163 F916.800 
G1 X22.262 Y27.331 F916.800 
G1 X21.881 Y27.450 F916.800 
G1 X21.481 Y27.531 F916.800 
G1 X21.025 Y27.562 F916.800 
G1 X20.606 Y27.544 F916.800 
G1 X20.188 Y27.462 F916.800 
G1 X19.825 Y27.363 F916.800 
G1 X19.400 Y27.181 F916.800 
G1 X19.031 Y26.969 F916.800 
G1 X18.694 Y26.725 F916.800 
G1 X18.387 Y26.419 F916.800 
G1 X18.156 Y26.131 F916.800 
G1 X17.944 Y25.788 F916.800 
G1 X17.769 Y25.431 F916.800 
G1 X17.619 Y24.988 F916.800 
G1 X17.531 Y24.575 F916.800 
G1 X17.488 Y24.150 F916.800 
G1 X17.494 Y23.719 F916.800 
G1 X17.550 Y23.294 F916.800 
G1 X17.669 Y22.881 F916.800 
G1 X17.806 Y22.544 F916.800 
G1 X17.994 Y22.188 F916.800 
G1 X18.238 Y21.825 F916.800 
G1 X18.550 Y21.469 F916.800 
G1 X18.869 Y21.169 F916.800 
G1 X19.231 Y20.900 F916.800 
G1 X19.619 Y20.663 F916.800 
G1 X20.069 Y20.456 F916.800 
G1 X20.512 Y20.319 F916.800 
G1 X20.906 Y20.238 F916.800 
G1 X21.356 Y20.200 F916.800 
G1 X21.794 Y20.231 F916.800 
G1 X22.169 Y20.294 F916.800 
G1 X22.575 Y20.413 F916.800 
G1 X22.956 Y20.562 F916.800 
G1 X23.394 Y20.806 F916.800 
G1 X23.756 Y21.056 F916.800 
G1 X24.081 Y21.356 F916.800 
G1 X24.344 Y21.656 F916.800 
G1 X24.587 Y22.006 F916.800 
G1 X24.794 Y22.375 F916.800 
G1 X24.975 Y22.825 F916.800 
G1 X25.094 Y23.250 F916.800 
G1 X25.169 Y23.688 F916.800 
G1 X25.194 Y24.144 F916.800 
G1 X25.169 Y24.587 F916.800 
G1 X25.094 Y25.038 F916.800 
G1 X24.975 Y25.475 F916.800 
G1 X24.806 Y25.900 F916.800 
G1 X24.594 Y26.300 F916.800 
G1 X24.337 Y26.675 F916.800 
G1 X24.044 Y27.019 F916.800 
G1 X23.700 Y27.319 F916.800 
G1 X23.387 Y27.538 F916.800 
G1 X23.019 Y27.756 F916.800 
G1 X22.556 Y27.969 F916.800 
G1 X22.062 Y28.137 F916.800 
G1 X21.587 Y28.225 F916.800 
G1 X21.194 Y28.262 F916.800 
G1 X20.738 Y28.262 F916.800 
G1 X20.250 Y28.200 F916.800 
G1 X19.812 Y28.100 F916.800 
G1 X19.369 Y27.956 F916.800 
G1 X18.887 Y27.738 F916.800 
G1 X18.488 Y27.475 F916.800 
G1 X18.194 Y27.231 F916.800 
G1 X17.913 Y26.950 F916.800 
G1 X17.606 Y26.587 F916.800 
G1 X17.319 Y26.137 F916.800 
G1 X17.106 Y25.731 F916.800 
G1 X16.925 Y25.281 F916.800 
G1 X16.806 Y24.806 F916.800 
G1 X16.744 Y24.400 F916.800 
G1 X16.725 Y23.944 F916.800 
G1 X16.762 Y23.494 F916.800 
G1 X16.844 Y23.062 F916.800 
G1 X16.962 Y22.631 F916.800 
G1 X17.163 Y22.150 F916.800 
G1 X17.381 Y21.738 F916.800 
G1 X17.644 Y21.344 F916.800 
G1 X17.956 Y20.969 F916.800 
G1 X18.294 Y20.637 F916.800 
G1 X18.669 Y20.337 F916.800 
G1 X19.069 Y20.069 F916.800 
G1 X19.556 Y19.819 F916.800 
G1 X20.019 Y19.631 F916.800 
G1 X20.506 Y19.512 F916.800 
G1 X20.894 Y19.456 F916.800 
G1 X21.350 Y19.431 F916.800 
G1 X21.856 Y19.469 F916.800 
G1 X22.294 Y19.544 F916.800 
G1 X22.750 Y19.669 F916.800 
G1 X23.188 Y19.837 F916.800 
G1 X23.644 Y20.069 F916.800 
G1 X24.050 Y20.331 F916.800 
G1 X24.431 Y20.637 F916.800 
G1 X24.775 Y20.994 F916.800 
G1 X25.031 Y21.319 F916.800 
G1 X25.288 Y21.706 F916.800 
G1 X25.525 Y22.156 F916.800 
G1 X25.712 Y22.637 F916.800 
G1 X25.850 Y23.113 F916.800 
G1 X25.919 Y23.613 F916.800 
G1 X25.950 Y24.019 F916.800 
G1 X25.938 Y24.531 F916.800 
G1 X25.863 Y25.062 F916.800 
G1 X25.756 Y25.531 F916.800 
G1 X25.594 Y26.012 F916.800 
G1 X25.381 Y26.475 F916.800 
G1 X25.106 Y26.894 F916.800 
G1 X24.863 Y27.206 F916.800 
G1 X24.544 Y27.544 F916.800 
G1 X24.169 Y27.881 F916.800 
G1 X23.706 Y28.212 F916.800 
G1 X23.269 Y28.469 F916.800 
G1 X22.794 Y28.694 F916.800 
