(THREAD_M6_V1)
(T1  D=6. CR=0. TAPER=45DEG - ZMIN=-2.1 - CHAMFER MILL)
(T12  D=5. CR=0. TAPER=118DEG - ZMIN=-14. - DRILL)
(T14  D=4.8 CR=0. - ZMIN=-9. - THREAD MILL)
N10G90G94G17G91.1
N15G21
N20G53G0Z0.
(DRILL5)
N25T12M6
N30T1
N35S11459M3
N40G54
N45M7
N50G0X0.Y0.
N55G43Z25.H12
N60G0Z5.
N65G98G83X0.Y0.Z-14.R5.Q4.F400.
N70G80
N75G0Z25.
N80M9
N85M5
N90G53Z0.
(2D CHAMFER2)
N95M1
N100T1M6
N105T14
N110S15915M3
N115G54
N120M8
N125G0X0.368Y0.
N130G43Z15.H1
N135G0Z5.
N140G1Z2.F333.33
N145Z-2.1
N150X0.967F1000.
N155G3X-0.967I-0.967J0.
N160X0.967I0.967J0.
N165G1X0.368
N170G0Z15.
N175M5
N180G53Z0.
(DRILL6)
N185M9
N190M1
N195T14M6
N200T12
N205S17000M3
N210G54
N215M8
N220G0X0.Y0.
N225G43Z15.H14
N230G0Z5.
N235G1Z0.F780.
N240Z-9.
N245X0.6
N250G3X-0.6Z-8.5I-0.6J0.
N255X0.6Z-8.I0.6J0.
N260X-0.6Z-7.5I-0.6J0.
N265X0.6Z-7.I0.6J0.
N270X-0.6Z-6.5I-0.6J0.
N275X0.6Z-6.I0.6J0.
N280X-0.6Z-5.5I-0.6J0.
N285X0.6Z-5.I0.6J0.
N290X-0.6Z-4.5I-0.6J0.
N295X0.6Z-4.I0.6J0.
N300X-0.6Z-3.5I-0.6J0.
N305X0.6Z-3.I0.6J0.
N310X-0.6Z-2.5I-0.6J0.
N315X0.6Z-2.I0.6J0.
N320X-0.6Z-1.5I-0.6J0.
N325X0.6Z-1.I0.6J0.
N330X-0.6Z-0.5I-0.6J0.
N335X0.6Z0.I0.6J0.
N340G1X0.
N345G0Z5.
N350Z15.
N355M9
N360G53Z0.
N365M30
