%
(TOOLRACK_V4)
(T8  D=6. CR=3. - ZMIN=-7.997 - BALL END MILL)
N10G90G94G17G91.1
N15G21
N20G53G0Z0.
(PARALLEL1)
N25T8M6
N30S23000M3
N35G54
N40G0X359.352Y23.007
N45G43Z18.H8
N50G0Z2.
N55G1Z0.6F3680.
N60G18G3X358.752Z0.I-0.6K0.
N65G1X346.247
N70X346.179Z0.008
N75X346.115Z0.031
N80X346.05Z0.053
N85X345.983Z0.061
N90X340.907
N95G17G2Y24.507I0.J0.75
N100G1X340.975Z0.053
N105X341.039Z0.031
N110X341.101Z0.008
N115X341.166Z0.
N120X341.661Z-0.009
N125X342.32Z-0.039
N130X343.709Z-0.132
N135X344.918Z-0.201
N140X346.077Z-0.234
N145X358.953Z-0.233
N150X360.136Z-0.199
N155X361.423Z-0.123
N160X362.92Z-0.025
N165X363.834Z0.
N170X363.892Y24.506Z0.003
N175X363.949Y24.501Z0.007
N180X364.006Y24.493Z0.014
N185X364.063Y24.482Z0.022
N190X364.118Y24.468Z0.033
N195X364.172Y24.45Z0.045
N200X364.224Y24.43Z0.059
N205X364.275Y24.407Z0.075
N210X364.324Y24.381Z0.093
N215X364.37Y24.352Z0.112
N220X364.415Y24.321Z0.133
N225X364.457Y24.288Z0.155
N230X364.496Y24.252Z0.179
N235X364.532Y24.214Z0.204
N240X364.565Y24.174Z0.23
N245X364.595Y24.132Z0.257
N250X364.621Y24.089Z0.285
N255X364.644Y24.044Z0.314
N260X364.664Y23.998Z0.343
N265X364.68Y23.952Z0.373
N270X364.693Y23.904Z0.404
N275X364.701Y23.855Z0.434
N280X364.706Y23.806Z0.465
N285X364.707Y23.757Z0.496
N290X364.704Y23.708Z0.527
N295X364.698Y23.66Z0.558
N300X364.688Y23.611Z0.588
N305X364.674Y23.563Z0.618
N310X364.656Y23.516Z0.647
N315X364.635Y23.47Z0.675
N320X364.61Y23.426Z0.703
N325X364.582Y23.382Z0.729
N330X364.551Y23.341Z0.755
N335X364.516Y23.301Z0.779
N340X364.479Y23.263Z0.802
N345X364.439Y23.227Z0.823
N350X364.396Y23.194Z0.843
N355X364.35Y23.162Z0.862
N360X364.303Y23.134Z0.878
N365X364.253Y23.108Z0.893
N370X364.201Y23.085Z0.906
N375X364.148Y23.065Z0.918
N380X364.094Y23.047Z0.927
N385X364.038Y23.033Z0.935
N390X363.981Y23.022Z0.94
N395X363.924Y23.014Z0.944
N400X363.866Y23.009Z0.945
N405X363.808Y23.007
N410X328.752Z0.
N415X316.247
N420X316.179Z0.008
N425X316.115Z0.031
N430X316.05Z0.053
N435X315.983Z0.061
N440X310.907
N445G2Y24.507I0.J0.75
N450G1X310.975Z0.053
N455X311.039Z0.031
N460X311.101Z0.008
N465X311.166Z0.
N470X311.661Z-0.009
N475X312.32Z-0.039
N480X313.709Z-0.132
N485X314.918Z-0.201
N490X316.077Z-0.234
N495X328.953Z-0.233
N500X330.136Z-0.199
N505X331.423Z-0.123
N510X332.92Z-0.025
N515X333.834Z0.
N520X339.709Y26.007
N525X340.161Z-0.014
N530X340.684Z-0.061
N535X341.403Z-0.173
N540X341.986Z-0.297
N545X343.451Z-0.643
N550X344.157Z-0.791
N555X344.709Z-0.882
N560X345.191Z-0.941
N565X345.689Z-0.981
N570X346.326Z-1.002
N575X357.811Z-1.006
N580X358.884Z-0.999
N585X359.409Z-0.974
N590X359.82Z-0.94
N595X360.426Z-0.862
N600X360.917Z-0.777
N605X361.546Z-0.643
N610X362.704Z-0.366
N615X363.612Z-0.171
N620X364.195Z-0.077
N625X364.754Z-0.019
N630X365.291Z0.
N635G18G2X365.869Z0.6I-0.021K0.6
N640G0Z8.
N645X299.352Y23.007
N650Z2.
N655G1Z0.6F3680.
N660G3X298.752Z0.I-0.6K0.
N665G1X286.247
N670X286.179Z0.008
N675X286.115Z0.031
N680X286.05Z0.053
N685X285.983Z0.061
N690X280.907
N695G17G2Y24.507I0.J0.75
N700G1X280.975Z0.053
N705X281.039Z0.031
N710X281.101Z0.008
N715X281.166Z0.
N720X281.661Z-0.009
N725X282.32Z-0.039
N730X283.709Z-0.132
N735X284.918Z-0.201
N740X286.077Z-0.234
N745X298.953Z-0.233
N750X300.136Z-0.199
N755X301.423Z-0.123
N760X302.92Z-0.025
N765X303.834Z0.
N770X309.709Y26.007
N775X310.161Z-0.014
N780X310.684Z-0.061
N785X311.403Z-0.173
N790X311.986Z-0.297
N795X313.451Z-0.643
N800X314.157Z-0.791
N805X314.709Z-0.882
N810X315.191Z-0.941
N815X315.689Z-0.981
N820X316.326Z-1.002
N825X327.811Z-1.006
N830X328.884Z-0.999
N835X329.409Z-0.974
N840X329.82Z-0.94
N845X330.426Z-0.862
N850X330.917Z-0.777
N855X331.546Z-0.643
N860X332.704Z-0.366
N865X333.612Z-0.171
N870X334.195Z-0.077
N875X334.754Z-0.019
N880X335.291Z0.
N885X339.Y27.507
N890X339.351Z-0.012
N895X339.743Z-0.051
N900X340.258Z-0.144
N905X340.761Z-0.282
N910X341.251Z-0.462
N915X341.674Z-0.652
N920X342.05Z-0.845
N925X342.524Z-1.119
N930X343.545Z-1.778
N935X344.029Z-2.075
N940X344.341Z-2.253
N945X344.598Z-2.383
N950X344.851Z-2.496
N955X345.126Z-2.601
N960X345.41Z-2.687
N965X345.812Z-2.774
N970X346.197Z-2.822
N975X346.551Z-2.841
N980X358.354Z-2.844
N985X358.878Z-2.815
N990X359.072Z-2.791
N995X359.395Z-2.735
N1000X359.743Z-2.643
N1005X360.144Z-2.498
N1010X360.383Z-2.391
N1015X360.689Z-2.238
N1020X361.129Z-1.982
N1025X362.029Z-1.4
N1030X362.581Z-1.054
N1035X363.074Z-0.776
N1040X363.665Z-0.496
N1045X364.194Z-0.297
N1050X364.649Z-0.166
N1055X365.114Z-0.072
N1060X365.465Z-0.027
N1065X365.731Z-0.008
N1070X366.Z0.
N1075G18G2X366.583Z0.6I-0.017K0.6
N1080G0Z8.
N1085X269.352Y23.007
N1090Z2.
N1095G1Z0.6F3680.
N1100G3X268.752Z0.I-0.6K0.
N1105G1X256.247
N1110X256.179Z0.008
N1115X256.115Z0.031
N1120X256.05Z0.053
N1125X255.983Z0.061
N1130X250.907
N1135G17G2Y24.507I0.J0.75
N1140G1X250.975Z0.053
N1145X251.039Z0.031
N1150X251.101Z0.008
N1155X251.166Z0.
N1160X251.661Z-0.009
N1165X252.32Z-0.039
N1170X253.709Z-0.132
N1175X254.918Z-0.201
N1180X256.077Z-0.234
N1185X268.953Z-0.233
N1190X270.136Z-0.199
N1195X271.423Z-0.123
N1200X272.92Z-0.025
N1205X273.834Z0.
N1210X279.709Y26.007
N1215X280.217Z-0.017
N1220X280.739Z-0.068
N1225X281.387Z-0.17
N1230X281.971Z-0.294
N1235X283.456Z-0.644
N1240X284.179Z-0.795
N1245X284.658Z-0.875
N1250X285.141Z-0.936
N1255X285.59Z-0.974
N1260X286.275Z-1.002
N1265X297.811Z-1.006
N1270X298.884Z-0.999
N1275X299.409Z-0.974
N1280X299.82Z-0.94
N1285X300.426Z-0.862
N1290X300.917Z-0.777
N1295X301.546Z-0.643
N1300X302.704Z-0.366
N1305X303.612Z-0.171
N1310X304.195Z-0.077
N1315X304.754Z-0.019
N1320X305.291Z0.
N1325X309.Y27.507
N1330X309.351Z-0.012
N1335X309.743Z-0.051
N1340X310.258Z-0.144
N1345X310.761Z-0.282
N1350X311.251Z-0.462
N1355X311.674Z-0.652
N1360X312.05Z-0.845
N1365X312.524Z-1.119
N1370X313.545Z-1.778
N1375X314.029Z-2.075
N1380X314.341Z-2.253
N1385X314.598Z-2.383
N1390X314.851Z-2.496
N1395X315.126Z-2.601
N1400X315.41Z-2.687
N1405X315.812Z-2.774
N1410X316.197Z-2.822
N1415X316.551Z-2.841
N1420X328.354Z-2.844
N1425X328.878Z-2.815
N1430X329.072Z-2.791
N1435X329.395Z-2.735
N1440X329.743Z-2.643
N1445X330.144Z-2.498
N1450X330.383Z-2.391
N1455X330.689Z-2.238
N1460X331.129Z-1.982
N1465X332.029Z-1.4
N1470X332.581Z-1.054
N1475X333.074Z-0.776
N1480X333.665Z-0.496
N1485X334.194Z-0.297
N1490X334.649Z-0.166
N1495X335.114Z-0.072
N1500X335.465Z-0.027
N1505X335.731Z-0.008
N1510X336.Z0.
N1515X338.78Y29.007
N1520X339.315Z-0.03
N1525X339.638Z-0.077
N1530X340.085Z-0.173
N1535X340.458Z-0.293
N1540X340.761Z-0.41
N1545X341.227Z-0.64
N1550X341.502Z-0.808
N1555X341.871Z-1.07
N1560X342.257Z-1.408
N1565X342.521Z-1.685
N1570X342.764Z-1.979
N1575X342.946Z-2.239
N1580X343.426Z-3.02
N1585X343.706Z-3.434
N1590X344.091Z-3.95
N1595X344.418Z-4.337
N1600X344.764Z-4.711
N1605X345.199Z-5.138
N1610X345.68Z-5.559
N1615X346.079Z-5.868
N1620X346.574Z-6.216
N1625X346.775Z-6.342
N1630X347.206Z-6.6
N1635X347.65Z-6.839
N1640X347.984Z-7.
N1645X348.566Z-7.249
N1650X348.813Z-7.341
N1655X349.288Z-7.502
N1660X349.769Z-7.642
N1665X350.228Z-7.753
N1670X350.719Z-7.845
N1675X351.213Z-7.915
N1680X351.845Z-7.974
N1685X352.478Z-7.995
N1690X352.88Z-7.986
N1695X353.25Z-7.966
N1700X353.772Z-7.917
N1705X354.291Z-7.843
N1710X354.805Z-7.745
N1715X355.313Z-7.621
N1720X355.816Z-7.471
N1725X356.039Z-7.394
N1730X356.529Z-7.21
N1735X357.008Z-7.003
N1740X357.476Z-6.775
N1745X357.93Z-6.525
N1750X358.377Z-6.248
N1755X358.571Z-6.116
N1760X358.994Z-5.811
N1765X359.401Z-5.489
N1770X359.789Z-5.149
N1775X360.149Z-4.803
N1780X360.509Z-4.42
N1785X360.678Z-4.224
N1790X361.006Z-3.822
N1795X361.311Z-3.408
N1800X361.596Z-2.985
N1805X361.885Z-2.507
N1810X362.112Z-2.151
N1815X362.334Z-1.855
N1820X362.657Z-1.492
N1825X362.976Z-1.198
N1830X363.248Z-0.98
N1835X363.594Z-0.746
N1840X363.846Z-0.601
N1845X364.283Z-0.39
N1850X364.674Z-0.248
N1855X365.016Z-0.148
N1860X365.481Z-0.055
N1865X365.716Z-0.027
N1870X366.22Z0.
N1875G18G2X366.788Z0.599I-0.032K0.599
N1880G0Z8.
N1885X239.352Y23.007
N1890Z2.
N1895G1Z0.6F3680.
N1900G3X238.752Z0.I-0.6K0.
N1905G1X226.247
N1910X226.179Z0.008
N1915X226.115Z0.031
N1920X226.05Z0.053
N1925X225.983Z0.061
N1930X220.907
N1935G17G2Y24.507I0.J0.75
N1940G1X220.975Z0.053
N1945X221.039Z0.031
N1950X221.101Z0.008
N1955X221.166Z0.
N1960X221.661Z-0.009
N1965X222.32Z-0.039
N1970X223.71Z-0.132
N1975X224.918Z-0.201
N1980X226.077Z-0.234
N1985X238.947Z-0.233
N1990X240.136Z-0.199
N1995X241.423Z-0.123
N2000X242.92Z-0.025
N2005X243.834Z0.
N2010X249.709Y26.007
N2015X250.217Z-0.017
N2020X250.739Z-0.068
N2025X251.387Z-0.17
N2030X251.971Z-0.294
N2035X253.455Z-0.644
N2040X254.179Z-0.795
N2045X254.658Z-0.875
N2050X255.141Z-0.936
N2055X255.59Z-0.974
N2060X256.275Z-1.002
N2065X267.811Z-1.006
N2070X268.884Z-0.999
N2075X269.409Z-0.974
N2080X269.82Z-0.94
N2085X270.426Z-0.862
N2090X270.917Z-0.777
N2095X271.546Z-0.643
N2100X272.704Z-0.366
N2105X273.612Z-0.171
N2110X274.195Z-0.077
N2115X274.754Z-0.019
N2120X275.291Z0.
N2125X279.Y27.507
N2130X279.351Z-0.012
N2135X279.743Z-0.051
N2140X280.258Z-0.144
N2145X280.761Z-0.282
N2150X281.251Z-0.462
N2155X281.674Z-0.652
N2160X282.05Z-0.845
N2165X282.524Z-1.119
N2170X283.545Z-1.778
N2175X284.029Z-2.075
N2180X284.341Z-2.253
N2185X284.598Z-2.383
N2190X284.851Z-2.496
N2195X285.126Z-2.601
N2200X285.41Z-2.687
N2205X285.812Z-2.774
N2210X286.197Z-2.822
N2215X286.551Z-2.841
N2220X298.354Z-2.844
N2225X298.878Z-2.815
N2230X299.072Z-2.791
N2235X299.395Z-2.735
N2240X299.743Z-2.643
N2245X300.144Z-2.498
N2250X300.383Z-2.391
N2255X300.689Z-2.238
N2260X301.129Z-1.982
N2265X302.029Z-1.4
N2270X302.581Z-1.054
N2275X303.074Z-0.776
N2280X303.665Z-0.496
N2285X304.194Z-0.297
N2290X304.649Z-0.166
N2295X305.114Z-0.072
N2300X305.465Z-0.027
N2305X305.731Z-0.008
N2310X306.Z0.
N2315X308.78Y29.007
N2320X309.065Z-0.012
N2325X309.481Z-0.05
N2330X310.033Z-0.16
N2335X310.315Z-0.244
N2340X310.721Z-0.392
N2345X311.15Z-0.6
N2350X311.456Z-0.778
N2355X311.839Z-1.045
N2360X312.154Z-1.313
N2365X312.414Z-1.567
N2370X312.75Z-1.96
N2375X312.988Z-2.303
N2380X313.369Z-2.926
N2385X313.775Z-3.532
N2390X314.076Z-3.93
N2395X314.397Z-4.313
N2400X314.815Z-4.766
N2405X315.25Z-5.187
N2410X315.628Z-5.513
N2415X316.109Z-5.891
N2420X316.522Z-6.18
N2425X316.835Z-6.379
N2430X317.242Z-6.62
N2435X317.686Z-6.856
N2440X318.142Z-7.072
N2445X318.602Z-7.265
N2450X318.824Z-7.345
N2455X319.298Z-7.505
N2460X319.78Z-7.644
N2465X320.239Z-7.755
N2470X320.471Z-7.799
N2475X320.964Z-7.882
N2480X321.46Z-7.943
N2485X321.829Z-7.973
N2490X322.499Z-7.996
N2495X323.106Z-7.978
N2500X323.603Z-7.938
N2505X323.864Z-7.905
N2510X324.356Z-7.831
N2515X324.87Z-7.729
N2520X325.378Z-7.602
N2525X325.877Z-7.451
N2530X326.347Z-7.283
N2535X326.59Z-7.184
N2540X327.045Z-6.986
N2545X327.512Z-6.755
N2550X327.966Z-6.502
N2555X328.406Z-6.23
N2560X328.6Z-6.096
N2565X329.002Z-5.805
N2570X329.409Z-5.482
N2575X329.797Z-5.142
N2580X330.166Z-4.786
N2585X330.526Z-4.402
N2590X330.678Z-4.224
N2595X331.006Z-3.822
N2600X331.311Z-3.408
N2605X331.596Z-2.985
N2610X331.885Z-2.507
N2615X332.112Z-2.151
N2620X332.334Z-1.855
N2625X332.657Z-1.492
N2630X332.976Z-1.197
N2635X333.248Z-0.98
N2640X333.594Z-0.746
N2645X333.846Z-0.601
N2650X334.283Z-0.39
N2655X334.674Z-0.248
N2660X335.016Z-0.148
N2665X335.481Z-0.055
N2670X335.716Z-0.027
N2675X336.22Z0.
N2680X336.668Y29.269
N2685X338.78Y30.507
N2690X339.214Z-0.022
N2695X339.474Z-0.048
N2700X339.732Z-0.096
N2705X340.114Z-0.181
N2710X340.362Z-0.262
N2715X340.727Z-0.395
N2720X341.137Z-0.593
N2725X341.416Z-0.753
N2730X341.84Z-1.046
N2735X342.184Z-1.342
N2740X342.409Z-1.562
N2745X342.665Z-1.856
N2750X342.854Z-2.104
N2755X343.098Z-2.48
N2760X343.428Z-3.029
N2765X343.713Z-3.451
N2770X344.02Z-3.861
N2775X344.426Z-4.352
N2780X344.767Z-4.719
N2785X345.226Z-5.168
N2790X345.608Z-5.501
N2795X346.106Z-5.893
N2800X346.516Z-6.18
N2805X346.94Z-6.448
N2810X347.496Z-6.763
N2815X348.064Z-7.042
N2820X348.306Z-7.145
N2825X348.772Z-7.329
N2830X349.246Z-7.493
N2835X349.728Z-7.635
N2840X350.213Z-7.752
N2845X350.471Z-7.802
N2850X350.964Z-7.886
N2855X351.46Z-7.946
N2860X351.829Z-7.976
N2865X352.425Z-7.997
N2870X353.148Z-7.978
N2875X353.671Z-7.934
N2880X354.192Z-7.865
N2885X354.709Z-7.769
N2890X354.965Z-7.709
N2895X355.472Z-7.577
N2900X355.972Z-7.421
N2905X356.462Z-7.241
N2910X356.941Z-7.039
N2915X357.415Z-6.811
N2920X357.876Z-6.559
N2925X358.099Z-6.424
N2930X358.539Z-6.142
N2935X358.963Z-5.84
N2940X359.369Z-5.52
N2945X359.758Z-5.184
N2950X360.137Z-4.82
N2955X360.316Z-4.63
N2960X360.666Z-4.244
N2965X360.993Z-3.844
N2970X361.299Z-3.433
N2975X361.582Z-3.013
N2980X361.893Z-2.495
N2985X362.149Z-2.1
N2990X362.335Z-1.856
N2995X362.656Z-1.493
N3000X362.919Z-1.251
N3005X363.199Z-1.016
N3010X363.518Z-0.797
N3015X363.802Z-0.625
N3020X364.229Z-0.414
N3025X364.45Z-0.326
N3030X364.901Z-0.177
N3035X365.379Z-0.074
N3040X365.716Z-0.027
N3045X366.22Z0.
N3050G18G2X366.788Z0.599I-0.032K0.599
N3055G0Z8.
N3060X209.352Y23.007
N3065Z2.
N3070G1Z0.6F3680.
N3075G3X208.752Z0.I-0.6K0.
N3080G1X196.247
N3085X196.179Z0.008
N3090X196.115Z0.031
N3095X196.05Z0.053
N3100X195.983Z0.061
N3105X190.907
N3110G17G2Y24.507I0.J0.75
N3115G1X190.975Z0.053
N3120X191.039Z0.031
N3125X191.101Z0.008
N3130X191.166Z0.
N3135X191.661Z-0.009
N3140X192.32Z-0.039
N3145X193.71Z-0.132
N3150X194.918Z-0.201
N3155X196.077Z-0.234
N3160X208.947Z-0.233
N3165X210.136Z-0.199
N3170X211.423Z-0.123
N3175X212.92Z-0.025
N3180X213.834Z0.
N3185X219.709Y26.007
N3190X220.217Z-0.017
N3195X220.739Z-0.068
N3200X221.387Z-0.17
N3205X221.971Z-0.294
N3210X223.455Z-0.644
N3215X224.179Z-0.795
N3220X224.658Z-0.875
N3225X225.141Z-0.936
N3230X225.59Z-0.974
N3235X226.275Z-1.002
N3240X237.811Z-1.006
N3245X238.884Z-0.999
N3250X239.409Z-0.974
N3255X239.82Z-0.94
N3260X240.426Z-0.862
N3265X240.917Z-0.777
N3270X241.546Z-0.643
N3275X242.704Z-0.366
N3280X243.612Z-0.171
N3285X244.195Z-0.077
N3290X244.754Z-0.019
N3295X245.291Z0.
N3300X249.Y27.507
N3305X249.351Z-0.012
N3310X249.743Z-0.051
N3315X250.258Z-0.144
N3320X250.761Z-0.282
N3325X251.251Z-0.462
N3330X251.674Z-0.652
N3335X252.05Z-0.845
N3340X252.524Z-1.119
N3345X253.545Z-1.778
N3350X254.029Z-2.075
N3355X254.341Z-2.253
N3360X254.598Z-2.383
N3365X254.851Z-2.496
N3370X255.126Z-2.601
N3375X255.411Z-2.687
N3380X255.812Z-2.774
N3385X256.197Z-2.822
N3390X256.551Z-2.841
N3395X268.354Z-2.844
N3400X268.878Z-2.815
N3405X269.072Z-2.791
N3410X269.395Z-2.735
N3415X269.743Z-2.643
N3420X270.144Z-2.498
N3425X270.383Z-2.391
N3430X270.689Z-2.238
N3435X271.129Z-1.982
N3440X272.029Z-1.4
N3445X272.581Z-1.054
N3450X273.074Z-0.776
N3455X273.665Z-0.496
N3460X274.194Z-0.297
N3465X274.649Z-0.166
N3470X275.114Z-0.072
N3475X275.465Z-0.027
N3480X275.731Z-0.008
N3485X276.Z0.
N3490X278.78Y29.007
N3495X279.126Z-0.016
N3500X279.484Z-0.05
N3505X280.029Z-0.159
N3510X280.31Z-0.243
N3515X280.718Z-0.391
N3520X281.147Z-0.598
N3525X281.453Z-0.776
N3530X281.85Z-1.054
N3535X282.155Z-1.314
N3540X282.418Z-1.571
N3545X282.749Z-1.959
N3550X282.984Z-2.297
N3555X283.43Z-3.025
N3560X283.709Z-3.439
N3565X284.095Z-3.954
N3570X284.421Z-4.342
N3575X284.834Z-4.786
N3580X285.174Z-5.114
N3585X285.656Z-5.538
N3590X286.054Z-5.849
N3595X286.572Z-6.215
N3600X286.772Z-6.341
N3605X287.204Z-6.599
N3610X287.648Z-6.838
N3615X287.982Z-6.998
N3620X288.563Z-7.248
N3625X288.811Z-7.34
N3630X289.285Z-7.501
N3635X289.767Z-7.641
N3640X290.255Z-7.759
N3645X290.719Z-7.845
N3650X291.213Z-7.915
N3655X291.845Z-7.974
N3660X292.483Z-7.995
N3665X292.885Z-7.986
N3670X293.255Z-7.966
N3675X293.777Z-7.917
N3680X294.296Z-7.842
N3685X294.81Z-7.743
N3690X295.295Z-7.626
N3695X295.799Z-7.476
N3700X296.047Z-7.391
N3705X296.537Z-7.207
N3710X297.016Z-6.999
N3715X297.484Z-6.77
N3720X297.938Z-6.52
N3725X298.385Z-6.243
N3730X298.601Z-6.095
N3735X299.003Z-5.805
N3740X299.41Z-5.481
N3745X299.798Z-5.14
N3750X300.168Z-4.785
N3755X300.509Z-4.42
N3760X300.678Z-4.224
N3765X301.006Z-3.822
N3770X301.311Z-3.408
N3775X301.596Z-2.985
N3780X301.885Z-2.507
N3785X302.112Z-2.151
N3790X302.334Z-1.855
N3795X302.657Z-1.492
N3800X302.976Z-1.197
N3805X303.248Z-0.98
N3810X303.594Z-0.746
N3815X303.846Z-0.601
N3820X304.283Z-0.39
N3825X304.674Z-0.248
N3830X305.016Z-0.148
N3835X305.481Z-0.055
N3840X305.716Z-0.027
N3845X306.22Z0.
N3850X306.668Y29.269
N3855X308.78Y30.507
N3860X309.214Z-0.022
N3865X309.474Z-0.048
N3870X309.732Z-0.096
N3875X310.114Z-0.181
N3880X310.362Z-0.262
N3885X310.727Z-0.395
N3890X311.137Z-0.593
N3895X311.416Z-0.753
N3900X311.84Z-1.046
N3905X312.184Z-1.342
N3910X312.409Z-1.562
N3915X312.665Z-1.856
N3920X312.854Z-2.104
N3925X313.098Z-2.48
N3930X313.428Z-3.029
N3935X313.713Z-3.451
N3940X314.02Z-3.861
N3945X314.426Z-4.352
N3950X314.767Z-4.719
N3955X315.226Z-5.168
N3960X315.608Z-5.501
N3965X316.106Z-5.893
N3970X316.516Z-6.18
N3975X316.94Z-6.448
N3980X317.496Z-6.763
N3985X318.064Z-7.042
N3990X318.306Z-7.145
N3995X318.772Z-7.329
N4000X319.246Z-7.493
N4005X319.728Z-7.635
N4010X320.213Z-7.752
N4015X320.471Z-7.802
N4020X320.964Z-7.886
N4025X321.46Z-7.946
N4030X321.829Z-7.976
N4035X322.425Z-7.997
N4040X323.148Z-7.978
N4045X323.671Z-7.934
N4050X324.192Z-7.865
N4055X324.709Z-7.769
N4060X324.965Z-7.709
N4065X325.472Z-7.577
N4070X325.972Z-7.421
N4075X326.462Z-7.241
N4080X326.941Z-7.039
N4085X327.415Z-6.811
N4090X327.876Z-6.559
N4095X328.099Z-6.424
N4100X328.539Z-6.142
N4105X328.963Z-5.84
N4110X329.369Z-5.52
N4115X329.758Z-5.184
N4120X330.137Z-4.82
N4125X330.316Z-4.63
N4130X330.666Z-4.244
N4135X330.993Z-3.844
N4140X331.299Z-3.433
N4145X331.582Z-3.013
N4150X331.893Z-2.495
N4155X332.149Z-2.1
N4160X332.335Z-1.856
N4165X332.656Z-1.493
N4170X332.919Z-1.251
N4175X333.199Z-1.016
N4180X333.518Z-0.797
N4185X333.802Z-0.625
N4190X334.229Z-0.414
N4195X334.45Z-0.326
N4200X334.901Z-0.177
N4205X335.379Z-0.074
N4210X335.716Z-0.027
N4215X336.22Z0.
N4220X336.668Y30.769
N4225X338.78Y32.006
N4230X339.214Z-0.022
N4235X339.474Z-0.048
N4240X339.732Z-0.096
N4245X340.114Z-0.181
N4250X340.362Z-0.262
N4255X340.727Z-0.395
N4260X341.137Z-0.593
N4265X341.416Z-0.753
N4270X341.84Z-1.046
N4275X342.184Z-1.342
N4280X342.409Z-1.562
N4285X342.665Z-1.856
N4290X342.854Z-2.104
N4295X343.098Z-2.48
N4300X343.428Z-3.029
N4305X343.713Z-3.451
N4310X344.02Z-3.861
N4315X344.426Z-4.352
N4320X344.767Z-4.719
N4325X345.226Z-5.168
N4330X345.608Z-5.501
N4335X346.106Z-5.893
N4340X346.516Z-6.18
N4345X346.94Z-6.448
N4350X347.496Z-6.763
N4355X348.064Z-7.042
N4360X348.306Z-7.145
N4365X348.772Z-7.329
N4370X349.246Z-7.493
N4375X349.728Z-7.635
N4380X350.213Z-7.752
N4385X350.471Z-7.802
N4390X350.964Z-7.886
N4395X351.46Z-7.946
N4400X351.829Z-7.976
N4405X352.425Z-7.997
N4410X353.148Z-7.978
N4415X353.671Z-7.934
N4420X354.192Z-7.865
N4425X354.709Z-7.769
N4430X354.965Z-7.709
N4435X355.472Z-7.577
N4440X355.972Z-7.421
N4445X356.462Z-7.241
N4450X356.941Z-7.039
N4455X357.415Z-6.811
N4460X357.876Z-6.559
N4465X358.099Z-6.424
N4470X358.539Z-6.142
N4475X358.963Z-5.84
N4480X359.369Z-5.52
N4485X359.758Z-5.184
N4490X360.137Z-4.82
N4495X360.316Z-4.63
N4500X360.666Z-4.244
N4505X360.993Z-3.844
N4510X361.299Z-3.433
N4515X361.582Z-3.013
N4520X361.893Z-2.495
N4525X362.149Z-2.1
N4530X362.335Z-1.856
N4535X362.656Z-1.493
N4540X362.919Z-1.251
N4545X363.199Z-1.016
N4550X363.518Z-0.797
N4555X363.802Z-0.625
N4560X364.229Z-0.414
N4565X364.45Z-0.326
N4570X364.901Z-0.177
N4575X365.379Z-0.074
N4580X365.716Z-0.027
N4585X366.22Z0.
N4590G18G2X366.788Z0.599I-0.032K0.599
N4595G0Z8.
N4600X179.352Y23.007
N4605Z2.
N4610G1Z0.6F3680.
N4615G3X178.752Z0.I-0.6K0.
N4620G1X166.247
N4625X166.179Z0.008
N4630X166.115Z0.031
N4635X166.05Z0.053
N4640X165.983Z0.061
N4645X160.907
N4650G17G2Y24.507I0.J0.75
N4655G1X160.975Z0.053
N4660X161.039Z0.031
N4665X161.101Z0.008
N4670X161.166Z0.
N4675X161.661Z-0.009
N4680X162.32Z-0.039
N4685X163.71Z-0.132
N4690X164.918Z-0.201
N4695X166.077Z-0.234
N4700X178.947Z-0.233
N4705X180.136Z-0.199
N4710X181.423Z-0.123
N4715X182.92Z-0.025
N4720X183.834Z0.
N4725X189.709Y26.007
N4730X190.217Z-0.017
N4735X190.739Z-0.068
N4740X191.387Z-0.17
N4745X191.971Z-0.294
N4750X193.455Z-0.644
N4755X194.179Z-0.795
N4760X194.658Z-0.875
N4765X195.141Z-0.936
N4770X195.59Z-0.974
N4775X196.275Z-1.002
N4780X207.811Z-1.006
N4785X208.884Z-0.999
N4790X209.409Z-0.974
N4795X209.82Z-0.94
N4800X210.426Z-0.862
N4805X210.917Z-0.777
N4810X211.546Z-0.643
N4815X212.704Z-0.366
N4820X213.612Z-0.171
N4825X214.195Z-0.077
N4830X214.754Z-0.019
N4835X215.291Z0.
N4840X219.Y27.507
N4845X219.351Z-0.012
N4850X219.742Z-0.051
N4855X220.257Z-0.144
N4860X220.761Z-0.282
N4865X221.251Z-0.461
N4870X221.673Z-0.652
N4875X222.05Z-0.845
N4880X222.523Z-1.119
N4885X223.545Z-1.778
N4890X224.029Z-2.074
N4895X224.341Z-2.253
N4900X224.598Z-2.383
N4905X224.85Z-2.495
N4910X225.126Z-2.601
N4915X225.41Z-2.687
N4920X225.812Z-2.774
N4925X226.197Z-2.822
N4930X226.55Z-2.841
N4935X238.354Z-2.844
N4940X238.877Z-2.815
N4945X239.071Z-2.791
N4950X239.394Z-2.735
N4955X239.743Z-2.643
N4960X240.143Z-2.498
N4965X240.383Z-2.391
N4970X240.688Z-2.238
N4975X241.128Z-1.983
N4980X242.028Z-1.4
N4985X242.581Z-1.055
N4990X242.811Z-0.921
N4995X243.232Z-0.696
N5000X243.719Z-0.473
N5005X244.22Z-0.288
N5010X244.677Z-0.159
N5015X245.141Z-0.067
N5020X245.613Z-0.014
N5025X246.Z0.
N5030X248.78Y29.007
N5035X249.126Z-0.016
N5040X249.484Z-0.05
N5045X250.029Z-0.159
N5050X250.31Z-0.243
N5055X250.718Z-0.391
N5060X251.147Z-0.598
N5065X251.453Z-0.776
N5070X251.85Z-1.054
N5075X252.155Z-1.314
N5080X252.418Z-1.571
N5085X252.749Z-1.959
N5090X252.984Z-2.297
N5095X253.43Z-3.025
N5100X253.709Z-3.439
N5105X254.095Z-3.954
N5110X254.421Z-4.342
N5115X254.834Z-4.786
N5120X255.174Z-5.114
N5125X255.656Z-5.538
N5130X256.054Z-5.849
N5135X256.572Z-6.215
N5140X256.772Z-6.341
N5145X257.204Z-6.599
N5150X257.648Z-6.838
N5155X257.982Z-6.998
N5160X258.563Z-7.248
N5165X258.811Z-7.34
N5170X259.285Z-7.501
N5175X259.767Z-7.641
N5180X260.255Z-7.759
N5185X260.719Z-7.845
N5190X261.213Z-7.915
N5195X261.845Z-7.974
N5200X262.483Z-7.995
N5205X262.885Z-7.986
N5210X263.255Z-7.966
N5215X263.777Z-7.917
N5220X264.296Z-7.842
N5225X264.81Z-7.743
N5230X265.295Z-7.626
N5235X265.799Z-7.476
N5240X266.047Z-7.391
N5245X266.537Z-7.207
N5250X267.016Z-6.999
N5255X267.484Z-6.77
N5260X267.938Z-6.52
N5265X268.385Z-6.243
N5270X268.601Z-6.095
N5275X269.003Z-5.805
N5280X269.41Z-5.481
N5285X269.798Z-5.14
N5290X270.168Z-4.785
N5295X270.509Z-4.42
N5300X270.678Z-4.224
N5305X271.006Z-3.822
N5310X271.311Z-3.408
N5315X271.596Z-2.985
N5320X271.885Z-2.507
N5325X272.112Z-2.151
N5330X272.334Z-1.855
N5335X272.657Z-1.492
N5340X272.976Z-1.197
N5345X273.248Z-0.98
N5350X273.594Z-0.746
N5355X273.846Z-0.601
N5360X274.283Z-0.39
N5365X274.674Z-0.248
N5370X275.016Z-0.148
N5375X275.481Z-0.055
N5380X275.716Z-0.027
N5385X276.22Z0.
N5390X276.668Y29.269
N5395X278.78Y30.507
N5400X279.214Z-0.022
N5405X279.474Z-0.048
N5410X279.732Z-0.096
N5415X280.114Z-0.181
N5420X280.362Z-0.262
N5425X280.727Z-0.395
N5430X281.137Z-0.593
N5435X281.416Z-0.753
N5440X281.84Z-1.046
N5445X282.184Z-1.342
N5450X282.409Z-1.562
N5455X282.665Z-1.856
N5460X282.854Z-2.104
N5465X283.098Z-2.48
N5470X283.428Z-3.029
N5475X283.713Z-3.451
N5480X284.02Z-3.861
N5485X284.426Z-4.352
N5490X284.767Z-4.719
N5495X285.226Z-5.168
N5500X285.608Z-5.501
N5505X286.106Z-5.893
N5510X286.516Z-6.18
N5515X286.94Z-6.448
N5520X287.496Z-6.763
N5525X288.064Z-7.042
N5530X288.306Z-7.145
N5535X288.772Z-7.329
N5540X289.246Z-7.493
N5545X289.728Z-7.635
N5550X290.213Z-7.752
N5555X290.471Z-7.802
N5560X290.964Z-7.886
N5565X291.46Z-7.946
N5570X291.829Z-7.976
N5575X292.425Z-7.997
N5580X293.148Z-7.978
N5585X293.671Z-7.934
N5590X294.192Z-7.865
N5595X294.709Z-7.769
N5600X294.965Z-7.709
N5605X295.472Z-7.577
N5610X295.972Z-7.421
N5615X296.462Z-7.241
N5620X296.941Z-7.039
N5625X297.415Z-6.811
N5630X297.876Z-6.559
N5635X298.099Z-6.424
N5640X298.539Z-6.142
N5645X298.963Z-5.84
N5650X299.369Z-5.52
N5655X299.758Z-5.184
N5660X300.137Z-4.82
N5665X300.316Z-4.63
N5670X300.666Z-4.244
N5675X300.993Z-3.844
N5680X301.299Z-3.433
N5685X301.582Z-3.013
N5690X301.893Z-2.495
N5695X302.149Z-2.1
N5700X302.335Z-1.856
N5705X302.656Z-1.493
N5710X302.919Z-1.251
N5715X303.199Z-1.016
N5720X303.518Z-0.797
N5725X303.802Z-0.625
N5730X304.229Z-0.414
N5735X304.45Z-0.326
N5740X304.901Z-0.177
N5745X305.379Z-0.074
N5750X305.716Z-0.027
N5755X306.22Z0.
N5760X306.668Y30.769
N5765X308.78Y32.006
N5770X309.214Z-0.022
N5775X309.474Z-0.048
N5780X309.732Z-0.096
N5785X310.114Z-0.181
N5790X310.362Z-0.262
N5795X310.727Z-0.395
N5800X311.137Z-0.593
N5805X311.416Z-0.753
N5810X311.84Z-1.046
N5815X312.184Z-1.342
N5820X312.409Z-1.562
N5825X312.665Z-1.856
N5830X312.854Z-2.104
N5835X313.098Z-2.48
N5840X313.428Z-3.029
N5845X313.713Z-3.451
N5850X314.02Z-3.861
N5855X314.426Z-4.352
N5860X314.767Z-4.719
N5865X315.226Z-5.168
N5870X315.608Z-5.501
N5875X316.106Z-5.893
N5880X316.516Z-6.18
N5885X316.94Z-6.448
N5890X317.496Z-6.763
N5895X318.064Z-7.042
N5900X318.306Z-7.145
N5905X318.772Z-7.329
N5910X319.246Z-7.493
N5915X319.728Z-7.635
N5920X320.213Z-7.752
N5925X320.471Z-7.802
N5930X320.964Z-7.886
N5935X321.46Z-7.946
N5940X321.829Z-7.976
N5945X322.425Z-7.997
N5950X323.148Z-7.978
N5955X323.671Z-7.934
N5960X324.192Z-7.865
N5965X324.709Z-7.769
N5970X324.965Z-7.709
N5975X325.472Z-7.577
N5980X325.972Z-7.421
N5985X326.462Z-7.241
N5990X326.941Z-7.039
N5995X327.415Z-6.811
N6000X327.876Z-6.559
N6005X328.099Z-6.424
N6010X328.539Z-6.142
N6015X328.963Z-5.84
N6020X329.369Z-5.52
N6025X329.758Z-5.184
N6030X330.137Z-4.82
N6035X330.316Z-4.63
N6040X330.666Z-4.244
N6045X330.993Z-3.844
N6050X331.299Z-3.433
N6055X331.582Z-3.013
N6060X331.893Z-2.495
N6065X332.149Z-2.1
N6070X332.335Z-1.856
N6075X332.656Z-1.493
N6080X332.919Z-1.251
N6085X333.199Z-1.016
N6090X333.518Z-0.797
N6095X333.802Z-0.625
N6100X334.229Z-0.414
N6105X334.45Z-0.326
N6110X334.901Z-0.177
N6115X335.379Z-0.074
N6120X335.716Z-0.027
N6125X336.22Z0.
N6130X336.668Y32.269
N6135X338.78Y33.506
N6140X339.214Z-0.022
N6145X339.474Z-0.048
N6150X339.732Z-0.096
N6155X340.114Z-0.181
N6160X340.362Z-0.262
N6165X340.727Z-0.395
N6170X341.137Z-0.593
N6175X341.416Z-0.753
N6180X341.84Z-1.046
N6185X342.184Z-1.342
N6190X342.409Z-1.562
N6195X342.665Z-1.856
N6200X342.854Z-2.104
N6205X343.098Z-2.48
N6210X343.428Z-3.029
N6215X343.713Z-3.451
N6220X344.02Z-3.861
N6225X344.426Z-4.352
N6230X344.767Z-4.719
N6235X345.226Z-5.168
N6240X345.608Z-5.501
N6245X346.106Z-5.893
N6250X346.516Z-6.18
N6255X346.94Z-6.448
N6260X347.496Z-6.763
N6265X348.064Z-7.042
N6270X348.306Z-7.145
N6275X348.772Z-7.329
N6280X349.246Z-7.493
N6285X349.728Z-7.635
N6290X350.213Z-7.752
N6295X350.471Z-7.802
N6300X350.964Z-7.886
N6305X351.46Z-7.946
N6310X351.829Z-7.976
N6315X352.425Z-7.997
N6320X353.148Z-7.978
N6325X353.671Z-7.934
N6330X354.192Z-7.865
N6335X354.709Z-7.769
N6340X354.965Z-7.709
N6345X355.472Z-7.577
N6350X355.972Z-7.421
N6355X356.462Z-7.241
N6360X356.941Z-7.039
N6365X357.415Z-6.811
N6370X357.876Z-6.559
N6375X358.099Z-6.424
N6380X358.539Z-6.142
N6385X358.963Z-5.84
N6390X359.369Z-5.52
N6395X359.758Z-5.184
N6400X360.137Z-4.82
N6405X360.316Z-4.63
N6410X360.666Z-4.244
N6415X360.993Z-3.844
N6420X361.299Z-3.433
N6425X361.582Z-3.013
N6430X361.893Z-2.495
N6435X362.149Z-2.1
N6440X362.335Z-1.856
N6445X362.656Z-1.493
N6450X362.919Z-1.251
N6455X363.199Z-1.016
N6460X363.518Z-0.797
N6465X363.802Z-0.625
N6470X364.229Z-0.414
N6475X364.45Z-0.326
N6480X364.901Z-0.177
N6485X365.379Z-0.074
N6490X365.716Z-0.027
N6495X366.22Z0.
N6500G18G2X366.788Z0.599I-0.032K0.599
N6505G0Z8.
N6510X149.352Y23.007
N6515Z2.
N6520G1Z0.6F3680.
N6525G3X148.752Z0.I-0.6K0.
N6530G1X136.247
N6535X136.179Z0.008
N6540X136.115Z0.031
N6545X136.05Z0.053
N6550X135.983Z0.061
N6555X130.907
N6560G17G2Y24.507I0.J0.75
N6565G1X130.975Z0.053
N6570X131.039Z0.031
N6575X131.101Z0.008
N6580X131.166Z0.
N6585X131.661Z-0.009
N6590X132.32Z-0.039
N6595X133.71Z-0.132
N6600X134.918Z-0.201
N6605X136.077Z-0.234
N6610X148.947Z-0.233
N6615X150.136Z-0.199
N6620X151.423Z-0.123
N6625X152.92Z-0.025
N6630X153.834Z0.
N6635X159.709Y26.007
N6640X160.217Z-0.017
N6645X160.739Z-0.068
N6650X161.387Z-0.17
N6655X161.971Z-0.294
N6660X163.455Z-0.644
N6665X164.179Z-0.795
N6670X164.658Z-0.875
N6675X165.141Z-0.936
N6680X165.59Z-0.974
N6685X166.275Z-1.002
N6690X177.811Z-1.006
N6695X178.884Z-0.999
N6700X179.409Z-0.974
N6705X179.82Z-0.94
N6710X180.426Z-0.862
N6715X180.917Z-0.777
N6720X181.546Z-0.643
N6725X182.704Z-0.366
N6730X183.612Z-0.171
N6735X184.195Z-0.077
N6740X184.754Z-0.019
N6745X185.291Z0.
N6750X189.Y27.507
N6755X189.351Z-0.012
N6760X189.742Z-0.051
N6765X190.257Z-0.144
N6770X190.761Z-0.282
N6775X191.251Z-0.461
N6780X191.673Z-0.652
N6785X192.05Z-0.845
N6790X192.523Z-1.119
N6795X193.545Z-1.778
N6800X194.029Z-2.074
N6805X194.341Z-2.253
N6810X194.598Z-2.383
N6815X194.85Z-2.495
N6820X195.126Z-2.601
N6825X195.41Z-2.687
N6830X195.812Z-2.774
N6835X196.197Z-2.822
N6840X196.55Z-2.841
N6845X208.354Z-2.844
N6850X208.877Z-2.815
N6855X209.071Z-2.791
N6860X209.394Z-2.735
N6865X209.743Z-2.643
N6870X210.143Z-2.498
N6875X210.383Z-2.391
N6880X210.688Z-2.238
N6885X211.128Z-1.983
N6890X212.028Z-1.4
N6895X212.581Z-1.055
N6900X212.811Z-0.921
N6905X213.232Z-0.696
N6910X213.719Z-0.473
N6915X214.22Z-0.288
N6920X214.677Z-0.159
N6925X215.141Z-0.067
N6930X215.613Z-0.014
N6935X216.Z0.
N6940X218.78Y29.007
N6945X218.99Z-0.007
N6950X219.447Z-0.045
N6955X219.866Z-0.122
N6960X220.181Z-0.201
N6965X220.672Z-0.372
N6970X221.057Z-0.552
N6975X221.37Z-0.724
N6980X221.82Z-1.03
N6985X222.141Z-1.302
N6990X222.399Z-1.55
N6995X222.727Z-1.931
N7000X222.931Z-2.216
N7005X223.463Z-3.074
N7010X223.742Z-3.487
N7015X224.043Z-3.886
N7020X224.454Z-4.38
N7025X224.8Z-4.75
N7030X225.235Z-5.173
N7035X225.592Z-5.483
N7040X226.095Z-5.88
N7045X226.508Z-6.171
N7050X227.021Z-6.495
N7055X227.672Z-6.849
N7060X228.128Z-7.066
N7065X228.563Z-7.248
N7070X228.811Z-7.34
N7075X229.285Z-7.501
N7080X229.767Z-7.641
N7085X230.255Z-7.759
N7090X230.719Z-7.845
N7095X231.213Z-7.915
N7100X231.845Z-7.974
N7105X232.434Z-7.994
N7110X232.687Z-7.991
N7115X233.217Z-7.969
N7120X233.74Z-7.922
N7125X234.259Z-7.849
N7130X234.773Z-7.752
N7135X235.284Z-7.629
N7140X235.51Z-7.562
N7145X236.01Z-7.404
N7150X236.5Z-7.222
N7155X236.979Z-7.017
N7160X237.447Z-6.791
N7165X237.908Z-6.538
N7170X238.355Z-6.262
N7175X238.571Z-6.116
N7180X238.994Z-5.811
N7185X239.401Z-5.489
N7190X239.789Z-5.149
N7195X240.149Z-4.803
N7200X240.509Z-4.42
N7205X240.678Z-4.224
N7210X241.006Z-3.822
N7215X241.311Z-3.408
N7220X241.596Z-2.985
N7225X241.885Z-2.507
N7230X242.112Z-2.151
N7235X242.334Z-1.855
N7240X242.657Z-1.492
N7245X242.976Z-1.198
N7250X243.248Z-0.98
N7255X243.594Z-0.746
N7260X243.846Z-0.601
N7265X244.283Z-0.39
N7270X244.674Z-0.248
N7275X245.016Z-0.148
N7280X245.481Z-0.055
N7285X245.716Z-0.027
N7290X246.22Z0.
N7295X246.668Y29.269
N7300X248.78Y30.507
N7305X249.214Z-0.022
N7310X249.474Z-0.048
N7315X249.732Z-0.096
N7320X250.114Z-0.181
N7325X250.362Z-0.262
N7330X250.727Z-0.395
N7335X251.137Z-0.593
N7340X251.416Z-0.753
N7345X251.84Z-1.046
N7350X252.184Z-1.342
N7355X252.409Z-1.562
N7360X252.665Z-1.856
N7365X252.854Z-2.104
N7370X253.098Z-2.48
N7375X253.428Z-3.029
N7380X253.713Z-3.451
N7385X254.02Z-3.861
N7390X254.426Z-4.352
N7395X254.767Z-4.719
N7400X255.226Z-5.168
N7405X255.608Z-5.501
N7410X256.106Z-5.893
N7415X256.516Z-6.18
N7420X256.94Z-6.448
N7425X257.496Z-6.763
N7430X258.064Z-7.042
N7435X258.306Z-7.145
N7440X258.772Z-7.329
N7445X259.246Z-7.493
N7450X259.728Z-7.635
N7455X260.213Z-7.752
N7460X260.471Z-7.802
N7465X260.964Z-7.886
N7470X261.46Z-7.946
N7475X261.829Z-7.976
N7480X262.425Z-7.997
N7485X263.148Z-7.978
N7490X263.671Z-7.934
N7495X264.192Z-7.865
N7500X264.709Z-7.769
N7505X264.965Z-7.709
N7510X265.472Z-7.577
N7515X265.972Z-7.421
N7520X266.462Z-7.241
N7525X266.941Z-7.039
N7530X267.415Z-6.811
N7535X267.876Z-6.559
N7540X268.099Z-6.424
N7545X268.539Z-6.142
N7550X268.963Z-5.84
N7555X269.369Z-5.52
N7560X269.758Z-5.184
N7565X270.137Z-4.82
N7570X270.316Z-4.63
N7575X270.666Z-4.244
N7580X270.993Z-3.844
N7585X271.299Z-3.433
N7590X271.582Z-3.013
N7595X271.893Z-2.495
N7600X272.149Z-2.1
N7605X272.335Z-1.856
N7610X272.656Z-1.493
N7615X272.919Z-1.251
N7620X273.199Z-1.016
N7625X273.518Z-0.797
N7630X273.802Z-0.625
N7635X274.229Z-0.414
N7640X274.45Z-0.326
N7645X274.901Z-0.177
N7650X275.379Z-0.074
N7655X275.716Z-0.027
N7660X276.22Z0.
N7665X276.668Y30.769
N7670X278.78Y32.006
N7675X279.214Z-0.022
N7680X279.474Z-0.048
N7685X279.732Z-0.096
N7690X280.114Z-0.181
N7695X280.362Z-0.262
N7700X280.727Z-0.395
N7705X281.137Z-0.593
N7710X281.416Z-0.753
N7715X281.84Z-1.046
N7720X282.184Z-1.342
N7725X282.409Z-1.562
N7730X282.665Z-1.856
N7735X282.854Z-2.104
N7740X283.098Z-2.48
N7745X283.428Z-3.029
N7750X283.713Z-3.451
N7755X284.02Z-3.861
N7760X284.426Z-4.352
N7765X284.767Z-4.719
N7770X285.226Z-5.168
N7775X285.608Z-5.501
N7780X286.106Z-5.893
N7785X286.516Z-6.18
N7790X286.94Z-6.448
N7795X287.496Z-6.763
N7800X288.064Z-7.042
N7805X288.306Z-7.145
N7810X288.772Z-7.329
N7815X289.246Z-7.493
N7820X289.728Z-7.635
N7825X290.213Z-7.752
N7830X290.471Z-7.802
N7835X290.964Z-7.886
N7840X291.46Z-7.946
N7845X291.829Z-7.976
N7850X292.425Z-7.997
N7855X293.148Z-7.978
N7860X293.671Z-7.934
N7865X294.192Z-7.865
N7870X294.709Z-7.769
N7875X294.965Z-7.709
N7880X295.472Z-7.577
N7885X295.972Z-7.421
N7890X296.462Z-7.241
N7895X296.941Z-7.039
N7900X297.415Z-6.811
N7905X297.876Z-6.559
N7910X298.099Z-6.424
N7915X298.539Z-6.142
N7920X298.963Z-5.84
N7925X299.369Z-5.52
N7930X299.758Z-5.184
N7935X300.137Z-4.82
N7940X300.316Z-4.63
N7945X300.666Z-4.244
N7950X300.993Z-3.844
N7955X301.299Z-3.433
N7960X301.582Z-3.013
N7965X301.893Z-2.495
N7970X302.149Z-2.1
N7975X302.335Z-1.856
N7980X302.656Z-1.493
N7985X302.919Z-1.251
N7990X303.199Z-1.016
N7995X303.518Z-0.797
N8000X303.802Z-0.625
N8005X304.229Z-0.414
N8010X304.45Z-0.326
N8015X304.901Z-0.177
N8020X305.379Z-0.074
N8025X305.716Z-0.027
N8030X306.22Z0.
N8035X306.668Y32.269
N8040X308.78Y33.506
N8045X309.214Z-0.022
N8050X309.474Z-0.048
N8055X309.732Z-0.096
N8060X310.114Z-0.181
N8065X310.362Z-0.262
N8070X310.727Z-0.395
N8075X311.137Z-0.593
N8080X311.416Z-0.753
N8085X311.84Z-1.046
N8090X312.184Z-1.342
N8095X312.409Z-1.562
N8100X312.665Z-1.856
N8105X312.854Z-2.104
N8110X313.098Z-2.48
N8115X313.428Z-3.029
N8120X313.713Z-3.451
N8125X314.02Z-3.861
N8130X314.426Z-4.352
N8135X314.767Z-4.719
N8140X315.226Z-5.168
N8145X315.608Z-5.501
N8150X316.106Z-5.893
N8155X316.516Z-6.18
N8160X316.94Z-6.448
N8165X317.496Z-6.763
N8170X318.064Z-7.042
N8175X318.306Z-7.145
N8180X318.772Z-7.329
N8185X319.246Z-7.493
N8190X319.728Z-7.635
N8195X320.213Z-7.752
N8200X320.471Z-7.802
N8205X320.964Z-7.886
N8210X321.46Z-7.946
N8215X321.829Z-7.976
N8220X322.425Z-7.997
N8225X323.148Z-7.978
N8230X323.671Z-7.934
N8235X324.192Z-7.865
N8240X324.709Z-7.769
N8245X324.965Z-7.709
N8250X325.472Z-7.577
N8255X325.972Z-7.421
N8260X326.462Z-7.241
N8265X326.941Z-7.039
N8270X327.415Z-6.811
N8275X327.876Z-6.559
N8280X328.099Z-6.424
N8285X328.539Z-6.142
N8290X328.963Z-5.84
N8295X329.369Z-5.52
N8300X329.758Z-5.184
N8305X330.137Z-4.82
N8310X330.316Z-4.63
N8315X330.666Z-4.244
N8320X330.993Z-3.844
N8325X331.299Z-3.433
N8330X331.582Z-3.013
N8335X331.893Z-2.495
N8340X332.149Z-2.1
N8345X332.335Z-1.856
N8350X332.656Z-1.493
N8355X332.919Z-1.251
N8360X333.199Z-1.016
N8365X333.518Z-0.797
N8370X333.802Z-0.625
N8375X334.229Z-0.414
N8380X334.45Z-0.326
N8385X334.901Z-0.177
N8390X335.379Z-0.074
N8395X335.716Z-0.027
N8400X336.22Z0.
N8405X336.668Y33.769
N8410X338.78Y35.006
N8415X339.214Z-0.022
N8420X339.474Z-0.048
N8425X339.732Z-0.096
N8430X340.114Z-0.181
N8435X340.362Z-0.262
N8440X340.727Z-0.395
N8445X341.137Z-0.593
N8450X341.416Z-0.753
N8455X341.84Z-1.046
N8460X342.184Z-1.342
N8465X342.409Z-1.562
N8470X342.665Z-1.856
N8475X342.854Z-2.104
N8480X343.098Z-2.48
N8485X343.428Z-3.029
N8490X343.713Z-3.451
N8495X344.02Z-3.861
N8500X344.426Z-4.352
N8505X344.767Z-4.719
N8510X345.226Z-5.168
N8515X345.608Z-5.501
N8520X346.106Z-5.893
N8525X346.516Z-6.18
N8530X346.94Z-6.448
N8535X347.496Z-6.763
N8540X348.064Z-7.042
N8545X348.306Z-7.145
N8550X348.772Z-7.329
N8555X349.246Z-7.493
N8560X349.728Z-7.635
N8565X350.213Z-7.752
N8570X350.471Z-7.802
N8575X350.964Z-7.886
N8580X351.46Z-7.946
N8585X351.829Z-7.976
N8590X352.425Z-7.997
N8595X353.148Z-7.978
N8600X353.671Z-7.934
N8605X354.192Z-7.865
N8610X354.709Z-7.769
N8615X354.965Z-7.709
N8620X355.472Z-7.577
N8625X355.972Z-7.421
N8630X356.462Z-7.241
N8635X356.941Z-7.039
N8640X357.415Z-6.811
N8645X357.876Z-6.559
N8650X358.099Z-6.424
N8655X358.539Z-6.142
N8660X358.963Z-5.84
N8665X359.369Z-5.52
N8670X359.758Z-5.184
N8675X360.137Z-4.82
N8680X360.316Z-4.63
N8685X360.666Z-4.244
N8690X360.993Z-3.844
N8695X361.299Z-3.433
N8700X361.582Z-3.013
N8705X361.893Z-2.495
N8710X362.149Z-2.1
N8715X362.335Z-1.856
N8720X362.656Z-1.493
N8725X362.919Z-1.251
N8730X363.199Z-1.016
N8735X363.518Z-0.797
N8740X363.802Z-0.625
N8745X364.229Z-0.414
N8750X364.45Z-0.326
N8755X364.901Z-0.177
N8760X365.379Z-0.074
N8765X365.716Z-0.027
N8770X366.22Z0.
N8775G18G2X366.788Z0.599I-0.032K0.599
N8780G0Z8.
N8785X119.352Y23.007
N8790Z2.
N8795G1Z0.6F3680.
N8800G3X118.752Z0.I-0.6K0.
N8805G1X106.247
N8810X106.179Z0.008
N8815X106.115Z0.031
N8820X106.05Z0.053
N8825X105.983Z0.061
N8830X100.907
N8835G17G2Y24.507I0.J0.75
N8840G1X100.975Z0.053
N8845X101.039Z0.031
N8850X101.101Z0.008
N8855X101.166Z0.
N8860X101.661Z-0.009
N8865X102.32Z-0.039
N8870X103.709Z-0.132
N8875X104.918Z-0.201
N8880X106.077Z-0.234
N8885X118.947Z-0.233
N8890X120.136Z-0.199
N8895X121.423Z-0.123
N8900X122.92Z-0.025
N8905X123.834Z0.
N8910X129.709Y26.007
N8915X130.217Z-0.017
N8920X130.739Z-0.068
N8925X131.387Z-0.17
N8930X131.971Z-0.294
N8935X133.455Z-0.644
N8940X134.179Z-0.795
N8945X134.658Z-0.875
N8950X135.141Z-0.936
N8955X135.59Z-0.974
N8960X136.275Z-1.002
N8965X147.811Z-1.006
N8970X148.884Z-0.999
N8975X149.409Z-0.974
N8980X149.82Z-0.94
N8985X150.426Z-0.862
N8990X150.917Z-0.777
N8995X151.546Z-0.643
N9000X152.704Z-0.366
N9005X153.612Z-0.171
N9010X154.195Z-0.077
N9015X154.754Z-0.019
N9020X155.291Z0.
N9025X159.Y27.507
N9030X159.351Z-0.012
N9035X159.742Z-0.051
N9040X160.257Z-0.144
N9045X160.761Z-0.282
N9050X161.251Z-0.461
N9055X161.673Z-0.652
N9060X162.05Z-0.845
N9065X162.523Z-1.119
N9070X163.545Z-1.778
N9075X164.029Z-2.074
N9080X164.341Z-2.253
N9085X164.598Z-2.383
N9090X164.85Z-2.495
N9095X165.126Z-2.601
N9100X165.41Z-2.687
N9105X165.812Z-2.774
N9110X166.197Z-2.822
N9115X166.55Z-2.841
N9120X178.354Z-2.844
N9125X178.877Z-2.815
N9130X179.071Z-2.791
N9135X179.394Z-2.735
N9140X179.743Z-2.643
N9145X180.143Z-2.498
N9150X180.383Z-2.391
N9155X180.688Z-2.238
N9160X181.128Z-1.983
N9165X182.028Z-1.4
N9170X182.581Z-1.055
N9175X182.811Z-0.921
N9180X183.232Z-0.696
N9185X183.719Z-0.473
N9190X184.22Z-0.288
N9195X184.677Z-0.159
N9200X185.141Z-0.067
N9205X185.613Z-0.014
N9210X186.Z0.
N9215X188.78Y29.007
N9220X188.99Z-0.007
N9225X189.447Z-0.045
N9230X189.866Z-0.122
N9235X190.181Z-0.201
N9240X190.672Z-0.372
N9245X191.057Z-0.552
N9250X191.37Z-0.724
N9255X191.82Z-1.03
N9260X192.141Z-1.302
N9265X192.399Z-1.55
N9270X192.727Z-1.931
N9275X192.931Z-2.216
N9280X193.463Z-3.074
N9285X193.742Z-3.487
N9290X194.043Z-3.886
N9295X194.454Z-4.38
N9300X194.8Z-4.75
N9305X195.235Z-5.173
N9310X195.592Z-5.483
N9315X196.095Z-5.88
N9320X196.508Z-6.171
N9325X197.021Z-6.495
N9330X197.672Z-6.849
N9335X198.128Z-7.066
N9340X198.563Z-7.248
N9345X198.811Z-7.34
N9350X199.285Z-7.501
N9355X199.767Z-7.641
N9360X200.255Z-7.759
N9365X200.719Z-7.845
N9370X201.213Z-7.915
N9375X201.845Z-7.974
N9380X202.434Z-7.994
N9385X202.687Z-7.991
N9390X203.217Z-7.969
N9395X203.74Z-7.922
N9400X204.259Z-7.849
N9405X204.773Z-7.752
N9410X205.284Z-7.629
N9415X205.51Z-7.562
N9420X206.01Z-7.404
N9425X206.5Z-7.222
N9430X206.979Z-7.017
N9435X207.447Z-6.791
N9440X207.908Z-6.538
N9445X208.355Z-6.262
N9450X208.571Z-6.116
N9455X208.994Z-5.811
N9460X209.401Z-5.489
N9465X209.789Z-5.149
N9470X210.149Z-4.803
N9475X210.509Z-4.42
N9480X210.678Z-4.224
N9485X211.006Z-3.822
N9490X211.311Z-3.408
N9495X211.596Z-2.985
N9500X211.885Z-2.507
N9505X212.112Z-2.151
N9510X212.334Z-1.855
N9515X212.657Z-1.492
N9520X212.976Z-1.198
N9525X213.248Z-0.98
N9530X213.594Z-0.746
N9535X213.846Z-0.601
N9540X214.283Z-0.39
N9545X214.674Z-0.248
N9550X215.016Z-0.148
N9555X215.481Z-0.055
N9560X215.716Z-0.027
N9565X216.22Z0.
N9570X216.668Y29.269
N9575X218.78Y30.507
N9580X219.214Z-0.022
N9585X219.474Z-0.048
N9590X219.732Z-0.096
N9595X220.114Z-0.181
N9600X220.362Z-0.262
N9605X220.727Z-0.395
N9610X221.137Z-0.593
N9615X221.416Z-0.753
N9620X221.84Z-1.046
N9625X222.184Z-1.342
N9630X222.409Z-1.562
N9635X222.665Z-1.856
N9640X222.854Z-2.104
N9645X223.098Z-2.48
N9650X223.428Z-3.029
N9655X223.713Z-3.451
N9660X224.02Z-3.861
N9665X224.426Z-4.352
N9670X224.767Z-4.719
N9675X225.226Z-5.168
N9680X225.608Z-5.501
N9685X226.106Z-5.893
N9690X226.516Z-6.18
N9695X226.94Z-6.448
N9700X227.496Z-6.763
N9705X228.064Z-7.042
N9710X228.306Z-7.145
N9715X228.772Z-7.329
N9720X229.246Z-7.493
N9725X229.728Z-7.635
N9730X230.213Z-7.752
N9735X230.471Z-7.802
N9740X230.964Z-7.886
N9745X231.46Z-7.946
N9750X231.829Z-7.976
N9755X232.425Z-7.997
N9760X233.148Z-7.978
N9765X233.671Z-7.934
N9770X234.192Z-7.865
N9775X234.709Z-7.769
N9780X234.965Z-7.709
N9785X235.472Z-7.577
N9790X235.972Z-7.421
N9795X236.462Z-7.241
N9800X236.941Z-7.039
N9805X237.415Z-6.811
N9810X237.876Z-6.559
N9815X238.099Z-6.424
N9820X238.539Z-6.142
N9825X238.963Z-5.84
N9830X239.369Z-5.52
N9835X239.758Z-5.184
N9840X240.137Z-4.82
N9845X240.317Z-4.63
N9850X240.666Z-4.244
N9855X240.993Z-3.844
N9860X241.299Z-3.433
N9865X241.582Z-3.013
N9870X241.893Z-2.495
N9875X242.149Z-2.1
N9880X242.335Z-1.856
N9885X242.656Z-1.493
N9890X242.919Z-1.251
N9895X243.199Z-1.016
N9900X243.518Z-0.797
N9905X243.802Z-0.625
N9910X244.229Z-0.414
N9915X244.45Z-0.326
N9920X244.901Z-0.177
N9925X245.379Z-0.074
N9930X245.716Z-0.027
N9935X246.22Z0.
N9940X246.668Y30.769
N9945X248.78Y32.006
N9950X249.214Z-0.022
N9955X249.474Z-0.048
N9960X249.732Z-0.096
N9965X250.114Z-0.181
N9970X250.362Z-0.262
N9975X250.727Z-0.395
N9980X251.137Z-0.593
N9985X251.416Z-0.753
N9990X251.84Z-1.046
N9995X252.184Z-1.342
N10000X252.409Z-1.562
N10005X252.665Z-1.856
N10010X252.854Z-2.104
N10015X253.098Z-2.48
N10020X253.428Z-3.029
N10025X253.713Z-3.451
N10030X254.02Z-3.861
N10035X254.426Z-4.352
N10040X254.767Z-4.719
N10045X255.226Z-5.168
N10050X255.608Z-5.501
N10055X256.106Z-5.893
N10060X256.516Z-6.18
N10065X256.94Z-6.448
N10070X257.496Z-6.763
N10075X258.064Z-7.042
N10080X258.306Z-7.145
N10085X258.772Z-7.329
N10090X259.246Z-7.493
N10095X259.728Z-7.635
N10100X260.213Z-7.752
N10105X260.471Z-7.802
N10110X260.964Z-7.886
N10115X261.46Z-7.946
N10120X261.829Z-7.976
N10125X262.425Z-7.997
N10130X263.148Z-7.978
N10135X263.671Z-7.934
N10140X264.192Z-7.865
N10145X264.709Z-7.769
N10150X264.965Z-7.709
N10155X265.472Z-7.577
N10160X265.972Z-7.421
N10165X266.462Z-7.241
N10170X266.941Z-7.039
N10175X267.415Z-6.811
N10180X267.876Z-6.559
N10185X268.099Z-6.424
N10190X268.539Z-6.142
N10195X268.963Z-5.84
N10200X269.369Z-5.52
N10205X269.758Z-5.184
N10210X270.137Z-4.82
N10215X270.316Z-4.63
N10220X270.666Z-4.244
N10225X270.993Z-3.844
N10230X271.299Z-3.433
N10235X271.582Z-3.013
N10240X271.893Z-2.495
N10245X272.149Z-2.1
N10250X272.335Z-1.856
N10255X272.656Z-1.493
N10260X272.919Z-1.251
N10265X273.199Z-1.016
N10270X273.518Z-0.797
N10275X273.802Z-0.625
N10280X274.229Z-0.414
N10285X274.45Z-0.326
N10290X274.901Z-0.177
N10295X275.379Z-0.074
N10300X275.716Z-0.027
N10305X276.22Z0.
N10310X276.668Y32.269
N10315X278.78Y33.506
N10320X279.214Z-0.022
N10325X279.474Z-0.048
N10330X279.732Z-0.096
N10335X280.114Z-0.181
N10340X280.362Z-0.262
N10345X280.727Z-0.395
N10350X281.137Z-0.593
N10355X281.416Z-0.753
N10360X281.84Z-1.046
N10365X282.184Z-1.342
N10370X282.409Z-1.562
N10375X282.665Z-1.856
N10380X282.854Z-2.104
N10385X283.098Z-2.48
N10390X283.428Z-3.029
N10395X283.713Z-3.451
N10400X284.02Z-3.861
N10405X284.426Z-4.352
N10410X284.767Z-4.719
N10415X285.226Z-5.168
N10420X285.608Z-5.501
N10425X286.106Z-5.893
N10430X286.516Z-6.18
N10435X286.94Z-6.448
N10440X287.496Z-6.763
N10445X288.064Z-7.042
N10450X288.306Z-7.145
N10455X288.772Z-7.329
N10460X289.246Z-7.493
N10465X289.728Z-7.635
N10470X290.213Z-7.752
N10475X290.471Z-7.802
N10480X290.964Z-7.886
N10485X291.46Z-7.946
N10490X291.829Z-7.976
N10495X292.425Z-7.997
N10500X293.148Z-7.978
N10505X293.671Z-7.934
N10510X294.192Z-7.865
N10515X294.709Z-7.769
N10520X294.965Z-7.709
N10525X295.472Z-7.577
N10530X295.972Z-7.421
N10535X296.462Z-7.241
N10540X296.941Z-7.039
N10545X297.415Z-6.811
N10550X297.876Z-6.559
N10555X298.099Z-6.424
N10560X298.539Z-6.142
N10565X298.963Z-5.84
N10570X299.369Z-5.52
N10575X299.758Z-5.184
N10580X300.137Z-4.82
N10585X300.316Z-4.63
N10590X300.666Z-4.244
N10595X300.993Z-3.844
N10600X301.299Z-3.433
N10605X301.582Z-3.013
N10610X301.893Z-2.495
N10615X302.149Z-2.1
N10620X302.335Z-1.856
N10625X302.656Z-1.493
N10630X302.919Z-1.251
N10635X303.199Z-1.016
N10640X303.518Z-0.797
N10645X303.802Z-0.625
N10650X304.229Z-0.414
N10655X304.45Z-0.326
N10660X304.901Z-0.177
N10665X305.379Z-0.074
N10670X305.716Z-0.027
N10675X306.22Z0.
N10680X306.668Y33.769
N10685X308.78Y35.006
N10690X309.214Z-0.022
N10695X309.474Z-0.048
N10700X309.732Z-0.096
N10705X310.114Z-0.181
N10710X310.362Z-0.262
N10715X310.727Z-0.395
N10720X311.137Z-0.593
N10725X311.416Z-0.753
N10730X311.84Z-1.046
N10735X312.184Z-1.342
N10740X312.409Z-1.562
N10745X312.665Z-1.856
N10750X312.854Z-2.104
N10755X313.098Z-2.48
N10760X313.428Z-3.029
N10765X313.713Z-3.451
N10770X314.02Z-3.861
N10775X314.426Z-4.352
N10780X314.767Z-4.719
N10785X315.226Z-5.168
N10790X315.608Z-5.501
N10795X316.106Z-5.893
N10800X316.516Z-6.18
N10805X316.94Z-6.448
N10810X317.496Z-6.763
N10815X318.064Z-7.042
N10820X318.306Z-7.145
N10825X318.772Z-7.329
N10830X319.246Z-7.493
N10835X319.728Z-7.635
N10840X320.213Z-7.752
N10845X320.471Z-7.802
N10850X320.964Z-7.886
N10855X321.46Z-7.946
N10860X321.829Z-7.976
N10865X322.425Z-7.997
N10870X323.148Z-7.978
N10875X323.671Z-7.934
N10880X324.192Z-7.865
N10885X324.709Z-7.769
N10890X324.965Z-7.709
N10895X325.472Z-7.577
N10900X325.972Z-7.421
N10905X326.462Z-7.241
N10910X326.941Z-7.039
N10915X327.415Z-6.811
N10920X327.876Z-6.559
N10925X328.099Z-6.424
N10930X328.539Z-6.142
N10935X328.963Z-5.84
N10940X329.369Z-5.52
N10945X329.758Z-5.184
N10950X330.137Z-4.82
N10955X330.316Z-4.63
N10960X330.666Z-4.244
N10965X330.993Z-3.844
N10970X331.299Z-3.433
N10975X331.582Z-3.013
N10980X331.893Z-2.495
N10985X332.149Z-2.1
N10990X332.335Z-1.856
N10995X332.656Z-1.493
N11000X332.919Z-1.251
N11005X333.199Z-1.016
N11010X333.518Z-0.797
N11015X333.802Z-0.625
N11020X334.229Z-0.414
N11025X334.45Z-0.326
N11030X334.901Z-0.177
N11035X335.379Z-0.074
N11040X335.716Z-0.027
N11045X336.22Z0.
N11050X336.668Y35.269
N11055X338.78Y36.506
N11060X339.214Z-0.022
N11065X339.474Z-0.048
N11070X339.732Z-0.096
N11075X340.114Z-0.181
N11080X340.362Z-0.262
N11085X340.727Z-0.395
N11090X341.137Z-0.593
N11095X341.416Z-0.753
N11100X341.84Z-1.046
N11105X342.184Z-1.342
N11110X342.409Z-1.562
N11115X342.665Z-1.856
N11120X342.854Z-2.104
N11125X343.098Z-2.48
N11130X343.428Z-3.029
N11135X343.713Z-3.451
N11140X344.02Z-3.861
N11145X344.426Z-4.352
N11150X344.767Z-4.719
N11155X345.226Z-5.168
N11160X345.608Z-5.501
N11165X346.106Z-5.893
N11170X346.516Z-6.18
N11175X346.94Z-6.448
N11180X347.496Z-6.763
N11185X348.064Z-7.042
N11190X348.306Z-7.145
N11195X348.772Z-7.329
N11200X349.246Z-7.493
N11205X349.728Z-7.635
N11210X350.213Z-7.752
N11215X350.471Z-7.802
N11220X350.964Z-7.886
N11225X351.46Z-7.946
N11230X351.829Z-7.976
N11235X352.425Z-7.997
N11240X353.148Z-7.978
N11245X353.671Z-7.934
N11250X354.192Z-7.865
N11255X354.709Z-7.769
N11260X354.965Z-7.709
N11265X355.472Z-7.577
N11270X355.972Z-7.421
N11275X356.462Z-7.241
N11280X356.941Z-7.039
N11285X357.415Z-6.811
N11290X357.876Z-6.559
N11295X358.099Z-6.424
N11300X358.539Z-6.142
N11305X358.963Z-5.84
N11310X359.369Z-5.52
N11315X359.758Z-5.184
N11320X360.137Z-4.82
N11325X360.316Z-4.63
N11330X360.666Z-4.244
N11335X360.993Z-3.844
N11340X361.299Z-3.433
N11345X361.582Z-3.013
N11350X361.893Z-2.495
N11355X362.149Z-2.1
N11360X362.335Z-1.856
N11365X362.656Z-1.493
N11370X362.919Z-1.251
N11375X363.199Z-1.016
N11380X363.518Z-0.797
N11385X363.802Z-0.625
N11390X364.229Z-0.414
N11395X364.45Z-0.326
N11400X364.901Z-0.177
N11405X365.379Z-0.074
N11410X365.716Z-0.027
N11415X366.22Z0.
N11420G18G2X366.788Z0.599I-0.032K0.599
N11425G0Z8.
N11430X89.352Y23.007
N11435Z2.
N11440G1Z0.6F3680.
N11445G3X88.752Z0.I-0.6K0.
N11450G1X76.246
N11455X76.178Z0.008
N11460X76.114Z0.031
N11465X76.05Z0.053
N11470X75.982Z0.061
N11475X70.907
N11480G17G2Y24.507I0.J0.75
N11485G1X70.975Z0.053
N11490X71.039Z0.031
N11495X71.101Z0.008
N11500X71.166Z0.
N11505X71.661Z-0.009
N11510X72.32Z-0.039
N11515X73.709Z-0.132
N11520X74.918Z-0.201
N11525X76.077Z-0.234
N11530X88.947Z-0.233
N11535X90.135Z-0.199
N11540X91.423Z-0.123
N11545X92.92Z-0.025
N11550X93.834Z0.
N11555X99.709Y26.007
N11560X100.217Z-0.017
N11565X100.739Z-0.068
N11570X101.387Z-0.17
N11575X101.971Z-0.294
N11580X103.455Z-0.644
N11585X104.179Z-0.795
N11590X104.658Z-0.875
N11595X105.141Z-0.936
N11600X105.59Z-0.974
N11605X106.275Z-1.002
N11610X117.811Z-1.006
N11615X118.884Z-0.999
N11620X119.409Z-0.974
N11625X119.82Z-0.94
N11630X120.426Z-0.862
N11635X120.917Z-0.777
N11640X121.546Z-0.643
N11645X122.704Z-0.366
N11650X123.612Z-0.171
N11655X124.195Z-0.077
N11660X124.754Z-0.019
N11665X125.291Z0.
N11670X129.Y27.507
N11675X129.351Z-0.012
N11680X129.742Z-0.051
N11685X130.257Z-0.144
N11690X130.761Z-0.282
N11695X131.251Z-0.461
N11700X131.673Z-0.652
N11705X132.05Z-0.845
N11710X132.523Z-1.119
N11715X133.545Z-1.778
N11720X134.029Z-2.074
N11725X134.341Z-2.253
N11730X134.598Z-2.383
N11735X134.85Z-2.495
N11740X135.126Z-2.601
N11745X135.41Z-2.687
N11750X135.812Z-2.774
N11755X136.197Z-2.822
N11760X136.55Z-2.841
N11765X148.354Z-2.844
N11770X148.877Z-2.815
N11775X149.071Z-2.791
N11780X149.394Z-2.735
N11785X149.743Z-2.643
N11790X150.143Z-2.498
N11795X150.383Z-2.391
N11800X150.688Z-2.238
N11805X151.128Z-1.983
N11810X152.028Z-1.4
N11815X152.581Z-1.055
N11820X152.811Z-0.921
N11825X153.232Z-0.696
N11830X153.719Z-0.473
N11835X154.22Z-0.288
N11840X154.677Z-0.159
N11845X155.141Z-0.067
N11850X155.613Z-0.014
N11855X156.Z0.
N11860X158.78Y29.007
N11865X158.99Z-0.007
N11870X159.447Z-0.045
N11875X159.866Z-0.122
N11880X160.181Z-0.201
N11885X160.672Z-0.372
N11890X161.057Z-0.552
N11895X161.37Z-0.724
N11900X161.82Z-1.03
N11905X162.141Z-1.302
N11910X162.399Z-1.55
N11915X162.727Z-1.931
N11920X162.931Z-2.216
N11925X163.463Z-3.074
N11930X163.742Z-3.487
N11935X164.043Z-3.886
N11940X164.454Z-4.38
N11945X164.8Z-4.75
N11950X165.235Z-5.173
N11955X165.592Z-5.483
N11960X166.095Z-5.88
N11965X166.508Z-6.171
N11970X167.021Z-6.495
N11975X167.672Z-6.849
N11980X168.128Z-7.066
N11985X168.563Z-7.248
N11990X168.811Z-7.34
N11995X169.285Z-7.501
N12000X169.767Z-7.641
N12005X170.255Z-7.759
N12010X170.719Z-7.845
N12015X171.213Z-7.915
N12020X171.845Z-7.974
N12025X172.434Z-7.994
N12030X172.687Z-7.991
N12035X173.217Z-7.969
N12040X173.74Z-7.922
N12045X174.259Z-7.849
N12050X174.773Z-7.752
N12055X175.284Z-7.629
N12060X175.51Z-7.562
N12065X176.01Z-7.404
N12070X176.5Z-7.222
N12075X176.979Z-7.017
N12080X177.447Z-6.791
N12085X177.908Z-6.538
N12090X178.355Z-6.262
N12095X178.571Z-6.116
N12100X178.994Z-5.811
N12105X179.401Z-5.489
N12110X179.789Z-5.149
N12115X180.149Z-4.803
N12120X180.509Z-4.42
N12125X180.678Z-4.224
N12130X181.006Z-3.822
N12135X181.311Z-3.408
N12140X181.596Z-2.985
N12145X181.885Z-2.507
N12150X182.112Z-2.151
N12155X182.334Z-1.855
N12160X182.657Z-1.492
N12165X182.976Z-1.198
N12170X183.248Z-0.98
N12175X183.594Z-0.746
N12180X183.846Z-0.601
N12185X184.283Z-0.39
N12190X184.674Z-0.248
N12195X185.016Z-0.148
N12200X185.481Z-0.055
N12205X185.716Z-0.027
N12210X186.22Z0.
N12215X186.668Y29.269
N12220X188.78Y30.507
N12225X189.214Z-0.022
N12230X189.474Z-0.048
N12235X189.732Z-0.096
N12240X190.114Z-0.181
N12245X190.362Z-0.262
N12250X190.727Z-0.395
N12255X191.137Z-0.593
N12260X191.416Z-0.753
N12265X191.84Z-1.046
N12270X192.184Z-1.342
N12275X192.409Z-1.562
N12280X192.665Z-1.856
N12285X192.854Z-2.104
N12290X193.098Z-2.48
N12295X193.428Z-3.029
N12300X193.713Z-3.451
N12305X194.02Z-3.861
N12310X194.426Z-4.352
N12315X194.767Z-4.719
N12320X195.226Z-5.168
N12325X195.608Z-5.501
N12330X196.106Z-5.893
N12335X196.516Z-6.18
N12340X196.94Z-6.448
N12345X197.496Z-6.763
N12350X198.064Z-7.042
N12355X198.306Z-7.145
N12360X198.772Z-7.329
N12365X199.246Z-7.493
N12370X199.728Z-7.635
N12375X200.213Z-7.752
N12380X200.471Z-7.802
N12385X200.964Z-7.886
N12390X201.46Z-7.946
N12395X201.829Z-7.976
N12400X202.425Z-7.997
N12405X203.148Z-7.978
N12410X203.671Z-7.934
N12415X204.192Z-7.865
N12420X204.709Z-7.769
N12425X204.965Z-7.709
N12430X205.472Z-7.577
N12435X205.972Z-7.421
N12440X206.462Z-7.241
N12445X206.941Z-7.039
N12450X207.415Z-6.811
N12455X207.876Z-6.559
N12460X208.099Z-6.424
N12465X208.539Z-6.142
N12470X208.963Z-5.84
N12475X209.369Z-5.52
N12480X209.758Z-5.184
N12485X210.137Z-4.82
N12490X210.317Z-4.63
N12495X210.666Z-4.244
N12500X210.993Z-3.844
N12505X211.299Z-3.433
N12510X211.582Z-3.013
N12515X211.893Z-2.495
N12520X212.149Z-2.1
N12525X212.335Z-1.856
N12530X212.656Z-1.493
N12535X212.919Z-1.251
N12540X213.199Z-1.016
N12545X213.518Z-0.797
N12550X213.802Z-0.625
N12555X214.229Z-0.414
N12560X214.45Z-0.326
N12565X214.901Z-0.177
N12570X215.379Z-0.074
N12575X215.716Z-0.027
N12580X216.22Z0.
N12585X216.668Y30.769
N12590X218.78Y32.006
N12595X219.214Z-0.022
N12600X219.474Z-0.048
N12605X219.732Z-0.096
N12610X220.114Z-0.181
N12615X220.362Z-0.262
N12620X220.727Z-0.395
N12625X221.137Z-0.593
N12630X221.416Z-0.753
N12635X221.84Z-1.046
N12640X222.184Z-1.342
N12645X222.409Z-1.562
N12650X222.665Z-1.856
N12655X222.854Z-2.104
N12660X223.098Z-2.48
N12665X223.428Z-3.029
N12670X223.713Z-3.451
N12675X224.02Z-3.861
N12680X224.426Z-4.352
N12685X224.767Z-4.719
N12690X225.226Z-5.168
N12695X225.608Z-5.501
N12700X226.106Z-5.893
N12705X226.516Z-6.18
N12710X226.94Z-6.448
N12715X227.496Z-6.763
N12720X228.064Z-7.042
N12725X228.306Z-7.145
N12730X228.772Z-7.329
N12735X229.246Z-7.493
N12740X229.728Z-7.635
N12745X230.213Z-7.752
N12750X230.471Z-7.802
N12755X230.964Z-7.886
N12760X231.46Z-7.946
N12765X231.829Z-7.976
N12770X232.425Z-7.997
N12775X233.148Z-7.978
N12780X233.671Z-7.934
N12785X234.192Z-7.865
N12790X234.709Z-7.769
N12795X234.965Z-7.709
N12800X235.472Z-7.577
N12805X235.972Z-7.421
N12810X236.462Z-7.241
N12815X236.941Z-7.039
N12820X237.415Z-6.811
N12825X237.876Z-6.559
N12830X238.099Z-6.424
N12835X238.539Z-6.142
N12840X238.963Z-5.84
N12845X239.369Z-5.52
N12850X239.758Z-5.184
N12855X240.137Z-4.82
N12860X240.317Z-4.63
N12865X240.666Z-4.244
N12870X240.993Z-3.844
N12875X241.299Z-3.433
N12880X241.582Z-3.013
N12885X241.893Z-2.495
N12890X242.149Z-2.1
N12895X242.335Z-1.856
N12900X242.656Z-1.493
N12905X242.919Z-1.251
N12910X243.199Z-1.016
N12915X243.518Z-0.797
N12920X243.802Z-0.625
N12925X244.229Z-0.414
N12930X244.45Z-0.326
N12935X244.901Z-0.177
N12940X245.379Z-0.074
N12945X245.716Z-0.027
N12950X246.22Z0.
N12955X246.668Y32.269
N12960X248.78Y33.506
N12965X249.214Z-0.022
N12970X249.474Z-0.048
N12975X249.732Z-0.096
N12980X250.114Z-0.181
N12985X250.362Z-0.262
N12990X250.727Z-0.395
N12995X251.137Z-0.593
N13000X251.416Z-0.753
N13005X251.84Z-1.046
N13010X252.184Z-1.342
N13015X252.409Z-1.562
N13020X252.665Z-1.856
N13025X252.854Z-2.104
N13030X253.098Z-2.48
N13035X253.428Z-3.029
N13040X253.713Z-3.451
N13045X254.02Z-3.861
N13050X254.426Z-4.352
N13055X254.767Z-4.719
N13060X255.226Z-5.168
N13065X255.608Z-5.501
N13070X256.106Z-5.893
N13075X256.516Z-6.18
N13080X256.94Z-6.448
N13085X257.496Z-6.763
N13090X258.064Z-7.042
N13095X258.306Z-7.145
N13100X258.772Z-7.329
N13105X259.246Z-7.493
N13110X259.728Z-7.635
N13115X260.213Z-7.752
N13120X260.471Z-7.802
N13125X260.964Z-7.886
N13130X261.46Z-7.946
N13135X261.829Z-7.976
N13140X262.425Z-7.997
N13145X263.148Z-7.978
N13150X263.671Z-7.934
N13155X264.192Z-7.865
N13160X264.709Z-7.769
N13165X264.965Z-7.709
N13170X265.472Z-7.577
N13175X265.972Z-7.421
N13180X266.462Z-7.241
N13185X266.941Z-7.039
N13190X267.415Z-6.811
N13195X267.876Z-6.559
N13200X268.099Z-6.424
N13205X268.539Z-6.142
N13210X268.963Z-5.84
N13215X269.369Z-5.52
N13220X269.758Z-5.184
N13225X270.137Z-4.82
N13230X270.316Z-4.63
N13235X270.666Z-4.244
N13240X270.993Z-3.844
N13245X271.299Z-3.433
N13250X271.582Z-3.013
N13255X271.893Z-2.495
N13260X272.149Z-2.1
N13265X272.335Z-1.856
N13270X272.656Z-1.493
N13275X272.919Z-1.251
N13280X273.199Z-1.016
N13285X273.518Z-0.797
N13290X273.802Z-0.625
N13295X274.229Z-0.414
N13300X274.45Z-0.326
N13305X274.901Z-0.177
N13310X275.379Z-0.074
N13315X275.716Z-0.027
N13320X276.22Z0.
N13325X276.668Y33.769
N13330X278.78Y35.006
N13335X279.214Z-0.022
N13340X279.474Z-0.048
N13345X279.732Z-0.096
N13350X280.114Z-0.181
N13355X280.362Z-0.262
N13360X280.727Z-0.395
N13365X281.137Z-0.593
N13370X281.416Z-0.753
N13375X281.84Z-1.046
N13380X282.184Z-1.342
N13385X282.409Z-1.562
N13390X282.665Z-1.856
N13395X282.854Z-2.104
N13400X283.098Z-2.48
N13405X283.428Z-3.029
N13410X283.713Z-3.451
N13415X284.02Z-3.861
N13420X284.426Z-4.352
N13425X284.767Z-4.719
N13430X285.226Z-5.168
N13435X285.608Z-5.501
N13440X286.106Z-5.893
N13445X286.516Z-6.18
N13450X286.94Z-6.448
N13455X287.496Z-6.763
N13460X288.064Z-7.042
N13465X288.306Z-7.145
N13470X288.772Z-7.329
N13475X289.246Z-7.493
N13480X289.728Z-7.635
N13485X290.213Z-7.752
N13490X290.471Z-7.802
N13495X290.964Z-7.886
N13500X291.46Z-7.946
N13505X291.829Z-7.976
N13510X292.425Z-7.997
N13515X293.148Z-7.978
N13520X293.671Z-7.934
N13525X294.192Z-7.865
N13530X294.709Z-7.769
N13535X294.965Z-7.709
N13540X295.472Z-7.577
N13545X295.972Z-7.421
N13550X296.462Z-7.241
N13555X296.941Z-7.039
N13560X297.415Z-6.811
N13565X297.876Z-6.559
N13570X298.099Z-6.424
N13575X298.539Z-6.142
N13580X298.963Z-5.84
N13585X299.369Z-5.52
N13590X299.758Z-5.184
N13595X300.137Z-4.82
N13600X300.316Z-4.63
N13605X300.666Z-4.244
N13610X300.993Z-3.844
N13615X301.299Z-3.433
N13620X301.582Z-3.013
N13625X301.893Z-2.495
N13630X302.149Z-2.1
N13635X302.335Z-1.856
N13640X302.656Z-1.493
N13645X302.919Z-1.251
N13650X303.199Z-1.016
N13655X303.518Z-0.797
N13660X303.802Z-0.625
N13665X304.229Z-0.414
N13670X304.45Z-0.326
N13675X304.901Z-0.177
N13680X305.379Z-0.074
N13685X305.716Z-0.027
N13690X306.22Z0.
N13695X306.668Y35.269
N13700X308.78Y36.506
N13705X309.214Z-0.022
N13710X309.474Z-0.048
N13715X309.732Z-0.096
N13720X310.114Z-0.181
N13725X310.362Z-0.262
N13730X310.727Z-0.395
N13735X311.137Z-0.593
N13740X311.416Z-0.753
N13745X311.84Z-1.046
N13750X312.184Z-1.342
N13755X312.409Z-1.562
N13760X312.665Z-1.856
N13765X312.854Z-2.104
N13770X313.098Z-2.48
N13775X313.428Z-3.029
N13780X313.713Z-3.451
N13785X314.02Z-3.861
N13790X314.426Z-4.352
N13795X314.767Z-4.719
N13800X315.226Z-5.168
N13805X315.608Z-5.501
N13810X316.106Z-5.893
N13815X316.516Z-6.18
N13820X316.94Z-6.448
N13825X317.496Z-6.763
N13830X318.064Z-7.042
N13835X318.306Z-7.145
N13840X318.772Z-7.329
N13845X319.246Z-7.493
N13850X319.728Z-7.635
N13855X320.213Z-7.752
N13860X320.471Z-7.802
N13865X320.964Z-7.886
N13870X321.46Z-7.946
N13875X321.829Z-7.976
N13880X322.425Z-7.997
N13885X323.148Z-7.978
N13890X323.671Z-7.934
N13895X324.192Z-7.865
N13900X324.709Z-7.769
N13905X324.965Z-7.709
N13910X325.472Z-7.577
N13915X325.972Z-7.421
N13920X326.462Z-7.241
N13925X326.941Z-7.039
N13930X327.415Z-6.811
N13935X327.876Z-6.559
N13940X328.099Z-6.424
N13945X328.539Z-6.142
N13950X328.963Z-5.84
N13955X329.369Z-5.52
N13960X329.758Z-5.184
N13965X330.137Z-4.82
N13970X330.316Z-4.63
N13975X330.666Z-4.244
N13980X330.993Z-3.844
N13985X331.299Z-3.433
N13990X331.582Z-3.013
N13995X331.893Z-2.495
N14000X332.149Z-2.1
N14005X332.335Z-1.856
N14010X332.656Z-1.493
N14015X332.919Z-1.251
N14020X333.199Z-1.016
N14025X333.518Z-0.797
N14030X333.802Z-0.625
N14035X334.229Z-0.414
N14040X334.45Z-0.326
N14045X334.901Z-0.177
N14050X335.379Z-0.074
N14055X335.716Z-0.027
N14060X336.22Z0.
N14065X336.668Y36.769
N14070X338.78Y38.006
N14075X339.214Z-0.022
N14080X339.474Z-0.048
N14085X339.732Z-0.096
N14090X340.114Z-0.181
N14095X340.362Z-0.262
N14100X340.727Z-0.395
N14105X341.137Z-0.593
N14110X341.416Z-0.753
N14115X341.84Z-1.046
N14120X342.184Z-1.342
N14125X342.409Z-1.562
N14130X342.665Z-1.856
N14135X342.854Z-2.104
N14140X343.098Z-2.48
N14145X343.428Z-3.029
N14150X343.713Z-3.451
N14155X344.02Z-3.861
N14160X344.426Z-4.352
N14165X344.767Z-4.719
N14170X345.226Z-5.168
N14175X345.608Z-5.501
N14180X346.106Z-5.893
N14185X346.516Z-6.18
N14190X346.94Z-6.448
N14195X347.496Z-6.763
N14200X348.064Z-7.042
N14205X348.306Z-7.145
N14210X348.772Z-7.329
N14215X349.246Z-7.493
N14220X349.728Z-7.635
N14225X350.213Z-7.752
N14230X350.471Z-7.802
N14235X350.964Z-7.886
N14240X351.46Z-7.946
N14245X351.829Z-7.976
N14250X352.425Z-7.997
N14255X353.148Z-7.978
N14260X353.671Z-7.934
N14265X354.192Z-7.865
N14270X354.709Z-7.769
N14275X354.965Z-7.709
N14280X355.472Z-7.577
N14285X355.972Z-7.421
N14290X356.462Z-7.241
N14295X356.941Z-7.039
N14300X357.415Z-6.811
N14305X357.876Z-6.559
N14310X358.099Z-6.424
N14315X358.539Z-6.142
N14320X358.963Z-5.84
N14325X359.369Z-5.52
N14330X359.758Z-5.184
N14335X360.137Z-4.82
N14340X360.316Z-4.63
N14345X360.666Z-4.244
N14350X360.993Z-3.844
N14355X361.299Z-3.433
N14360X361.582Z-3.013
N14365X361.893Z-2.495
N14370X362.149Z-2.1
N14375X362.335Z-1.856
N14380X362.656Z-1.493
N14385X362.919Z-1.251
N14390X363.199Z-1.016
N14395X363.518Z-0.797
N14400X363.802Z-0.625
N14405X364.229Z-0.414
N14410X364.45Z-0.326
N14415X364.901Z-0.177
N14420X365.379Z-0.074
N14425X365.716Z-0.027
N14430X366.22Z0.
N14435G18G2X366.788Z0.599I-0.032K0.599
N14440G0Z8.
N14445X59.352Y23.007
N14450Z2.
N14455G1Z0.6F3680.
N14460G3X58.752Z0.I-0.6K0.
N14465G1X46.246
N14470X46.178Z0.008
N14475X46.114Z0.031
N14480X46.05Z0.053
N14485X45.982Z0.061
N14490X40.907
N14495G17G2Y24.507I0.J0.75
N14500G1X40.975Z0.053
N14505X41.039Z0.031
N14510X41.101Z0.008
N14515X41.166Z0.
N14520X41.661Z-0.009
N14525X42.32Z-0.039
N14530X43.709Z-0.132
N14535X44.918Z-0.201
N14540X46.077Z-0.234
N14545X58.947Z-0.233
N14550X60.135Z-0.199
N14555X61.423Z-0.123
N14560X62.92Z-0.025
N14565X63.834Z0.
N14570X69.709Y26.007
N14575X70.17Z-0.014
N14580X70.693Z-0.062
N14585X71.38Z-0.169
N14590X71.964Z-0.292
N14595X73.453Z-0.643
N14600X74.166Z-0.793
N14605X74.718Z-0.883
N14610X75.2Z-0.942
N14615X75.69Z-0.981
N14620X76.335Z-1.002
N14625X87.468Z-1.006
N14630X88.793Z-1.
N14635X89.306Z-0.981
N14640X89.811Z-0.941
N14645X90.39Z-0.868
N14650X90.886Z-0.782
N14655X91.573Z-0.637
N14660X92.458Z-0.426
N14665X93.262Z-0.242
N14670X93.726Z-0.15
N14675X94.31Z-0.062
N14680X94.781Z-0.017
N14685X95.291Z0.
N14690X99.Y27.507
N14695X99.351Z-0.012
N14700X99.742Z-0.051
N14705X100.257Z-0.144
N14710X100.761Z-0.282
N14715X101.251Z-0.461
N14720X101.673Z-0.652
N14725X102.05Z-0.845
N14730X102.523Z-1.119
N14735X103.545Z-1.778
N14740X104.029Z-2.074
N14745X104.341Z-2.253
N14750X104.598Z-2.383
N14755X104.85Z-2.495
N14760X105.126Z-2.601
N14765X105.41Z-2.687
N14770X105.812Z-2.774
N14775X106.197Z-2.822
N14780X106.55Z-2.841
N14785X118.354Z-2.844
N14790X118.877Z-2.815
N14795X119.071Z-2.791
N14800X119.394Z-2.735
N14805X119.743Z-2.643
N14810X120.143Z-2.498
N14815X120.383Z-2.391
N14820X120.688Z-2.238
N14825X121.128Z-1.983
N14830X122.028Z-1.4
N14835X122.581Z-1.055
N14840X122.811Z-0.921
N14845X123.232Z-0.696
N14850X123.719Z-0.473
N14855X124.22Z-0.288
N14860X124.677Z-0.159
N14865X125.141Z-0.067
N14870X125.613Z-0.014
N14875X126.Z0.
N14880X128.78Y29.007
N14885X128.99Z-0.007
N14890X129.447Z-0.045
N14895X129.866Z-0.122
N14900X130.181Z-0.201
N14905X130.672Z-0.372
N14910X131.057Z-0.552
N14915X131.37Z-0.724
N14920X131.82Z-1.03
N14925X132.141Z-1.302
N14930X132.399Z-1.55
N14935X132.727Z-1.931
N14940X132.931Z-2.216
N14945X133.463Z-3.074
N14950X133.742Z-3.487
N14955X134.043Z-3.886
N14960X134.454Z-4.38
N14965X134.8Z-4.75
N14970X135.235Z-5.173
N14975X135.592Z-5.483
N14980X136.095Z-5.88
N14985X136.508Z-6.171
N14990X137.021Z-6.495
N14995X137.672Z-6.849
N15000X138.128Z-7.066
N15005X138.563Z-7.248
N15010X138.811Z-7.34
N15015X139.285Z-7.501
N15020X139.767Z-7.641
N15025X140.255Z-7.759
N15030X140.719Z-7.845
N15035X141.213Z-7.915
N15040X141.845Z-7.974
N15045X142.434Z-7.994
N15050X142.687Z-7.991
N15055X143.217Z-7.969
N15060X143.74Z-7.922
N15065X144.259Z-7.849
N15070X144.773Z-7.752
N15075X145.284Z-7.629
N15080X145.51Z-7.562
N15085X146.01Z-7.404
N15090X146.5Z-7.222
N15095X146.979Z-7.017
N15100X147.447Z-6.791
N15105X147.908Z-6.538
N15110X148.355Z-6.262
N15115X148.571Z-6.116
N15120X148.994Z-5.811
N15125X149.401Z-5.489
N15130X149.789Z-5.149
N15135X150.149Z-4.803
N15140X150.509Z-4.42
N15145X150.678Z-4.224
N15150X151.006Z-3.822
N15155X151.311Z-3.408
N15160X151.596Z-2.985
N15165X151.885Z-2.507
N15170X152.112Z-2.151
N15175X152.334Z-1.855
N15180X152.657Z-1.492
N15185X152.976Z-1.198
N15190X153.248Z-0.98
N15195X153.594Z-0.746
N15200X153.846Z-0.601
N15205X154.283Z-0.39
N15210X154.674Z-0.248
N15215X155.016Z-0.148
N15220X155.481Z-0.055
N15225X155.716Z-0.027
N15230X156.22Z0.
N15235X156.668Y29.269
N15240X158.78Y30.507
N15245X159.214Z-0.022
N15250X159.474Z-0.048
N15255X159.732Z-0.096
N15260X160.114Z-0.181
N15265X160.362Z-0.262
N15270X160.727Z-0.395
N15275X161.137Z-0.593
N15280X161.416Z-0.753
N15285X161.84Z-1.046
N15290X162.184Z-1.342
N15295X162.409Z-1.562
N15300X162.665Z-1.856
N15305X162.854Z-2.104
N15310X163.098Z-2.48
N15315X163.428Z-3.029
N15320X163.713Z-3.451
N15325X164.02Z-3.861
N15330X164.426Z-4.352
N15335X164.767Z-4.719
N15340X165.226Z-5.168
N15345X165.608Z-5.501
N15350X166.106Z-5.893
N15355X166.516Z-6.18
N15360X166.94Z-6.448
N15365X167.496Z-6.763
N15370X168.064Z-7.042
N15375X168.306Z-7.145
N15380X168.772Z-7.329
N15385X169.246Z-7.493
N15390X169.728Z-7.635
N15395X170.213Z-7.752
N15400X170.471Z-7.802
N15405X170.964Z-7.886
N15410X171.46Z-7.946
N15415X171.829Z-7.976
N15420X172.425Z-7.997
N15425X173.148Z-7.978
N15430X173.671Z-7.934
N15435X174.192Z-7.865
N15440X174.709Z-7.769
N15445X174.965Z-7.709
N15450X175.472Z-7.577
N15455X175.972Z-7.421
N15460X176.462Z-7.241
N15465X176.941Z-7.039
N15470X177.415Z-6.811
N15475X177.876Z-6.559
N15480X178.099Z-6.424
N15485X178.539Z-6.142
N15490X178.963Z-5.84
N15495X179.369Z-5.52
N15500X179.758Z-5.184
N15505X180.137Z-4.82
N15510X180.317Z-4.63
N15515X180.666Z-4.244
N15520X180.993Z-3.844
N15525X181.299Z-3.433
N15530X181.582Z-3.013
N15535X181.893Z-2.495
N15540X182.149Z-2.1
N15545X182.335Z-1.856
N15550X182.656Z-1.493
N15555X182.919Z-1.251
N15560X183.199Z-1.016
N15565X183.518Z-0.797
N15570X183.802Z-0.625
N15575X184.229Z-0.414
N15580X184.45Z-0.326
N15585X184.901Z-0.177
N15590X185.379Z-0.074
N15595X185.716Z-0.027
N15600X186.22Z0.
N15605X186.668Y30.769
N15610X188.78Y32.006
N15615X189.214Z-0.022
N15620X189.474Z-0.048
N15625X189.732Z-0.096
N15630X190.114Z-0.181
N15635X190.362Z-0.262
N15640X190.727Z-0.395
N15645X191.137Z-0.593
N15650X191.416Z-0.753
N15655X191.84Z-1.046
N15660X192.184Z-1.342
N15665X192.409Z-1.562
N15670X192.665Z-1.856
N15675X192.854Z-2.104
N15680X193.098Z-2.48
N15685X193.428Z-3.029
N15690X193.713Z-3.451
N15695X194.02Z-3.861
N15700X194.426Z-4.352
N15705X194.767Z-4.719
N15710X195.226Z-5.168
N15715X195.608Z-5.501
N15720X196.106Z-5.893
N15725X196.516Z-6.18
N15730X196.94Z-6.448
N15735X197.496Z-6.763
N15740X198.064Z-7.042
N15745X198.306Z-7.145
N15750X198.772Z-7.329
N15755X199.246Z-7.493
N15760X199.728Z-7.635
N15765X200.213Z-7.752
N15770X200.471Z-7.802
N15775X200.964Z-7.886
N15780X201.46Z-7.946
N15785X201.829Z-7.976
N15790X202.425Z-7.997
N15795X203.148Z-7.978
N15800X203.671Z-7.934
N15805X204.192Z-7.865
N15810X204.709Z-7.769
N15815X204.965Z-7.709
N15820X205.472Z-7.577
N15825X205.972Z-7.421
N15830X206.462Z-7.241
N15835X206.941Z-7.039
N15840X207.415Z-6.811
N15845X207.876Z-6.559
N15850X208.099Z-6.424
N15855X208.539Z-6.142
N15860X208.963Z-5.84
N15865X209.369Z-5.52
N15870X209.758Z-5.184
N15875X210.137Z-4.82
N15880X210.317Z-4.63
N15885X210.666Z-4.244
N15890X210.993Z-3.844
N15895X211.299Z-3.433
N15900X211.582Z-3.013
N15905X211.893Z-2.495
N15910X212.149Z-2.1
N15915X212.335Z-1.856
N15920X212.656Z-1.493
N15925X212.919Z-1.251
N15930X213.199Z-1.016
N15935X213.518Z-0.797
N15940X213.802Z-0.625
N15945X214.229Z-0.414
N15950X214.45Z-0.326
N15955X214.901Z-0.177
N15960X215.379Z-0.074
N15965X215.716Z-0.027
N15970X216.22Z0.
N15975X216.668Y32.269
N15980X218.78Y33.506
N15985X219.214Z-0.022
N15990X219.474Z-0.048
N15995X219.732Z-0.096
N16000X220.114Z-0.181
N16005X220.362Z-0.262
N16010X220.727Z-0.395
N16015X221.137Z-0.593
N16020X221.416Z-0.753
N16025X221.84Z-1.046
N16030X222.184Z-1.342
N16035X222.409Z-1.562
N16040X222.665Z-1.856
N16045X222.854Z-2.104
N16050X223.098Z-2.48
N16055X223.428Z-3.029
N16060X223.713Z-3.451
N16065X224.02Z-3.861
N16070X224.426Z-4.352
N16075X224.767Z-4.719
N16080X225.226Z-5.168
N16085X225.608Z-5.501
N16090X226.106Z-5.893
N16095X226.516Z-6.18
N16100X226.94Z-6.448
N16105X227.496Z-6.763
N16110X228.064Z-7.042
N16115X228.306Z-7.145
N16120X228.772Z-7.329
N16125X229.246Z-7.493
N16130X229.728Z-7.635
N16135X230.213Z-7.752
N16140X230.471Z-7.802
N16145X230.964Z-7.886
N16150X231.46Z-7.946
N16155X231.829Z-7.976
N16160X232.425Z-7.997
N16165X233.148Z-7.978
N16170X233.671Z-7.934
N16175X234.192Z-7.865
N16180X234.709Z-7.769
N16185X234.965Z-7.709
N16190X235.472Z-7.577
N16195X235.972Z-7.421
N16200X236.462Z-7.241
N16205X236.941Z-7.039
N16210X237.415Z-6.811
N16215X237.876Z-6.559
N16220X238.099Z-6.424
N16225X238.539Z-6.142
N16230X238.963Z-5.84
N16235X239.369Z-5.52
N16240X239.758Z-5.184
N16245X240.137Z-4.82
N16250X240.317Z-4.63
N16255X240.666Z-4.244
N16260X240.993Z-3.844
N16265X241.299Z-3.433
N16270X241.582Z-3.013
N16275X241.893Z-2.495
N16280X242.149Z-2.1
N16285X242.335Z-1.856
N16290X242.656Z-1.493
N16295X242.919Z-1.251
N16300X243.199Z-1.016
N16305X243.518Z-0.797
N16310X243.802Z-0.625
N16315X244.229Z-0.414
N16320X244.45Z-0.326
N16325X244.901Z-0.177
N16330X245.379Z-0.074
N16335X245.716Z-0.027
N16340X246.22Z0.
N16345X246.668Y33.769
N16350X248.78Y35.006
N16355X249.214Z-0.022
N16360X249.474Z-0.048
N16365X249.732Z-0.096
N16370X250.114Z-0.181
N16375X250.362Z-0.262
N16380X250.727Z-0.395
N16385X251.137Z-0.593
N16390X251.416Z-0.753
N16395X251.84Z-1.046
N16400X252.184Z-1.342
N16405X252.409Z-1.562
N16410X252.665Z-1.856
N16415X252.854Z-2.104
N16420X253.098Z-2.48
N16425X253.428Z-3.029
N16430X253.713Z-3.451
N16435X254.02Z-3.861
N16440X254.426Z-4.352
N16445X254.767Z-4.719
N16450X255.226Z-5.168
N16455X255.608Z-5.501
N16460X256.106Z-5.893
N16465X256.516Z-6.18
N16470X256.94Z-6.448
N16475X257.496Z-6.763
N16480X258.064Z-7.042
N16485X258.306Z-7.145
N16490X258.772Z-7.329
N16495X259.246Z-7.493
N16500X259.728Z-7.635
N16505X260.213Z-7.752
N16510X260.471Z-7.802
N16515X260.964Z-7.886
N16520X261.46Z-7.946
N16525X261.829Z-7.976
N16530X262.425Z-7.997
N16535X263.148Z-7.978
N16540X263.671Z-7.934
N16545X264.192Z-7.865
N16550X264.709Z-7.769
N16555X264.965Z-7.709
N16560X265.472Z-7.577
N16565X265.972Z-7.421
N16570X266.462Z-7.241
N16575X266.941Z-7.039
N16580X267.415Z-6.811
N16585X267.876Z-6.559
N16590X268.099Z-6.424
N16595X268.539Z-6.142
N16600X268.963Z-5.84
N16605X269.369Z-5.52
N16610X269.758Z-5.184
N16615X270.137Z-4.82
N16620X270.316Z-4.63
N16625X270.666Z-4.244
N16630X270.993Z-3.844
N16635X271.299Z-3.433
N16640X271.582Z-3.013
N16645X271.893Z-2.495
N16650X272.149Z-2.1
N16655X272.335Z-1.856
N16660X272.656Z-1.493
N16665X272.919Z-1.251
N16670X273.199Z-1.016
N16675X273.518Z-0.797
N16680X273.802Z-0.625
N16685X274.229Z-0.414
N16690X274.45Z-0.326
N16695X274.901Z-0.177
N16700X275.379Z-0.074
N16705X275.716Z-0.027
N16710X276.22Z0.
N16715X276.668Y35.269
N16720X278.78Y36.506
N16725X279.214Z-0.022
N16730X279.474Z-0.048
N16735X279.732Z-0.096
N16740X280.114Z-0.181
N16745X280.362Z-0.262
N16750X280.727Z-0.395
N16755X281.137Z-0.593
N16760X281.416Z-0.753
N16765X281.84Z-1.046
N16770X282.184Z-1.342
N16775X282.409Z-1.562
N16780X282.665Z-1.856
N16785X282.854Z-2.104
N16790X283.098Z-2.48
N16795X283.428Z-3.029
N16800X283.713Z-3.451
N16805X284.02Z-3.861
N16810X284.426Z-4.352
N16815X284.767Z-4.719
N16820X285.226Z-5.168
N16825X285.608Z-5.501
N16830X286.106Z-5.893
N16835X286.516Z-6.18
N16840X286.94Z-6.448
N16845X287.496Z-6.763
N16850X288.064Z-7.042
N16855X288.306Z-7.145
N16860X288.772Z-7.329
N16865X289.246Z-7.493
N16870X289.728Z-7.635
N16875X290.213Z-7.752
N16880X290.471Z-7.802
N16885X290.964Z-7.886
N16890X291.46Z-7.946
N16895X291.829Z-7.976
N16900X292.425Z-7.997
N16905X293.148Z-7.978
N16910X293.671Z-7.934
N16915X294.192Z-7.865
N16920X294.709Z-7.769
N16925X294.965Z-7.709
N16930X295.472Z-7.577
N16935X295.972Z-7.421
N16940X296.462Z-7.241
N16945X296.941Z-7.039
N16950X297.415Z-6.811
N16955X297.876Z-6.559
N16960X298.099Z-6.424
N16965X298.539Z-6.142
N16970X298.963Z-5.84
N16975X299.369Z-5.52
N16980X299.758Z-5.184
N16985X300.137Z-4.82
N16990X300.316Z-4.63
N16995X300.666Z-4.244
N17000X300.993Z-3.844
N17005X301.299Z-3.433
N17010X301.582Z-3.013
N17015X301.893Z-2.495
N17020X302.149Z-2.1
N17025X302.335Z-1.856
N17030X302.656Z-1.493
N17035X302.919Z-1.251
N17040X303.199Z-1.016
N17045X303.518Z-0.797
N17050X303.802Z-0.625
N17055X304.229Z-0.414
N17060X304.45Z-0.326
N17065X304.901Z-0.177
N17070X305.379Z-0.074
N17075X305.716Z-0.027
N17080X306.22Z0.
N17085X306.668Y36.769
N17090X308.78Y38.006
N17095X309.214Z-0.022
N17100X309.474Z-0.048
N17105X309.732Z-0.096
N17110X310.114Z-0.181
N17115X310.362Z-0.262
N17120X310.727Z-0.395
N17125X311.137Z-0.593
N17130X311.416Z-0.753
N17135X311.84Z-1.046
N17140X312.184Z-1.342
N17145X312.409Z-1.562
N17150X312.665Z-1.856
N17155X312.854Z-2.104
N17160X313.098Z-2.48
N17165X313.428Z-3.029
N17170X313.713Z-3.451
N17175X314.02Z-3.861
N17180X314.426Z-4.352
N17185X314.767Z-4.719
N17190X315.226Z-5.168
N17195X315.608Z-5.501
N17200X316.106Z-5.893
N17205X316.516Z-6.18
N17210X316.94Z-6.448
N17215X317.496Z-6.763
N17220X318.064Z-7.042
N17225X318.306Z-7.145
N17230X318.772Z-7.329
N17235X319.246Z-7.493
N17240X319.728Z-7.635
N17245X320.213Z-7.752
N17250X320.471Z-7.802
N17255X320.964Z-7.886
N17260X321.46Z-7.946
N17265X321.829Z-7.976
N17270X322.425Z-7.997
N17275X323.148Z-7.978
N17280X323.671Z-7.934
N17285X324.192Z-7.865
N17290X324.709Z-7.769
N17295X324.965Z-7.709
N17300X325.472Z-7.577
N17305X325.972Z-7.421
N17310X326.462Z-7.241
N17315X326.941Z-7.039
N17320X327.415Z-6.811
N17325X327.876Z-6.559
N17330X328.099Z-6.424
N17335X328.539Z-6.142
N17340X328.963Z-5.84
N17345X329.369Z-5.52
N17350X329.758Z-5.184
N17355X330.137Z-4.82
N17360X330.316Z-4.63
N17365X330.666Z-4.244
N17370X330.993Z-3.844
N17375X331.299Z-3.433
N17380X331.582Z-3.013
N17385X331.893Z-2.495
N17390X332.149Z-2.1
N17395X332.335Z-1.856
N17400X332.656Z-1.493
N17405X332.919Z-1.251
N17410X333.199Z-1.016
N17415X333.518Z-0.797
N17420X333.802Z-0.625
N17425X334.229Z-0.414
N17430X334.45Z-0.326
N17435X334.901Z-0.177
N17440X335.379Z-0.074
N17445X335.716Z-0.027
N17450X336.22Z0.
N17455X336.668Y38.268
N17460X338.78Y39.506
N17465X339.214Z-0.022
N17470X339.474Z-0.048
N17475X339.732Z-0.096
N17480X340.114Z-0.181
N17485X340.362Z-0.262
N17490X340.727Z-0.395
N17495X341.137Z-0.593
N17500X341.416Z-0.753
N17505X341.84Z-1.046
N17510X342.184Z-1.342
N17515X342.409Z-1.562
N17520X342.665Z-1.856
N17525X342.854Z-2.104
N17530X343.098Z-2.48
N17535X343.428Z-3.029
N17540X343.713Z-3.451
N17545X344.02Z-3.861
N17550X344.426Z-4.352
N17555X344.767Z-4.719
N17560X345.226Z-5.168
N17565X345.608Z-5.501
N17570X346.106Z-5.893
N17575X346.516Z-6.18
N17580X346.94Z-6.448
N17585X347.496Z-6.763
N17590X348.064Z-7.042
N17595X348.306Z-7.145
N17600X348.772Z-7.329
N17605X349.246Z-7.493
N17610X349.728Z-7.635
N17615X350.213Z-7.752
N17620X350.471Z-7.802
N17625X350.964Z-7.886
N17630X351.46Z-7.946
N17635X351.829Z-7.976
N17640X352.425Z-7.997
N17645X353.148Z-7.978
N17650X353.671Z-7.934
N17655X354.192Z-7.865
N17660X354.709Z-7.769
N17665X354.965Z-7.709
N17670X355.472Z-7.577
N17675X355.972Z-7.421
N17680X356.462Z-7.241
N17685X356.941Z-7.039
N17690X357.415Z-6.811
N17695X357.876Z-6.559
N17700X358.099Z-6.424
N17705X358.539Z-6.142
N17710X358.963Z-5.84
N17715X359.369Z-5.52
N17720X359.758Z-5.184
N17725X360.137Z-4.82
N17730X360.316Z-4.63
N17735X360.666Z-4.244
N17740X360.993Z-3.844
N17745X361.299Z-3.433
N17750X361.582Z-3.013
N17755X361.893Z-2.495
N17760X362.149Z-2.1
N17765X362.335Z-1.856
N17770X362.656Z-1.493
N17775X362.919Z-1.251
N17780X363.199Z-1.016
N17785X363.518Z-0.797
N17790X363.802Z-0.625
N17795X364.229Z-0.414
N17800X364.45Z-0.326
N17805X364.901Z-0.177
N17810X365.379Z-0.074
N17815X365.716Z-0.027
N17820X366.22Z0.
N17825G18G2X366.788Z0.599I-0.032K0.599
N17830G0Z8.
N17835X29.352Y23.007
N17840Z2.
N17845G1Z0.6F3680.
N17850G3X28.752Z0.I-0.6K0.
N17855G1X16.246
N17860X16.178Z0.008
N17865X16.114Z0.031
N17870X16.05Z0.053
N17875X15.982Z0.061
N17880X10.907
N17885G17G2Y24.507I0.J0.75
N17890G1X10.975Z0.053
N17895X11.039Z0.031
N17900X11.101Z0.008
N17905X11.166Z0.
N17910X11.661Z-0.009
N17915X12.32Z-0.039
N17920X13.709Z-0.132
N17925X14.918Z-0.201
N17930X16.077Z-0.234
N17935X28.947Z-0.233
N17940X30.135Z-0.199
N17945X31.423Z-0.123
N17950X32.92Z-0.025
N17955X33.834Z0.
N17960X33.897Z0.009
N17965X33.957Z0.031
N17970X34.022Z0.053
N17975X34.09Z0.061
N17980X35.545
N17985G3Y26.007I0.J0.75
N17990G1X35.477Z0.053
N17995X35.413Z0.031
N18000X35.412Z0.03
N18005X35.353Z0.009
N18010X35.291Z0.
N18015X34.781Z-0.017
N18020X34.31Z-0.062
N18025X33.726Z-0.15
N18030X33.262Z-0.242
N18035X32.458Z-0.426
N18040X31.573Z-0.637
N18045X30.886Z-0.782
N18050X30.39Z-0.868
N18055X29.811Z-0.941
N18060X29.306Z-0.981
N18065X28.793Z-1.
N18070X27.468Z-1.006
N18075X16.335Z-1.002
N18080X15.69Z-0.981
N18085X15.2Z-0.942
N18090X14.718Z-0.883
N18095X14.166Z-0.793
N18100X13.453Z-0.643
N18105X11.964Z-0.292
N18110X11.38Z-0.169
N18115X10.693Z-0.062
N18120X10.17Z-0.014
N18125X9.709Z0.
N18130G18G3Z0.929I0.K0.465
N18135G1X39.709Z0.
N18140X40.17Z-0.014
N18145X40.693Z-0.062
N18150X41.38Z-0.169
N18155X41.964Z-0.292
N18160X43.453Z-0.643
N18165X44.166Z-0.793
N18170X44.718Z-0.883
N18175X45.2Z-0.942
N18180X45.69Z-0.981
N18185X46.335Z-1.002
N18190X57.468Z-1.006
N18195X58.793Z-1.
N18200X59.306Z-0.981
N18205X59.811Z-0.941
N18210X60.39Z-0.868
N18215X60.886Z-0.782
N18220X61.573Z-0.637
N18225X62.458Z-0.426
N18230X63.262Z-0.242
N18235X63.726Z-0.15
N18240X64.31Z-0.062
N18245X64.781Z-0.017
N18250X65.291Z0.
N18255X65.353Z0.009
N18260X65.412Z0.03
N18265X65.477Z0.053
N18270X65.544Z0.061
N18275X66.254
N18280G17G3Y27.507I0.J0.75
N18285G1X66.186Z0.053
N18290X66.122Z0.03
N18295X66.063Z0.009
N18300X66.Z0.
N18305X65.613Z-0.014
N18310X65.141Z-0.067
N18315X64.677Z-0.159
N18320X64.22Z-0.288
N18325X63.719Z-0.473
N18330X63.232Z-0.696
N18335X62.811Z-0.921
N18340X62.581Z-1.055
N18345X62.028Z-1.4
N18350X61.128Z-1.983
N18355X60.688Z-2.238
N18360X60.383Z-2.391
N18365X60.143Z-2.498
N18370X59.743Z-2.643
N18375X59.394Z-2.735
N18380X59.071Z-2.791
N18385X58.877Z-2.815
N18390X58.354Z-2.844
N18395X46.55Z-2.841
N18400X46.197Z-2.822
N18405X45.812Z-2.774
N18410X45.41Z-2.687
N18415X45.126Z-2.601
N18420X44.85Z-2.495
N18425X44.598Z-2.383
N18430X44.341Z-2.253
N18435X44.029Z-2.074
N18440X43.545Z-1.778
N18445X42.523Z-1.119
N18450X42.05Z-0.845
N18455X41.673Z-0.652
N18460X41.251Z-0.461
N18465X40.761Z-0.282
N18470X40.257Z-0.144
N18475X39.742Z-0.051
N18480X39.351Z-0.012
N18485X39.Z0.
N18490X38.92Z0.013
N18495X38.847Z0.047
N18500X38.765Z0.084
N18505X38.675Z0.095
N18510X36.Z0.
N18515X35.613Z-0.014
N18520X35.141Z-0.067
N18525X34.677Z-0.159
N18530X34.22Z-0.288
N18535X33.719Z-0.473
N18540X33.232Z-0.696
N18545X32.811Z-0.921
N18550X32.581Z-1.055
N18555X32.028Z-1.4
N18560X31.128Z-1.983
N18565X30.688Z-2.238
N18570X30.383Z-2.391
N18575X30.143Z-2.498
N18580X29.743Z-2.643
N18585X29.394Z-2.735
N18590X29.071Z-2.791
N18595X28.877Z-2.815
N18600X28.354Z-2.844
N18605X16.55Z-2.841
N18610X16.197Z-2.822
N18615X15.812Z-2.774
N18620X15.41Z-2.687
N18625X15.126Z-2.601
N18630X14.85Z-2.495
N18635X14.598Z-2.383
N18640X14.341Z-2.253
N18645X14.029Z-2.074
N18650X13.545Z-1.778
N18655X12.523Z-1.119
N18660X12.05Z-0.845
N18665X11.673Z-0.652
N18670X11.251Z-0.461
N18675X10.761Z-0.282
N18680X10.257Z-0.144
N18685X9.742Z-0.051
N18690X9.351Z-0.012
N18695X9.Z0.
N18700X8.937Z0.009
N18705X8.878Z0.03
N18710X8.813Z0.053
N18715X8.746Z0.061
N18720X8.528
N18725G2Y29.007I0.J0.75
N18730G1X8.596Z0.053
N18735X8.66Z0.03
N18740X8.718Z0.009
N18745X8.78Z0.
N18750X9.062Z-0.012
N18755X9.478Z-0.049
N18760X10.031Z-0.159
N18765X10.312Z-0.243
N18770X10.72Z-0.392
N18775X11.148Z-0.599
N18780X11.455Z-0.778
N18785X11.839Z-1.045
N18790X12.155Z-1.314
N18795X12.419Z-1.572
N18800X12.75Z-1.96
N18805X12.985Z-2.299
N18810X13.431Z-3.027
N18815X13.71Z-3.441
N18820X14.096Z-3.955
N18825X14.422Z-4.343
N18830X14.835Z-4.787
N18835X15.195Z-5.134
N18840X15.656Z-5.538
N18845X16.054Z-5.849
N18850X16.572Z-6.215
N18855X16.773Z-6.341
N18860X17.204Z-6.599
N18865X17.648Z-6.838
N18870X17.982Z-6.998
N18875X18.563Z-7.248
N18880X18.811Z-7.34
N18885X19.285Z-7.501
N18890X19.767Z-7.641
N18895X20.255Z-7.759
N18900X20.745Z-7.85
N18905X21.213Z-7.915
N18910X21.845Z-7.974
N18915X22.5Z-7.996
N18920X23.071Z-7.98
N18925X23.595Z-7.939
N18930X23.829Z-7.91
N18935X24.348Z-7.833
N18940X24.862Z-7.731
N18945X25.369Z-7.605
N18950X25.869Z-7.454
N18955X26.364Z-7.277
N18960X26.606Z-7.177
N18965X27.062Z-6.978
N18970X27.529Z-6.745
N18975X27.983Z-6.492
N18980X28.423Z-6.219
N18985X28.854Z-5.919
N18990X29.249Z-5.614
N18995X29.816Z-5.124
N19000X30.185Z-4.766
N19005X30.526Z-4.402
N19010X30.678Z-4.224
N19015X31.006Z-3.822
N19020X31.312Z-3.408
N19025X31.596Z-2.985
N19030X31.885Z-2.507
N19035X32.113Z-2.15
N19040X32.335Z-1.853
N19045X32.657Z-1.491
N19050X32.976Z-1.197
N19055X33.248Z-0.98
N19060X33.594Z-0.746
N19065X33.848Z-0.601
N19070X34.284Z-0.39
N19075X34.674Z-0.248
N19080X35.017Z-0.148
N19085X35.481Z-0.055
N19090X35.717Z-0.027
N19095X36.22Z0.
N19100X69.Y27.507
N19105X69.351Z-0.012
N19110X69.742Z-0.051
N19115X70.257Z-0.144
N19120X70.761Z-0.282
N19125X71.251Z-0.461
N19130X71.673Z-0.652
N19135X72.05Z-0.845
N19140X72.523Z-1.119
N19145X73.545Z-1.778
N19150X74.029Z-2.074
N19155X74.341Z-2.253
N19160X74.598Z-2.383
N19165X74.85Z-2.495
N19170X75.126Z-2.601
N19175X75.41Z-2.687
N19180X75.812Z-2.774
N19185X76.197Z-2.822
N19190X76.55Z-2.841
N19195X88.354Z-2.844
N19200X88.877Z-2.815
N19205X89.071Z-2.791
N19210X89.394Z-2.735
N19215X89.743Z-2.643
N19220X90.143Z-2.498
N19225X90.383Z-2.391
N19230X90.688Z-2.238
N19235X91.128Z-1.983
N19240X92.028Z-1.4
N19245X92.581Z-1.055
N19250X92.811Z-0.921
N19255X93.232Z-0.696
N19260X93.719Z-0.473
N19265X94.22Z-0.288
N19270X94.677Z-0.159
N19275X95.141Z-0.067
N19280X95.613Z-0.014
N19285X96.Z0.
N19290X96.063Z0.009
N19295X96.122Z0.03
N19300X96.186Z0.053
N19305X96.254Z0.061
N19310X96.469
N19315G3Y29.007I0.J0.75
N19320G1X96.401Z0.053
N19325X96.337Z0.03
N19330X96.336
N19335X96.28Z0.009
N19340X96.22Z0.
N19345X95.717Z-0.027
N19350X95.481Z-0.055
N19355X95.017Z-0.148
N19360X94.674Z-0.248
N19365X94.284Z-0.39
N19370X93.848Z-0.601
N19375X93.594Z-0.746
N19380X93.248Z-0.98
N19385X92.976Z-1.197
N19390X92.657Z-1.491
N19395X92.335Z-1.853
N19400X92.113Z-2.15
N19405X91.885Z-2.507
N19410X91.596Z-2.985
N19415X91.312Z-3.408
N19420X91.006Z-3.822
N19425X90.678Z-4.224
N19430X90.526Z-4.402
N19435X90.185Z-4.766
N19440X89.816Z-5.124
N19445X89.249Z-5.614
N19450X88.854Z-5.919
N19455X88.423Z-6.219
N19460X87.983Z-6.492
N19465X87.529Z-6.745
N19470X87.062Z-6.978
N19475X86.606Z-7.177
N19480X86.364Z-7.277
N19485X85.869Z-7.454
N19490X85.369Z-7.605
N19495X84.862Z-7.731
N19500X84.348Z-7.833
N19505X83.829Z-7.91
N19510X83.595Z-7.939
N19515X83.071Z-7.98
N19520X82.5Z-7.996
N19525X81.845Z-7.974
N19530X81.213Z-7.915
N19535X80.745Z-7.85
N19540X80.255Z-7.759
N19545X79.767Z-7.641
N19550X79.285Z-7.501
N19555X78.811Z-7.34
N19560X78.563Z-7.248
N19565X77.982Z-6.998
N19570X77.648Z-6.838
N19575X77.204Z-6.599
N19580X76.773Z-6.341
N19585X76.572Z-6.215
N19590X76.054Z-5.849
N19595X75.656Z-5.538
N19600X75.195Z-5.134
N19605X74.835Z-4.787
N19610X74.422Z-4.343
N19615X74.096Z-3.955
N19620X73.71Z-3.441
N19625X73.431Z-3.027
N19630X72.985Z-2.299
N19635X72.75Z-1.96
N19640X72.419Z-1.572
N19645X72.155Z-1.314
N19650X71.839Z-1.045
N19655X71.455Z-0.778
N19660X71.148Z-0.599
N19665X70.72Z-0.392
N19670X70.312Z-0.243
N19675X70.031Z-0.159
N19680X69.478Z-0.049
N19685X69.062Z-0.012
N19690X68.78Z0.
N19695X68.692Z0.017
N19700X68.613Z0.059
N19705X68.521Z0.105
N19710X68.418Z0.118
N19715X66.22Z0.
N19720X65.717Z-0.027
N19725X65.481Z-0.055
N19730X65.017Z-0.148
N19735X64.674Z-0.248
N19740X64.284Z-0.39
N19745X63.848Z-0.601
N19750X63.594Z-0.746
N19755X63.248Z-0.98
N19760X62.976Z-1.197
N19765X62.657Z-1.491
N19770X62.335Z-1.853
N19775X62.113Z-2.15
N19780X61.885Z-2.507
N19785X61.596Z-2.985
N19790X61.312Z-3.408
N19795X61.006Z-3.822
N19800X60.678Z-4.224
N19805X60.526Z-4.402
N19810X60.185Z-4.766
N19815X59.816Z-5.124
N19820X59.249Z-5.614
N19825X58.854Z-5.919
N19830X58.423Z-6.219
N19835X57.983Z-6.492
N19840X57.529Z-6.745
N19845X57.062Z-6.978
N19850X56.606Z-7.177
N19855X56.364Z-7.277
N19860X55.869Z-7.454
N19865X55.369Z-7.605
N19870X54.862Z-7.731
N19875X54.348Z-7.833
N19880X53.829Z-7.91
N19885X53.595Z-7.939
N19890X53.071Z-7.98
N19895X52.5Z-7.996
N19900X51.845Z-7.974
N19905X51.213Z-7.915
N19910X50.745Z-7.85
N19915X50.255Z-7.759
N19920X49.767Z-7.641
N19925X49.285Z-7.501
N19930X48.811Z-7.34
N19935X48.563Z-7.248
N19940X47.982Z-6.998
N19945X47.648Z-6.838
N19950X47.204Z-6.599
N19955X46.773Z-6.341
N19960X46.572Z-6.215
N19965X46.054Z-5.849
N19970X45.656Z-5.538
N19975X45.195Z-5.134
N19980X44.835Z-4.787
N19985X44.422Z-4.343
N19990X44.096Z-3.955
N19995X43.71Z-3.441
N20000X43.431Z-3.027
N20005X42.985Z-2.299
N20010X42.75Z-1.96
N20015X42.419Z-1.572
N20020X42.155Z-1.314
N20025X41.839Z-1.045
N20030X41.455Z-0.778
N20035X41.148Z-0.599
N20040X40.72Z-0.392
N20045X40.312Z-0.243
N20050X40.031Z-0.159
N20055X39.478Z-0.049
N20060X39.062Z-0.012
N20065X38.78Z0.
N20070X38.718Z0.009
N20075X38.66Z0.03
N20080X38.596Z0.053
N20085X38.528Z0.061
N20090G2Y30.507I0.J0.75
N20095G1X38.531
N20100X38.598Z0.053
N20105X38.663Z0.03
N20110X38.72Z0.009
N20115X38.78Z0.
N20120X39.214Z-0.022
N20125X39.474Z-0.048
N20130X39.732Z-0.096
N20135X40.114Z-0.181
N20140X40.362Z-0.262
N20145X40.727Z-0.395
N20150X41.137Z-0.593
N20155X41.416Z-0.753
N20160X41.84Z-1.046
N20165X42.184Z-1.342
N20170X42.409Z-1.562
N20175X42.665Z-1.856
N20180X42.854Z-2.104
N20185X43.098Z-2.48
N20190X43.428Z-3.029
N20195X43.713Z-3.451
N20200X44.02Z-3.861
N20205X44.426Z-4.352
N20210X44.767Z-4.719
N20215X45.226Z-5.168
N20220X45.608Z-5.501
N20225X46.106Z-5.893
N20230X46.516Z-6.18
N20235X46.94Z-6.448
N20240X47.496Z-6.763
N20245X48.064Z-7.042
N20250X48.306Z-7.145
N20255X48.772Z-7.329
N20260X49.246Z-7.493
N20265X49.728Z-7.635
N20270X50.213Z-7.752
N20275X50.471Z-7.802
N20280X50.964Z-7.886
N20285X51.46Z-7.946
N20290X51.829Z-7.976
N20295X52.425Z-7.997
N20300X53.149Z-7.978
N20305X53.671Z-7.934
N20310X54.193Z-7.865
N20315X54.709Z-7.769
N20320X54.965Z-7.709
N20325X55.472Z-7.577
N20330X55.972Z-7.421
N20335X56.462Z-7.241
N20340X56.941Z-7.039
N20345X57.415Z-6.811
N20350X57.876Z-6.559
N20355X58.1Z-6.424
N20360X58.539Z-6.142
N20365X58.963Z-5.84
N20370X59.369Z-5.52
N20375X59.758Z-5.184
N20380X60.137Z-4.82
N20385X60.317Z-4.63
N20390X60.666Z-4.243
N20395X60.994Z-3.843
N20400X61.299Z-3.432
N20405X61.582Z-3.013
N20410X61.893Z-2.495
N20415X62.149Z-2.1
N20420X62.335Z-1.856
N20425X62.657Z-1.493
N20430X62.919Z-1.251
N20435X63.2Z-1.016
N20440X63.518Z-0.797
N20445X63.802Z-0.625
N20450X64.229Z-0.414
N20455X64.45Z-0.326
N20460X64.902Z-0.177
N20465X65.379Z-0.074
N20470X65.717Z-0.027
N20475X66.22Z0.
N20480G18G2X66.134Z1.607I-0.043K0.803
N20485G1X36.22Z0.
N20490X35.717Z-0.027
N20495X35.379Z-0.074
N20500X34.902Z-0.177
N20505X34.45Z-0.326
N20510X34.229Z-0.414
N20515X33.802Z-0.625
N20520X33.518Z-0.797
N20525X33.2Z-1.016
N20530X32.919Z-1.251
N20535X32.657Z-1.493
N20540X32.335Z-1.856
N20545X32.149Z-2.1
N20550X31.893Z-2.495
N20555X31.582Z-3.013
N20560X31.299Z-3.432
N20565X30.994Z-3.843
N20570X30.666Z-4.243
N20575X30.317Z-4.63
N20580X30.137Z-4.82
N20585X29.758Z-5.184
N20590X29.369Z-5.52
N20595X28.963Z-5.84
N20600X28.539Z-6.142
N20605X28.1Z-6.424
N20610X27.876Z-6.559
N20615X27.415Z-6.811
N20620X26.941Z-7.039
N20625X26.462Z-7.241
N20630X25.972Z-7.421
N20635X25.472Z-7.577
N20640X24.965Z-7.709
N20645X24.709Z-7.769
N20650X24.193Z-7.865
N20655X23.671Z-7.934
N20660X23.149Z-7.978
N20665X22.425Z-7.997
N20670X21.829Z-7.976
N20675X21.46Z-7.946
N20680X20.964Z-7.886
N20685X20.471Z-7.802
N20690X20.213Z-7.752
N20695X19.728Z-7.635
N20700X19.246Z-7.493
N20705X18.772Z-7.329
N20710X18.306Z-7.145
N20715X18.064Z-7.042
N20720X17.496Z-6.763
N20725X16.94Z-6.448
N20730X16.516Z-6.18
N20735X16.106Z-5.893
N20740X15.608Z-5.501
N20745X15.226Z-5.168
N20750X14.767Z-4.719
N20755X14.426Z-4.352
N20760X14.02Z-3.861
N20765X13.713Z-3.451
N20770X13.428Z-3.029
N20775X13.098Z-2.48
N20780X12.854Z-2.104
N20785X12.665Z-1.856
N20790X12.409Z-1.562
N20795X12.184Z-1.342
N20800X11.84Z-1.046
N20805X11.416Z-0.753
N20810X11.137Z-0.593
N20815X10.727Z-0.395
N20820X10.362Z-0.262
N20825X10.114Z-0.181
N20830X9.732Z-0.096
N20835X9.474Z-0.048
N20840X9.214Z-0.022
N20845X8.78Z0.
N20850X8.72Z0.009
N20855X8.663Z0.03
N20860X8.599Z0.053
N20865X8.531Z0.061
N20870G17G2Y32.006I0.J0.75
N20875G1X8.599Z0.053
N20880X8.663Z0.03
N20885X8.72Z0.009
N20890X8.78Z0.
N20895X9.214Z-0.022
N20900X9.474Z-0.048
N20905X9.732Z-0.096
N20910X10.114Z-0.181
N20915X10.362Z-0.262
N20920X10.727Z-0.395
N20925X11.137Z-0.593
N20930X11.416Z-0.753
N20935X11.84Z-1.046
N20940X12.184Z-1.342
N20945X12.409Z-1.562
N20950X12.665Z-1.856
N20955X12.854Z-2.104
N20960X13.098Z-2.48
N20965X13.428Z-3.029
N20970X13.713Z-3.451
N20975X14.02Z-3.861
N20980X14.426Z-4.352
N20985X14.767Z-4.719
N20990X15.226Z-5.168
N20995X15.608Z-5.501
N21000X16.106Z-5.893
N21005X16.516Z-6.18
N21010X16.94Z-6.448
N21015X17.496Z-6.763
N21020X18.064Z-7.042
N21025X18.306Z-7.145
N21030X18.772Z-7.329
N21035X19.246Z-7.493
N21040X19.728Z-7.635
N21045X20.213Z-7.752
N21050X20.471Z-7.802
N21055X20.964Z-7.886
N21060X21.46Z-7.946
N21065X21.829Z-7.976
N21070X22.425Z-7.997
N21075X23.149Z-7.978
N21080X23.671Z-7.934
N21085X24.193Z-7.865
N21090X24.709Z-7.769
N21095X24.965Z-7.709
N21100X25.472Z-7.577
N21105X25.972Z-7.421
N21110X26.462Z-7.241
N21115X26.941Z-7.039
N21120X27.415Z-6.811
N21125X27.876Z-6.559
N21130X28.1Z-6.424
N21135X28.539Z-6.142
N21140X28.963Z-5.84
N21145X29.369Z-5.52
N21150X29.758Z-5.184
N21155X30.137Z-4.82
N21160X30.317Z-4.63
N21165X30.666Z-4.243
N21170X30.994Z-3.843
N21175X31.299Z-3.432
N21180X31.582Z-3.013
N21185X31.893Z-2.495
N21190X32.149Z-2.1
N21195X32.335Z-1.856
N21200X32.657Z-1.493
N21205X32.919Z-1.251
N21210X33.2Z-1.016
N21215X33.518Z-0.797
N21220X33.802Z-0.625
N21225X34.229Z-0.414
N21230X34.45Z-0.326
N21235X34.902Z-0.177
N21240X35.379Z-0.074
N21245X35.717Z-0.027
N21250X36.22Z0.
N21255G18G2X36.788Z0.599I-0.032K0.599
N21260G0Z8.
N21265X98.205Y29.007
N21270Z2.
N21275G1Z0.599F3680.
N21280G2X98.78Z0.I0.6K0.
N21285G1X99.062Z-0.012
N21290X99.478Z-0.049
N21295X100.031Z-0.159
N21300X100.312Z-0.243
N21305X100.72Z-0.392
N21310X101.148Z-0.599
N21315X101.455Z-0.778
N21320X101.839Z-1.045
N21325X102.155Z-1.314
N21330X102.419Z-1.572
N21335X102.75Z-1.96
N21340X102.985Z-2.299
N21345X103.431Z-3.027
N21350X103.71Z-3.441
N21355X104.096Z-3.955
N21360X104.422Z-4.343
N21365X104.835Z-4.787
N21370X105.195Z-5.134
N21375X105.656Z-5.538
N21380X106.054Z-5.849
N21385X106.572Z-6.215
N21390X106.773Z-6.341
N21395X107.204Z-6.599
N21400X107.648Z-6.838
N21405X107.982Z-6.998
N21410X108.563Z-7.248
N21415X108.811Z-7.34
N21420X109.285Z-7.501
N21425X109.767Z-7.641
N21430X110.255Z-7.759
N21435X110.745Z-7.85
N21440X111.213Z-7.915
N21445X111.845Z-7.974
N21450X112.5Z-7.996
N21455X113.07Z-7.98
N21460X113.595Z-7.939
N21465X113.829Z-7.91
N21470X114.348Z-7.833
N21475X114.862Z-7.731
N21480X115.369Z-7.605
N21485X115.868Z-7.454
N21490X116.364Z-7.278
N21495X116.606Z-7.178
N21500X117.061Z-6.978
N21505X117.529Z-6.746
N21510X117.983Z-6.492
N21515X118.422Z-6.219
N21520X118.854Z-5.919
N21525X119.248Z-5.614
N21530X119.816Z-5.124
N21535X120.185Z-4.766
N21540X120.526Z-4.402
N21545X120.678Z-4.224
N21550X121.006Z-3.822
N21555X121.311Z-3.408
N21560X121.595Z-2.985
N21565X121.885Z-2.507
N21570X122.112Z-2.151
N21575X122.334Z-1.855
N21580X122.657Z-1.492
N21585X122.976Z-1.198
N21590X123.248Z-0.98
N21595X123.594Z-0.746
N21600X123.846Z-0.601
N21605X124.283Z-0.39
N21610X124.674Z-0.248
N21615X125.016Z-0.148
N21620X125.481Z-0.055
N21625X125.716Z-0.027
N21630X126.22Z0.
N21635X126.28Z0.009
N21640X126.336Z0.03
N21645X126.4Z0.053
N21650X126.468Z0.061
N21655G17G3Y30.507I0.J0.75
N21660G1X126.4Z0.053
N21665X126.336Z0.03
N21670X126.279Z0.009
N21675X126.22Z0.
N21680X125.716Z-0.027
N21685X125.379Z-0.074
N21690X124.901Z-0.177
N21695X124.45Z-0.326
N21700X124.229Z-0.414
N21705X123.802Z-0.625
N21710X123.518Z-0.797
N21715X123.199Z-1.016
N21720X122.919Z-1.251
N21725X122.656Z-1.493
N21730X122.335Z-1.856
N21735X122.149Z-2.1
N21740X121.893Z-2.495
N21745X121.582Z-3.013
N21750X121.299Z-3.433
N21755X120.993Z-3.844
N21760X120.666Z-4.244
N21765X120.317Z-4.63
N21770X120.137Z-4.82
N21775X119.758Z-5.184
N21780X119.369Z-5.52
N21785X118.963Z-5.84
N21790X118.539Z-6.142
N21795X118.099Z-6.424
N21800X117.876Z-6.559
N21805X117.415Z-6.811
N21810X116.941Z-7.039
N21815X116.462Z-7.241
N21820X115.972Z-7.421
N21825X115.472Z-7.577
N21830X114.965Z-7.709
N21835X114.709Z-7.769
N21840X114.192Z-7.865
N21845X113.671Z-7.934
N21850X113.148Z-7.978
N21855X112.425Z-7.997
N21860X111.829Z-7.976
N21865X111.46Z-7.946
N21870X110.964Z-7.886
N21875X110.471Z-7.802
N21880X110.213Z-7.752
N21885X109.728Z-7.635
N21890X109.246Z-7.493
N21895X108.772Z-7.329
N21900X108.306Z-7.145
N21905X108.064Z-7.042
N21910X107.496Z-6.763
N21915X106.94Z-6.448
N21920X106.516Z-6.18
N21925X106.106Z-5.893
N21930X105.608Z-5.501
N21935X105.226Z-5.168
N21940X104.767Z-4.719
N21945X104.426Z-4.352
N21950X104.02Z-3.861
N21955X103.713Z-3.451
N21960X103.428Z-3.029
N21965X103.098Z-2.48
N21970X102.854Z-2.104
N21975X102.665Z-1.856
N21980X102.409Z-1.562
N21985X102.184Z-1.342
N21990X101.84Z-1.046
N21995X101.416Z-0.753
N22000X101.137Z-0.593
N22005X100.727Z-0.395
N22010X100.362Z-0.262
N22015X100.114Z-0.181
N22020X99.732Z-0.096
N22025X99.474Z-0.048
N22030X99.214Z-0.022
N22035X98.78Z0.
N22040X98.693Z0.017
N22045X98.616Z0.059
N22050X98.523Z0.106
N22055X98.42Z0.118
N22060X96.22Z0.
N22065X95.717Z-0.027
N22070X95.379Z-0.074
N22075X94.902Z-0.177
N22080X94.45Z-0.326
N22085X94.229Z-0.414
N22090X93.802Z-0.625
N22095X93.518Z-0.797
N22100X93.2Z-1.016
N22105X92.919Z-1.251
N22110X92.657Z-1.493
N22115X92.335Z-1.856
N22120X92.149Z-2.1
N22125X91.893Z-2.495
N22130X91.582Z-3.013
N22135X91.299Z-3.432
N22140X90.994Z-3.843
N22145X90.666Z-4.243
N22150X90.317Z-4.63
N22155X90.137Z-4.82
N22160X89.758Z-5.184
N22165X89.369Z-5.52
N22170X88.963Z-5.84
N22175X88.539Z-6.142
N22180X88.1Z-6.424
N22185X87.876Z-6.559
N22190X87.415Z-6.811
N22195X86.941Z-7.039
N22200X86.462Z-7.241
N22205X85.972Z-7.421
N22210X85.472Z-7.577
N22215X84.965Z-7.709
N22220X84.709Z-7.769
N22225X84.193Z-7.865
N22230X83.671Z-7.934
N22235X83.149Z-7.978
N22240X82.425Z-7.997
N22245X81.829Z-7.976
N22250X81.46Z-7.946
N22255X80.964Z-7.886
N22260X80.471Z-7.802
N22265X80.213Z-7.752
N22270X79.728Z-7.635
N22275X79.246Z-7.493
N22280X78.772Z-7.329
N22285X78.306Z-7.145
N22290X78.064Z-7.042
N22295X77.496Z-6.763
N22300X76.94Z-6.448
N22305X76.516Z-6.18
N22310X76.106Z-5.893
N22315X75.608Z-5.501
N22320X75.226Z-5.168
N22325X74.767Z-4.719
N22330X74.426Z-4.352
N22335X74.02Z-3.861
N22340X73.713Z-3.451
N22345X73.428Z-3.029
N22350X73.098Z-2.48
N22355X72.854Z-2.104
N22360X72.665Z-1.856
N22365X72.409Z-1.562
N22370X72.184Z-1.342
N22375X71.84Z-1.046
N22380X71.416Z-0.753
N22385X71.137Z-0.593
N22390X70.727Z-0.395
N22395X70.362Z-0.262
N22400X70.114Z-0.181
N22405X69.732Z-0.096
N22410X69.474Z-0.048
N22415X69.214Z-0.022
N22420X68.78Z0.
N22425X68.72Z0.009
N22430X68.663Z0.03
N22435X68.599Z0.053
N22440X68.531Z0.061
N22445G2Y32.006I0.J0.75
N22450G1X68.599Z0.053
N22455X68.663Z0.03
N22460X68.72Z0.009
N22465X68.78Z0.
N22470X69.214Z-0.022
N22475X69.474Z-0.048
N22480X69.732Z-0.096
N22485X70.114Z-0.181
N22490X70.362Z-0.262
N22495X70.727Z-0.395
N22500X71.137Z-0.593
N22505X71.416Z-0.753
N22510X71.84Z-1.046
N22515X72.184Z-1.342
N22520X72.409Z-1.562
N22525X72.665Z-1.856
N22530X72.854Z-2.104
N22535X73.098Z-2.48
N22540X73.428Z-3.029
N22545X73.713Z-3.451
N22550X74.02Z-3.861
N22555X74.426Z-4.352
N22560X74.767Z-4.719
N22565X75.226Z-5.168
N22570X75.608Z-5.501
N22575X76.106Z-5.893
N22580X76.516Z-6.18
N22585X76.94Z-6.448
N22590X77.496Z-6.763
N22595X78.064Z-7.042
N22600X78.306Z-7.145
N22605X78.772Z-7.329
N22610X79.246Z-7.493
N22615X79.728Z-7.635
N22620X80.213Z-7.752
N22625X80.471Z-7.802
N22630X80.964Z-7.886
N22635X81.46Z-7.946
N22640X81.829Z-7.976
N22645X82.425Z-7.997
N22650X83.149Z-7.978
N22655X83.671Z-7.934
N22660X84.193Z-7.865
N22665X84.709Z-7.769
N22670X84.965Z-7.709
N22675X85.472Z-7.577
N22680X85.972Z-7.421
N22685X86.462Z-7.241
N22690X86.941Z-7.039
N22695X87.415Z-6.811
N22700X87.876Z-6.559
N22705X88.1Z-6.424
N22710X88.539Z-6.142
N22715X88.963Z-5.84
N22720X89.369Z-5.52
