(1001)
(T1  D=6. CR=0. TAPER=45DEG - ZMIN=-2.5 - CHAMFER MILL)
(T8  D=6. CR=3. - ZMIN=-7.997 - BALL END MILL)
(T9  D=4. CR=0. - ZMIN=-15. - FLAT END MILL)
N10G90G94G17G91.1
N15G21
N20G53G0Z0.
(2D CHAMFER2)
N85830M1
N85835T1M6
N85840T8
N85845S20000M3
N85850G54
N85855G0X211.35Y175.
N85860G43Z18.H1
N85865G0Z8.
N85870G1Z6.F1066.67
N85875Z-2.5
N85880X211.95F3200.
N85885G3X193.05I-9.45J0.
N85890X211.95I9.45J0.
N85895G1X211.35
N85900G0Z8.
N85905X241.35
N85910G1Z6.F1066.67
N85915Z-2.5
N85920X241.95F3200.
N85925G3X223.05I-9.45J0.
N85930X241.95I9.45J0.
N85935G1X241.35
N85940G0Z8.
N85945X271.35
N85950G1Z6.F1066.67
N85955Z-2.5
N85960X271.95F3200.
N85965G3X253.05I-9.45J0.
N85970X271.95I9.45J0.
N85975G1X271.35
N85980G0Z8.
N85985X301.35
N85990G1Z6.F1066.67
N85995Z-2.5
N86000X301.95F3200.
N86005G3X283.05I-9.45J0.
N86010X301.95I9.45J0.
N86015G1X301.35
N86020G0Z8.
N86025X331.35
N86030G1Z6.F1066.67
N86035Z-2.5
N86040X331.95F3200.
N86045G3X313.05I-9.45J0.
N86050X331.95I9.45J0.
N86055G1X331.35
N86060G0Z8.
N86065X361.35
N86070G1Z6.F1066.67
N86075Z-2.5
N86080X361.95F3200.
N86085G3X343.05I-9.45J0.
N86090X361.95I9.45J0.
N86095G1X361.35
N86100G0Z8.
N86105X10.Y196.65
N86110G1Z6.F1066.67
N86115Z-2.5
N86120Y196.05F3200.
N86125X370.
N86130G2X381.05Y185.I0.J-11.05
N86135G1Y10.
N86140G2X370.Y-1.05I-11.05J0.
N86145G1X10.
N86150G2X-1.05Y10.I0.J11.05
N86155G1Y185.
N86160G2X10.Y196.05I11.05J0.
N86165G1Y196.65
N86170G0Z8.
N86175X31.344Y175.323
N86180G1Z6.F1066.67
N86185Z-2.5
N86190X31.944Y175.345F3200.
N86195G3X13.056Y174.655I-9.444J-0.345
N86200X31.944Y175.345I9.444J0.345
N86205G1X31.344Y175.323
N86210G0Z8.
N86215X61.344
N86220G1Z6.F1066.67
N86225Z-2.5
N86230X61.944Y175.345F3200.
N86235G3X43.056Y174.655I-9.444J-0.345
N86240X61.944Y175.345I9.444J0.345
N86245G1X61.344Y175.323
N86250G0Z8.
N86255X91.35Y175.
N86260G1Z6.F1066.67
N86265Z-2.5
N86270X91.95F3200.
N86275G3X73.05I-9.45J0.
N86280X91.95I9.45J0.
N86285G1X91.35
N86290G0Z8.
N86295X121.344Y175.323
N86300G1Z6.F1066.67
N86305Z-2.5
N86310X121.944Y175.345F3200.
N86315G3X103.056Y174.655I-9.444J-0.345
N86320X121.944Y175.345I9.444J0.345
N86325G1X121.344Y175.323
N86330G0Z8.
N86335X151.35Y175.
N86340G1Z6.F1066.67
N86345Z-2.5
N86350X151.95F3200.
N86355G3X133.05I-9.45J0.
N86360X151.95I9.45J0.
N86365G1X151.35
N86370G0Z8.
N86375X181.344Y175.323
N86380G1Z6.F1066.67
N86385Z-2.5
N86390X181.944Y175.345F3200.
N86395G3X163.056Y174.655I-9.444J-0.345
N86400X181.944Y175.345I9.444J0.345
N86405G1X181.344Y175.323
N86410G0Z18.
N86415M5
N86420G53Z0.
(PARALLEL1)
N86425M1
N86430T8M6
N86435T9
N86440S23000M3
N86445G54
N86450G0X359.352Y23.007
N86455G43Z18.H8
N86460G0Z2.
N86465G1Z0.6F3680.
N86470G18G3X358.752Z0.I-0.6K0.
N86475G1X346.247
N86480X346.179Z0.008
N86485X346.115Z0.031
N86490X346.05Z0.053
N86495X345.983Z0.061
N86500X340.907
N86505G17G2Y24.507I0.J0.75
N86510G1X340.975Z0.053
N86515X341.039Z0.031
N86520X341.101Z0.008
N86525X341.166Z0.
N86530X341.661Z-0.009
N86535X342.32Z-0.039
N86540X343.709Z-0.132
N86545X344.918Z-0.201
N86550X346.077Z-0.234
N86555X358.953Z-0.233
N86560X360.136Z-0.199
N86565X361.423Z-0.123
N86570X362.92Z-0.025
N86575X363.834Z0.
N86580X363.892Y24.506Z0.003
N86585X363.949Y24.501Z0.007
N86590X364.006Y24.493Z0.014
N86595X364.063Y24.482Z0.022
N86600X364.118Y24.468Z0.033
N86605X364.172Y24.45Z0.045
N86610X364.224Y24.43Z0.059
N86615X364.275Y24.407Z0.075
N86620X364.324Y24.381Z0.093
N86625X364.37Y24.352Z0.112
N86630X364.415Y24.321Z0.133
N86635X364.457Y24.288Z0.155
N86640X364.496Y24.252Z0.179
N86645X364.532Y24.214Z0.204
N86650X364.565Y24.174Z0.23
N86655X364.595Y24.132Z0.257
N86660X364.621Y24.089Z0.285
N86665X364.644Y24.044Z0.314
N86670X364.664Y23.998Z0.343
N86675X364.68Y23.952Z0.373
N86680X364.693Y23.904Z0.404
N86685X364.701Y23.855Z0.434
N86690X364.706Y23.806Z0.465
N86695X364.707Y23.757Z0.496
N86700X364.704Y23.708Z0.527
N86705X364.698Y23.66Z0.558
N86710X364.688Y23.611Z0.588
N86715X364.674Y23.563Z0.618
N86720X364.656Y23.516Z0.647
N86725X364.635Y23.47Z0.675
N86730X364.61Y23.426Z0.703
N86735X364.582Y23.382Z0.729
N86740X364.551Y23.341Z0.755
N86745X364.516Y23.301Z0.779
N86750X364.479Y23.263Z0.802
N86755X364.439Y23.227Z0.823
N86760X364.396Y23.194Z0.843
N86765X364.35Y23.162Z0.862
N86770X364.303Y23.134Z0.878
N86775X364.253Y23.108Z0.893
N86780X364.201Y23.085Z0.906
N86785X364.148Y23.065Z0.918
N86790X364.094Y23.047Z0.927
N86795X364.038Y23.033Z0.935
N86800X363.981Y23.022Z0.94
N86805X363.924Y23.014Z0.944
N86810X363.866Y23.009Z0.945
N86815X363.808Y23.007
N86820X328.752Z0.
N86825X316.247
N86830X316.179Z0.008
N86835X316.115Z0.031
N86840X316.05Z0.053
N86845X315.983Z0.061
N86850X310.907
N86855G2Y24.507I0.J0.75
N86860G1X310.975Z0.053
N86865X311.039Z0.031
N86870X311.101Z0.008
N86875X311.166Z0.
N86880X311.661Z-0.009
N86885X312.32Z-0.039
N86890X313.709Z-0.132
N86895X314.918Z-0.201
N86900X316.077Z-0.234
N86905X328.953Z-0.233
N86910X330.136Z-0.199
N86915X331.423Z-0.123
N86920X332.92Z-0.025
N86925X333.834Z0.
N86930X339.709Y26.007
N86935X340.161Z-0.014
N86940X340.684Z-0.061
N86945X341.403Z-0.173
N86950X341.986Z-0.297
N86955X343.451Z-0.643
N86960X344.157Z-0.791
N86965X344.709Z-0.882
N86970X345.191Z-0.941
N86975X345.689Z-0.981
N86980X346.326Z-1.002
N86985X357.811Z-1.006
N86990X358.884Z-0.999
N86995X359.409Z-0.974
N87000X359.82Z-0.94
N87005X360.426Z-0.862
N87010X360.917Z-0.777
N87015X361.546Z-0.643
N87020X362.704Z-0.366
N87025X363.612Z-0.171
N87030X364.195Z-0.077
N87035X364.754Z-0.019
N87040X365.291Z0.
N87045G18G2X365.869Z0.6I-0.021K0.6
N87050G0Z8.
N87055X299.352Y23.007
N87060Z2.
N87065G1Z0.6F3680.
N87070G3X298.752Z0.I-0.6K0.
N87075G1X286.247
N87080X286.179Z0.008
N87085X286.115Z0.031
N87090X286.05Z0.053
N87095X285.983Z0.061
N87100X280.907
N87105G17G2Y24.507I0.J0.75
N87110G1X280.975Z0.053
N87115X281.039Z0.031
N87120X281.101Z0.008
N87125X281.166Z0.
N87130X281.661Z-0.009
N87135X282.32Z-0.039
N87140X283.709Z-0.132
N87145X284.918Z-0.201
N87150X286.077Z-0.234
N87155X298.953Z-0.233
N87160X300.136Z-0.199
N87165X301.423Z-0.123
N87170X302.92Z-0.025
N87175X303.834Z0.
N87180X309.709Y26.007
N87185X310.161Z-0.014
N87190X310.684Z-0.061
N87195X311.403Z-0.173
N87200X311.986Z-0.297
N87205X313.451Z-0.643
N87210X314.157Z-0.791
N87215X314.709Z-0.882
N87220X315.191Z-0.941
N87225X315.689Z-0.981
N87230X316.326Z-1.002
N87235X327.811Z-1.006
N87240X328.884Z-0.999
N87245X329.409Z-0.974
N87250X329.82Z-0.94
N87255X330.426Z-0.862
N87260X330.917Z-0.777
N87265X331.546Z-0.643
N87270X332.704Z-0.366
N87275X333.612Z-0.171
N87280X334.195Z-0.077
N87285X334.754Z-0.019
N87290X335.291Z0.
N87295X339.Y27.507
N87300X339.351Z-0.012
N87305X339.743Z-0.051
N87310X340.258Z-0.144
N87315X340.761Z-0.282
N87320X341.251Z-0.462
N87325X341.674Z-0.652
N87330X342.05Z-0.845
N87335X342.524Z-1.119
N87340X343.545Z-1.778
N87345X344.029Z-2.075
N87350X344.341Z-2.253
N87355X344.598Z-2.383
N87360X344.851Z-2.496
N87365X345.126Z-2.601
N87370X345.41Z-2.687
N87375X345.812Z-2.774
N87380X346.197Z-2.822
N87385X346.551Z-2.841
N87390X358.354Z-2.844
N87395X358.878Z-2.815
N87400X359.072Z-2.791
N87405X359.395Z-2.735
N87410X359.743Z-2.643
N87415X360.144Z-2.498
N87420X360.383Z-2.391
N87425X360.689Z-2.238
N87430X361.129Z-1.982
N87435X362.029Z-1.4
N87440X362.581Z-1.054
N87445X363.074Z-0.776
N87450X363.665Z-0.496
N87455X364.194Z-0.297
N87460X364.649Z-0.166
N87465X365.114Z-0.072
N87470X365.465Z-0.027
N87475X365.731Z-0.008
N87480X366.Z0.
N87485G18G2X366.583Z0.6I-0.017K0.6
N87490G0Z8.
N87495X269.352Y23.007
N87500Z2.
N87505G1Z0.6F3680.
N87510G3X268.752Z0.I-0.6K0.
N87515G1X256.247
N87520X256.179Z0.008
N87525X256.115Z0.031
N87530X256.05Z0.053
N87535X255.983Z0.061
N87540X250.907
N87545G17G2Y24.507I0.J0.75
N87550G1X250.975Z0.053
N87555X251.039Z0.031
N87560X251.101Z0.008
N87565X251.166Z0.
N87570X251.661Z-0.009
N87575X252.32Z-0.039
N87580X253.709Z-0.132
N87585X254.918Z-0.201
N87590X256.077Z-0.234
N87595X268.953Z-0.233
N87600X270.136Z-0.199
N87605X271.423Z-0.123
N87610X272.92Z-0.025
N87615X273.834Z0.
N87620X279.709Y26.007
N87625X280.217Z-0.017
N87630X280.739Z-0.068
N87635X281.387Z-0.17
N87640X281.971Z-0.294
N87645X283.456Z-0.644
N87650X284.179Z-0.795
N87655X284.658Z-0.875
N87660X285.141Z-0.936
N87665X285.59Z-0.974
N87670X286.275Z-1.002
N87675X297.811Z-1.006
N87680X298.884Z-0.999
N87685X299.409Z-0.974
N87690X299.82Z-0.94
N87695X300.426Z-0.862
N87700X300.917Z-0.777
N87705X301.546Z-0.643
N87710X302.704Z-0.366
N87715X303.612Z-0.171
N87720X304.195Z-0.077
N87725X304.754Z-0.019
N87730X305.291Z0.
N87735X309.Y27.507
N87740X309.351Z-0.012
N87745X309.743Z-0.051
N87750X310.258Z-0.144
N87755X310.761Z-0.282
N87760X311.251Z-0.462
N87765X311.674Z-0.652
N87770X312.05Z-0.845
N87775X312.524Z-1.119
N87780X313.545Z-1.778
N87785X314.029Z-2.075
N87790X314.341Z-2.253
N87795X314.598Z-2.383
N87800X314.851Z-2.496
N87805X315.126Z-2.601
N87810X315.41Z-2.687
N87815X315.812Z-2.774
N87820X316.197Z-2.822
N87825X316.551Z-2.841
N87830X328.354Z-2.844
N87835X328.878Z-2.815
N87840X329.072Z-2.791
N87845X329.395Z-2.735
N87850X329.743Z-2.643
N87855X330.144Z-2.498
N87860X330.383Z-2.391
N87865X330.689Z-2.238
N87870X331.129Z-1.982
N87875X332.029Z-1.4
N87880X332.581Z-1.054
N87885X333.074Z-0.776
N87890X333.665Z-0.496
N87895X334.194Z-0.297
N87900X334.649Z-0.166
N87905X335.114Z-0.072
N87910X335.465Z-0.027
N87915X335.731Z-0.008
N87920X336.Z0.
N87925X338.78Y29.007
N87930X339.315Z-0.03
N87935X339.638Z-0.077
N87940X340.085Z-0.173
N87945X340.458Z-0.293
N87950X340.761Z-0.41
N87955X341.227Z-0.64
N87960X341.502Z-0.808
N87965X341.871Z-1.07
N87970X342.257Z-1.408
N87975X342.521Z-1.685
N87980X342.764Z-1.979
N87985X342.946Z-2.239
N87990X343.426Z-3.02
N87995X343.706Z-3.434
N88000X344.091Z-3.95
N88005X344.418Z-4.337
N88010X344.764Z-4.711
N88015X345.199Z-5.138
N88020X345.68Z-5.559
N88025X346.079Z-5.868
N88030X346.574Z-6.216
N88035X346.775Z-6.342
N88040X347.206Z-6.6
N88045X347.65Z-6.839
N88050X347.984Z-7.
N88055X348.566Z-7.249
N88060X348.813Z-7.341
N88065X349.288Z-7.502
N88070X349.769Z-7.642
N88075X350.228Z-7.753
N88080X350.719Z-7.845
N88085X351.213Z-7.915
N88090X351.845Z-7.974
N88095X352.478Z-7.995
N88100X352.88Z-7.986
N88105X353.25Z-7.966
N88110X353.772Z-7.917
N88115X354.291Z-7.843
N88120X354.805Z-7.745
N88125X355.313Z-7.621
N88130X355.816Z-7.471
N88135X356.039Z-7.394
N88140X356.529Z-7.21
N88145X357.008Z-7.003
N88150X357.476Z-6.775
N88155X357.93Z-6.525
N88160X358.377Z-6.248
N88165X358.571Z-6.116
N88170X358.994Z-5.811
N88175X359.401Z-5.489
N88180X359.789Z-5.149
N88185X360.149Z-4.803
N88190X360.509Z-4.42
N88195X360.678Z-4.224
N88200X361.006Z-3.822
N88205X361.311Z-3.408
N88210X361.596Z-2.985
N88215X361.885Z-2.507
N88220X362.112Z-2.151
N88225X362.334Z-1.855
N88230X362.657Z-1.492
N88235X362.976Z-1.198
N88240X363.248Z-0.98
N88245X363.594Z-0.746
N88250X363.846Z-0.601
N88255X364.283Z-0.39
N88260X364.674Z-0.248
N88265X365.016Z-0.148
N88270X365.481Z-0.055
N88275X365.716Z-0.027
N88280X366.22Z0.
N88285G18G2X366.788Z0.599I-0.032K0.599
N88290G0Z8.
N88295X239.352Y23.007
N88300Z2.
N88305G1Z0.6F3680.
N88310G3X238.752Z0.I-0.6K0.
N88315G1X226.247
N88320X226.179Z0.008
N88325X226.115Z0.031
N88330X226.05Z0.053
N88335X225.983Z0.061
N88340X220.907
N88345G17G2Y24.507I0.J0.75
N88350G1X220.975Z0.053
N88355X221.039Z0.031
N88360X221.101Z0.008
N88365X221.166Z0.
N88370X221.661Z-0.009
N88375X222.32Z-0.039
N88380X223.71Z-0.132
N88385X224.918Z-0.201
N88390X226.077Z-0.234
N88395X238.947Z-0.233
N88400X240.136Z-0.199
N88405X241.423Z-0.123
N88410X242.92Z-0.025
N88415X243.834Z0.
N88420X249.709Y26.007
N88425X250.217Z-0.017
N88430X250.739Z-0.068
N88435X251.387Z-0.17
N88440X251.971Z-0.294
N88445X253.455Z-0.644
N88450X254.179Z-0.795
N88455X254.658Z-0.875
N88460X255.141Z-0.936
N88465X255.59Z-0.974
N88470X256.275Z-1.002
N88475X267.811Z-1.006
N88480X268.884Z-0.999
N88485X269.409Z-0.974
N88490X269.82Z-0.94
N88495X270.426Z-0.862
N88500X270.917Z-0.777
N88505X271.546Z-0.643
N88510X272.704Z-0.366
N88515X273.612Z-0.171
N88520X274.195Z-0.077
N88525X274.754Z-0.019
N88530X275.291Z0.
N88535X279.Y27.507
N88540X279.351Z-0.012
N88545X279.743Z-0.051
N88550X280.258Z-0.144
N88555X280.761Z-0.282
N88560X281.251Z-0.462
N88565X281.674Z-0.652
N88570X282.05Z-0.845
N88575X282.524Z-1.119
N88580X283.545Z-1.778
N88585X284.029Z-2.075
N88590X284.341Z-2.253
N88595X284.598Z-2.383
N88600X284.851Z-2.496
N88605X285.126Z-2.601
N88610X285.41Z-2.687
N88615X285.812Z-2.774
N88620X286.197Z-2.822
N88625X286.551Z-2.841
N88630X298.354Z-2.844
N88635X298.878Z-2.815
N88640X299.072Z-2.791
N88645X299.395Z-2.735
N88650X299.743Z-2.643
N88655X300.144Z-2.498
N88660X300.383Z-2.391
N88665X300.689Z-2.238
N88670X301.129Z-1.982
N88675X302.029Z-1.4
N88680X302.581Z-1.054
N88685X303.074Z-0.776
N88690X303.665Z-0.496
N88695X304.194Z-0.297
N88700X304.649Z-0.166
N88705X305.114Z-0.072
N88710X305.465Z-0.027
N88715X305.731Z-0.008
N88720X306.Z0.
N88725X308.78Y29.007
N88730X309.065Z-0.012
N88735X309.481Z-0.05
N88740X310.033Z-0.16
N88745X310.315Z-0.244
N88750X310.721Z-0.392
N88755X311.15Z-0.6
N88760X311.456Z-0.778
N88765X311.839Z-1.045
N88770X312.154Z-1.313
N88775X312.414Z-1.567
N88780X312.75Z-1.96
N88785X312.988Z-2.303
N88790X313.369Z-2.926
N88795X313.775Z-3.532
N88800X314.076Z-3.93
N88805X314.397Z-4.313
N88810X314.815Z-4.766
N88815X315.25Z-5.187
N88820X315.628Z-5.513
N88825X316.109Z-5.891
N88830X316.522Z-6.18
N88835X316.835Z-6.379
N88840X317.242Z-6.62
N88845X317.686Z-6.856
N88850X318.142Z-7.072
N88855X318.602Z-7.265
N88860X318.824Z-7.345
N88865X319.298Z-7.505
N88870X319.78Z-7.644
N88875X320.239Z-7.755
N88880X320.471Z-7.799
N88885X320.964Z-7.882
N88890X321.46Z-7.943
N88895X321.829Z-7.973
N88900X322.499Z-7.996
N88905X323.106Z-7.978
N88910X323.603Z-7.938
N88915X323.864Z-7.905
N88920X324.356Z-7.831
N88925X324.87Z-7.729
N88930X325.378Z-7.602
N88935X325.877Z-7.451
N88940X326.347Z-7.283
N88945X326.59Z-7.184
N88950X327.045Z-6.986
N88955X327.512Z-6.755
N88960X327.966Z-6.502
N88965X328.406Z-6.23
N88970X328.6Z-6.096
N88975X329.002Z-5.805
N88980X329.409Z-5.482
N88985X329.797Z-5.142
N88990X330.166Z-4.786
N88995X330.526Z-4.402
N89000X330.678Z-4.224
N89005X331.006Z-3.822
N89010X331.311Z-3.408
N89015X331.596Z-2.985
N89020X331.885Z-2.507
N89025X332.112Z-2.151
N89030X332.334Z-1.855
N89035X332.657Z-1.492
N89040X332.976Z-1.197
N89045X333.248Z-0.98
N89050X333.594Z-0.746
N89055X333.846Z-0.601
N89060X334.283Z-0.39
N89065X334.674Z-0.248
N89070X335.016Z-0.148
N89075X335.481Z-0.055
N89080X335.716Z-0.027
N89085X336.22Z0.
N89090X336.668Y29.269
N89095X338.78Y30.507
N89100X339.214Z-0.022
N89105X339.474Z-0.048
N89110X339.732Z-0.096
N89115X340.114Z-0.181
N89120X340.362Z-0.262
N89125X340.727Z-0.395
N89130X341.137Z-0.593
N89135X341.416Z-0.753
N89140X341.84Z-1.046
N89145X342.184Z-1.342
N89150X342.409Z-1.562
N89155X342.665Z-1.856
N89160X342.854Z-2.104
N89165X343.098Z-2.48
N89170X343.428Z-3.029
N89175X343.713Z-3.451
N89180X344.02Z-3.861
N89185X344.426Z-4.352
N89190X344.767Z-4.719
N89195X345.226Z-5.168
N89200X345.608Z-5.501
N89205X346.106Z-5.893
N89210X346.516Z-6.18
N89215X346.94Z-6.448
N89220X347.496Z-6.763
N89225X348.064Z-7.042
N89230X348.306Z-7.145
N89235X348.772Z-7.329
N89240X349.246Z-7.493
N89245X349.728Z-7.635
N89250X350.213Z-7.752
N89255X350.471Z-7.802
N89260X350.964Z-7.886
N89265X351.46Z-7.946
N89270X351.829Z-7.976
N89275X352.425Z-7.997
N89280X353.148Z-7.978
N89285X353.671Z-7.934
N89290X354.192Z-7.865
N89295X354.709Z-7.769
N89300X354.965Z-7.709
N89305X355.472Z-7.577
N89310X355.972Z-7.421
N89315X356.462Z-7.241
N89320X356.941Z-7.039
N89325X357.415Z-6.811
N89330X357.876Z-6.559
N89335X358.099Z-6.424
N89340X358.539Z-6.142
N89345X358.963Z-5.84
N89350X359.369Z-5.52
N89355X359.758Z-5.184
N89360X360.137Z-4.82
N89365X360.316Z-4.63
N89370X360.666Z-4.244
N89375X360.993Z-3.844
N89380X361.299Z-3.433
N89385X361.582Z-3.013
N89390X361.893Z-2.495
N89395X362.149Z-2.1
N89400X362.335Z-1.856
N89405X362.656Z-1.493
N89410X362.919Z-1.251
N89415X363.199Z-1.016
N89420X363.518Z-0.797
N89425X363.802Z-0.625
N89430X364.229Z-0.414
N89435X364.45Z-0.326
N89440X364.901Z-0.177
N89445X365.379Z-0.074
N89450X365.716Z-0.027
N89455X366.22Z0.
N89460G18G2X366.788Z0.599I-0.032K0.599
N89465G0Z8.
N89470X209.352Y23.007
N89475Z2.
N89480G1Z0.6F3680.
N89485G3X208.752Z0.I-0.6K0.
N89490G1X196.247
N89495X196.179Z0.008
N89500X196.115Z0.031
N89505X196.05Z0.053
N89510X195.983Z0.061
N89515X190.907
N89520G17G2Y24.507I0.J0.75
N89525G1X190.975Z0.053
N89530X191.039Z0.031
N89535X191.101Z0.008
N89540X191.166Z0.
N89545X191.661Z-0.009
N89550X192.32Z-0.039
N89555X193.71Z-0.132
N89560X194.918Z-0.201
N89565X196.077Z-0.234
N89570X208.947Z-0.233
N89575X210.136Z-0.199
N89580X211.423Z-0.123
N89585X212.92Z-0.025
N89590X213.834Z0.
N89595X219.709Y26.007
N89600X220.217Z-0.017
N89605X220.739Z-0.068
N89610X221.387Z-0.17
N89615X221.971Z-0.294
N89620X223.455Z-0.644
N89625X224.179Z-0.795
N89630X224.658Z-0.875
N89635X225.141Z-0.936
N89640X225.59Z-0.974
N89645X226.275Z-1.002
N89650X237.811Z-1.006
N89655X238.884Z-0.999
N89660X239.409Z-0.974
N89665X239.82Z-0.94
N89670X240.426Z-0.862
N89675X240.917Z-0.777
N89680X241.546Z-0.643
N89685X242.704Z-0.366
N89690X243.612Z-0.171
N89695X244.195Z-0.077
N89700X244.754Z-0.019
N89705X245.291Z0.
N89710X249.Y27.507
N89715X249.351Z-0.012
N89720X249.743Z-0.051
N89725X250.258Z-0.144
N89730X250.761Z-0.282
N89735X251.251Z-0.462
N89740X251.674Z-0.652
N89745X252.05Z-0.845
N89750X252.524Z-1.119
N89755X253.545Z-1.778
N89760X254.029Z-2.075
N89765X254.341Z-2.253
N89770X254.598Z-2.383
N89775X254.851Z-2.496
N89780X255.126Z-2.601
N89785X255.411Z-2.687
N89790X255.812Z-2.774
N89795X256.197Z-2.822
N89800X256.551Z-2.841
N89805X268.354Z-2.844
N89810X268.878Z-2.815
N89815X269.072Z-2.791
N89820X269.395Z-2.735
N89825X269.743Z-2.643
N89830X270.144Z-2.498
N89835X270.383Z-2.391
N89840X270.689Z-2.238
N89845X271.129Z-1.982
N89850X272.029Z-1.4
N89855X272.581Z-1.054
N89860X273.074Z-0.776
N89865X273.665Z-0.496
N89870X274.194Z-0.297
N89875X274.649Z-0.166
N89880X275.114Z-0.072
N89885X275.465Z-0.027
N89890X275.731Z-0.008
N89895X276.Z0.
N89900X278.78Y29.007
N89905X279.126Z-0.016
N89910X279.484Z-0.05
N89915X280.029Z-0.159
N89920X280.31Z-0.243
N89925X280.718Z-0.391
N89930X281.147Z-0.598
N89935X281.453Z-0.776
N89940X281.85Z-1.054
N89945X282.155Z-1.314
N89950X282.418Z-1.571
N89955X282.749Z-1.959
N89960X282.984Z-2.297
N89965X283.43Z-3.025
N89970X283.709Z-3.439
N89975X284.095Z-3.954
N89980X284.421Z-4.342
N89985X284.834Z-4.786
N89990X285.174Z-5.114
N89995X285.656Z-5.538
N90000X286.054Z-5.849
N90005X286.572Z-6.215
N90010X286.772Z-6.341
N90015X287.204Z-6.599
N90020X287.648Z-6.838
N90025X287.982Z-6.998
N90030X288.563Z-7.248
N90035X288.811Z-7.34
N90040X289.285Z-7.501
N90045X289.767Z-7.641
N90050X290.255Z-7.759
N90055X290.719Z-7.845
N90060X291.213Z-7.915
N90065X291.845Z-7.974
N90070X292.483Z-7.995
N90075X292.885Z-7.986
N90080X293.255Z-7.966
N90085X293.777Z-7.917
N90090X294.296Z-7.842
N90095X294.81Z-7.743
N90100X295.295Z-7.626
N90105X295.799Z-7.476
N90110X296.047Z-7.391
N90115X296.537Z-7.207
N90120X297.016Z-6.999
N90125X297.484Z-6.77
N90130X297.938Z-6.52
N90135X298.385Z-6.243
N90140X298.601Z-6.095
N90145X299.003Z-5.805
N90150X299.41Z-5.481
N90155X299.798Z-5.14
N90160X300.168Z-4.785
N90165X300.509Z-4.42
N90170X300.678Z-4.224
N90175X301.006Z-3.822
N90180X301.311Z-3.408
N90185X301.596Z-2.985
N90190X301.885Z-2.507
N90195X302.112Z-2.151
N90200X302.334Z-1.855
N90205X302.657Z-1.492
N90210X302.976Z-1.197
N90215X303.248Z-0.98
N90220X303.594Z-0.746
N90225X303.846Z-0.601
N90230X304.283Z-0.39
N90235X304.674Z-0.248
N90240X305.016Z-0.148
N90245X305.481Z-0.055
N90250X305.716Z-0.027
N90255X306.22Z0.
N90260X306.668Y29.269
N90265X308.78Y30.507
N90270X309.214Z-0.022
N90275X309.474Z-0.048
N90280X309.732Z-0.096
N90285X310.114Z-0.181
N90290X310.362Z-0.262
N90295X310.727Z-0.395
N90300X311.137Z-0.593
N90305X311.416Z-0.753
N90310X311.84Z-1.046
N90315X312.184Z-1.342
N90320X312.409Z-1.562
N90325X312.665Z-1.856
N90330X312.854Z-2.104
N90335X313.098Z-2.48
N90340X313.428Z-3.029
N90345X313.713Z-3.451
N90350X314.02Z-3.861
N90355X314.426Z-4.352
N90360X314.767Z-4.719
N90365X315.226Z-5.168
N90370X315.608Z-5.501
N90375X316.106Z-5.893
N90380X316.516Z-6.18
N90385X316.94Z-6.448
N90390X317.496Z-6.763
N90395X318.064Z-7.042
N90400X318.306Z-7.145
N90405X318.772Z-7.329
N90410X319.246Z-7.493
N90415X319.728Z-7.635
N90420X320.213Z-7.752
N90425X320.471Z-7.802
N90430X320.964Z-7.886
N90435X321.46Z-7.946
N90440X321.829Z-7.976
N90445X322.425Z-7.997
N90450X323.148Z-7.978
N90455X323.671Z-7.934
N90460X324.192Z-7.865
N90465X324.709Z-7.769
N90470X324.965Z-7.709
N90475X325.472Z-7.577
N90480X325.972Z-7.421
N90485X326.462Z-7.241
N90490X326.941Z-7.039
N90495X327.415Z-6.811
N90500X327.876Z-6.559
N90505X328.099Z-6.424
N90510X328.539Z-6.142
N90515X328.963Z-5.84
N90520X329.369Z-5.52
N90525X329.758Z-5.184
N90530X330.137Z-4.82
N90535X330.316Z-4.63
N90540X330.666Z-4.244
N90545X330.993Z-3.844
N90550X331.299Z-3.433
N90555X331.582Z-3.013
N90560X331.893Z-2.495
N90565X332.149Z-2.1
N90570X332.335Z-1.856
N90575X332.656Z-1.493
N90580X332.919Z-1.251
N90585X333.199Z-1.016
N90590X333.518Z-0.797
N90595X333.802Z-0.625
N90600X334.229Z-0.414
N90605X334.45Z-0.326
N90610X334.901Z-0.177
N90615X335.379Z-0.074
N90620X335.716Z-0.027
N90625X336.22Z0.
N90630X336.668Y30.769
N90635X338.78Y32.006
N90640X339.214Z-0.022
N90645X339.474Z-0.048
N90650X339.732Z-0.096
N90655X340.114Z-0.181
N90660X340.362Z-0.262
N90665X340.727Z-0.395
N90670X341.137Z-0.593
N90675X341.416Z-0.753
N90680X341.84Z-1.046
N90685X342.184Z-1.342
N90690X342.409Z-1.562
N90695X342.665Z-1.856
N90700X342.854Z-2.104
N90705X343.098Z-2.48
N90710X343.428Z-3.029
N90715X343.713Z-3.451
N90720X344.02Z-3.861
N90725X344.426Z-4.352
N90730X344.767Z-4.719
N90735X345.226Z-5.168
N90740X345.608Z-5.501
N90745X346.106Z-5.893
N90750X346.516Z-6.18
N90755X346.94Z-6.448
N90760X347.496Z-6.763
N90765X348.064Z-7.042
N90770X348.306Z-7.145
N90775X348.772Z-7.329
N90780X349.246Z-7.493
N90785X349.728Z-7.635
N90790X350.213Z-7.752
N90795X350.471Z-7.802
N90800X350.964Z-7.886
N90805X351.46Z-7.946
N90810X351.829Z-7.976
N90815X352.425Z-7.997
N90820X353.148Z-7.978
N90825X353.671Z-7.934
N90830X354.192Z-7.865
N90835X354.709Z-7.769
N90840X354.965Z-7.709
N90845X355.472Z-7.577
N90850X355.972Z-7.421
N90855X356.462Z-7.241
N90860X356.941Z-7.039
N90865X357.415Z-6.811
N90870X357.876Z-6.559
N90875X358.099Z-6.424
N90880X358.539Z-6.142
N90885X358.963Z-5.84
N90890X359.369Z-5.52
N90895X359.758Z-5.184
N90900X360.137Z-4.82
N90905X360.316Z-4.63
N90910X360.666Z-4.244
N90915X360.993Z-3.844
N90920X361.299Z-3.433
N90925X361.582Z-3.013
N90930X361.893Z-2.495
N90935X362.149Z-2.1
N90940X362.335Z-1.856
N90945X362.656Z-1.493
N90950X362.919Z-1.251
N90955X363.199Z-1.016
N90960X363.518Z-0.797
N90965X363.802Z-0.625
N90970X364.229Z-0.414
N90975X364.45Z-0.326
N90980X364.901Z-0.177
N90985X365.379Z-0.074
N90990X365.716Z-0.027
N90995X366.22Z0.
N91000G18G2X366.788Z0.599I-0.032K0.599
N91005G0Z8.
N91010X179.352Y23.007
N91015Z2.
N91020G1Z0.6F3680.
N91025G3X178.752Z0.I-0.6K0.
N91030G1X166.247
N91035X166.179Z0.008
N91040X166.115Z0.031
N91045X166.05Z0.053
N91050X165.983Z0.061
N91055X160.907
N91060G17G2Y24.507I0.J0.75
N91065G1X160.975Z0.053
N91070X161.039Z0.031
N91075X161.101Z0.008
N91080X161.166Z0.
N91085X161.661Z-0.009
N91090X162.32Z-0.039
N91095X163.71Z-0.132
N91100X164.918Z-0.201
N91105X166.077Z-0.234
N91110X178.947Z-0.233
N91115X180.136Z-0.199
N91120X181.423Z-0.123
N91125X182.92Z-0.025
N91130X183.834Z0.
N91135X189.709Y26.007
N91140X190.217Z-0.017
N91145X190.739Z-0.068
N91150X191.387Z-0.17
N91155X191.971Z-0.294
N91160X193.455Z-0.644
N91165X194.179Z-0.795
N91170X194.658Z-0.875
N91175X195.141Z-0.936
N91180X195.59Z-0.974
N91185X196.275Z-1.002
N91190X207.811Z-1.006
N91195X208.884Z-0.999
N91200X209.409Z-0.974
N91205X209.82Z-0.94
N91210X210.426Z-0.862
N91215X210.917Z-0.777
N91220X211.546Z-0.643
N91225X212.704Z-0.366
N91230X213.612Z-0.171
N91235X214.195Z-0.077
N91240X214.754Z-0.019
N91245X215.291Z0.
N91250X219.Y27.507
N91255X219.351Z-0.012
N91260X219.742Z-0.051
N91265X220.257Z-0.144
N91270X220.761Z-0.282
N91275X221.251Z-0.461
N91280X221.673Z-0.652
N91285X222.05Z-0.845
N91290X222.523Z-1.119
N91295X223.545Z-1.778
N91300X224.029Z-2.074
N91305X224.341Z-2.253
N91310X224.598Z-2.383
N91315X224.85Z-2.495
N91320X225.126Z-2.601
N91325X225.41Z-2.687
N91330X225.812Z-2.774
N91335X226.197Z-2.822
N91340X226.55Z-2.841
N91345X238.354Z-2.844
N91350X238.877Z-2.815
N91355X239.071Z-2.791
N91360X239.394Z-2.735
N91365X239.743Z-2.643
N91370X240.143Z-2.498
N91375X240.383Z-2.391
N91380X240.688Z-2.238
N91385X241.128Z-1.983
N91390X242.028Z-1.4
N91395X242.581Z-1.055
N91400X242.811Z-0.921
N91405X243.232Z-0.696
N91410X243.719Z-0.473
N91415X244.22Z-0.288
N91420X244.677Z-0.159
N91425X245.141Z-0.067
N91430X245.613Z-0.014
N91435X246.Z0.
N91440X248.78Y29.007
N91445X249.126Z-0.016
N91450X249.484Z-0.05
N91455X250.029Z-0.159
N91460X250.31Z-0.243
N91465X250.718Z-0.391
N91470X251.147Z-0.598
N91475X251.453Z-0.776
N91480X251.85Z-1.054
N91485X252.155Z-1.314
N91490X252.418Z-1.571
N91495X252.749Z-1.959
N91500X252.984Z-2.297
N91505X253.43Z-3.025
N91510X253.709Z-3.439
N91515X254.095Z-3.954
N91520X254.421Z-4.342
N91525X254.834Z-4.786
N91530X255.174Z-5.114
N91535X255.656Z-5.538
N91540X256.054Z-5.849
N91545X256.572Z-6.215
N91550X256.772Z-6.341
N91555X257.204Z-6.599
N91560X257.648Z-6.838
N91565X257.982Z-6.998
N91570X258.563Z-7.248
N91575X258.811Z-7.34
N91580X259.285Z-7.501
N91585X259.767Z-7.641
N91590X260.255Z-7.759
N91595X260.719Z-7.845
N91600X261.213Z-7.915
N91605X261.845Z-7.974
N91610X262.483Z-7.995
N91615X262.885Z-7.986
N91620X263.255Z-7.966
N91625X263.777Z-7.917
N91630X264.296Z-7.842
N91635X264.81Z-7.743
N91640X265.295Z-7.626
N91645X265.799Z-7.476
N91650X266.047Z-7.391
N91655X266.537Z-7.207
N91660X267.016Z-6.999
N91665X267.484Z-6.77
N91670X267.938Z-6.52
N91675X268.385Z-6.243
N91680X268.601Z-6.095
N91685X269.003Z-5.805
N91690X269.41Z-5.481
N91695X269.798Z-5.14
N91700X270.168Z-4.785
N91705X270.509Z-4.42
N91710X270.678Z-4.224
N91715X271.006Z-3.822
N91720X271.311Z-3.408
N91725X271.596Z-2.985
N91730X271.885Z-2.507
N91735X272.112Z-2.151
N91740X272.334Z-1.855
N91745X272.657Z-1.492
N91750X272.976Z-1.197
N91755X273.248Z-0.98
N91760X273.594Z-0.746
N91765X273.846Z-0.601
N91770X274.283Z-0.39
N91775X274.674Z-0.248
N91780X275.016Z-0.148
N91785X275.481Z-0.055
N91790X275.716Z-0.027
N91795X276.22Z0.
N91800X276.668Y29.269
N91805X278.78Y30.507
N91810X279.214Z-0.022
N91815X279.474Z-0.048
N91820X279.732Z-0.096
N91825X280.114Z-0.181
N91830X280.362Z-0.262
N91835X280.727Z-0.395
N91840X281.137Z-0.593
N91845X281.416Z-0.753
N91850X281.84Z-1.046
N91855X282.184Z-1.342
N91860X282.409Z-1.562
N91865X282.665Z-1.856
N91870X282.854Z-2.104
N91875X283.098Z-2.48
N91880X283.428Z-3.029
N91885X283.713Z-3.451
N91890X284.02Z-3.861
N91895X284.426Z-4.352
N91900X284.767Z-4.719
N91905X285.226Z-5.168
N91910X285.608Z-5.501
N91915X286.106Z-5.893
N91920X286.516Z-6.18
N91925X286.94Z-6.448
N91930X287.496Z-6.763
N91935X288.064Z-7.042
N91940X288.306Z-7.145
N91945X288.772Z-7.329
N91950X289.246Z-7.493
N91955X289.728Z-7.635
N91960X290.213Z-7.752
N91965X290.471Z-7.802
N91970X290.964Z-7.886
N91975X291.46Z-7.946
N91980X291.829Z-7.976
N91985X292.425Z-7.997
N91990X293.148Z-7.978
N91995X293.671Z-7.934
N92000X294.192Z-7.865
N92005X294.709Z-7.769
N92010X294.965Z-7.709
N92015X295.472Z-7.577
N92020X295.972Z-7.421
N92025X296.462Z-7.241
N92030X296.941Z-7.039
N92035X297.415Z-6.811
N92040X297.876Z-6.559
N92045X298.099Z-6.424
N92050X298.539Z-6.142
N92055X298.963Z-5.84
N92060X299.369Z-5.52
N92065X299.758Z-5.184
N92070X300.137Z-4.82
N92075X300.316Z-4.63
N92080X300.666Z-4.244
N92085X300.993Z-3.844
N92090X301.299Z-3.433
N92095X301.582Z-3.013
N92100X301.893Z-2.495
N92105X302.149Z-2.1
N92110X302.335Z-1.856
N92115X302.656Z-1.493
N92120X302.919Z-1.251
N92125X303.199Z-1.016
N92130X303.518Z-0.797
N92135X303.802Z-0.625
N92140X304.229Z-0.414
N92145X304.45Z-0.326
N92150X304.901Z-0.177
N92155X305.379Z-0.074
N92160X305.716Z-0.027
N92165X306.22Z0.
N92170X306.668Y30.769
N92175X308.78Y32.006
N92180X309.214Z-0.022
N92185X309.474Z-0.048
N92190X309.732Z-0.096
N92195X310.114Z-0.181
N92200X310.362Z-0.262
N92205X310.727Z-0.395
N92210X311.137Z-0.593
N92215X311.416Z-0.753
N92220X311.84Z-1.046
N92225X312.184Z-1.342
N92230X312.409Z-1.562
N92235X312.665Z-1.856
N92240X312.854Z-2.104
N92245X313.098Z-2.48
N92250X313.428Z-3.029
N92255X313.713Z-3.451
N92260X314.02Z-3.861
N92265X314.426Z-4.352
N92270X314.767Z-4.719
N92275X315.226Z-5.168
N92280X315.608Z-5.501
N92285X316.106Z-5.893
N92290X316.516Z-6.18
N92295X316.94Z-6.448
N92300X317.496Z-6.763
N92305X318.064Z-7.042
N92310X318.306Z-7.145
N92315X318.772Z-7.329
N92320X319.246Z-7.493
N92325X319.728Z-7.635
N92330X320.213Z-7.752
N92335X320.471Z-7.802
N92340X320.964Z-7.886
N92345X321.46Z-7.946
N92350X321.829Z-7.976
N92355X322.425Z-7.997
N92360X323.148Z-7.978
N92365X323.671Z-7.934
N92370X324.192Z-7.865
N92375X324.709Z-7.769
N92380X324.965Z-7.709
N92385X325.472Z-7.577
N92390X325.972Z-7.421
N92395X326.462Z-7.241
N92400X326.941Z-7.039
N92405X327.415Z-6.811
N92410X327.876Z-6.559
N92415X328.099Z-6.424
N92420X328.539Z-6.142
N92425X328.963Z-5.84
N92430X329.369Z-5.52
N92435X329.758Z-5.184
N92440X330.137Z-4.82
N92445X330.316Z-4.63
N92450X330.666Z-4.244
N92455X330.993Z-3.844
N92460X331.299Z-3.433
N92465X331.582Z-3.013
N92470X331.893Z-2.495
N92475X332.149Z-2.1
N92480X332.335Z-1.856
N92485X332.656Z-1.493
N92490X332.919Z-1.251
N92495X333.199Z-1.016
N92500X333.518Z-0.797
N92505X333.802Z-0.625
N92510X334.229Z-0.414
N92515X334.45Z-0.326
N92520X334.901Z-0.177
N92525X335.379Z-0.074
N92530X335.716Z-0.027
N92535X336.22Z0.
N92540X336.668Y32.269
N92545X338.78Y33.506
N92550X339.214Z-0.022
N92555X339.474Z-0.048
N92560X339.732Z-0.096
N92565X340.114Z-0.181
N92570X340.362Z-0.262
N92575X340.727Z-0.395
N92580X341.137Z-0.593
N92585X341.416Z-0.753
N92590X341.84Z-1.046
N92595X342.184Z-1.342
N92600X342.409Z-1.562
N92605X342.665Z-1.856
N92610X342.854Z-2.104
N92615X343.098Z-2.48
N92620X343.428Z-3.029
N92625X343.713Z-3.451
N92630X344.02Z-3.861
N92635X344.426Z-4.352
N92640X344.767Z-4.719
N92645X345.226Z-5.168
N92650X345.608Z-5.501
N92655X346.106Z-5.893
N92660X346.516Z-6.18
N92665X346.94Z-6.448
N92670X347.496Z-6.763
N92675X348.064Z-7.042
N92680X348.306Z-7.145
N92685X348.772Z-7.329
N92690X349.246Z-7.493
N92695X349.728Z-7.635
N92700X350.213Z-7.752
N92705X350.471Z-7.802
N92710X350.964Z-7.886
N92715X351.46Z-7.946
N92720X351.829Z-7.976
N92725X352.425Z-7.997
N92730X353.148Z-7.978
N92735X353.671Z-7.934
N92740X354.192Z-7.865
N92745X354.709Z-7.769
N92750X354.965Z-7.709
N92755X355.472Z-7.577
N92760X355.972Z-7.421
N92765X356.462Z-7.241
N92770X356.941Z-7.039
N92775X357.415Z-6.811
N92780X357.876Z-6.559
N92785X358.099Z-6.424
N92790X358.539Z-6.142
N92795X358.963Z-5.84
N92800X359.369Z-5.52
N92805X359.758Z-5.184
N92810X360.137Z-4.82
N92815X360.316Z-4.63
N92820X360.666Z-4.244
N92825X360.993Z-3.844
N92830X361.299Z-3.433
N92835X361.582Z-3.013
N92840X361.893Z-2.495
N92845X362.149Z-2.1
N92850X362.335Z-1.856
N92855X362.656Z-1.493
N92860X362.919Z-1.251
N92865X363.199Z-1.016
N92870X363.518Z-0.797
N92875X363.802Z-0.625
N92880X364.229Z-0.414
N92885X364.45Z-0.326
N92890X364.901Z-0.177
N92895X365.379Z-0.074
N92900X365.716Z-0.027
N92905X366.22Z0.
N92910G18G2X366.788Z0.599I-0.032K0.599
N92915G0Z8.
N92920X149.352Y23.007
N92925Z2.
N92930G1Z0.6F3680.
N92935G3X148.752Z0.I-0.6K0.
N92940G1X136.247
N92945X136.179Z0.008
N92950X136.115Z0.031
N92955X136.05Z0.053
N92960X135.983Z0.061
N92965X130.907
N92970G17G2Y24.507I0.J0.75
N92975G1X130.975Z0.053
N92980X131.039Z0.031
N92985X131.101Z0.008
N92990X131.166Z0.
N92995X131.661Z-0.009
N93000X132.32Z-0.039
N93005X133.71Z-0.132
N93010X134.918Z-0.201
N93015X136.077Z-0.234
N93020X148.947Z-0.233
N93025X150.136Z-0.199
N93030X151.423Z-0.123
N93035X152.92Z-0.025
N93040X153.834Z0.
N93045X159.709Y26.007
N93050X160.217Z-0.017
N93055X160.739Z-0.068
N93060X161.387Z-0.17
N93065X161.971Z-0.294
N93070X163.455Z-0.644
N93075X164.179Z-0.795
N93080X164.658Z-0.875
N93085X165.141Z-0.936
N93090X165.59Z-0.974
N93095X166.275Z-1.002
N93100X177.811Z-1.006
N93105X178.884Z-0.999
N93110X179.409Z-0.974
N93115X179.82Z-0.94
N93120X180.426Z-0.862
N93125X180.917Z-0.777
N93130X181.546Z-0.643
N93135X182.704Z-0.366
N93140X183.612Z-0.171
N93145X184.195Z-0.077
N93150X184.754Z-0.019
N93155X185.291Z0.
N93160X189.Y27.507
N93165X189.351Z-0.012
N93170X189.742Z-0.051
N93175X190.257Z-0.144
N93180X190.761Z-0.282
N93185X191.251Z-0.461
N93190X191.673Z-0.652
N93195X192.05Z-0.845
N93200X192.523Z-1.119
N93205X193.545Z-1.778
N93210X194.029Z-2.074
N93215X194.341Z-2.253
N93220X194.598Z-2.383
N93225X194.85Z-2.495
N93230X195.126Z-2.601
N93235X195.41Z-2.687
N93240X195.812Z-2.774
N93245X196.197Z-2.822
N93250X196.55Z-2.841
N93255X208.354Z-2.844
N93260X208.877Z-2.815
N93265X209.071Z-2.791
N93270X209.394Z-2.735
N93275X209.743Z-2.643
N93280X210.143Z-2.498
N93285X210.383Z-2.391
N93290X210.688Z-2.238
N93295X211.128Z-1.983
N93300X212.028Z-1.4
N93305X212.581Z-1.055
N93310X212.811Z-0.921
N93315X213.232Z-0.696
N93320X213.719Z-0.473
N93325X214.22Z-0.288
N93330X214.677Z-0.159
N93335X215.141Z-0.067
N93340X215.613Z-0.014
N93345X216.Z0.
N93350X218.78Y29.007
N93355X218.99Z-0.007
N93360X219.447Z-0.045
N93365X219.866Z-0.122
N93370X220.181Z-0.201
N93375X220.672Z-0.372
N93380X221.057Z-0.552
N93385X221.37Z-0.724
N93390X221.82Z-1.03
N93395X222.141Z-1.302
N93400X222.399Z-1.55
N93405X222.727Z-1.931
N93410X222.931Z-2.216
N93415X223.463Z-3.074
N93420X223.742Z-3.487
N93425X224.043Z-3.886
N93430X224.454Z-4.38
N93435X224.8Z-4.75
N93440X225.235Z-5.173
N93445X225.592Z-5.483
N93450X226.095Z-5.88
N93455X226.508Z-6.171
N93460X227.021Z-6.495
N93465X227.672Z-6.849
N93470X228.128Z-7.066
N93475X228.563Z-7.248
N93480X228.811Z-7.34
N93485X229.285Z-7.501
N93490X229.767Z-7.641
N93495X230.255Z-7.759
N93500X230.719Z-7.845
N93505X231.213Z-7.915
N93510X231.845Z-7.974
N93515X232.434Z-7.994
N93520X232.687Z-7.991
N93525X233.217Z-7.969
N93530X233.74Z-7.922
N93535X234.259Z-7.849
N93540X234.773Z-7.752
N93545X235.284Z-7.629
N93550X235.51Z-7.562
N93555X236.01Z-7.404
N93560X236.5Z-7.222
N93565X236.979Z-7.017
N93570X237.447Z-6.791
N93575X237.908Z-6.538
N93580X238.355Z-6.262
N93585X238.571Z-6.116
N93590X238.994Z-5.811
N93595X239.401Z-5.489
N93600X239.789Z-5.149
N93605X240.149Z-4.803
N93610X240.509Z-4.42
N93615X240.678Z-4.224
N93620X241.006Z-3.822
N93625X241.311Z-3.408
N93630X241.596Z-2.985
N93635X241.885Z-2.507
N93640X242.112Z-2.151
N93645X242.334Z-1.855
N93650X242.657Z-1.492
N93655X242.976Z-1.198
N93660X243.248Z-0.98
N93665X243.594Z-0.746
N93670X243.846Z-0.601
N93675X244.283Z-0.39
N93680X244.674Z-0.248
N93685X245.016Z-0.148
N93690X245.481Z-0.055
N93695X245.716Z-0.027
N93700X246.22Z0.
N93705X246.668Y29.269
N93710X248.78Y30.507
N93715X249.214Z-0.022
N93720X249.474Z-0.048
N93725X249.732Z-0.096
N93730X250.114Z-0.181
N93735X250.362Z-0.262
N93740X250.727Z-0.395
N93745X251.137Z-0.593
N93750X251.416Z-0.753
N93755X251.84Z-1.046
N93760X252.184Z-1.342
N93765X252.409Z-1.562
N93770X252.665Z-1.856
N93775X252.854Z-2.104
N93780X253.098Z-2.48
N93785X253.428Z-3.029
N93790X253.713Z-3.451
N93795X254.02Z-3.861
N93800X254.426Z-4.352
N93805X254.767Z-4.719
N93810X255.226Z-5.168
N93815X255.608Z-5.501
N93820X256.106Z-5.893
N93825X256.516Z-6.18
N93830X256.94Z-6.448
N93835X257.496Z-6.763
N93840X258.064Z-7.042
N93845X258.306Z-7.145
N93850X258.772Z-7.329
N93855X259.246Z-7.493
N93860X259.728Z-7.635
N93865X260.213Z-7.752
N93870X260.471Z-7.802
N93875X260.964Z-7.886
N93880X261.46Z-7.946
N93885X261.829Z-7.976
N93890X262.425Z-7.997
N93895X263.148Z-7.978
N93900X263.671Z-7.934
N93905X264.192Z-7.865
N93910X264.709Z-7.769
N93915X264.965Z-7.709
N93920X265.472Z-7.577
N93925X265.972Z-7.421
N93930X266.462Z-7.241
N93935X266.941Z-7.039
N93940X267.415Z-6.811
N93945X267.876Z-6.559
N93950X268.099Z-6.424
N93955X268.539Z-6.142
N93960X268.963Z-5.84
N93965X269.369Z-5.52
N93970X269.758Z-5.184
N93975X270.137Z-4.82
N93980X270.316Z-4.63
N93985X270.666Z-4.244
N93990X270.993Z-3.844
N93995X271.299Z-3.433
N94000X271.582Z-3.013
N94005X271.893Z-2.495
N94010X272.149Z-2.1
N94015X272.335Z-1.856
N94020X272.656Z-1.493
N94025X272.919Z-1.251
N94030X273.199Z-1.016
N94035X273.518Z-0.797
N94040X273.802Z-0.625
N94045X274.229Z-0.414
N94050X274.45Z-0.326
N94055X274.901Z-0.177
N94060X275.379Z-0.074
N94065X275.716Z-0.027
N94070X276.22Z0.
N94075X276.668Y30.769
N94080X278.78Y32.006
N94085X279.214Z-0.022
N94090X279.474Z-0.048
N94095X279.732Z-0.096
N94100X280.114Z-0.181
N94105X280.362Z-0.262
N94110X280.727Z-0.395
N94115X281.137Z-0.593
N94120X281.416Z-0.753
N94125X281.84Z-1.046
N94130X282.184Z-1.342
N94135X282.409Z-1.562
N94140X282.665Z-1.856
N94145X282.854Z-2.104
N94150X283.098Z-2.48
N94155X283.428Z-3.029
N94160X283.713Z-3.451
N94165X284.02Z-3.861
N94170X284.426Z-4.352
N94175X284.767Z-4.719
N94180X285.226Z-5.168
N94185X285.608Z-5.501
N94190X286.106Z-5.893
N94195X286.516Z-6.18
N94200X286.94Z-6.448
N94205X287.496Z-6.763
N94210X288.064Z-7.042
N94215X288.306Z-7.145
N94220X288.772Z-7.329
N94225X289.246Z-7.493
N94230X289.728Z-7.635
N94235X290.213Z-7.752
N94240X290.471Z-7.802
N94245X290.964Z-7.886
N94250X291.46Z-7.946
N94255X291.829Z-7.976
N94260X292.425Z-7.997
N94265X293.148Z-7.978
N94270X293.671Z-7.934
N94275X294.192Z-7.865
N94280X294.709Z-7.769
N94285X294.965Z-7.709
N94290X295.472Z-7.577
N94295X295.972Z-7.421
N94300X296.462Z-7.241
N94305X296.941Z-7.039
N94310X297.415Z-6.811
N94315X297.876Z-6.559
N94320X298.099Z-6.424
N94325X298.539Z-6.142
N94330X298.963Z-5.84
N94335X299.369Z-5.52
N94340X299.758Z-5.184
N94345X300.137Z-4.82
N94350X300.316Z-4.63
N94355X300.666Z-4.244
N94360X300.993Z-3.844
N94365X301.299Z-3.433
N94370X301.582Z-3.013
N94375X301.893Z-2.495
N94380X302.149Z-2.1
N94385X302.335Z-1.856
N94390X302.656Z-1.493
N94395X302.919Z-1.251
N94400X303.199Z-1.016
N94405X303.518Z-0.797
N94410X303.802Z-0.625
N94415X304.229Z-0.414
N94420X304.45Z-0.326
N94425X304.901Z-0.177
N94430X305.379Z-0.074
N94435X305.716Z-0.027
N94440X306.22Z0.
N94445X306.668Y32.269
N94450X308.78Y33.506
N94455X309.214Z-0.022
N94460X309.474Z-0.048
N94465X309.732Z-0.096
N94470X310.114Z-0.181
N94475X310.362Z-0.262
N94480X310.727Z-0.395
N94485X311.137Z-0.593
N94490X311.416Z-0.753
N94495X311.84Z-1.046
N94500X312.184Z-1.342
N94505X312.409Z-1.562
N94510X312.665Z-1.856
N94515X312.854Z-2.104
N94520X313.098Z-2.48
N94525X313.428Z-3.029
N94530X313.713Z-3.451
N94535X314.02Z-3.861
N94540X314.426Z-4.352
N94545X314.767Z-4.719
N94550X315.226Z-5.168
N94555X315.608Z-5.501
N94560X316.106Z-5.893
N94565X316.516Z-6.18
N94570X316.94Z-6.448
N94575X317.496Z-6.763
N94580X318.064Z-7.042
N94585X318.306Z-7.145
N94590X318.772Z-7.329
N94595X319.246Z-7.493
N94600X319.728Z-7.635
N94605X320.213Z-7.752
N94610X320.471Z-7.802
N94615X320.964Z-7.886
N94620X321.46Z-7.946
N94625X321.829Z-7.976
N94630X322.425Z-7.997
N94635X323.148Z-7.978
N94640X323.671Z-7.934
N94645X324.192Z-7.865
N94650X324.709Z-7.769
N94655X324.965Z-7.709
N94660X325.472Z-7.577
N94665X325.972Z-7.421
N94670X326.462Z-7.241
N94675X326.941Z-7.039
N94680X327.415Z-6.811
N94685X327.876Z-6.559
N94690X328.099Z-6.424
N94695X328.539Z-6.142
N94700X328.963Z-5.84
N94705X329.369Z-5.52
N94710X329.758Z-5.184
N94715X330.137Z-4.82
N94720X330.316Z-4.63
N94725X330.666Z-4.244
N94730X330.993Z-3.844
N94735X331.299Z-3.433
N94740X331.582Z-3.013
N94745X331.893Z-2.495
N94750X332.149Z-2.1
N94755X332.335Z-1.856
N94760X332.656Z-1.493
N94765X332.919Z-1.251
N94770X333.199Z-1.016
N94775X333.518Z-0.797
N94780X333.802Z-0.625
N94785X334.229Z-0.414
N94790X334.45Z-0.326
N94795X334.901Z-0.177
N94800X335.379Z-0.074
N94805X335.716Z-0.027
N94810X336.22Z0.
N94815X336.668Y33.769
N94820X338.78Y35.006
N94825X339.214Z-0.022
N94830X339.474Z-0.048
N94835X339.732Z-0.096
N94840X340.114Z-0.181
N94845X340.362Z-0.262
N94850X340.727Z-0.395
N94855X341.137Z-0.593
N94860X341.416Z-0.753
N94865X341.84Z-1.046
N94870X342.184Z-1.342
N94875X342.409Z-1.562
N94880X342.665Z-1.856
N94885X342.854Z-2.104
N94890X343.098Z-2.48
N94895X343.428Z-3.029
N94900X343.713Z-3.451
N94905X344.02Z-3.861
N94910X344.426Z-4.352
N94915X344.767Z-4.719
N94920X345.226Z-5.168
N94925X345.608Z-5.501
N94930X346.106Z-5.893
N94935X346.516Z-6.18
N94940X346.94Z-6.448
N94945X347.496Z-6.763
N94950X348.064Z-7.042
N94955X348.306Z-7.145
N94960X348.772Z-7.329
N94965X349.246Z-7.493
N94970X349.728Z-7.635
N94975X350.213Z-7.752
N94980X350.471Z-7.802
N94985X350.964Z-7.886
N94990X351.46Z-7.946
N94995X351.829Z-7.976
N95000X352.425Z-7.997
N95005X353.148Z-7.978
N95010X353.671Z-7.934
N95015X354.192Z-7.865
N95020X354.709Z-7.769
N95025X354.965Z-7.709
N95030X355.472Z-7.577
N95035X355.972Z-7.421
N95040X356.462Z-7.241
N95045X356.941Z-7.039
N95050X357.415Z-6.811
N95055X357.876Z-6.559
N95060X358.099Z-6.424
N95065X358.539Z-6.142
N95070X358.963Z-5.84
N95075X359.369Z-5.52
N95080X359.758Z-5.184
N95085X360.137Z-4.82
N95090X360.316Z-4.63
N95095X360.666Z-4.244
N95100X360.993Z-3.844
N95105X361.299Z-3.433
N95110X361.582Z-3.013
N95115X361.893Z-2.495
N95120X362.149Z-2.1
N95125X362.335Z-1.856
N95130X362.656Z-1.493
N95135X362.919Z-1.251
N95140X363.199Z-1.016
N95145X363.518Z-0.797
N95150X363.802Z-0.625
N95155X364.229Z-0.414
N95160X364.45Z-0.326
N95165X364.901Z-0.177
N95170X365.379Z-0.074
N95175X365.716Z-0.027
N95180X366.22Z0.
N95185G18G2X366.788Z0.599I-0.032K0.599
N95190G0Z8.
N95195X119.352Y23.007
N95200Z2.
N95205G1Z0.6F3680.
N95210G3X118.752Z0.I-0.6K0.
N95215G1X106.247
N95220X106.179Z0.008
N95225X106.115Z0.031
N95230X106.05Z0.053
N95235X105.983Z0.061
N95240X100.907
N95245G17G2Y24.507I0.J0.75
N95250G1X100.975Z0.053
N95255X101.039Z0.031
N95260X101.101Z0.008
N95265X101.166Z0.
N95270X101.661Z-0.009
N95275X102.32Z-0.039
N95280X103.709Z-0.132
N95285X104.918Z-0.201
N95290X106.077Z-0.234
N95295X118.947Z-0.233
N95300X120.136Z-0.199
N95305X121.423Z-0.123
N95310X122.92Z-0.025
N95315X123.834Z0.
N95320X129.709Y26.007
N95325X130.217Z-0.017
N95330X130.739Z-0.068
N95335X131.387Z-0.17
N95340X131.971Z-0.294
N95345X133.455Z-0.644
N95350X134.179Z-0.795
N95355X134.658Z-0.875
N95360X135.141Z-0.936
N95365X135.59Z-0.974
N95370X136.275Z-1.002
N95375X147.811Z-1.006
N95380X148.884Z-0.999
N95385X149.409Z-0.974
N95390X149.82Z-0.94
N95395X150.426Z-0.862
N95400X150.917Z-0.777
N95405X151.546Z-0.643
N95410X152.704Z-0.366
N95415X153.612Z-0.171
N95420X154.195Z-0.077
N95425X154.754Z-0.019
N95430X155.291Z0.
N95435X159.Y27.507
N95440X159.351Z-0.012
N95445X159.742Z-0.051
N95450X160.257Z-0.144
N95455X160.761Z-0.282
N95460X161.251Z-0.461
N95465X161.673Z-0.652
N95470X162.05Z-0.845
N95475X162.523Z-1.119
N95480X163.545Z-1.778
N95485X164.029Z-2.074
N95490X164.341Z-2.253
N95495X164.598Z-2.383
N95500X164.85Z-2.495
N95505X165.126Z-2.601
N95510X165.41Z-2.687
N95515X165.812Z-2.774
N95520X166.197Z-2.822
N95525X166.55Z-2.841
N95530X178.354Z-2.844
N95535X178.877Z-2.815
N95540X179.071Z-2.791
N95545X179.394Z-2.735
N95550X179.743Z-2.643
N95555X180.143Z-2.498
N95560X180.383Z-2.391
N95565X180.688Z-2.238
N95570X181.128Z-1.983
N95575X182.028Z-1.4
N95580X182.581Z-1.055
N95585X182.811Z-0.921
N95590X183.232Z-0.696
N95595X183.719Z-0.473
N95600X184.22Z-0.288
N95605X184.677Z-0.159
N95610X185.141Z-0.067
N95615X185.613Z-0.014
N95620X186.Z0.
N95625X188.78Y29.007
N95630X188.99Z-0.007
N95635X189.447Z-0.045
N95640X189.866Z-0.122
N95645X190.181Z-0.201
N95650X190.672Z-0.372
N95655X191.057Z-0.552
N95660X191.37Z-0.724
N95665X191.82Z-1.03
N95670X192.141Z-1.302
N95675X192.399Z-1.55
N95680X192.727Z-1.931
N95685X192.931Z-2.216
N95690X193.463Z-3.074
N95695X193.742Z-3.487
N95700X194.043Z-3.886
N95705X194.454Z-4.38
N95710X194.8Z-4.75
N95715X195.235Z-5.173
N95720X195.592Z-5.483
N95725X196.095Z-5.88
N95730X196.508Z-6.171
N95735X197.021Z-6.495
N95740X197.672Z-6.849
N95745X198.128Z-7.066
N95750X198.563Z-7.248
N95755X198.811Z-7.34
N95760X199.285Z-7.501
N95765X199.767Z-7.641
N95770X200.255Z-7.759
N95775X200.719Z-7.845
N95780X201.213Z-7.915
N95785X201.845Z-7.974
N95790X202.434Z-7.994
N95795X202.687Z-7.991
N95800X203.217Z-7.969
N95805X203.74Z-7.922
N95810X204.259Z-7.849
N95815X204.773Z-7.752
N95820X205.284Z-7.629
N95825X205.51Z-7.562
N95830X206.01Z-7.404
N95835X206.5Z-7.222
N95840X206.979Z-7.017
N95845X207.447Z-6.791
N95850X207.908Z-6.538
N95855X208.355Z-6.262
N95860X208.571Z-6.116
N95865X208.994Z-5.811
N95870X209.401Z-5.489
N95875X209.789Z-5.149
N95880X210.149Z-4.803
N95885X210.509Z-4.42
N95890X210.678Z-4.224
N95895X211.006Z-3.822
N95900X211.311Z-3.408
N95905X211.596Z-2.985
N95910X211.885Z-2.507
N95915X212.112Z-2.151
N95920X212.334Z-1.855
N95925X212.657Z-1.492
N95930X212.976Z-1.198
N95935X213.248Z-0.98
N95940X213.594Z-0.746
N95945X213.846Z-0.601
N95950X214.283Z-0.39
N95955X214.674Z-0.248
N95960X215.016Z-0.148
N95965X215.481Z-0.055
N95970X215.716Z-0.027
N95975X216.22Z0.
N95980X216.668Y29.269
N95985X218.78Y30.507
N95990X219.214Z-0.022
N95995X219.474Z-0.048
N96000X219.732Z-0.096
N96005X220.114Z-0.181
N96010X220.362Z-0.262
N96015X220.727Z-0.395
N96020X221.137Z-0.593
N96025X221.416Z-0.753
N96030X221.84Z-1.046
N96035X222.184Z-1.342
N96040X222.409Z-1.562
N96045X222.665Z-1.856
N96050X222.854Z-2.104
N96055X223.098Z-2.48
N96060X223.428Z-3.029
N96065X223.713Z-3.451
N96070X224.02Z-3.861
N96075X224.426Z-4.352
N96080X224.767Z-4.719
N96085X225.226Z-5.168
N96090X225.608Z-5.501
N96095X226.106Z-5.893
N96100X226.516Z-6.18
N96105X226.94Z-6.448
N96110X227.496Z-6.763
N96115X228.064Z-7.042
N96120X228.306Z-7.145
N96125X228.772Z-7.329
N96130X229.246Z-7.493
N96135X229.728Z-7.635
N96140X230.213Z-7.752
N96145X230.471Z-7.802
N96150X230.964Z-7.886
N96155X231.46Z-7.946
N96160X231.829Z-7.976
N96165X232.425Z-7.997
N96170X233.148Z-7.978
N96175X233.671Z-7.934
N96180X234.192Z-7.865
N96185X234.709Z-7.769
N96190X234.965Z-7.709
N96195X235.472Z-7.577
N96200X235.972Z-7.421
N96205X236.462Z-7.241
N96210X236.941Z-7.039
N96215X237.415Z-6.811
N96220X237.876Z-6.559
N96225X238.099Z-6.424
N96230X238.539Z-6.142
N96235X238.963Z-5.84
N96240X239.369Z-5.52
N96245X239.758Z-5.184
N96250X240.137Z-4.82
N96255X240.317Z-4.63
N96260X240.666Z-4.244
N96265X240.993Z-3.844
N96270X241.299Z-3.433
N96275X241.582Z-3.013
N96280X241.893Z-2.495
N96285X242.149Z-2.1
N96290X242.335Z-1.856
N96295X242.656Z-1.493
N96300X242.919Z-1.251
N96305X243.199Z-1.016
N96310X243.518Z-0.797
N96315X243.802Z-0.625
N96320X244.229Z-0.414
N96325X244.45Z-0.326
N96330X244.901Z-0.177
N96335X245.379Z-0.074
N96340X245.716Z-0.027
N96345X246.22Z0.
N96350X246.668Y30.769
N96355X248.78Y32.006
N96360X249.214Z-0.022
N96365X249.474Z-0.048
N96370X249.732Z-0.096
N96375X250.114Z-0.181
N96380X250.362Z-0.262
N96385X250.727Z-0.395
N96390X251.137Z-0.593
N96395X251.416Z-0.753
N96400X251.84Z-1.046
N96405X252.184Z-1.342
N96410X252.409Z-1.562
N96415X252.665Z-1.856
N96420X252.854Z-2.104
N96425X253.098Z-2.48
N96430X253.428Z-3.029
N96435X253.713Z-3.451
N96440X254.02Z-3.861
N96445X254.426Z-4.352
N96450X254.767Z-4.719
N96455X255.226Z-5.168
N96460X255.608Z-5.501
N96465X256.106Z-5.893
N96470X256.516Z-6.18
N96475X256.94Z-6.448
N96480X257.496Z-6.763
N96485X258.064Z-7.042
N96490X258.306Z-7.145
N96495X258.772Z-7.329
N96500X259.246Z-7.493
N96505X259.728Z-7.635
N96510X260.213Z-7.752
N96515X260.471Z-7.802
N96520X260.964Z-7.886
N96525X261.46Z-7.946
N96530X261.829Z-7.976
N96535X262.425Z-7.997
N96540X263.148Z-7.978
N96545X263.671Z-7.934
N96550X264.192Z-7.865
N96555X264.709Z-7.769
N96560X264.965Z-7.709
N96565X265.472Z-7.577
N96570X265.972Z-7.421
N96575X266.462Z-7.241
N96580X266.941Z-7.039
N96585X267.415Z-6.811
N96590X267.876Z-6.559
N96595X268.099Z-6.424
N96600X268.539Z-6.142
N96605X268.963Z-5.84
N96610X269.369Z-5.52
N96615X269.758Z-5.184
N96620X270.137Z-4.82
N96625X270.316Z-4.63
N96630X270.666Z-4.244
N96635X270.993Z-3.844
N96640X271.299Z-3.433
N96645X271.582Z-3.013
N96650X271.893Z-2.495
N96655X272.149Z-2.1
N96660X272.335Z-1.856
N96665X272.656Z-1.493
N96670X272.919Z-1.251
N96675X273.199Z-1.016
N96680X273.518Z-0.797
N96685X273.802Z-0.625
N96690X274.229Z-0.414
N96695X274.45Z-0.326
N96700X274.901Z-0.177
N96705X275.379Z-0.074
N96710X275.716Z-0.027
N96715X276.22Z0.
N96720X276.668Y32.269
N96725X278.78Y33.506
N96730X279.214Z-0.022
N96735X279.474Z-0.048
N96740X279.732Z-0.096
N96745X280.114Z-0.181
N96750X280.362Z-0.262
N96755X280.727Z-0.395
N96760X281.137Z-0.593
N96765X281.416Z-0.753
N96770X281.84Z-1.046
N96775X282.184Z-1.342
N96780X282.409Z-1.562
N96785X282.665Z-1.856
N96790X282.854Z-2.104
N96795X283.098Z-2.48
N96800X283.428Z-3.029
N96805X283.713Z-3.451
N96810X284.02Z-3.861
N96815X284.426Z-4.352
N96820X284.767Z-4.719
N96825X285.226Z-5.168
N96830X285.608Z-5.501
N96835X286.106Z-5.893
N96840X286.516Z-6.18
N96845X286.94Z-6.448
N96850X287.496Z-6.763
N96855X288.064Z-7.042
N96860X288.306Z-7.145
N96865X288.772Z-7.329
N96870X289.246Z-7.493
N96875X289.728Z-7.635
N96880X290.213Z-7.752
N96885X290.471Z-7.802
N96890X290.964Z-7.886
N96895X291.46Z-7.946
N96900X291.829Z-7.976
N96905X292.425Z-7.997
N96910X293.148Z-7.978
N96915X293.671Z-7.934
N96920X294.192Z-7.865
N96925X294.709Z-7.769
N96930X294.965Z-7.709
N96935X295.472Z-7.577
N96940X295.972Z-7.421
N96945X296.462Z-7.241
N96950X296.941Z-7.039
N96955X297.415Z-6.811
N96960X297.876Z-6.559
N96965X298.099Z-6.424
N96970X298.539Z-6.142
N96975X298.963Z-5.84
N96980X299.369Z-5.52
N96985X299.758Z-5.184
N96990X300.137Z-4.82
N96995X300.316Z-4.63
N97000X300.666Z-4.244
N97005X300.993Z-3.844
N97010X301.299Z-3.433
N97015X301.582Z-3.013
N97020X301.893Z-2.495
N97025X302.149Z-2.1
N97030X302.335Z-1.856
N97035X302.656Z-1.493
N97040X302.919Z-1.251
N97045X303.199Z-1.016
N97050X303.518Z-0.797
N97055X303.802Z-0.625
N97060X304.229Z-0.414
N97065X304.45Z-0.326
N97070X304.901Z-0.177
N97075X305.379Z-0.074
N97080X305.716Z-0.027
N97085X306.22Z0.
N97090X306.668Y33.769
N97095X308.78Y35.006
N97100X309.214Z-0.022
N97105X309.474Z-0.048
N97110X309.732Z-0.096
N97115X310.114Z-0.181
N97120X310.362Z-0.262
N97125X310.727Z-0.395
N97130X311.137Z-0.593
N97135X311.416Z-0.753
N97140X311.84Z-1.046
N97145X312.184Z-1.342
N97150X312.409Z-1.562
N97155X312.665Z-1.856
N97160X312.854Z-2.104
N97165X313.098Z-2.48
N97170X313.428Z-3.029
N97175X313.713Z-3.451
N97180X314.02Z-3.861
N97185X314.426Z-4.352
N97190X314.767Z-4.719
N97195X315.226Z-5.168
N97200X315.608Z-5.501
N97205X316.106Z-5.893
N97210X316.516Z-6.18
N97215X316.94Z-6.448
N97220X317.496Z-6.763
N97225X318.064Z-7.042
N97230X318.306Z-7.145
N97235X318.772Z-7.329
N97240X319.246Z-7.493
N97245X319.728Z-7.635
N97250X320.213Z-7.752
N97255X320.471Z-7.802
N97260X320.964Z-7.886
N97265X321.46Z-7.946
N97270X321.829Z-7.976
N97275X322.425Z-7.997
N97280X323.148Z-7.978
N97285X323.671Z-7.934
N97290X324.192Z-7.865
N97295X324.709Z-7.769
N97300X324.965Z-7.709
N97305X325.472Z-7.577
N97310X325.972Z-7.421
N97315X326.462Z-7.241
N97320X326.941Z-7.039
N97325X327.415Z-6.811
N97330X327.876Z-6.559
N97335X328.099Z-6.424
N97340X328.539Z-6.142
N97345X328.963Z-5.84
N97350X329.369Z-5.52
N97355X329.758Z-5.184
N97360X330.137Z-4.82
N97365X330.316Z-4.63
N97370X330.666Z-4.244
N97375X330.993Z-3.844
N97380X331.299Z-3.433
N97385X331.582Z-3.013
N97390X331.893Z-2.495
N97395X332.149Z-2.1
N97400X332.335Z-1.856
N97405X332.656Z-1.493
N97410X332.919Z-1.251
N97415X333.199Z-1.016
N97420X333.518Z-0.797
N97425X333.802Z-0.625
N97430X334.229Z-0.414
N97435X334.45Z-0.326
N97440X334.901Z-0.177
N97445X335.379Z-0.074
N97450X335.716Z-0.027
N97455X336.22Z0.
N97460X336.668Y35.269
N97465X338.78Y36.506
N97470X339.214Z-0.022
N97475X339.474Z-0.048
N97480X339.732Z-0.096
N97485X340.114Z-0.181
N97490X340.362Z-0.262
N97495X340.727Z-0.395
N97500X341.137Z-0.593
N97505X341.416Z-0.753
N97510X341.84Z-1.046
N97515X342.184Z-1.342
N97520X342.409Z-1.562
N97525X342.665Z-1.856
N97530X342.854Z-2.104
N97535X343.098Z-2.48
N97540X343.428Z-3.029
N97545X343.713Z-3.451
N97550X344.02Z-3.861
N97555X344.426Z-4.352
N97560X344.767Z-4.719
N97565X345.226Z-5.168
N97570X345.608Z-5.501
N97575X346.106Z-5.893
N97580X346.516Z-6.18
N97585X346.94Z-6.448
N97590X347.496Z-6.763
N97595X348.064Z-7.042
N97600X348.306Z-7.145
N97605X348.772Z-7.329
N97610X349.246Z-7.493
N97615X349.728Z-7.635
N97620X350.213Z-7.752
N97625X350.471Z-7.802
N97630X350.964Z-7.886
N97635X351.46Z-7.946
N97640X351.829Z-7.976
N97645X352.425Z-7.997
N97650X353.148Z-7.978
N97655X353.671Z-7.934
N97660X354.192Z-7.865
N97665X354.709Z-7.769
N97670X354.965Z-7.709
N97675X355.472Z-7.577
N97680X355.972Z-7.421
N97685X356.462Z-7.241
N97690X356.941Z-7.039
N97695X357.415Z-6.811
N97700X357.876Z-6.559
N97705X358.099Z-6.424
N97710X358.539Z-6.142
N97715X358.963Z-5.84
N97720X359.369Z-5.52
N97725X359.758Z-5.184
N97730X360.137Z-4.82
N97735X360.316Z-4.63
N97740X360.666Z-4.244
N97745X360.993Z-3.844
N97750X361.299Z-3.433
N97755X361.582Z-3.013
N97760X361.893Z-2.495
N97765X362.149Z-2.1
N97770X362.335Z-1.856
N97775X362.656Z-1.493
N97780X362.919Z-1.251
N97785X363.199Z-1.016
N97790X363.518Z-0.797
N97795X363.802Z-0.625
N97800X364.229Z-0.414
N97805X364.45Z-0.326
N97810X364.901Z-0.177
N97815X365.379Z-0.074
N97820X365.716Z-0.027
N97825X366.22Z0.
N97830G18G2X366.788Z0.599I-0.032K0.599
N97835G0Z8.
N97840X89.352Y23.007
N97845Z2.
N97850G1Z0.6F3680.
N97855G3X88.752Z0.I-0.6K0.
N97860G1X76.246
N97865X76.178Z0.008
N97870X76.114Z0.031
N97875X76.05Z0.053
N97880X75.982Z0.061
N97885X70.907
N97890G17G2Y24.507I0.J0.75
N97895G1X70.975Z0.053
N97900X71.039Z0.031
N97905X71.101Z0.008
N97910X71.166Z0.
N97915X71.661Z-0.009
N97920X72.32Z-0.039
N97925X73.709Z-0.132
N97930X74.918Z-0.201
N97935X76.077Z-0.234
N97940X88.947Z-0.233
N97945X90.135Z-0.199
N97950X91.423Z-0.123
N97955X92.92Z-0.025
N97960X93.834Z0.
N97965X99.709Y26.007
N97970X100.217Z-0.017
N97975X100.739Z-0.068
N97980X101.387Z-0.17
N97985X101.971Z-0.294
N97990X103.455Z-0.644
N97995X104.179Z-0.795
N98000X104.658Z-0.875
N98005X105.141Z-0.936
N98010X105.59Z-0.974
N98015X106.275Z-1.002
N98020X117.811Z-1.006
N98025X118.884Z-0.999
N98030X119.409Z-0.974
N98035X119.82Z-0.94
N98040X120.426Z-0.862
N98045X120.917Z-0.777
N98050X121.546Z-0.643
N98055X122.704Z-0.366
N98060X123.612Z-0.171
N98065X124.195Z-0.077
N98070X124.754Z-0.019
N98075X125.291Z0.
N98080X129.Y27.507
N98085X129.351Z-0.012
N98090X129.742Z-0.051
N98095X130.257Z-0.144
N98100X130.761Z-0.282
N98105X131.251Z-0.461
N98110X131.673Z-0.652
N98115X132.05Z-0.845
N98120X132.523Z-1.119
N98125X133.545Z-1.778
N98130X134.029Z-2.074
N98135X134.341Z-2.253
N98140X134.598Z-2.383
N98145X134.85Z-2.495
N98150X135.126Z-2.601
N98155X135.41Z-2.687
N98160X135.812Z-2.774
N98165X136.197Z-2.822
N98170X136.55Z-2.841
N98175X148.354Z-2.844
N98180X148.877Z-2.815
N98185X149.071Z-2.791
N98190X149.394Z-2.735
N98195X149.743Z-2.643
N98200X150.143Z-2.498
N98205X150.383Z-2.391
N98210X150.688Z-2.238
N98215X151.128Z-1.983
N98220X152.028Z-1.4
N98225X152.581Z-1.055
N98230X152.811Z-0.921
N98235X153.232Z-0.696
N98240X153.719Z-0.473
N98245X154.22Z-0.288
N98250X154.677Z-0.159
N98255X155.141Z-0.067
N98260X155.613Z-0.014
N98265X156.Z0.
N98270X158.78Y29.007
N98275X158.99Z-0.007
N98280X159.447Z-0.045
N98285X159.866Z-0.122
N98290X160.181Z-0.201
N98295X160.672Z-0.372
N98300X161.057Z-0.552
N98305X161.37Z-0.724
N98310X161.82Z-1.03
N98315X162.141Z-1.302
N98320X162.399Z-1.55
N98325X162.727Z-1.931
N98330X162.931Z-2.216
N98335X163.463Z-3.074
N98340X163.742Z-3.487
N98345X164.043Z-3.886
N98350X164.454Z-4.38
N98355X164.8Z-4.75
N98360X165.235Z-5.173
N98365X165.592Z-5.483
N98370X166.095Z-5.88
N98375X166.508Z-6.171
N98380X167.021Z-6.495
N98385X167.672Z-6.849
N98390X168.128Z-7.066
N98395X168.563Z-7.248
N98400X168.811Z-7.34
N98405X169.285Z-7.501
N98410X169.767Z-7.641
N98415X170.255Z-7.759
N98420X170.719Z-7.845
N98425X171.213Z-7.915
N98430X171.845Z-7.974
N98435X172.434Z-7.994
N98440X172.687Z-7.991
N98445X173.217Z-7.969
N98450X173.74Z-7.922
N98455X174.259Z-7.849
N98460X174.773Z-7.752
N98465X175.284Z-7.629
N98470X175.51Z-7.562
N98475X176.01Z-7.404
N98480X176.5Z-7.222
N98485X176.979Z-7.017
N98490X177.447Z-6.791
N98495X177.908Z-6.538
N98500X178.355Z-6.262
N98505X178.571Z-6.116
N98510X178.994Z-5.811
N98515X179.401Z-5.489
N98520X179.789Z-5.149
N98525X180.149Z-4.803
N98530X180.509Z-4.42
N98535X180.678Z-4.224
N98540X181.006Z-3.822
N98545X181.311Z-3.408
N98550X181.596Z-2.985
N98555X181.885Z-2.507
N98560X182.112Z-2.151
N98565X182.334Z-1.855
N98570X182.657Z-1.492
N98575X182.976Z-1.198
N98580X183.248Z-0.98
N98585X183.594Z-0.746
N98590X183.846Z-0.601
N98595X184.283Z-0.39
N98600X184.674Z-0.248
N98605X185.016Z-0.148
N98610X185.481Z-0.055
N98615X185.716Z-0.027
N98620X186.22Z0.
N98625X186.668Y29.269
N98630X188.78Y30.507
N98635X189.214Z-0.022
N98640X189.474Z-0.048
N98645X189.732Z-0.096
N98650X190.114Z-0.181
N98655X190.362Z-0.262
N98660X190.727Z-0.395
N98665X191.137Z-0.593
N98670X191.416Z-0.753
N98675X191.84Z-1.046
N98680X192.184Z-1.342
N98685X192.409Z-1.562
N98690X192.665Z-1.856
N98695X192.854Z-2.104
N98700X193.098Z-2.48
N98705X193.428Z-3.029
N98710X193.713Z-3.451
N98715X194.02Z-3.861
N98720X194.426Z-4.352
N98725X194.767Z-4.719
N98730X195.226Z-5.168
N98735X195.608Z-5.501
N98740X196.106Z-5.893
N98745X196.516Z-6.18
N98750X196.94Z-6.448
N98755X197.496Z-6.763
N98760X198.064Z-7.042
N98765X198.306Z-7.145
N98770X198.772Z-7.329
N98775X199.246Z-7.493
N98780X199.728Z-7.635
N98785X200.213Z-7.752
N98790X200.471Z-7.802
N98795X200.964Z-7.886
N98800X201.46Z-7.946
N98805X201.829Z-7.976
N98810X202.425Z-7.997
N98815X203.148Z-7.978
N98820X203.671Z-7.934
N98825X204.192Z-7.865
N98830X204.709Z-7.769
N98835X204.965Z-7.709
N98840X205.472Z-7.577
N98845X205.972Z-7.421
N98850X206.462Z-7.241
N98855X206.941Z-7.039
N98860X207.415Z-6.811
N98865X207.876Z-6.559
N98870X208.099Z-6.424
N98875X208.539Z-6.142
N98880X208.963Z-5.84
N98885X209.369Z-5.52
N98890X209.758Z-5.184
N98895X210.137Z-4.82
N98900X210.317Z-4.63
N98905X210.666Z-4.244
N98910X210.993Z-3.844
N98915X211.299Z-3.433
N98920X211.582Z-3.013
N98925X211.893Z-2.495
N98930X212.149Z-2.1
N98935X212.335Z-1.856
N98940X212.656Z-1.493
N98945X212.919Z-1.251
N98950X213.199Z-1.016
N98955X213.518Z-0.797
N98960X213.802Z-0.625
N98965X214.229Z-0.414
N98970X214.45Z-0.326
N98975X214.901Z-0.177
N98980X215.379Z-0.074
N98985X215.716Z-0.027
N98990X216.22Z0.
N98995X216.668Y30.769
N99000X218.78Y32.006
N99005X219.214Z-0.022
N99010X219.474Z-0.048
N99015X219.732Z-0.096
N99020X220.114Z-0.181
N99025X220.362Z-0.262
N99030X220.727Z-0.395
N99035X221.137Z-0.593
N99040X221.416Z-0.753
N99045X221.84Z-1.046
N99050X222.184Z-1.342
N99055X222.409Z-1.562
N99060X222.665Z-1.856
N99065X222.854Z-2.104
N99070X223.098Z-2.48
N99075X223.428Z-3.029
N99080X223.713Z-3.451
N99085X224.02Z-3.861
N99090X224.426Z-4.352
N99095X224.767Z-4.719
N99100X225.226Z-5.168
N99105X225.608Z-5.501
N99110X226.106Z-5.893
N99115X226.516Z-6.18
N99120X226.94Z-6.448
N99125X227.496Z-6.763
N99130X228.064Z-7.042
N99135X228.306Z-7.145
N99140X228.772Z-7.329
N99145X229.246Z-7.493
N99150X229.728Z-7.635
N99155X230.213Z-7.752
N99160X230.471Z-7.802
N99165X230.964Z-7.886
N99170X231.46Z-7.946
N99175X231.829Z-7.976
N99180X232.425Z-7.997
N99185X233.148Z-7.978
N99190X233.671Z-7.934
N99195X234.192Z-7.865
N99200X234.709Z-7.769
N99205X234.965Z-7.709
N99210X235.472Z-7.577
N99215X235.972Z-7.421
N99220X236.462Z-7.241
N99225X236.941Z-7.039
N99230X237.415Z-6.811
N99235X237.876Z-6.559
N99240X238.099Z-6.424
N99245X238.539Z-6.142
N99250X238.963Z-5.84
N99255X239.369Z-5.52
N99260X239.758Z-5.184
N99265X240.137Z-4.82
N99270X240.317Z-4.63
N99275X240.666Z-4.244
N99280X240.993Z-3.844
N99285X241.299Z-3.433
N99290X241.582Z-3.013
N99295X241.893Z-2.495
N99300X242.149Z-2.1
N99305X242.335Z-1.856
N99310X242.656Z-1.493
N99315X242.919Z-1.251
N99320X243.199Z-1.016
N99325X243.518Z-0.797
N99330X243.802Z-0.625
N99335X244.229Z-0.414
N99340X244.45Z-0.326
N99345X244.901Z-0.177
N99350X245.379Z-0.074
N99355X245.716Z-0.027
N99360X246.22Z0.
N99365X246.668Y32.269
N99370X248.78Y33.506
N99375X249.214Z-0.022
N99380X249.474Z-0.048
N99385X249.732Z-0.096
N99390X250.114Z-0.181
N99395X250.362Z-0.262
N99400X250.727Z-0.395
N99405X251.137Z-0.593
N99410X251.416Z-0.753
N99415X251.84Z-1.046
N99420X252.184Z-1.342
N99425X252.409Z-1.562
N99430X252.665Z-1.856
N99435X252.854Z-2.104
N99440X253.098Z-2.48
N99445X253.428Z-3.029
N99450X253.713Z-3.451
N99455X254.02Z-3.861
N99460X254.426Z-4.352
N99465X254.767Z-4.719
N99470X255.226Z-5.168
N99475X255.608Z-5.501
N99480X256.106Z-5.893
N99485X256.516Z-6.18
N99490X256.94Z-6.448
N99495X257.496Z-6.763
N99500X258.064Z-7.042
N99505X258.306Z-7.145
N99510X258.772Z-7.329
N99515X259.246Z-7.493
N99520X259.728Z-7.635
N99525X260.213Z-7.752
N99530X260.471Z-7.802
N99535X260.964Z-7.886
N99540X261.46Z-7.946
N99545X261.829Z-7.976
N99550X262.425Z-7.997
N99555X263.148Z-7.978
N99560X263.671Z-7.934
N99565X264.192Z-7.865
N99570X264.709Z-7.769
N99575X264.965Z-7.709
N99580X265.472Z-7.577
N99585X265.972Z-7.421
N99590X266.462Z-7.241
N99595X266.941Z-7.039
N99600X267.415Z-6.811
N99605X267.876Z-6.559
N99610X268.099Z-6.424
N99615X268.539Z-6.142
N99620X268.963Z-5.84
N99625X269.369Z-5.52
N99630X269.758Z-5.184
N99635X270.137Z-4.82
N99640X270.316Z-4.63
N99645X270.666Z-4.244
N99650X270.993Z-3.844
N99655X271.299Z-3.433
N99660X271.582Z-3.013
N99665X271.893Z-2.495
N99670X272.149Z-2.1
N99675X272.335Z-1.856
N99680X272.656Z-1.493
N99685X272.919Z-1.251
N99690X273.199Z-1.016
N99695X273.518Z-0.797
N99700X273.802Z-0.625
N99705X274.229Z-0.414
N99710X274.45Z-0.326
N99715X274.901Z-0.177
N99720X275.379Z-0.074
N99725X275.716Z-0.027
N99730X276.22Z0.
N99735X276.668Y33.769
N99740X278.78Y35.006
N99745X279.214Z-0.022
N99750X279.474Z-0.048
N99755X279.732Z-0.096
N99760X280.114Z-0.181
N99765X280.362Z-0.262
N99770X280.727Z-0.395
N99775X281.137Z-0.593
N99780X281.416Z-0.753
N99785X281.84Z-1.046
N99790X282.184Z-1.342
N99795X282.409Z-1.562
N99800X282.665Z-1.856
N99805X282.854Z-2.104
N99810X283.098Z-2.48
N99815X283.428Z-3.029
N99820X283.713Z-3.451
N99825X284.02Z-3.861
N99830X284.426Z-4.352
N99835X284.767Z-4.719
N99840X285.226Z-5.168
N99845X285.608Z-5.501
N99850X286.106Z-5.893
N99855X286.516Z-6.18
N99860X286.94Z-6.448
N99865X287.496Z-6.763
N99870X288.064Z-7.042
N99875X288.306Z-7.145
N99880X288.772Z-7.329
N99885X289.246Z-7.493
N99890X289.728Z-7.635
N99895X290.213Z-7.752
N99900X290.471Z-7.802
N99905X290.964Z-7.886
N99910X291.46Z-7.946
N99915X291.829Z-7.976
N99920X292.425Z-7.997
N99925X293.148Z-7.978
N99930X293.671Z-7.934
N99935X294.192Z-7.865
N99940X294.709Z-7.769
N99945X294.965Z-7.709
N99950X295.472Z-7.577
N99955X295.972Z-7.421
N99960X296.462Z-7.241
N99965X296.941Z-7.039
N99970X297.415Z-6.811
N99975X297.876Z-6.559
N99980X298.099Z-6.424
N99985X298.539Z-6.142
N99990X298.963Z-5.84
N99995X299.369Z-5.52
N10X299.758Z-5.184
N15X300.137Z-4.82
N20X300.316Z-4.63
N25X300.666Z-4.244
N30X300.993Z-3.844
N35X301.299Z-3.433
N40X301.582Z-3.013
N45X301.893Z-2.495
N50X302.149Z-2.1
N55X302.335Z-1.856
N60X302.656Z-1.493
N65X302.919Z-1.251
N70X303.199Z-1.016
N75X303.518Z-0.797
N80X303.802Z-0.625
N85X304.229Z-0.414
N90X304.45Z-0.326
N95X304.901Z-0.177
N100X305.379Z-0.074
N105X305.716Z-0.027
N110X306.22Z0.
N115X306.668Y35.269
N120X308.78Y36.506
N125X309.214Z-0.022
N130X309.474Z-0.048
N135X309.732Z-0.096
N140X310.114Z-0.181
N145X310.362Z-0.262
N150X310.727Z-0.395
N155X311.137Z-0.593
N160X311.416Z-0.753
N165X311.84Z-1.046
N170X312.184Z-1.342
N175X312.409Z-1.562
N180X312.665Z-1.856
N185X312.854Z-2.104
N190X313.098Z-2.48
N195X313.428Z-3.029
N200X313.713Z-3.451
N205X314.02Z-3.861
N210X314.426Z-4.352
N215X314.767Z-4.719
N220X315.226Z-5.168
N225X315.608Z-5.501
N230X316.106Z-5.893
N235X316.516Z-6.18
N240X316.94Z-6.448
N245X317.496Z-6.763
N250X318.064Z-7.042
N255X318.306Z-7.145
N260X318.772Z-7.329
N265X319.246Z-7.493
N270X319.728Z-7.635
N275X320.213Z-7.752
N280X320.471Z-7.802
N285X320.964Z-7.886
N290X321.46Z-7.946
N295X321.829Z-7.976
N300X322.425Z-7.997
N305X323.148Z-7.978
N310X323.671Z-7.934
N315X324.192Z-7.865
N320X324.709Z-7.769
N325X324.965Z-7.709
N330X325.472Z-7.577
N335X325.972Z-7.421
N340X326.462Z-7.241
N345X326.941Z-7.039
N350X327.415Z-6.811
N355X327.876Z-6.559
N360X328.099Z-6.424
N365X328.539Z-6.142
N370X328.963Z-5.84
N375X329.369Z-5.52
N380X329.758Z-5.184
N385X330.137Z-4.82
N390X330.316Z-4.63
N395X330.666Z-4.244
N400X330.993Z-3.844
N405X331.299Z-3.433
N410X331.582Z-3.013
N415X331.893Z-2.495
N420X332.149Z-2.1
N425X332.335Z-1.856
N430X332.656Z-1.493
N435X332.919Z-1.251
N440X333.199Z-1.016
N445X333.518Z-0.797
N450X333.802Z-0.625
N455X334.229Z-0.414
N460X334.45Z-0.326
N465X334.901Z-0.177
N470X335.379Z-0.074
N475X335.716Z-0.027
N480X336.22Z0.
N485X336.668Y36.769
N490X338.78Y38.006
N495X339.214Z-0.022
N500X339.474Z-0.048
N505X339.732Z-0.096
N510X340.114Z-0.181
N515X340.362Z-0.262
N520X340.727Z-0.395
N525X341.137Z-0.593
N530X341.416Z-0.753
N535X341.84Z-1.046
N540X342.184Z-1.342
N545X342.409Z-1.562
N550X342.665Z-1.856
N555X342.854Z-2.104
N560X343.098Z-2.48
N565X343.428Z-3.029
N570X343.713Z-3.451
N575X344.02Z-3.861
N580X344.426Z-4.352
N585X344.767Z-4.719
N590X345.226Z-5.168
N595X345.608Z-5.501
N600X346.106Z-5.893
N605X346.516Z-6.18
N610X346.94Z-6.448
N615X347.496Z-6.763
N620X348.064Z-7.042
N625X348.306Z-7.145
N630X348.772Z-7.329
N635X349.246Z-7.493
N640X349.728Z-7.635
N645X350.213Z-7.752
N650X350.471Z-7.802
N655X350.964Z-7.886
N660X351.46Z-7.946
N665X351.829Z-7.976
N670X352.425Z-7.997
N675X353.148Z-7.978
N680X353.671Z-7.934
N685X354.192Z-7.865
N690X354.709Z-7.769
N695X354.965Z-7.709
N700X355.472Z-7.577
N705X355.972Z-7.421
N710X356.462Z-7.241
N715X356.941Z-7.039
N720X357.415Z-6.811
N725X357.876Z-6.559
N730X358.099Z-6.424
N735X358.539Z-6.142
N740X358.963Z-5.84
N745X359.369Z-5.52
N750X359.758Z-5.184
N755X360.137Z-4.82
N760X360.316Z-4.63
N765X360.666Z-4.244
N770X360.993Z-3.844
N775X361.299Z-3.433
N780X361.582Z-3.013
N785X361.893Z-2.495
N790X362.149Z-2.1
N795X362.335Z-1.856
N800X362.656Z-1.493
N805X362.919Z-1.251
N810X363.199Z-1.016
N815X363.518Z-0.797
N820X363.802Z-0.625
N825X364.229Z-0.414
N830X364.45Z-0.326
N835X364.901Z-0.177
N840X365.379Z-0.074
N845X365.716Z-0.027
N850X366.22Z0.
N855G18G2X366.788Z0.599I-0.032K0.599
N860G0Z8.
N865X59.352Y23.007
N870Z2.
N875G1Z0.6F3680.
N880G3X58.752Z0.I-0.6K0.
N885G1X46.246
N890X46.178Z0.008
N895X46.114Z0.031
N900X46.05Z0.053
N905X45.982Z0.061
N910X40.907
N915G17G2Y24.507I0.J0.75
N920G1X40.975Z0.053
N925X41.039Z0.031
N930X41.101Z0.008
N935X41.166Z0.
N940X41.661Z-0.009
N945X42.32Z-0.039
N950X43.709Z-0.132
N955X44.918Z-0.201
N960X46.077Z-0.234
N965X58.947Z-0.233
N970X60.135Z-0.199
N975X61.423Z-0.123
N980X62.92Z-0.025
N985X63.834Z0.
N990X69.709Y26.007
N995X70.17Z-0.014
N1000X70.693Z-0.062
N1005X71.38Z-0.169
N1010X71.964Z-0.292
N1015X73.453Z-0.643
N1020X74.166Z-0.793
N1025X74.718Z-0.883
N1030X75.2Z-0.942
N1035X75.69Z-0.981
N1040X76.335Z-1.002
N1045X87.468Z-1.006
N1050X88.793Z-1.
N1055X89.306Z-0.981
N1060X89.811Z-0.941
N1065X90.39Z-0.868
N1070X90.886Z-0.782
N1075X91.573Z-0.637
N1080X92.458Z-0.426
N1085X93.262Z-0.242
N1090X93.726Z-0.15
N1095X94.31Z-0.062
N1100X94.781Z-0.017
N1105X95.291Z0.
N1110X99.Y27.507
N1115X99.351Z-0.012
N1120X99.742Z-0.051
N1125X100.257Z-0.144
N1130X100.761Z-0.282
N1135X101.251Z-0.461
N1140X101.673Z-0.652
N1145X102.05Z-0.845
N1150X102.523Z-1.119
N1155X103.545Z-1.778
N1160X104.029Z-2.074
N1165X104.341Z-2.253
N1170X104.598Z-2.383
N1175X104.85Z-2.495
N1180X105.126Z-2.601
N1185X105.41Z-2.687
N1190X105.812Z-2.774
N1195X106.197Z-2.822
N1200X106.55Z-2.841
N1205X118.354Z-2.844
N1210X118.877Z-2.815
N1215X119.071Z-2.791
N1220X119.394Z-2.735
N1225X119.743Z-2.643
N1230X120.143Z-2.498
N1235X120.383Z-2.391
N1240X120.688Z-2.238
N1245X121.128Z-1.983
N1250X122.028Z-1.4
N1255X122.581Z-1.055
N1260X122.811Z-0.921
N1265X123.232Z-0.696
N1270X123.719Z-0.473
N1275X124.22Z-0.288
N1280X124.677Z-0.159
N1285X125.141Z-0.067
N1290X125.613Z-0.014
N1295X126.Z0.
N1300X128.78Y29.007
N1305X128.99Z-0.007
N1310X129.447Z-0.045
N1315X129.866Z-0.122
N1320X130.181Z-0.201
N1325X130.672Z-0.372
N1330X131.057Z-0.552
N1335X131.37Z-0.724
N1340X131.82Z-1.03
N1345X132.141Z-1.302
N1350X132.399Z-1.55
N1355X132.727Z-1.931
N1360X132.931Z-2.216
N1365X133.463Z-3.074
N1370X133.742Z-3.487
N1375X134.043Z-3.886
N1380X134.454Z-4.38
N1385X134.8Z-4.75
N1390X135.235Z-5.173
N1395X135.592Z-5.483
N1400X136.095Z-5.88
N1405X136.508Z-6.171
N1410X137.021Z-6.495
N1415X137.672Z-6.849
N1420X138.128Z-7.066
N1425X138.563Z-7.248
N1430X138.811Z-7.34
N1435X139.285Z-7.501
N1440X139.767Z-7.641
N1445X140.255Z-7.759
N1450X140.719Z-7.845
N1455X141.213Z-7.915
N1460X141.845Z-7.974
N1465X142.434Z-7.994
N1470X142.687Z-7.991
N1475X143.217Z-7.969
N1480X143.74Z-7.922
N1485X144.259Z-7.849
N1490X144.773Z-7.752
N1495X145.284Z-7.629
N1500X145.51Z-7.562
N1505X146.01Z-7.404
N1510X146.5Z-7.222
N1515X146.979Z-7.017
N1520X147.447Z-6.791
N1525X147.908Z-6.538
N1530X148.355Z-6.262
N1535X148.571Z-6.116
N1540X148.994Z-5.811
N1545X149.401Z-5.489
N1550X149.789Z-5.149
N1555X150.149Z-4.803
N1560X150.509Z-4.42
N1565X150.678Z-4.224
N1570X151.006Z-3.822
N1575X151.311Z-3.408
N1580X151.596Z-2.985
N1585X151.885Z-2.507
N1590X152.112Z-2.151
N1595X152.334Z-1.855
N1600X152.657Z-1.492
N1605X152.976Z-1.198
N1610X153.248Z-0.98
N1615X153.594Z-0.746
N1620X153.846Z-0.601
N1625X154.283Z-0.39
N1630X154.674Z-0.248
N1635X155.016Z-0.148
N1640X155.481Z-0.055
N1645X155.716Z-0.027
N1650X156.22Z0.
N1655X156.668Y29.269
N1660X158.78Y30.507
N1665X159.214Z-0.022
N1670X159.474Z-0.048
N1675X159.732Z-0.096
N1680X160.114Z-0.181
N1685X160.362Z-0.262
N1690X160.727Z-0.395
N1695X161.137Z-0.593
N1700X161.416Z-0.753
N1705X161.84Z-1.046
N1710X162.184Z-1.342
N1715X162.409Z-1.562
N1720X162.665Z-1.856
N1725X162.854Z-2.104
N1730X163.098Z-2.48
N1735X163.428Z-3.029
N1740X163.713Z-3.451
N1745X164.02Z-3.861
N1750X164.426Z-4.352
N1755X164.767Z-4.719
N1760X165.226Z-5.168
N1765X165.608Z-5.501
N1770X166.106Z-5.893
N1775X166.516Z-6.18
N1780X166.94Z-6.448
N1785X167.496Z-6.763
N1790X168.064Z-7.042
N1795X168.306Z-7.145
N1800X168.772Z-7.329
N1805X169.246Z-7.493
N1810X169.728Z-7.635
N1815X170.213Z-7.752
N1820X170.471Z-7.802
N1825X170.964Z-7.886
N1830X171.46Z-7.946
N1835X171.829Z-7.976
N1840X172.425Z-7.997
N1845X173.148Z-7.978
N1850X173.671Z-7.934
N1855X174.192Z-7.865
N1860X174.709Z-7.769
N1865X174.965Z-7.709
N1870X175.472Z-7.577
N1875X175.972Z-7.421
N1880X176.462Z-7.241
N1885X176.941Z-7.039
N1890X177.415Z-6.811
N1895X177.876Z-6.559
N1900X178.099Z-6.424
N1905X178.539Z-6.142
N1910X178.963Z-5.84
N1915X179.369Z-5.52
N1920X179.758Z-5.184
N1925X180.137Z-4.82
N1930X180.317Z-4.63
N1935X180.666Z-4.244
N1940X180.993Z-3.844
N1945X181.299Z-3.433
N1950X181.582Z-3.013
N1955X181.893Z-2.495
N1960X182.149Z-2.1
N1965X182.335Z-1.856
N1970X182.656Z-1.493
N1975X182.919Z-1.251
N1980X183.199Z-1.016
N1985X183.518Z-0.797
N1990X183.802Z-0.625
N1995X184.229Z-0.414
N2000X184.45Z-0.326
N2005X184.901Z-0.177
N2010X185.379Z-0.074
N2015X185.716Z-0.027
N2020X186.22Z0.
N2025X186.668Y30.769
N2030X188.78Y32.006
N2035X189.214Z-0.022
N2040X189.474Z-0.048
N2045X189.732Z-0.096
N2050X190.114Z-0.181
N2055X190.362Z-0.262
N2060X190.727Z-0.395
N2065X191.137Z-0.593
N2070X191.416Z-0.753
N2075X191.84Z-1.046
N2080X192.184Z-1.342
N2085X192.409Z-1.562
N2090X192.665Z-1.856
N2095X192.854Z-2.104
N2100X193.098Z-2.48
N2105X193.428Z-3.029
N2110X193.713Z-3.451
N2115X194.02Z-3.861
N2120X194.426Z-4.352
N2125X194.767Z-4.719
N2130X195.226Z-5.168
N2135X195.608Z-5.501
N2140X196.106Z-5.893
N2145X196.516Z-6.18
N2150X196.94Z-6.448
N2155X197.496Z-6.763
N2160X198.064Z-7.042
N2165X198.306Z-7.145
N2170X198.772Z-7.329
N2175X199.246Z-7.493
N2180X199.728Z-7.635
N2185X200.213Z-7.752
N2190X200.471Z-7.802
N2195X200.964Z-7.886
N2200X201.46Z-7.946
N2205X201.829Z-7.976
N2210X202.425Z-7.997
N2215X203.148Z-7.978
N2220X203.671Z-7.934
N2225X204.192Z-7.865
N2230X204.709Z-7.769
N2235X204.965Z-7.709
N2240X205.472Z-7.577
N2245X205.972Z-7.421
N2250X206.462Z-7.241
N2255X206.941Z-7.039
N2260X207.415Z-6.811
N2265X207.876Z-6.559
N2270X208.099Z-6.424
N2275X208.539Z-6.142
N2280X208.963Z-5.84
N2285X209.369Z-5.52
N2290X209.758Z-5.184
N2295X210.137Z-4.82
N2300X210.317Z-4.63
N2305X210.666Z-4.244
N2310X210.993Z-3.844
N2315X211.299Z-3.433
N2320X211.582Z-3.013
N2325X211.893Z-2.495
N2330X212.149Z-2.1
N2335X212.335Z-1.856
N2340X212.656Z-1.493
N2345X212.919Z-1.251
N2350X213.199Z-1.016
N2355X213.518Z-0.797
N2360X213.802Z-0.625
N2365X214.229Z-0.414
N2370X214.45Z-0.326
N2375X214.901Z-0.177
N2380X215.379Z-0.074
N2385X215.716Z-0.027
N2390X216.22Z0.
N2395X216.668Y32.269
N2400X218.78Y33.506
N2405X219.214Z-0.022
N2410X219.474Z-0.048
N2415X219.732Z-0.096
N2420X220.114Z-0.181
N2425X220.362Z-0.262
N2430X220.727Z-0.395
N2435X221.137Z-0.593
N2440X221.416Z-0.753
N2445X221.84Z-1.046
N2450X222.184Z-1.342
N2455X222.409Z-1.562
N2460X222.665Z-1.856
N2465X222.854Z-2.104
N2470X223.098Z-2.48
N2475X223.428Z-3.029
N2480X223.713Z-3.451
N2485X224.02Z-3.861
N2490X224.426Z-4.352
N2495X224.767Z-4.719
N2500X225.226Z-5.168
N2505X225.608Z-5.501
N2510X226.106Z-5.893
N2515X226.516Z-6.18
N2520X226.94Z-6.448
N2525X227.496Z-6.763
N2530X228.064Z-7.042
N2535X228.306Z-7.145
N2540X228.772Z-7.329
N2545X229.246Z-7.493
N2550X229.728Z-7.635
N2555X230.213Z-7.752
N2560X230.471Z-7.802
N2565X230.964Z-7.886
N2570X231.46Z-7.946
N2575X231.829Z-7.976
N2580X232.425Z-7.997
N2585X233.148Z-7.978
N2590X233.671Z-7.934
N2595X234.192Z-7.865
N2600X234.709Z-7.769
N2605X234.965Z-7.709
N2610X235.472Z-7.577
N2615X235.972Z-7.421
N2620X236.462Z-7.241
N2625X236.941Z-7.039
N2630X237.415Z-6.811
N2635X237.876Z-6.559
N2640X238.099Z-6.424
N2645X238.539Z-6.142
N2650X238.963Z-5.84
N2655X239.369Z-5.52
N2660X239.758Z-5.184
N2665X240.137Z-4.82
N2670X240.317Z-4.63
N2675X240.666Z-4.244
N2680X240.993Z-3.844
N2685X241.299Z-3.433
N2690X241.582Z-3.013
N2695X241.893Z-2.495
N2700X242.149Z-2.1
N2705X242.335Z-1.856
N2710X242.656Z-1.493
N2715X242.919Z-1.251
N2720X243.199Z-1.016
N2725X243.518Z-0.797
N2730X243.802Z-0.625
N2735X244.229Z-0.414
N2740X244.45Z-0.326
N2745X244.901Z-0.177
N2750X245.379Z-0.074
N2755X245.716Z-0.027
N2760X246.22Z0.
N2765X246.668Y33.769
N2770X248.78Y35.006
N2775X249.214Z-0.022
N2780X249.474Z-0.048
N2785X249.732Z-0.096
N2790X250.114Z-0.181
N2795X250.362Z-0.262
N2800X250.727Z-0.395
N2805X251.137Z-0.593
N2810X251.416Z-0.753
N2815X251.84Z-1.046
N2820X252.184Z-1.342
N2825X252.409Z-1.562
N2830X252.665Z-1.856
N2835X252.854Z-2.104
N2840X253.098Z-2.48
N2845X253.428Z-3.029
N2850X253.713Z-3.451
N2855X254.02Z-3.861
N2860X254.426Z-4.352
N2865X254.767Z-4.719
N2870X255.226Z-5.168
N2875X255.608Z-5.501
N2880X256.106Z-5.893
N2885X256.516Z-6.18
N2890X256.94Z-6.448
N2895X257.496Z-6.763
N2900X258.064Z-7.042
N2905X258.306Z-7.145
N2910X258.772Z-7.329
N2915X259.246Z-7.493
N2920X259.728Z-7.635
N2925X260.213Z-7.752
N2930X260.471Z-7.802
N2935X260.964Z-7.886
N2940X261.46Z-7.946
N2945X261.829Z-7.976
N2950X262.425Z-7.997
N2955X263.148Z-7.978
N2960X263.671Z-7.934
N2965X264.192Z-7.865
N2970X264.709Z-7.769
N2975X264.965Z-7.709
N2980X265.472Z-7.577
N2985X265.972Z-7.421
N2990X266.462Z-7.241
N2995X266.941Z-7.039
N3000X267.415Z-6.811
N3005X267.876Z-6.559
N3010X268.099Z-6.424
N3015X268.539Z-6.142
N3020X268.963Z-5.84
N3025X269.369Z-5.52
N3030X269.758Z-5.184
N3035X270.137Z-4.82
N3040X270.316Z-4.63
N3045X270.666Z-4.244
N3050X270.993Z-3.844
N3055X271.299Z-3.433
N3060X271.582Z-3.013
N3065X271.893Z-2.495
N3070X272.149Z-2.1
N3075X272.335Z-1.856
N3080X272.656Z-1.493
N3085X272.919Z-1.251
N3090X273.199Z-1.016
N3095X273.518Z-0.797
N3100X273.802Z-0.625
N3105X274.229Z-0.414
N3110X274.45Z-0.326
N3115X274.901Z-0.177
N3120X275.379Z-0.074
N3125X275.716Z-0.027
N3130X276.22Z0.
N3135X276.668Y35.269
N3140X278.78Y36.506
N3145X279.214Z-0.022
N3150X279.474Z-0.048
N3155X279.732Z-0.096
N3160X280.114Z-0.181
N3165X280.362Z-0.262
N3170X280.727Z-0.395
N3175X281.137Z-0.593
N3180X281.416Z-0.753
N3185X281.84Z-1.046
N3190X282.184Z-1.342
N3195X282.409Z-1.562
N3200X282.665Z-1.856
N3205X282.854Z-2.104
N3210X283.098Z-2.48
N3215X283.428Z-3.029
N3220X283.713Z-3.451
N3225X284.02Z-3.861
N3230X284.426Z-4.352
N3235X284.767Z-4.719
N3240X285.226Z-5.168
N3245X285.608Z-5.501
N3250X286.106Z-5.893
N3255X286.516Z-6.18
N3260X286.94Z-6.448
N3265X287.496Z-6.763
N3270X288.064Z-7.042
N3275X288.306Z-7.145
N3280X288.772Z-7.329
N3285X289.246Z-7.493
N3290X289.728Z-7.635
N3295X290.213Z-7.752
N3300X290.471Z-7.802
N3305X290.964Z-7.886
N3310X291.46Z-7.946
N3315X291.829Z-7.976
N3320X292.425Z-7.997
N3325X293.148Z-7.978
N3330X293.671Z-7.934
N3335X294.192Z-7.865
N3340X294.709Z-7.769
N3345X294.965Z-7.709
N3350X295.472Z-7.577
N3355X295.972Z-7.421
N3360X296.462Z-7.241
N3365X296.941Z-7.039
N3370X297.415Z-6.811
N3375X297.876Z-6.559
N3380X298.099Z-6.424
N3385X298.539Z-6.142
N3390X298.963Z-5.84
N3395X299.369Z-5.52
N3400X299.758Z-5.184
N3405X300.137Z-4.82
N3410X300.316Z-4.63
N3415X300.666Z-4.244
N3420X300.993Z-3.844
N3425X301.299Z-3.433
N3430X301.582Z-3.013
N3435X301.893Z-2.495
N3440X302.149Z-2.1
N3445X302.335Z-1.856
N3450X302.656Z-1.493
N3455X302.919Z-1.251
N3460X303.199Z-1.016
N3465X303.518Z-0.797
N3470X303.802Z-0.625
N3475X304.229Z-0.414
N3480X304.45Z-0.326
N3485X304.901Z-0.177
N3490X305.379Z-0.074
N3495X305.716Z-0.027
N3500X306.22Z0.
N3505X306.668Y36.769
N3510X308.78Y38.006
N3515X309.214Z-0.022
N3520X309.474Z-0.048
N3525X309.732Z-0.096
N3530X310.114Z-0.181
N3535X310.362Z-0.262
N3540X310.727Z-0.395
N3545X311.137Z-0.593
N3550X311.416Z-0.753
N3555X311.84Z-1.046
N3560X312.184Z-1.342
N3565X312.409Z-1.562
N3570X312.665Z-1.856
N3575X312.854Z-2.104
N3580X313.098Z-2.48
N3585X313.428Z-3.029
N3590X313.713Z-3.451
N3595X314.02Z-3.861
N3600X314.426Z-4.352
N3605X314.767Z-4.719
N3610X315.226Z-5.168
N3615X315.608Z-5.501
N3620X316.106Z-5.893
N3625X316.516Z-6.18
N3630X316.94Z-6.448
N3635X317.496Z-6.763
N3640X318.064Z-7.042
N3645X318.306Z-7.145
N3650X318.772Z-7.329
N3655X319.246Z-7.493
N3660X319.728Z-7.635
N3665X320.213Z-7.752
N3670X320.471Z-7.802
N3675X320.964Z-7.886
N3680X321.46Z-7.946
N3685X321.829Z-7.976
N3690X322.425Z-7.997
N3695X323.148Z-7.978
N3700X323.671Z-7.934
N3705X324.192Z-7.865
N3710X324.709Z-7.769
N3715X324.965Z-7.709
N3720X325.472Z-7.577
N3725X325.972Z-7.421
N3730X326.462Z-7.241
N3735X326.941Z-7.039
N3740X327.415Z-6.811
N3745X327.876Z-6.559
N3750X328.099Z-6.424
N3755X328.539Z-6.142
N3760X328.963Z-5.84
N3765X329.369Z-5.52
N3770X329.758Z-5.184
N3775X330.137Z-4.82
N3780X330.316Z-4.63
N3785X330.666Z-4.244
N3790X330.993Z-3.844
N3795X331.299Z-3.433
N3800X331.582Z-3.013
N3805X331.893Z-2.495
N3810X332.149Z-2.1
N3815X332.335Z-1.856
N3820X332.656Z-1.493
N3825X332.919Z-1.251
N3830X333.199Z-1.016
N3835X333.518Z-0.797
N3840X333.802Z-0.625
N3845X334.229Z-0.414
N3850X334.45Z-0.326
N3855X334.901Z-0.177
N3860X335.379Z-0.074
N3865X335.716Z-0.027
N3870X336.22Z0.
N3875X336.668Y38.268
N3880X338.78Y39.506
N3885X339.214Z-0.022
N3890X339.474Z-0.048
N3895X339.732Z-0.096
N3900X340.114Z-0.181
N3905X340.362Z-0.262
N3910X340.727Z-0.395
N3915X341.137Z-0.593
N3920X341.416Z-0.753
N3925X341.84Z-1.046
N3930X342.184Z-1.342
N3935X342.409Z-1.562
N3940X342.665Z-1.856
N3945X342.854Z-2.104
N3950X343.098Z-2.48
N3955X343.428Z-3.029
N3960X343.713Z-3.451
N3965X344.02Z-3.861
N3970X344.426Z-4.352
N3975X344.767Z-4.719
N3980X345.226Z-5.168
N3985X345.608Z-5.501
N3990X346.106Z-5.893
N3995X346.516Z-6.18
N4000X346.94Z-6.448
N4005X347.496Z-6.763
N4010X348.064Z-7.042
N4015X348.306Z-7.145
N4020X348.772Z-7.329
N4025X349.246Z-7.493
N4030X349.728Z-7.635
N4035X350.213Z-7.752
N4040X350.471Z-7.802
N4045X350.964Z-7.886
N4050X351.46Z-7.946
N4055X351.829Z-7.976
N4060X352.425Z-7.997
N4065X353.148Z-7.978
N4070X353.671Z-7.934
N4075X354.192Z-7.865
N4080X354.709Z-7.769
N4085X354.965Z-7.709
N4090X355.472Z-7.577
N4095X355.972Z-7.421
N4100X356.462Z-7.241
N4105X356.941Z-7.039
N4110X357.415Z-6.811
N4115X357.876Z-6.559
N4120X358.099Z-6.424
N4125X358.539Z-6.142
N4130X358.963Z-5.84
N4135X359.369Z-5.52
N4140X359.758Z-5.184
N4145X360.137Z-4.82
N4150X360.316Z-4.63
N4155X360.666Z-4.244
N4160X360.993Z-3.844
N4165X361.299Z-3.433
N4170X361.582Z-3.013
N4175X361.893Z-2.495
N4180X362.149Z-2.1
N4185X362.335Z-1.856
N4190X362.656Z-1.493
N4195X362.919Z-1.251
N4200X363.199Z-1.016
N4205X363.518Z-0.797
N4210X363.802Z-0.625
N4215X364.229Z-0.414
N4220X364.45Z-0.326
N4225X364.901Z-0.177
N4230X365.379Z-0.074
N4235X365.716Z-0.027
N4240X366.22Z0.
N4245G18G2X366.788Z0.599I-0.032K0.599
N4250G0Z8.
N4255X29.352Y23.007
N4260Z2.
N4265G1Z0.6F3680.
N4270G3X28.752Z0.I-0.6K0.
N4275G1X16.246
N4280X16.178Z0.008
N4285X16.114Z0.031
N4290X16.05Z0.053
N4295X15.982Z0.061
N4300X10.907
N4305G17G2Y24.507I0.J0.75
N4310G1X10.975Z0.053
N4315X11.039Z0.031
N4320X11.101Z0.008
N4325X11.166Z0.
N4330X11.661Z-0.009
N4335X12.32Z-0.039
N4340X13.709Z-0.132
N4345X14.918Z-0.201
N4350X16.077Z-0.234
N4355X28.947Z-0.233
N4360X30.135Z-0.199
N4365X31.423Z-0.123
N4370X32.92Z-0.025
N4375X33.834Z0.
N4380X33.897Z0.009
N4385X33.957Z0.031
N4390X34.022Z0.053
N4395X34.09Z0.061
N4400X35.545
N4405G3Y26.007I0.J0.75
N4410G1X35.477Z0.053
N4415X35.413Z0.031
N4420X35.412Z0.03
N4425X35.353Z0.009
N4430X35.291Z0.
N4435X34.781Z-0.017
N4440X34.31Z-0.062
N4445X33.726Z-0.15
N4450X33.262Z-0.242
N4455X32.458Z-0.426
N4460X31.573Z-0.637
N4465X30.886Z-0.782
N4470X30.39Z-0.868
N4475X29.811Z-0.941
N4480X29.306Z-0.981
N4485X28.793Z-1.
N4490X27.468Z-1.006
N4495X16.335Z-1.002
N4500X15.69Z-0.981
N4505X15.2Z-0.942
N4510X14.718Z-0.883
N4515X14.166Z-0.793
N4520X13.453Z-0.643
N4525X11.964Z-0.292
N4530X11.38Z-0.169
N4535X10.693Z-0.062
N4540X10.17Z-0.014
N4545X9.709Z0.
N4550G18G3Z0.929I0.K0.465
N4555G1X39.709Z0.
N4560X40.17Z-0.014
N4565X40.693Z-0.062
N4570X41.38Z-0.169
N4575X41.964Z-0.292
N4580X43.453Z-0.643
N4585X44.166Z-0.793
N4590X44.718Z-0.883
N4595X45.2Z-0.942
N4600X45.69Z-0.981
N4605X46.335Z-1.002
N4610X57.468Z-1.006
N4615X58.793Z-1.
N4620X59.306Z-0.981
N4625X59.811Z-0.941
N4630X60.39Z-0.868
N4635X60.886Z-0.782
N4640X61.573Z-0.637
N4645X62.458Z-0.426
N4650X63.262Z-0.242
N4655X63.726Z-0.15
N4660X64.31Z-0.062
N4665X64.781Z-0.017
N4670X65.291Z0.
N4675X65.353Z0.009
N4680X65.412Z0.03
N4685X65.477Z0.053
N4690X65.544Z0.061
N4695X66.254
N4700G17G3Y27.507I0.J0.75
N4705G1X66.186Z0.053
N4710X66.122Z0.03
N4715X66.063Z0.009
N4720X66.Z0.
N4725X65.613Z-0.014
N4730X65.141Z-0.067
N4735X64.677Z-0.159
N4740X64.22Z-0.288
N4745X63.719Z-0.473
N4750X63.232Z-0.696
N4755X62.811Z-0.921
N4760X62.581Z-1.055
N4765X62.028Z-1.4
N4770X61.128Z-1.983
N4775X60.688Z-2.238
N4780X60.383Z-2.391
N4785X60.143Z-2.498
N4790X59.743Z-2.643
N4795X59.394Z-2.735
N4800X59.071Z-2.791
N4805X58.877Z-2.815
N4810X58.354Z-2.844
N4815X46.55Z-2.841
N4820X46.197Z-2.822
N4825X45.812Z-2.774
N4830X45.41Z-2.687
N4835X45.126Z-2.601
N4840X44.85Z-2.495
N4845X44.598Z-2.383
N4850X44.341Z-2.253
N4855X44.029Z-2.074
N4860X43.545Z-1.778
N4865X42.523Z-1.119
N4870X42.05Z-0.845
N4875X41.673Z-0.652
N4880X41.251Z-0.461
N4885X40.761Z-0.282
N4890X40.257Z-0.144
N4895X39.742Z-0.051
N4900X39.351Z-0.012
N4905X39.Z0.
N4910X38.92Z0.013
N4915X38.847Z0.047
N4920X38.765Z0.084
N4925X38.675Z0.095
N4930X36.Z0.
N4935X35.613Z-0.014
N4940X35.141Z-0.067
N4945X34.677Z-0.159
N4950X34.22Z-0.288
N4955X33.719Z-0.473
N4960X33.232Z-0.696
N4965X32.811Z-0.921
N4970X32.581Z-1.055
N4975X32.028Z-1.4
N4980X31.128Z-1.983
N4985X30.688Z-2.238
N4990X30.383Z-2.391
N4995X30.143Z-2.498
N5000X29.743Z-2.643
N5005X29.394Z-2.735
N5010X29.071Z-2.791
N5015X28.877Z-2.815
N5020X28.354Z-2.844
N5025X16.55Z-2.841
N5030X16.197Z-2.822
N5035X15.812Z-2.774
N5040X15.41Z-2.687
N5045X15.126Z-2.601
N5050X14.85Z-2.495
N5055X14.598Z-2.383
N5060X14.341Z-2.253
N5065X14.029Z-2.074
N5070X13.545Z-1.778
N5075X12.523Z-1.119
N5080X12.05Z-0.845
N5085X11.673Z-0.652
N5090X11.251Z-0.461
N5095X10.761Z-0.282
N5100X10.257Z-0.144
N5105X9.742Z-0.051
N5110X9.351Z-0.012
N5115X9.Z0.
N5120X8.937Z0.009
N5125X8.878Z0.03
N5130X8.813Z0.053
N5135X8.746Z0.061
N5140X8.528
N5145G2Y29.007I0.J0.75
N5150G1X8.596Z0.053
N5155X8.66Z0.03
N5160X8.718Z0.009
N5165X8.78Z0.
N5170X9.062Z-0.012
N5175X9.478Z-0.049
N5180X10.031Z-0.159
N5185X10.312Z-0.243
N5190X10.72Z-0.392
N5195X11.148Z-0.599
N5200X11.455Z-0.778
N5205X11.839Z-1.045
N5210X12.155Z-1.314
N5215X12.419Z-1.572
N5220X12.75Z-1.96
N5225X12.985Z-2.299
N5230X13.431Z-3.027
N5235X13.71Z-3.441
N5240X14.096Z-3.955
N5245X14.422Z-4.343
N5250X14.835Z-4.787
N5255X15.195Z-5.134
N5260X15.656Z-5.538
N5265X16.054Z-5.849
N5270X16.572Z-6.215
N5275X16.773Z-6.341
N5280X17.204Z-6.599
N5285X17.648Z-6.838
N5290X17.982Z-6.998
N5295X18.563Z-7.248
N5300X18.811Z-7.34
N5305X19.285Z-7.501
N5310X19.767Z-7.641
N5315X20.255Z-7.759
N5320X20.745Z-7.85
N5325X21.213Z-7.915
N5330X21.845Z-7.974
N5335X22.5Z-7.996
N5340X23.071Z-7.98
N5345X23.595Z-7.939
N5350X23.829Z-7.91
N5355X24.348Z-7.833
N5360X24.862Z-7.731
N5365X25.369Z-7.605
N5370X25.869Z-7.454
N5375X26.364Z-7.277
N5380X26.606Z-7.177
N5385X27.062Z-6.978
N5390X27.529Z-6.745
N5395X27.983Z-6.492
N5400X28.423Z-6.219
N5405X28.854Z-5.919
N5410X29.249Z-5.614
N5415X29.816Z-5.124
N5420X30.185Z-4.766
N5425X30.526Z-4.402
N5430X30.678Z-4.224
N5435X31.006Z-3.822
N5440X31.312Z-3.408
N5445X31.596Z-2.985
N5450X31.885Z-2.507
N5455X32.113Z-2.15
N5460X32.335Z-1.853
N5465X32.657Z-1.491
N5470X32.976Z-1.197
N5475X33.248Z-0.98
N5480X33.594Z-0.746
N5485X33.848Z-0.601
N5490X34.284Z-0.39
N5495X34.674Z-0.248
N5500X35.017Z-0.148
N5505X35.481Z-0.055
N5510X35.717Z-0.027
N5515X36.22Z0.
N5520X69.Y27.507
N5525X69.351Z-0.012
N5530X69.742Z-0.051
N5535X70.257Z-0.144
N5540X70.761Z-0.282
N5545X71.251Z-0.461
N5550X71.673Z-0.652
N5555X72.05Z-0.845
N5560X72.523Z-1.119
N5565X73.545Z-1.778
N5570X74.029Z-2.074
N5575X74.341Z-2.253
N5580X74.598Z-2.383
N5585X74.85Z-2.495
N5590X75.126Z-2.601
N5595X75.41Z-2.687
N5600X75.812Z-2.774
N5605X76.197Z-2.822
N5610X76.55Z-2.841
N5615X88.354Z-2.844
N5620X88.877Z-2.815
N5625X89.071Z-2.791
N5630X89.394Z-2.735
N5635X89.743Z-2.643
N5640X90.143Z-2.498
N5645X90.383Z-2.391
N5650X90.688Z-2.238
N5655X91.128Z-1.983
N5660X92.028Z-1.4
N5665X92.581Z-1.055
N5670X92.811Z-0.921
N5675X93.232Z-0.696
N5680X93.719Z-0.473
N5685X94.22Z-0.288
N5690X94.677Z-0.159
N5695X95.141Z-0.067
N5700X95.613Z-0.014
N5705X96.Z0.
N5710X96.063Z0.009
N5715X96.122Z0.03
N5720X96.186Z0.053
N5725X96.254Z0.061
N5730X96.469
N5735G3Y29.007I0.J0.75
N5740G1X96.401Z0.053
N5745X96.337Z0.03
N5750X96.336
N5755X96.28Z0.009
N5760X96.22Z0.
N5765X95.717Z-0.027
N5770X95.481Z-0.055
N5775X95.017Z-0.148
N5780X94.674Z-0.248
N5785X94.284Z-0.39
N5790X93.848Z-0.601
N5795X93.594Z-0.746
N5800X93.248Z-0.98
N5805X92.976Z-1.197
N5810X92.657Z-1.491
N5815X92.335Z-1.853
N5820X92.113Z-2.15
N5825X91.885Z-2.507
N5830X91.596Z-2.985
N5835X91.312Z-3.408
N5840X91.006Z-3.822
N5845X90.678Z-4.224
N5850X90.526Z-4.402
N5855X90.185Z-4.766
N5860X89.816Z-5.124
N5865X89.249Z-5.614
N5870X88.854Z-5.919
N5875X88.423Z-6.219
N5880X87.983Z-6.492
N5885X87.529Z-6.745
N5890X87.062Z-6.978
N5895X86.606Z-7.177
N5900X86.364Z-7.277
N5905X85.869Z-7.454
N5910X85.369Z-7.605
N5915X84.862Z-7.731
N5920X84.348Z-7.833
N5925X83.829Z-7.91
N5930X83.595Z-7.939
N5935X83.071Z-7.98
N5940X82.5Z-7.996
N5945X81.845Z-7.974
N5950X81.213Z-7.915
N5955X80.745Z-7.85
N5960X80.255Z-7.759
N5965X79.767Z-7.641
N5970X79.285Z-7.501
N5975X78.811Z-7.34
N5980X78.563Z-7.248
N5985X77.982Z-6.998
N5990X77.648Z-6.838
N5995X77.204Z-6.599
N6000X76.773Z-6.341
N6005X76.572Z-6.215
N6010X76.054Z-5.849
N6015X75.656Z-5.538
N6020X75.195Z-5.134
N6025X74.835Z-4.787
N6030X74.422Z-4.343
N6035X74.096Z-3.955
N6040X73.71Z-3.441
N6045X73.431Z-3.027
N6050X72.985Z-2.299
N6055X72.75Z-1.96
N6060X72.419Z-1.572
N6065X72.155Z-1.314
N6070X71.839Z-1.045
N6075X71.455Z-0.778
N6080X71.148Z-0.599
N6085X70.72Z-0.392
N6090X70.312Z-0.243
N6095X70.031Z-0.159
N6100X69.478Z-0.049
N6105X69.062Z-0.012
N6110X68.78Z0.
N6115X68.692Z0.017
N6120X68.613Z0.059
N6125X68.521Z0.105
N6130X68.418Z0.118
N6135X66.22Z0.
N6140X65.717Z-0.027
N6145X65.481Z-0.055
N6150X65.017Z-0.148
N6155X64.674Z-0.248
N6160X64.284Z-0.39
N6165X63.848Z-0.601
N6170X63.594Z-0.746
N6175X63.248Z-0.98
N6180X62.976Z-1.197
N6185X62.657Z-1.491
N6190X62.335Z-1.853
N6195X62.113Z-2.15
N6200X61.885Z-2.507
N6205X61.596Z-2.985
N6210X61.312Z-3.408
N6215X61.006Z-3.822
N6220X60.678Z-4.224
N6225X60.526Z-4.402
N6230X60.185Z-4.766
N6235X59.816Z-5.124
N6240X59.249Z-5.614
N6245X58.854Z-5.919
N6250X58.423Z-6.219
N6255X57.983Z-6.492
N6260X57.529Z-6.745
N6265X57.062Z-6.978
N6270X56.606Z-7.177
N6275X56.364Z-7.277
N6280X55.869Z-7.454
N6285X55.369Z-7.605
N6290X54.862Z-7.731
N6295X54.348Z-7.833
N6300X53.829Z-7.91
N6305X53.595Z-7.939
N6310X53.071Z-7.98
N6315X52.5Z-7.996
N6320X51.845Z-7.974
N6325X51.213Z-7.915
N6330X50.745Z-7.85
N6335X50.255Z-7.759
N6340X49.767Z-7.641
N6345X49.285Z-7.501
N6350X48.811Z-7.34
N6355X48.563Z-7.248
N6360X47.982Z-6.998
N6365X47.648Z-6.838
N6370X47.204Z-6.599
N6375X46.773Z-6.341
N6380X46.572Z-6.215
N6385X46.054Z-5.849
N6390X45.656Z-5.538
N6395X45.195Z-5.134
N6400X44.835Z-4.787
N6405X44.422Z-4.343
N6410X44.096Z-3.955
N6415X43.71Z-3.441
N6420X43.431Z-3.027
N6425X42.985Z-2.299
N6430X42.75Z-1.96
N6435X42.419Z-1.572
N6440X42.155Z-1.314
N6445X41.839Z-1.045
N6450X41.455Z-0.778
N6455X41.148Z-0.599
N6460X40.72Z-0.392
N6465X40.312Z-0.243
N6470X40.031Z-0.159
N6475X39.478Z-0.049
N6480X39.062Z-0.012
N6485X38.78Z0.
N6490X38.718Z0.009
N6495X38.66Z0.03
N6500X38.596Z0.053
N6505X38.528Z0.061
N6510G2Y30.507I0.J0.75
N6515G1X38.531
N6520X38.598Z0.053
N6525X38.663Z0.03
N6530X38.72Z0.009
N6535X38.78Z0.
N6540X39.214Z-0.022
N6545X39.474Z-0.048
N6550X39.732Z-0.096
N6555X40.114Z-0.181
N6560X40.362Z-0.262
N6565X40.727Z-0.395
N6570X41.137Z-0.593
N6575X41.416Z-0.753
N6580X41.84Z-1.046
N6585X42.184Z-1.342
N6590X42.409Z-1.562
N6595X42.665Z-1.856
N6600X42.854Z-2.104
N6605X43.098Z-2.48
N6610X43.428Z-3.029
N6615X43.713Z-3.451
N6620X44.02Z-3.861
N6625X44.426Z-4.352
N6630X44.767Z-4.719
N6635X45.226Z-5.168
N6640X45.608Z-5.501
N6645X46.106Z-5.893
N6650X46.516Z-6.18
N6655X46.94Z-6.448
N6660X47.496Z-6.763
N6665X48.064Z-7.042
N6670X48.306Z-7.145
N6675X48.772Z-7.329
N6680X49.246Z-7.493
N6685X49.728Z-7.635
N6690X50.213Z-7.752
N6695X50.471Z-7.802
N6700X50.964Z-7.886
N6705X51.46Z-7.946
N6710X51.829Z-7.976
N6715X52.425Z-7.997
N6720X53.149Z-7.978
N6725X53.671Z-7.934
N6730X54.193Z-7.865
N6735X54.709Z-7.769
N6740X54.965Z-7.709
N6745X55.472Z-7.577
N6750X55.972Z-7.421
N6755X56.462Z-7.241
N6760X56.941Z-7.039
N6765X57.415Z-6.811
N6770X57.876Z-6.559
N6775X58.1Z-6.424
N6780X58.539Z-6.142
N6785X58.963Z-5.84
N6790X59.369Z-5.52
N6795X59.758Z-5.184
N6800X60.137Z-4.82
N6805X60.317Z-4.63
N6810X60.666Z-4.243
N6815X60.994Z-3.843
N6820X61.299Z-3.432
N6825X61.582Z-3.013
N6830X61.893Z-2.495
N6835X62.149Z-2.1
N6840X62.335Z-1.856
N6845X62.657Z-1.493
N6850X62.919Z-1.251
N6855X63.2Z-1.016
N6860X63.518Z-0.797
N6865X63.802Z-0.625
N6870X64.229Z-0.414
N6875X64.45Z-0.326
N6880X64.902Z-0.177
N6885X65.379Z-0.074
N6890X65.717Z-0.027
N6895X66.22Z0.
N6900G18G2X66.134Z1.607I-0.043K0.803
N6905G1X36.22Z0.
N6910X35.717Z-0.027
N6915X35.379Z-0.074
N6920X34.902Z-0.177
N6925X34.45Z-0.326
N6930X34.229Z-0.414
N6935X33.802Z-0.625
N6940X33.518Z-0.797
N6945X33.2Z-1.016
N6950X32.919Z-1.251
N6955X32.657Z-1.493
N6960X32.335Z-1.856
N6965X32.149Z-2.1
N6970X31.893Z-2.495
N6975X31.582Z-3.013
N6980X31.299Z-3.432
N6985X30.994Z-3.843
N6990X30.666Z-4.243
N6995X30.317Z-4.63
N7000X30.137Z-4.82
N7005X29.758Z-5.184
N7010X29.369Z-5.52
N7015X28.963Z-5.84
N7020X28.539Z-6.142
N7025X28.1Z-6.424
N7030X27.876Z-6.559
N7035X27.415Z-6.811
N7040X26.941Z-7.039
N7045X26.462Z-7.241
N7050X25.972Z-7.421
N7055X25.472Z-7.577
N7060X24.965Z-7.709
N7065X24.709Z-7.769
N7070X24.193Z-7.865
N7075X23.671Z-7.934
N7080X23.149Z-7.978
N7085X22.425Z-7.997
N7090X21.829Z-7.976
N7095X21.46Z-7.946
N7100X20.964Z-7.886
N7105X20.471Z-7.802
N7110X20.213Z-7.752
N7115X19.728Z-7.635
N7120X19.246Z-7.493
N7125X18.772Z-7.329
N7130X18.306Z-7.145
N7135X18.064Z-7.042
N7140X17.496Z-6.763
N7145X16.94Z-6.448
N7150X16.516Z-6.18
N7155X16.106Z-5.893
N7160X15.608Z-5.501
N7165X15.226Z-5.168
N7170X14.767Z-4.719
N7175X14.426Z-4.352
N7180X14.02Z-3.861
N7185X13.713Z-3.451
N7190X13.428Z-3.029
N7195X13.098Z-2.48
N7200X12.854Z-2.104
N7205X12.665Z-1.856
N7210X12.409Z-1.562
N7215X12.184Z-1.342
N7220X11.84Z-1.046
N7225X11.416Z-0.753
N7230X11.137Z-0.593
N7235X10.727Z-0.395
N7240X10.362Z-0.262
N7245X10.114Z-0.181
N7250X9.732Z-0.096
N7255X9.474Z-0.048
N7260X9.214Z-0.022
N7265X8.78Z0.
N7270X8.72Z0.009
N7275X8.663Z0.03
N7280X8.599Z0.053
N7285X8.531Z0.061
N7290G17G2Y32.006I0.J0.75
N7295G1X8.599Z0.053
N7300X8.663Z0.03
N7305X8.72Z0.009
N7310X8.78Z0.
N7315X9.214Z-0.022
N7320X9.474Z-0.048
N7325X9.732Z-0.096
N7330X10.114Z-0.181
N7335X10.362Z-0.262
N7340X10.727Z-0.395
N7345X11.137Z-0.593
N7350X11.416Z-0.753
N7355X11.84Z-1.046
N7360X12.184Z-1.342
N7365X12.409Z-1.562
N7370X12.665Z-1.856
N7375X12.854Z-2.104
N7380X13.098Z-2.48
N7385X13.428Z-3.029
N7390X13.713Z-3.451
N7395X14.02Z-3.861
N7400X14.426Z-4.352
N7405X14.767Z-4.719
N7410X15.226Z-5.168
N7415X15.608Z-5.501
N7420X16.106Z-5.893
N7425X16.516Z-6.18
N7430X16.94Z-6.448
N7435X17.496Z-6.763
N7440X18.064Z-7.042
N7445X18.306Z-7.145
N7450X18.772Z-7.329
N7455X19.246Z-7.493
N7460X19.728Z-7.635
N7465X20.213Z-7.752
N7470X20.471Z-7.802
N7475X20.964Z-7.886
N7480X21.46Z-7.946
N7485X21.829Z-7.976
N7490X22.425Z-7.997
N7495X23.149Z-7.978
N7500X23.671Z-7.934
N7505X24.193Z-7.865
N7510X24.709Z-7.769
N7515X24.965Z-7.709
N7520X25.472Z-7.577
N7525X25.972Z-7.421
N7530X26.462Z-7.241
N7535X26.941Z-7.039
N7540X27.415Z-6.811
N7545X27.876Z-6.559
N7550X28.1Z-6.424
N7555X28.539Z-6.142
N7560X28.963Z-5.84
N7565X29.369Z-5.52
N7570X29.758Z-5.184
N7575X30.137Z-4.82
N7580X30.317Z-4.63
N7585X30.666Z-4.243
N7590X30.994Z-3.843
N7595X31.299Z-3.432
N7600X31.582Z-3.013
N7605X31.893Z-2.495
N7610X32.149Z-2.1
N7615X32.335Z-1.856
N7620X32.657Z-1.493
N7625X32.919Z-1.251
N7630X33.2Z-1.016
N7635X33.518Z-0.797
N7640X33.802Z-0.625
N7645X34.229Z-0.414
N7650X34.45Z-0.326
N7655X34.902Z-0.177
N7660X35.379Z-0.074
N7665X35.717Z-0.027
N7670X36.22Z0.
N7675G18G2X36.788Z0.599I-0.032K0.599
N7680G0Z8.
N7685X98.205Y29.007
N7690Z2.
N7695G1Z0.599F3680.
N7700G2X98.78Z0.I0.6K0.
N7705G1X99.062Z-0.012
N7710X99.478Z-0.049
N7715X100.031Z-0.159
N7720X100.312Z-0.243
N7725X100.72Z-0.392
N7730X101.148Z-0.599
N7735X101.455Z-0.778
N7740X101.839Z-1.045
N7745X102.155Z-1.314
N7750X102.419Z-1.572
N7755X102.75Z-1.96
N7760X102.985Z-2.299
N7765X103.431Z-3.027
N7770X103.71Z-3.441
N7775X104.096Z-3.955
N7780X104.422Z-4.343
N7785X104.835Z-4.787
N7790X105.195Z-5.134
N7795X105.656Z-5.538
N7800X106.054Z-5.849
N7805X106.572Z-6.215
N7810X106.773Z-6.341
N7815X107.204Z-6.599
N7820X107.648Z-6.838
N7825X107.982Z-6.998
N7830X108.563Z-7.248
N7835X108.811Z-7.34
N7840X109.285Z-7.501
N7845X109.767Z-7.641
N7850X110.255Z-7.759
N7855X110.745Z-7.85
N7860X111.213Z-7.915
N7865X111.845Z-7.974
N7870X112.5Z-7.996
N7875X113.07Z-7.98
N7880X113.595Z-7.939
N7885X113.829Z-7.91
N7890X114.348Z-7.833
N7895X114.862Z-7.731
N7900X115.369Z-7.605
N7905X115.868Z-7.454
N7910X116.364Z-7.278
N7915X116.606Z-7.178
N7920X117.061Z-6.978
N7925X117.529Z-6.746
N7930X117.983Z-6.492
N7935X118.422Z-6.219
N7940X118.854Z-5.919
N7945X119.248Z-5.614
N7950X119.816Z-5.124
N7955X120.185Z-4.766
N7960X120.526Z-4.402
N7965X120.678Z-4.224
N7970X121.006Z-3.822
N7975X121.311Z-3.408
N7980X121.595Z-2.985
N7985X121.885Z-2.507
N7990X122.112Z-2.151
N7995X122.334Z-1.855
N8000X122.657Z-1.492
N8005X122.976Z-1.198
N8010X123.248Z-0.98
N8015X123.594Z-0.746
N8020X123.846Z-0.601
N8025X124.283Z-0.39
N8030X124.674Z-0.248
N8035X125.016Z-0.148
N8040X125.481Z-0.055
N8045X125.716Z-0.027
N8050X126.22Z0.
N8055X126.28Z0.009
N8060X126.336Z0.03
N8065X126.4Z0.053
N8070X126.468Z0.061
N8075G17G3Y30.507I0.J0.75
N8080G1X126.4Z0.053
N8085X126.336Z0.03
N8090X126.279Z0.009
N8095X126.22Z0.
N8100X125.716Z-0.027
N8105X125.379Z-0.074
N8110X124.901Z-0.177
N8115X124.45Z-0.326
N8120X124.229Z-0.414
N8125X123.802Z-0.625
N8130X123.518Z-0.797
N8135X123.199Z-1.016
N8140X122.919Z-1.251
N8145X122.656Z-1.493
N8150X122.335Z-1.856
N8155X122.149Z-2.1
N8160X121.893Z-2.495
N8165X121.582Z-3.013
N8170X121.299Z-3.433
N8175X120.993Z-3.844
N8180X120.666Z-4.244
N8185X120.317Z-4.63
N8190X120.137Z-4.82
N8195X119.758Z-5.184
N8200X119.369Z-5.52
N8205X118.963Z-5.84
N8210X118.539Z-6.142
N8215X118.099Z-6.424
N8220X117.876Z-6.559
N8225X117.415Z-6.811
N8230X116.941Z-7.039
N8235X116.462Z-7.241
N8240X115.972Z-7.421
N8245X115.472Z-7.577
N8250X114.965Z-7.709
N8255X114.709Z-7.769
N8260X114.192Z-7.865
N8265X113.671Z-7.934
N8270X113.148Z-7.978
N8275X112.425Z-7.997
N8280X111.829Z-7.976
N8285X111.46Z-7.946
N8290X110.964Z-7.886
N8295X110.471Z-7.802
N8300X110.213Z-7.752
N8305X109.728Z-7.635
N8310X109.246Z-7.493
N8315X108.772Z-7.329
N8320X108.306Z-7.145
N8325X108.064Z-7.042
N8330X107.496Z-6.763
N8335X106.94Z-6.448
N8340X106.516Z-6.18
N8345X106.106Z-5.893
N8350X105.608Z-5.501
N8355X105.226Z-5.168
N8360X104.767Z-4.719
N8365X104.426Z-4.352
N8370X104.02Z-3.861
N8375X103.713Z-3.451
N8380X103.428Z-3.029
N8385X103.098Z-2.48
N8390X102.854Z-2.104
N8395X102.665Z-1.856
N8400X102.409Z-1.562
N8405X102.184Z-1.342
N8410X101.84Z-1.046
N8415X101.416Z-0.753
N8420X101.137Z-0.593
N8425X100.727Z-0.395
N8430X100.362Z-0.262
N8435X100.114Z-0.181
N8440X99.732Z-0.096
N8445X99.474Z-0.048
N8450X99.214Z-0.022
N8455X98.78Z0.
N8460X98.693Z0.017
N8465X98.616Z0.059
N8470X98.523Z0.106
N8475X98.42Z0.118
N8480X96.22Z0.
N8485X95.717Z-0.027
N8490X95.379Z-0.074
N8495X94.902Z-0.177
