%
(WELD-AID-S1-V1)
(T17  D=6. CR=0. - ZMIN=-8. - BULLNOSE END MILL)
N10 G90 G94 G17 G91.1
N15 G21
N20 G53 G0 Z0.
(2D ADAPTIVE1)
N25 T17 M6
N30 S15000 M3
N35 G54
N40 G64 P0.1 Q0.1
N45 M8
N50 G0 X37.21 Y-3.693
N55 G43 Z15. H17
N60 G0 Z5.
N65 Z-2.8
N70 G1 Z-3.4 F1200.
N75 X37.203 Y-3.691 Z-3.494
N80 X37.182 Y-3.685 Z-3.585
N85 X37.147 Y-3.675 Z-3.672
N90 X37.1 Y-3.662 Z-3.753
N95 X37.041 Y-3.646 Z-3.824
N100 X36.972 Y-3.627 Z-3.885
N105 X36.894 Y-3.605 Z-3.935
N110 X36.81 Y-3.582 Z-3.971
N115 X36.722 Y-3.558 Z-3.993
N120 X36.632 Y-3.533 Z-4.
N125 G3 X33.375 Y-3. I-4.087 J-14.763
N130 G1 X33.174 Y-2.996
N135 X32.772 Y-2.986
N140 X32.571 Y-2.965
N145 X32.37 Y-2.93
N150 X32.169 Y-2.881
N155 X31.907 Y-2.791
N160 X31.766 Y-2.73
N165 X31.565 Y-2.632
N170 X31.43 Y-2.567
N175 X31.235 Y-2.488
N180 X30.992 Y-2.404
N185 X30.686 Y-2.314
N190 X30.29 Y-2.218
N195 X29.761 Y-2.117
N200 X29.009 Y-2.011
N205 X28.127 Y-1.93
N210 X27.242 Y-1.881
N215 X26.356 Y-1.851
N220 X25.47 Y-1.832
N225 X24.584 Y-1.82
N230 X23.698 Y-1.813
N235 X22.812 Y-1.808
N240 X21.926 Y-1.805
N245 X20.154 Y-1.802
N250 X15.723 Y-1.8
N255 X9.31
N260 X8.926 Y-1.834
N265 X8.553 Y-1.935
N270 X8.203 Y-2.099
N275 X7.888 Y-2.322
N280 G3 X7.758 Y-3.041 I0.404 J-0.444
N285 G1 X7.801 Y-3.124 Z-3.993
N290 X7.843 Y-3.206 Z-3.971
N295 X7.883 Y-3.283 Z-3.935
N300 X7.92 Y-3.354 Z-3.885
N305 X7.953 Y-3.418 Z-3.824
N310 X7.981 Y-3.472 Z-3.753
N315 X8.003 Y-3.516 Z-3.672
N320 X8.02 Y-3.548 Z-3.585
N325 X8.03 Y-3.568 Z-3.494
N330 X8.033 Y-3.574 Z-3.4
N335 G0 Z5.
N340 X32.387 Y-3.735
N345 Z-2.8
N350 G1 Z-3.4 F1200.
N355 X32.383 Y-3.728 Z-3.494
N360 X32.373 Y-3.709 Z-3.585
N365 X32.355 Y-3.677 Z-3.672
N370 X32.332 Y-3.634 Z-3.753
N375 X32.303 Y-3.58 Z-3.824
N380 X32.268 Y-3.517 Z-3.885
N385 X32.23 Y-3.447 Z-3.935
N390 X32.189 Y-3.371 Z-3.971
N395 X32.145 Y-3.29 Z-3.993
N400 X32.1 Y-3.208 Z-4.
N405 G3 X31.565 Y-2.632 I-1.39 J-0.756
N410 G1 X31.364 Y-2.513
N415 X31.163 Y-2.367
N420 X30.962 Y-2.194
N425 X30.897 Y-2.129
N430 X30.785 Y-2.028
N435 X30.668 Y-1.935
N440 X30.545 Y-1.849
N445 X30.408 Y-1.763
N450 X30.251 Y-1.674
N455 X30.055 Y-1.576
N460 X29.822 Y-1.473
N465 X29.556 Y-1.371
N470 X29.217 Y-1.259
N475 X28.82 Y-1.149
N480 X28.302 Y-1.033
N485 X27.618 Y-0.914
N490 X26.739 Y-0.805
N495 X25.856 Y-0.734
N500 X24.971 Y-0.688
N505 X24.085 Y-0.658
N510 X23.199 Y-0.638
N515 X22.313 Y-0.625
N520 X21.427 Y-0.616
N525 X20.541 Y-0.611
N530 X19.655 Y-0.607
N535 X17.883 Y-0.603
N540 X14.338 Y-0.601
N545 X10.794 Y-0.6
N550 X10.457 Y-0.613
N555 X10.131 Y-0.65
N560 X9.814 Y-0.736
N565 X9.513 Y-0.867
N570 X9.235 Y-1.042
N575 X8.987 Y-1.256
N580 X8.24 Y-2.003
N585 X8.038 Y-2.194
N590 X7.888 Y-2.322
N595 G3 X7.847 Y-3.169 Z-3.8 I0.404 J-0.444
N600 X8.298 Y-3.366 I0.444 J0.403
N605 G1 X30.464 Y-3.138
N610 G3 X30.868 Y-2.976 I-0.006 J0.6
N615 X30.897 Y-2.129 Z-4. I-0.41 J0.438
N620 G1 X30.761 Y-1.993
N625 X30.592 Y-1.785
N630 X30.56 Y-1.744
N635 X30.458 Y-1.583
N640 X30.378 Y-1.457
N645 X30.285 Y-1.339
N650 X30.183 Y-1.229
N655 X30.074 Y-1.126
N660 X29.959 Y-1.03
N665 X29.822 Y-0.926
N670 X29.676 Y-0.826
N675 X29.494 Y-0.714
N680 X29.284 Y-0.598
N685 X29.048 Y-0.483
N690 X28.749 Y-0.355
N695 X28.424 Y-0.234
N700 X28.017 Y-0.104
N705 X27.539 Y0.023
N710 X26.924 Y0.154
N715 X26.117 Y0.286
N720 X25.237 Y0.387
N725 X24.353 Y0.455
N730 X23.468 Y0.501
N735 X22.583 Y0.533
N740 X21.697 Y0.554
N745 X20.811 Y0.569
N750 X19.925 Y0.579
N755 X19.039 Y0.586
N760 X18.153 Y0.59
N765 X17.266 Y0.594
N770 X15.494 Y0.597
N775 X12.836 Y0.599
N780 X11.95 Y0.595
N785 X11.627 Y0.579
N790 X11.227 Y0.522
N795 X10.844 Y0.393
N800 X10.491 Y0.196
N805 X10.18 Y-0.063
N810 X8.987 Y-1.256
N815 G3 X9.016 Y-2.104 Z-3.8 I0.439 J-0.409
N820 X9.42 Y-2.265 I0.41 J0.438
N825 G1 X29.914 Y-2.448
N830 G3 X30.185 Y-2.387 I0.005 J0.6
N835 X30.458 Y-1.583 Z-4. I-0.266 J0.538
N840 G1 X30.35 Y-1.382
N845 X30.244 Y-1.181
N850 X30.168 Y-0.979
N855 X30.107 Y-0.842
N860 X30.036 Y-0.71
N865 X29.953 Y-0.585
N870 X29.861 Y-0.467
N875 X29.761 Y-0.355
N880 X29.656 Y-0.248
N885 X29.531 Y-0.134
N890 X29.397 Y-0.023
N895 X29.23 Y0.102
N900 X29.054 Y0.221
N905 X28.834 Y0.355
N910 X28.595 Y0.485
N915 X28.307 Y0.623
N920 X27.97 Y0.765
N925 X27.588 Y0.905
N930 X27.125 Y1.049
N935 X26.563 Y1.195
N940 X25.884 Y1.336
N945 X25.008 Y1.474
N950 X24.128 Y1.571
N955 X23.244 Y1.64
N960 X22.359 Y1.688
N965 X21.474 Y1.721
N970 X20.588 Y1.745
N975 X19.702 Y1.762
N980 X18.816 Y1.774
N985 X17.93 Y1.782
N990 X17.044 Y1.787
N995 X16.158 Y1.791
N1000 X14.385 Y1.796
N1005 X13.499
N1010 X12.871 Y1.778
N1015 X12.761 Y1.769
N1020 X12.377 Y1.705
N1025 X12.01 Y1.574
N1030 X11.673 Y1.381
N1035 X11.374 Y1.131
N1040 X10.18 Y-0.063
N1045 G3 X10.209 Y-0.91 Z-3.8 I0.439 J-0.409
N1050 X10.597 Y-1.071 I0.41 J0.438
N1055 G1 X29.578 Y-1.772
N1060 X29.651 Y-1.771
N1065 X29.723 Y-1.76
N1070 X29.794 Y-1.741
N1075 G3 X30.168 Y-0.979 Z-4. I-0.194 J0.568
N1080 G1 X30.158 Y-0.953
N1085 X30.107 Y-0.778
N1090 X30.059 Y-0.577
N1095 X30.032 Y-0.416
N1100 X29.999 Y-0.27
N1105 X29.949 Y-0.128
N1110 X29.887 Y0.008
N1115 X29.813 Y0.139
N1120 X29.731 Y0.264
N1125 X29.641 Y0.385
N1130 X29.545 Y0.5
N1135 X29.433 Y0.622
N1140 X29.306 Y0.746
N1145 X29.159 Y0.878
N1150 X28.992 Y1.013
N1155 X28.8 Y1.154
N1160 X28.58 Y1.298
N1165 X28.328 Y1.447
N1170 X28.038 Y1.6
N1175 X27.708 Y1.754
N1180 X27.32 Y1.913
N1185 X26.872 Y2.071
N1190 X26.331 Y2.233
N1195 X25.714 Y2.385
N1200 X24.921 Y2.541
N1205 X24.044 Y2.668
N1210 X23.163 Y2.761
N1215 X22.279 Y2.828
N1220 X21.394 Y2.877
N1225 X20.509 Y2.912
N1230 X19.623 Y2.937
N1235 X18.737 Y2.955
N1240 X17.851 Y2.968
N1245 X16.965 Y2.978
N1250 X16.079 Y2.984
N1255 X15.193 Y2.989
N1260 X14.312 Y2.984
N1265 X14.007 Y2.968
N1270 X13.609 Y2.91
N1275 X13.229 Y2.78
N1280 X12.878 Y2.584
N1285 X12.569 Y2.327
N1290 X11.374 Y1.131
N1295 G3 X11.403 Y0.284 Z-3.8 I0.439 J-0.409
N1300 X11.772 Y0.124 I0.41 J0.438
N1305 G1 X29.396 Y-1.095
N1310 X29.457 Y-1.097
N1315 X29.518 Y-1.091
N1320 G3 X30.032 Y-0.416 Z-4. I-0.081 J0.594
N1325 G1 X30.025 Y-0.375
N1330 X30.008 Y-0.174
N1335 X30.001 Y0.027
N1340 Y0.088
N1345 X29.993 Y0.238
N1350 X29.971 Y0.386
N1355 X29.933 Y0.531
N1360 X29.882 Y0.672
N1365 X29.82 Y0.809
N1370 X29.749 Y0.941
N1375 X29.671 Y1.069
N1380 X29.585 Y1.193
N1385 X29.485 Y1.324
N1390 X29.373 Y1.456
N1395 X29.242 Y1.596
N1400 X29.091 Y1.743
N1405 X28.923 Y1.891
N1410 X28.722 Y2.051
N1415 X28.509 Y2.205
N1420 X28.247 Y2.375
N1425 X27.969 Y2.537
N1430 X27.636 Y2.71
N1435 X27.265 Y2.88
N1440 X26.831 Y3.054
N1445 X26.32 Y3.23
N1450 X25.748 Y3.397
N1455 X25.04 Y3.567
N1460 X24.169 Y3.731
N1465 X23.292 Y3.854
N1470 X22.41 Y3.945
N1475 X21.527 Y4.013
N1480 X20.642 Y4.063
N1485 X19.757 Y4.1
N1490 X18.871 Y4.127
N1495 X17.985 Y4.147
N1500 X17.099 Y4.162
N1505 X16.213 Y4.171
N1510 X15.452 Y4.168
N1515 X15.214 Y4.155
N1520 X14.807 Y4.099
N1525 X14.415 Y3.976
N1530 X14.049 Y3.79
N1535 X13.719 Y3.545
N1540 X13.434 Y3.249
N1545 X13.267 Y3.042
N1550 X13.085 Y2.846
N1555 X12.864 Y2.622
N1560 X12.569 Y2.327
N1565 G3 X12.598 Y1.479 Z-3.8 I0.439 J-0.409
N1570 X12.942 Y1.321 I0.41 J0.438
N1575 G1 X29.336 Y-0.489
N1580 X29.382 Y-0.492
N1585 G3 X30.001 Y0.088 Z-4. I0.019 J0.6
N1590 G1 X30. Y0.833
N1595 X29.993 Y0.983
N1600 X29.975 Y1.131
N1605 X29.942 Y1.278
N1610 X29.898 Y1.421
N1615 X29.843 Y1.561
N1620 X29.78 Y1.697
N1625 X29.709 Y1.829
N1630 X29.627 Y1.962
N1635 X29.536 Y2.097
N1640 X29.429 Y2.24
N1645 X29.303 Y2.391
N1650 X29.165 Y2.543
N1655 X28.998 Y2.708
N1660 X28.818 Y2.869
N1665 X28.607 Y3.041
N1670 X28.367 Y3.217
N1675 X28.101 Y3.394
N1680 X27.783 Y3.584
N1685 X27.449 Y3.761
N1690 X27.042 Y3.952
N1695 X26.591 Y4.139
N1700 X26.065 Y4.326
N1705 X25.441 Y4.515
N1710 X24.716 Y4.696
N1715 X23.847 Y4.869
N1720 X22.97 Y5.
N1725 X22.09 Y5.1
N1730 X21.207 Y5.176
N1735 X20.323 Y5.233
N1740 X19.438 Y5.276
N1745 X18.552 Y5.308
N1750 X17.666 Y5.332
N1755 X16.78 Y5.343
N1760 X16.323 Y5.328
N1765 X15.919 Y5.294
N1770 X15.631 Y5.256
N1775 X15.331 Y5.201
N1780 X15.291 Y5.192
N1785 X14.957 Y5.084
N1790 X14.644 Y4.923
N1795 X14.362 Y4.713
N1800 X14.118 Y4.46
N1805 X13.919 Y4.171
N1810 X13.769 Y3.853
N1815 X13.669 Y3.64
N1820 X13.563 Y3.45
N1825 X13.434 Y3.249
N1830 G3 X13.351 Y2.944 Z-3.932 I0.517 J-0.305
N1835 X13.646 Y2.427 Z-3.8 I0.6 J0.
N1840 G1 X13.717 Y2.392
N1845 X13.793 Y2.365
N1850 X13.871 Y2.35
N1855 X29.32 Y0.259
N1860 X29.38 Y0.254
N1865 X29.399 Z-3.804
N1870 X29.4
N1875 G3 X30. Y0.833 Z-4. I0. J0.6
N1880 G1 Y1.699
N1885 X29.993 Y1.849
N1890 X29.974 Y1.998
N1895 X29.942 Y2.144
N1900 X29.899 Y2.288
N1905 X29.847 Y2.429
N1910 X29.786 Y2.566
N1915 X29.718 Y2.7
N1920 X29.641 Y2.834
N1925 X29.547 Y2.981
N1930 X29.439 Y3.132
N1935 X29.315 Y3.289
N1940 X29.169 Y3.458
N1945 X29.01 Y3.623
N1950 X28.82 Y3.804
N1955 X28.61 Y3.984
N1960 X28.371 Y4.169
N1965 X28.089 Y4.367
N1970 X27.792 Y4.554
N1975 X27.433 Y4.757
N1980 X27.034 Y4.957
N1985 X26.586 Y5.156
N1990 X26.037 Y5.368
N1995 X25.461 Y5.558
N2000 X24.764 Y5.752
N2005 X23.918 Y5.943
N2010 X23.045 Y6.096
N2015 X22.167 Y6.215
N2020 X21.285 Y6.307
N2025 X20.402 Y6.377
N2030 X19.518 Y6.432
N2035 X18.633 Y6.472
N2040 X17.747 Y6.493
N2045 X17.092 Y6.478
N2050 X16.663 Y6.448
N2055 X16.303 Y6.404
N2060 X16.015 Y6.356
N2065 X15.744 Y6.296
N2070 X15.527 Y6.237
N2075 X15.441 Y6.209
N2080 X15.073 Y6.051
N2085 X14.74 Y5.829
N2090 X14.453 Y5.551
N2095 X14.22 Y5.225
N2100 X14.051 Y4.863
N2105 X13.95 Y4.476
N2110 G3 X14.439 Y3.808 Z-3.806 I0.595 J-0.077
N2115 G1 X14.467 Y3.803 Z-3.8
N2120 X29.294 Y1.129
N2125 X29.38 Y1.12
N2130 G3 X30. Y1.699 Z-4. I0.02 J0.6
N2135 G1 Y2.645
N2140 X29.993 Y2.795
N2145 X29.971 Y2.943
N2150 X29.938 Y3.089
N2155 X29.894 Y3.233
N2160 X29.841 Y3.373
N2165 X29.781 Y3.51
N2170 X29.71 Y3.651
N2175 X29.628 Y3.795
N2180 X29.531 Y3.948
N2185 X29.416 Y4.112
N2190 X29.289 Y4.274
N2195 X29.135 Y4.453
N2200 X28.966 Y4.631
N2205 X28.771 Y4.818
N2210 X28.542 Y5.017
N2215 X28.298 Y5.208
N2220 X28.002 Y5.418
N2225 X27.679 Y5.624
N2230 X27.317 Y5.831
N2235 X26.884 Y6.052
N2240 X26.426 Y6.257
N2245 X25.878 Y6.472
N2250 X25.24 Y6.687
N2255 X24.519 Y6.891
N2260 X23.656 Y7.091
N2265 X22.784 Y7.248
N2270 X21.906 Y7.372
N2275 X21.025 Y7.47
N2280 X20.143 Y7.545
N2285 X19.258 Y7.6
N2290 X18.381 Y7.627
N2295 X17.73 Y7.615
N2300 X17.195 Y7.58
N2305 X16.81 Y7.535
N2310 X16.442 Y7.474
N2315 X16.173 Y7.416
N2320 X15.915 Y7.347
N2325 X15.672 Y7.269
N2330 X15.481 Y7.197
N2335 X15.272 Y7.107
N2340 X15.228 Y7.086
N2345 X14.886 Y6.877
N2350 X14.587 Y6.609
N2355 X14.342 Y6.292
N2360 X14.158 Y5.936
N2365 X14.042 Y5.552
N2370 X13.998 Y5.153
N2375 X13.992 Y4.859
N2380 X13.98 Y4.658
N2385 X13.95 Y4.476
N2390 G3 X14.467 Y3.803 Z-3.8 I0.595 J-0.077
N2395 G1 X14.475 Y3.802
N2400 X29.331 Y2.07
N2405 X29.38 Y2.066
N2410 G3 X30. Y2.645 Z-4. I0.02 J0.6
N2415 G1 Y3.561
N2420 X29.993 Y3.711
N2425 X29.975 Y3.86
N2430 X29.945 Y4.007
N2435 X29.905 Y4.151
N2440 X29.856 Y4.293
N2445 X29.799 Y4.432
N2450 X29.734 Y4.57
N2455 X29.655 Y4.717
N2460 X29.561 Y4.875
N2465 X29.454 Y5.036
N2470 X29.324 Y5.212
N2475 X29.181 Y5.387
N2480 X29.013 Y5.574
N2485 X28.818 Y5.77
N2490 X28.604 Y5.965
N2495 X28.35 Y6.176
N2500 X28.073 Y6.383
N2505 X27.756 Y6.597
N2510 X27.379 Y6.826
N2515 X26.984 Y7.04
N2520 X26.513 Y7.267
N2525 X25.961 Y7.5
N2530 X25.38 Y7.712
N2535 X24.68 Y7.93
N2540 X23.855 Y8.144
N2545 X22.987 Y8.324
N2550 X22.113 Y8.468
N2555 X21.234 Y8.582
N2560 X20.353 Y8.669
N2565 X19.468 Y8.727
N2570 X18.685 Y8.745
N2575 X18.045 Y8.728
N2580 X17.528 Y8.689
N2585 X17.069 Y8.632
N2590 X16.673 Y8.563
N2595 X16.366 Y8.494
N2600 X16.056 Y8.409
N2605 X15.811 Y8.328
N2610 X15.596 Y8.245
N2615 X15.367 Y8.144
N2620 X15.189 Y8.055
N2625 X15.12 Y8.016
N2630 X14.801 Y7.797
N2635 X14.525 Y7.526
N2640 X14.301 Y7.21
N2645 X14.135 Y6.859
N2650 X14.034 Y6.485
N2655 X14. Y6.1
N2660 Y5.262
N2665 X13.998 Y5.153
N2670 G3 X14.534 Y4.566 Z-3.815 I0.6 J0.009
N2675 G1 X14.606 Y4.558 Z-3.8
N2680 X29.337 Y2.985
N2685 X29.38 Y2.982
N2690 G3 X30. Y3.561 Z-4. I0.02 J0.6
N2695 G1 Y4.568
N2700 X29.993 Y4.717
N2705 X29.973 Y4.866
N2710 X29.942 Y5.013
N2715 X29.901 Y5.157
N2720 X29.851 Y5.299
N2725 X29.794 Y5.437
N2730 X29.724 Y5.587
N2735 X29.644 Y5.737
N2740 X29.546 Y5.9
N2745 X29.432 Y6.071
N2750 X29.303 Y6.246
N2755 X29.146 Y6.438
N2760 X28.976 Y6.627
N2765 X28.774 Y6.83
N2770 X28.544 Y7.039
N2775 X28.291 Y7.249
N2780 X27.985 Y7.478
N2785 X27.657 Y7.699
N2790 X27.284 Y7.926
N2795 X26.839 Y8.167
N2800 X26.37 Y8.392
N2805 X25.814 Y8.626
N2810 X25.167 Y8.863
N2815 X24.435 Y9.091
N2820 X23.589 Y9.31
N2825 X22.722 Y9.489
N2830 X21.847 Y9.633
N2835 X20.968 Y9.744
N2840 X20.085 Y9.82
N2845 X19.291 Y9.852
N2850 X18.586 Y9.846
N2855 X18.009 Y9.813
N2860 X17.487 Y9.757
N2865 X17.046 Y9.688
N2870 X16.644 Y9.605
N2875 X16.301 Y9.517
N2880 X16.013 Y9.428
N2885 X15.736 Y9.327
N2890 X15.526 Y9.239
N2895 X15.298 Y9.129
N2900 X15.109 Y9.027
N2905 X15.061 Y8.998
N2910 X14.757 Y8.777
N2915 X14.495 Y8.507
N2920 X14.284 Y8.196
N2925 X14.128 Y7.854
N2930 X14.032 Y7.49
N2935 X14. Y7.116
N2940 Y6.1
N2945 G3 X14.538 Y5.524 Z-3.817 I0.6 J0.021
N2950 G1 X14.62 Y5.515 Z-3.8
N2955 X29.339 Y3.992
N2960 X29.38 Y3.989
N2965 G3 X30. Y4.568 Z-4. I0.02 J0.6
N2970 G1 Y5.574
N2975 X29.993 Y5.724
N2980 X29.973 Y5.873
N2985 X29.943 Y6.02
N2990 X29.902 Y6.164
N2995 X29.854 Y6.306
N3000 X29.797 Y6.446
N3005 X29.728 Y6.594
N3010 X29.648 Y6.748
N3015 X29.548 Y6.918
N3020 X29.437 Y7.087
N3025 X29.302 Y7.274
N3030 X29.15 Y7.463
N3035 X28.975 Y7.66
N3040 X28.766 Y7.873
N3045 X28.541 Y8.081
N3050 X28.276 Y8.305
N3055 X27.974 Y8.534
N3060 X27.644 Y8.761
N3065 X27.248 Y9.005
N3070 X26.815 Y9.244
N3075 X26.326 Y9.483
N3080 X25.743 Y9.735
N3085 X25.104 Y9.974
N3090 X24.391 Y10.202
N3095 X23.56 Y10.424
N3100 X22.694 Y10.61
N3105 X21.82 Y10.758
N3110 X20.941 Y10.867
N3115 X20.089 Y10.933
N3120 X19.358 Y10.954
N3125 X18.69 Y10.94
N3130 X18.083 Y10.899
N3135 X17.567 Y10.838
N3140 X17.096 Y10.759
N3145 X16.681 Y10.668
N3150 X16.312 Y10.569
N3155 X16.024 Y10.476
N3160 X15.73 Y10.365
N3165 X15.511 Y10.27
N3170 X15.288 Y10.16
N3175 X15.088 Y10.049
N3180 X15.04 Y10.019
N3185 X14.742 Y9.797
N3190 X14.485 Y9.528
N3195 X14.277 Y9.219
N3200 X14.125 Y8.88
N3205 X14.031 Y8.52
N3210 X14. Y8.15
N3215 Y7.116
N3220 G3 X14.537 Y6.54 Z-3.818 I0.6 J0.021
N3225 G1 X14.62 Y6.531 Z-3.8
N3230 X29.338 Y4.998
N3235 X29.38 Y4.996
N3240 G3 X30. Y5.574 Z-4. I0.02 J0.6
N3245 G1 Y6.581
N3250 X29.993 Y6.731
N3255 X29.975 Y6.88
N3260 X29.946 Y7.027
N3265 X29.908 Y7.172
N3270 X29.861 Y7.314
N3275 X29.806 Y7.456
N3280 X29.74 Y7.603
N3285 X29.659 Y7.761
N3290 X29.563 Y7.93
N3295 X29.453 Y8.103
N3300 X29.318 Y8.293
N3305 X29.171 Y8.481
N3310 X28.994 Y8.686
N3315 X28.791 Y8.898
N3320 X28.565 Y9.112
N3325 X28.296 Y9.344
N3330 X28.004 Y9.572
N3335 X27.664 Y9.811
N3340 X27.264 Y10.065
N3345 X26.843 Y10.304
N3350 X26.352 Y10.552
N3355 X25.771 Y10.811
N3360 X25.156 Y11.05
N3365 X24.459 Y11.283
N3370 X23.672 Y11.503
N3375 X22.82 Y11.697
N3380 X21.948 Y11.852
N3385 X21.098 Y11.961
N3390 X20.289 Y12.025
N3395 X19.541 Y12.047
N3400 X18.879 Y12.035
N3405 X18.267 Y11.994
N3410 X17.705 Y11.928
N3415 X17.222 Y11.848
N3420 X16.787 Y11.754
N3425 X16.391 Y11.648
N3430 X16.079 Y11.547
N3435 X15.779 Y11.435
N3440 X15.538 Y11.331
N3445 X15.324 Y11.226
N3450 X15.109 Y11.106
N3455 X15.042 Y11.065
N3460 X14.744 Y10.843
N3465 X14.486 Y10.574
N3470 X14.278 Y10.265
N3475 X14.125 Y9.926
N3480 X14.032 Y9.566
N3485 X14. Y9.195
N3490 Y8.15
N3495 G3 X14.536 Y7.574 Z-3.818 I0.6 J0.021
N3500 G1 X14.62 Y7.565 Z-3.8
N3505 X29.337 Y6.005
N3510 X29.38 Y6.002
N3515 G3 X30. Y6.581 Z-4. I0.02 J0.6
N3520 G1 Y7.588
N3525 X29.992 Y7.747
N3530 X29.977 Y7.896
N3535 X29.951 Y8.044
N3540 X29.914 Y8.189
N3545 X29.869 Y8.332
N3550 X29.816 Y8.474
N3555 X29.753 Y8.621
N3560 X29.675 Y8.78
N3565 X29.581 Y8.95
N3570 X29.474 Y9.123
N3575 X29.342 Y9.314
N3580 X29.197 Y9.504
N3585 X29.021 Y9.713
N3590 X28.822 Y9.927
N3595 X28.6 Y10.144
N3600 X28.333 Y10.381
N3605 X28.046 Y10.611
N3610 X27.708 Y10.856
N3615 X27.314 Y11.113
N3620 X26.9 Y11.356
N3625 X26.417 Y11.608
N3630 X25.854 Y11.868
N3635 X25.247 Y12.113
N3640 X24.583 Y12.345
N3645 X23.838 Y12.564
N3650 X23.043 Y12.757
N3655 X22.226 Y12.913
N3660 X21.411 Y13.029
N3665 X20.624 Y13.101
N3670 X19.873 Y13.134
N3675 X19.165 Y13.13
N3680 X18.538 Y13.096
N3685 X17.959 Y13.036
N3690 X17.431 Y12.955
N3695 X16.967 Y12.861
N3700 X16.555 Y12.756
N3705 X16.191 Y12.645
N3710 X15.896 Y12.538
N3715 X15.617 Y12.422
N3720 X15.403 Y12.321
N3725 X15.174 Y12.198
N3730 X14.994 Y12.09
N3735 X14.977 Y12.078
N3740 X14.695 Y11.854
N3745 X14.454 Y11.588
N3750 X14.259 Y11.286
N3755 X14.117 Y10.956
N3760 X14.029 Y10.607
N3765 X14. Y10.249
N3770 Y9.195
N3775 G3 X14.535 Y8.619 Z-3.818 I0.6 J0.021
N3780 G1 X14.62 Y8.61 Z-3.8
N3785 X29.336 Y7.012
N3790 X29.38 Y7.009
N3795 G3 X30. Y7.588 Z-4. I0.02 J0.6
N3800 G1 Y8.685
N3805 X29.993 Y8.835
N3810 X29.975 Y8.984
N3815 X29.946 Y9.131
N3820 X29.908 Y9.276
N3825 X29.861 Y9.419
N3830 X29.808 Y9.559
N3835 X29.738 Y9.716
N3840 X29.659 Y9.874
N3845 X29.56 Y10.05
N3850 X29.448 Y10.229
N3855 X29.314 Y10.42
N3860 X29.156 Y10.625
N3865 X28.979 Y10.831
N3870 X28.768 Y11.055
N3875 X28.536 Y11.278
N3880 X28.269 Y11.511
N3885 X27.95 Y11.763
N3890 X27.614 Y12.003
N3895 X27.219 Y12.257
N3900 X26.762 Y12.52
N3905 X26.279 Y12.768
N3910 X25.731 Y13.016
N3915 X25.106 Y13.263
N3920 X24.417 Y13.498
N3925 X23.685 Y13.707
N3930 X22.932 Y13.884
N3935 X22.5 Y13.964
N3940 X22.368 Y13.984
N3945 X22.236 Y13.996
N3950 X22.102 Y14.
N3955 X18.696
N3960 X17.88 Y13.959
N3965 X17.482 Y13.92
N3970 X17.096 Y13.862
N3975 X16.733 Y13.79
N3980 X16.386 Y13.704
N3985 X16.069 Y13.608
N3990 X15.815 Y13.517
N3995 X15.555 Y13.41
N4000 X15.357 Y13.317
N4005 X15.146 Y13.205
N4010 X15.076 Y13.163
N4015 X14.778 Y12.951
N4020 X14.52 Y12.692
N4025 X14.308 Y12.394
N4030 X14.148 Y12.065
N4035 X14.046 Y11.713
N4040 X14.002 Y11.35
N4045 G3 X14.602 Y10.75 Z-3.8 I0.6 J0.
N4050 X14.872 Y10.814 I0.001 J0.6
N4055 G1 X18.945 Y12.864
N4060 G3 X19.275 Y13.38 I-0.27 J0.536
N4065 X18.696 Y14. Z-4. I-0.6 J0.02
N4070 G1 X16.685
N4075 X16.484 Y13.994
N4080 X15.881 Y13.958
N4085 X15.587 Y13.92
N4090 X15.479 Y13.898
N4095 X15.277 Y13.819
N4100 X15.076 Y13.735
N4105 X15.041 Y13.718
N4110 X14.958 Y13.667
N4115 X14.674 Y13.45
N4120 X14.599 Y13.383
N4125 X14.543 Y13.316
N4130 X14.388 Y13.114
N4135 X14.323 Y13.027
N4140 X14.272 Y12.94
N4145 X14.26 Y12.913
N4150 X14.176 Y12.712
N4155 X14.099 Y12.51
N4160 X14.071 Y12.342
N4165 X14.04 Y12.108
N4170 X14.022 Y11.906
N4175 X14.001 Y11.302
N4180 X14. Y10.497
N4185 Y10.249
N4190 G3 X14.537 Y9.674 Z-3.818 I0.6 J0.021
N4195 G1 X14.62 Y9.665 Z-3.8
N4200 X29.337 Y8.109
N4205 X29.38 Y8.106
N4210 G3 X30. Y8.685 Z-4. I0.02 J0.6
N4215 G1 Y9.753
N4220 X29.993 Y9.902
N4225 X29.975 Y10.051
N4230 X29.947 Y10.199
N4235 X29.908 Y10.344
N4240 X29.862 Y10.486
N4245 X29.807 Y10.633
N4250 X29.739 Y10.787
N4255 X29.658 Y10.95
N4260 X29.559 Y11.127
N4265 X29.446 Y11.307
N4270 X29.307 Y11.507
N4275 X29.155 Y11.704
N4280 X28.973 Y11.918
N4285 X28.762 Y12.142
N4290 X28.528 Y12.368
N4295 X28.25 Y12.612
N4300 X27.945 Y12.854
N4305 X27.602 Y13.099
N4310 X27.198 Y13.36
N4315 X26.755 Y13.617
N4320 X26.486 Y13.755
N4325 X26.164 Y13.89
N4330 X25.826 Y13.972
N4335 X25.478 Y14.
N4340 G3 X24.899 Y13.38 Z-3.8 I0.021 J-0.6
N4345 X25.09 Y12.961 I0.6 J0.02
N4350 G1 X28.992 Y9.334
N4355 G3 X29.38 Y9.174 I0.409 J0.439
N4360 X30. Y9.753 Z-4. I0.02 J0.6
N4365 G1 Y10.809
N4370 X29.993 Y10.959
N4375 X29.977 Y11.108
N4380 X29.95 Y11.256
N4385 X29.914 Y11.401
N4390 X29.869 Y11.544
N4395 X29.814 Y11.692
N4400 X29.75 Y11.842
N4405 X29.669 Y12.009
N4410 X29.574 Y12.182
N4415 X29.462 Y12.364
N4420 X29.327 Y12.563
N4425 X29.178 Y12.759
N4430 X28.996 Y12.977
N4435 X28.794 Y13.196
N4440 X28.561 Y13.425
N4445 X28.543 Y13.441
N4450 X28.221 Y13.68
N4455 X27.862 Y13.856
N4460 X27.477 Y13.964
N4465 X27.078 Y14.
N4470 G3 X26.499 Y13.38 Z-3.8 I0.021 J-0.6
N4475 X26.652 Y13. I0.6 J0.02
N4480 G1 X28.953 Y10.43
N4485 G3 X29.38 Y10.23 I0.447 J0.4
N4490 X30. Y10.809 Z-4. I0.02 J0.6
N4495 G1 X29.999 Y11.302
N4500 X29.978 Y11.906
N4505 X29.96 Y12.108
N4510 X29.957 Y12.133
N4515 X29.944 Y12.23
N4520 X29.917 Y12.377
N4525 X29.88 Y12.523
N4530 X29.845 Y12.636
N4535 X29.801 Y12.762
N4540 X29.75 Y12.886
N4545 X29.691 Y13.006
N4550 G3 X29.218 Y12.796 I-0.226 J-0.129
N4555 G1 X29.225 Y12.775
N4560 X29.43 Y12.148
N4565 X29.438 Y12.124
N4570 G3 X29.944 Y12.23 I0.247 J0.081
N4575 G1 X29.933 Y12.309
N4580 X29.902 Y12.51
N4585 X29.824 Y12.712
N4590 X29.74 Y12.913
N4595 X29.687 Y13.014
N4600 X29.612 Y13.114
N4605 X29.457 Y13.316
N4610 X29.41 Y13.371
N4615 X29.353 Y13.427
N4620 X29.152 Y13.583
N4625 X29.056 Y13.657
N4630 X28.96 Y13.718
N4635 X28.951 Y13.723
N4640 X28.75 Y13.808
N4645 X28.549 Y13.889
N4650 X28.481 Y13.908
N4655 X28.413 Y13.92
N4660 X28.147 Y13.955
N4665 X27.946 Y13.975
N4670 X27.343 Y13.999
N4675 X27.141 Y14.
N4680 X22.102
N4685 G3 X21.539 Y13.535 I0.021 J-0.6
N4690 G1 X21.517 Y13.444 Z-3.993
N4695 X21.497 Y13.355 Z-3.971
N4700 X21.477 Y13.27 Z-3.935
N4705 X21.459 Y13.192 Z-3.885
N4710 X21.443 Y13.122 Z-3.824
N4715 X21.429 Y13.062 Z-3.753
N4720 X21.418 Y13.014 Z-3.672
N4725 X21.41 Y12.979 Z-3.585
N4730 X21.405 Y12.958 Z-3.494
N4735 X21.404 Y12.951 Z-3.4
N4740 G0 Z5.
N4745 X6.053 Y-3.629
N4750 Z-2.8
N4755 G1 Z-3.4 F1200.
N4760 X6.046 Y-3.627 Z-3.494
N4765 X6.024 Y-3.622 Z-3.585
N4770 X5.99 Y-3.613 Z-3.672
N4775 X5.942 Y-3.6 Z-3.753
N4780 X5.883 Y-3.585 Z-3.824
N4785 X5.813 Y-3.567 Z-3.885
N4790 X5.736 Y-3.547 Z-3.935
N4795 X5.651 Y-3.525 Z-3.971
N4800 X5.563 Y-3.502 Z-3.993
N4805 X5.472 Y-3.478 Z-4.
N4810 G3 X2.207 Y-2.999 I-3.845 J-14.828
N4815 G1 X2.006 Y-2.998
N4820 X1.838 Y-2.993
N4825 X1.604 Y-2.972
N4830 X1.403 Y-2.937
N4835 X1.202 Y-2.89
N4840 X1.001 Y-2.821
N4845 X0.799 Y-2.747
N4850 X0.598 Y-2.647
N4855 X0.49 Y-2.59
N4860 X0.397 Y-2.53
N4865 X0.196 Y-2.396
N4870 X0.187 Y-2.389
N4875 X-0.005 Y-2.225
N4880 X-0.046 Y-2.187
N4885 X-0.206 Y-2.027
N4890 X-0.243 Y-1.986
N4895 X-0.41 Y-1.785
N4900 X-0.542 Y-1.583
N4905 X-0.608 Y-1.481
N4910 X-0.658 Y-1.382
N4915 X-0.755 Y-1.181
N4920 X-0.809 Y-1.029
N4925 X-1.15 Y-0.211
N4930 X-1.369 Y0.648
N4935 X-1.519 Y1.521
N4940 X-1.618 Y2.402
N4945 X-1.684 Y3.285
N4950 X-1.726 Y4.171
N4955 X-1.753 Y5.056
N4960 X-1.77 Y5.942
N4965 X-1.781 Y6.828
N4970 X-1.788 Y7.714
N4975 X-1.792 Y8.601
N4980 X-1.795 Y9.487
N4985 X-1.798 Y11.259
N4990 X-1.8 Y15.69
N4995 Y49.362
N5000 Y50.248
N5005 X-1.535 Y51.094
N5010 X-1.348 Y51.356
N5015 X-1.163 Y51.671
N5020 X-1.037 Y52.015
N5025 X-0.975 Y52.375
N5030 X-0.956 Y52.486
N5035 X-0.959 Y52.512 Z-3.994
N5040 G2 X-1.148 Y53.406 Z-3.8 I3.397 J1.187
N5045 X-1.16 Y53.745 I3.586 J0.294
N5050 X-0.771 Y54.3 I0.6 J-0.008
N5055 G1 X4.463 Y56.259
N5060 G2 X5.121 Y56.097 I0.21 J-0.562
N5065 X5.356 Y55.804 I-2.683 J-2.398
N5070 X5.779 Y55.035 Z-3.987 I-2.918 J-2.105
N5075 G1 X5.79 Y55.018 Z-3.991
N5080 X5.807 Y55.005 Z-3.996
N5085 X5.827 Y55. Z-4.
N5090 X5.984 Y54.993
N5095 X6.43 Y54.963
N5100 X6.631 Y54.925
N5105 X6.832 Y54.88
N5110 X6.932 Y54.85
N5115 X7.033 Y54.815
N5120 X7.234 Y54.73
N5125 X7.435 Y54.629
N5130 X7.57 Y54.563
N5135 X7.767 Y54.484
N5140 X8.013 Y54.399
N5145 X8.324 Y54.309
N5150 X8.725 Y54.213
N5155 X9.263 Y54.112
N5160 X10.031 Y54.005
N5165 X10.913 Y53.927
N5170 X11.798 Y53.879
N5175 X12.684 Y53.85
N5180 X13.57 Y53.831
N5185 X14.456 Y53.82
N5190 X15.342 Y53.812
N5195 X16.228 Y53.808
N5200 X17.114 Y53.805
N5205 X18.886 Y53.802
N5210 X23.317 Y53.8
N5215 X29.688
N5220 X30.077 Y53.835
N5225 X30.453 Y53.937
N5230 X30.806 Y54.105
N5235 X31.123 Y54.333
N5240 G3 X31.247 Y55.052 I-0.407 J0.441
N5245 G1 X31.204 Y55.135 Z-3.993
N5250 X31.161 Y55.217 Z-3.971
N5255 X31.12 Y55.294 Z-3.935
N5260 X31.083 Y55.365 Z-3.885
N5265 X31.05 Y55.428 Z-3.824
N5270 X31.021 Y55.482 Z-3.753
N5275 X30.999 Y55.526 Z-3.672
N5280 X30.982 Y55.558 Z-3.585
N5285 X30.972 Y55.577 Z-3.494
N5290 X30.968 Y55.584 Z-3.4
N5295 G0 Z5.
N5300 X6.578 Y55.703
N5305 Z-2.8
N5310 G1 Z-3.4 F1200.
N5315 X6.582 Y55.697 Z-3.494
N5320 X6.593 Y55.678 Z-3.585
N5325 X6.611 Y55.647 Z-3.672
N5330 X6.636 Y55.605 Z-3.753
N5335 X6.667 Y55.552 Z-3.824
N5340 X6.703 Y55.49 Z-3.885
N5345 X6.744 Y55.421 Z-3.935
N5350 X6.788 Y55.346 Z-3.971
N5355 X6.834 Y55.267 Z-3.993
N5360 X6.882 Y55.186 Z-4.
N5365 G3 X7.435 Y54.629 I1.365 J0.802
N5370 G1 X7.505 Y54.59
N5375 X7.636 Y54.509
N5380 X7.837 Y54.365
N5385 X8.046 Y54.187
N5390 X8.152 Y54.086
N5395 X8.266 Y53.988
N5400 X8.386 Y53.898
N5405 X8.518 Y53.809
N5410 X8.66 Y53.724
N5415 X8.831 Y53.632
N5420 X9.044 Y53.531
N5425 X9.287 Y53.43
N5430 X9.579 Y53.324
N5435 X9.943 Y53.213
N5440 X10.387 Y53.1
N5445 X10.961 Y52.983
N5450 X11.745 Y52.863
N5455 X12.626 Y52.772
N5460 X13.51 Y52.713
N5465 X14.395 Y52.674
N5470 X15.281 Y52.649
N5475 X16.167 Y52.632
N5480 X17.053 Y52.621
N5485 X17.939 Y52.614
N5490 X18.825 Y52.609
N5495 X19.712 Y52.606
N5500 X21.484 Y52.603
N5505 X25.028 Y52.6
N5510 X27.687
N5515 X28.409 Y52.608
N5520 X28.856 Y52.634
N5525 X28.876 Y52.636
N5530 X29.263 Y52.714
N5535 X29.63 Y52.859
N5540 X29.964 Y53.067
N5545 X30.257 Y53.332
N5550 X30.497 Y53.645
N5555 G3 X30.283 Y54.466 Z-3.8 I-0.518 J0.304
N5560 X29.995 Y54.548 I-0.304 J-0.517
N5565 G1 X8.597 Y55.106
N5570 G3 X8.161 Y54.934 I-0.016 J-0.6
N5575 X7.981 Y54.506 Z-3.901 I0.42 J-0.428
N5580 X8.152 Y54.086 Z-4. I0.6 J0.
N5585 G1 X8.257 Y53.986
N5590 X9.044 Y53.199
N5595 X9.214 Y53.045
N5600 X9.33 Y52.95
N5605 X9.464 Y52.851
N5610 X9.608 Y52.756
N5615 X9.787 Y52.649
N5620 X10.005 Y52.533
N5625 X10.236 Y52.424
N5630 X10.528 Y52.304
N5635 X10.868 Y52.183
N5640 X11.279 Y52.058
N5645 X11.781 Y51.932
N5650 X12.43 Y51.803
N5655 X13.303 Y51.673
N5660 X14.184 Y51.585
N5665 X15.069 Y51.526
N5670 X15.954 Y51.485
N5675 X16.839 Y51.458
N5680 X17.725 Y51.439
N5685 X18.611 Y51.427
N5690 X19.497 Y51.418
N5695 X20.384 Y51.412
N5700 X21.27 Y51.408
N5705 X23.042 Y51.404
N5710 X25.7 Y51.401
N5715 X26.586 Y51.402
N5720 X27.329 Y51.413
N5725 X27.774 Y51.442
N5730 X28.124 Y51.481
N5735 X28.42 Y51.529
N5740 X28.521 Y51.551
N5745 X28.879 Y51.659
N5750 X29.215 Y51.824
N5755 X29.518 Y52.044
N5760 X29.781 Y52.31
N5765 X29.996 Y52.616
N5770 X30.158 Y52.953
N5775 X30.244 Y53.181
N5780 X30.375 Y53.429
N5785 X30.458 Y53.583
N5790 X30.497 Y53.645
N5795 G3 X30.283 Y54.466 Z-3.8 I-0.518 J0.304
N5800 X29.97 Y54.548 I-0.304 J-0.517
N5805 G1 X9.473 Y54.208
N5810 G3 X9.073 Y54.046 I0.01 J-0.6
N5815 X9.044 Y53.199 Z-4. I0.41 J-0.438
N5820 G1 X10.169 Y52.074
N5825 X10.315 Y51.941
N5830 X10.431 Y51.846
N5835 X10.566 Y51.747
N5840 X10.734 Y51.634
N5845 X10.914 Y51.526
N5850 X11.133 Y51.409
N5855 X11.407 Y51.279
N5860 X11.694 Y51.16
N5865 X12.06 Y51.028
N5870 X12.48 Y50.9
N5875 X13.015 Y50.765
N5880 X13.685 Y50.629
N5885 X14.561 Y50.496
N5890 X15.442 Y50.405
N5895 X16.326 Y50.342
N5900 X17.211 Y50.299
N5905 X18.097 Y50.268
N5910 X18.983 Y50.247
N5915 X19.869 Y50.233
N5920 X20.755 Y50.222
N5925 X21.641 Y50.215
N5930 X22.527 Y50.211
N5935 X23.413 Y50.207
N5940 X24.299 Y50.205
N5945 X25.185
N5950 X26.072 Y50.212
N5955 X26.777 Y50.24
N5960 X27.254 Y50.283
N5965 X27.591 Y50.33
N5970 X27.914 Y50.391
N5975 X28.168 Y50.452
N5980 X28.408 Y50.522
N5985 X28.638 Y50.601
N5990 X28.824 Y50.675
N5995 X28.841 Y50.683
N6000 X29.154 Y50.862
N6005 X29.431 Y51.093
N6010 X29.663 Y51.369
N6015 X29.842 Y51.681
N6020 X29.964 Y52.02
N6025 X30.025 Y52.375
N6030 X30.059 Y52.577
N6035 X30.107 Y52.778
N6040 X30.158 Y52.953
N6045 G3 X29.723 Y53.682 Z-3.8 I-0.582 J0.147
N6050 G1 X29.64 Y53.697
N6055 X29.556 Y53.7
N6060 X10.588 Y53.083
N6065 G3 X10.198 Y52.922 I0.019 J-0.6
N6070 X10.169 Y52.074 Z-4. I0.41 J-0.438
N6075 G1 X11.277 Y50.966
N6080 X11.466 Y50.795
N6085 X11.588 Y50.695
N6090 X11.723 Y50.594
N6095 X11.893 Y50.481
N6100 X12.084 Y50.366
N6105 X12.304 Y50.248
N6110 X12.584 Y50.115
N6115 X12.883 Y49.991
N6120 X13.255 Y49.857
N6125 X13.69 Y49.723
N6130 X14.24 Y49.584
N6135 X14.925 Y49.445
N6140 X15.801 Y49.312
N6145 X16.683 Y49.219
N6150 X17.566 Y49.154
N6155 X18.451 Y49.108
N6160 X19.337 Y49.076
N6165 X20.223 Y49.053
N6170 X21.109 Y49.037
N6175 X21.995 Y49.026
N6180 X22.881 Y49.018
N6185 X23.767 Y49.013
N6190 X24.653
N6195 X25.539 Y49.029
N6200 X26.257 Y49.068
N6205 X26.811 Y49.126
N6210 X27.281 Y49.198
N6215 X27.623 Y49.267
N6220 X27.946 Y49.349
N6225 X28.195 Y49.426
N6230 X28.423 Y49.508
N6235 X28.647 Y49.602
N6240 X28.822 Y49.685
N6245 X28.841 Y49.695
N6250 X29.17 Y49.912
N6255 X29.455 Y50.184
N6260 X29.687 Y50.502
N6265 X29.859 Y50.857
N6270 X29.964 Y51.236
N6275 X30. Y51.628
N6280 X30.001 Y51.973
N6285 X30.008 Y52.174
N6290 X30.025 Y52.375
N6295 G3 X29.453 Y53.002 Z-3.8 I-0.599 J0.027
N6300 G1 X29.39 Y53.001
N6305 X11.681 Y51.974
N6310 G3 X11.306 Y51.814 I0.035 J-0.599
N6315 X11.277 Y50.966 Z-4. I0.41 J-0.438
N6320 G1 X12.462 Y49.78
N6325 X12.629 Y49.63
N6330 X12.756 Y49.526
N6335 X12.892 Y49.425
N6340 X13.062 Y49.311
N6345 X13.261 Y49.191
N6350 X13.482 Y49.073
N6355 X13.763 Y48.94
N6360 X14.073 Y48.811
N6365 X14.449 Y48.675
N6370 X14.894 Y48.539
N6375 X15.455 Y48.396
N6380 X16.152 Y48.255
N6385 X17.028 Y48.122
N6390 X17.909 Y48.028
N6395 X18.793 Y47.962
N6400 X19.677 Y47.915
N6405 X20.563 Y47.882
N6410 X21.449 Y47.858
N6415 X22.335 Y47.841
N6420 X23.221 Y47.831
N6425 X24.107
N6430 X24.993 Y47.85
N6435 X25.816 Y47.899
N6440 X26.442 Y47.967
N6445 X26.943 Y48.046
N6450 X27.383 Y48.138
N6455 X27.71 Y48.223
N6460 X28.02 Y48.32
N6465 X28.274 Y48.413
N6470 X28.489 Y48.503
N6475 X28.718 Y48.614
N6480 X28.896 Y48.71
N6485 X28.943 Y48.739
N6490 X29.246 Y48.961
N6495 X29.507 Y49.231
N6500 X29.718 Y49.541
N6505 X29.873 Y49.882
N6510 X29.968 Y50.245
N6515 X30. Y50.619
N6520 Y51.628
N6525 G3 X29.382 Y52.209 Z-3.8 I-0.6 J-0.02
N6530 G1 X29.349 Y52.207
N6535 X12.85 Y50.787
N6540 G3 X12.492 Y50.628 I0.051 J-0.598
N6545 X12.462 Y49.78 Z-4. I0.41 J-0.438
N6550 G1 X12.887 Y49.355
N6555 X13.085 Y49.154
N6560 X13.271 Y48.953
N6565 X13.401 Y48.792
N6570 X13.509 Y48.672
N6575 X13.614 Y48.566
N6580 X13.726 Y48.465
N6585 X13.859 Y48.357
N6590 X14.004 Y48.251
N6595 X14.178 Y48.135
N6600 X14.392 Y48.008
N6605 X14.619 Y47.888
N6610 X14.907 Y47.753
N6615 X15.236 Y47.618
N6620 X15.623 Y47.48
N6625 X16.09 Y47.34
N6630 X16.674 Y47.195
N6635 X17.406 Y47.05
N6640 X18.283 Y46.921
N6645 X19.164 Y46.829
N6650 X20.048 Y46.764
N6655 X20.933 Y46.718
N6660 X21.818 Y46.685
N6665 X22.704 Y46.665
N6670 X23.59 Y46.66
N6675 X24.476 Y46.677
N6680 X25.347 Y46.725
N6685 X26.042 Y46.798
N6690 X26.618 Y46.887
N6695 X27.09 Y46.984
N6700 X27.512 Y47.092
N6705 X27.849 Y47.196
N6710 X28.151 Y47.305
N6715 X28.408 Y47.413
N6720 X28.621 Y47.514
N6725 X28.845 Y47.635
N6730 X29.026 Y47.745
N6735 X29.307 Y47.968
N6740 X29.547 Y48.235
N6745 X29.741 Y48.536
N6750 X29.884 Y48.866
N6755 X29.971 Y49.214
N6760 X30. Y49.571
N6765 Y50.619
N6770 G3 X29.38 Y51.198 Z-3.8 I-0.6 J-0.021
N6775 G1 X29.345 Y51.196
N6780 X13.825 Y49.751
N6785 G3 X13.518 Y49.632 I0.056 J-0.597
N6790 X13.401 Y48.792 Z-4. I0.362 J-0.479
N6795 G1 X13.434 Y48.751
N6800 X13.563 Y48.55
N6805 X13.669 Y48.36
N6810 X13.75 Y48.188
N6815 X13.821 Y48.056
N6820 X13.9 Y47.929
N6825 X13.99 Y47.808
N6830 X14.087 Y47.694
N6835 X14.191 Y47.585
N6840 X14.302 Y47.48
N6845 X14.441 Y47.36
N6850 X14.592 Y47.243
N6855 X14.774 Y47.115
N6860 X14.984 Y46.982
N6865 X15.222 Y46.847
N6870 X15.515 Y46.7
N6875 X15.828 Y46.561
N6880 X16.232 Y46.405
N6885 X16.663 Y46.261
N6890 X17.212 Y46.108
N6895 X17.887 Y45.955
N6900 X18.745 Y45.804
N6905 X19.624 Y45.693
N6910 X20.507 Y45.613
N6915 X21.391 Y45.557
N6920 X22.277 Y45.521
N6925 X23.163 Y45.507
N6930 X24.049 Y45.517
N6935 X24.934 Y45.561
N6940 X25.699 Y45.637
N6945 X26.314 Y45.728
N6950 X26.858 Y45.835
N6955 X27.308 Y45.948
N6960 X27.718 Y46.071
N6965 X28.033 Y46.183
N6970 X28.326 Y46.304
N6975 X28.561 Y46.414
N6980 X28.776 Y46.528
N6985 X28.983 Y46.651
N6990 X29.015 Y46.672
N6995 X29.299 Y46.896
N7000 X29.542 Y47.162
N7005 X29.738 Y47.465
N7010 X29.882 Y47.796
N7015 X29.97 Y48.147
N7020 X30. Y48.506
N7025 Y49.571
N7030 G3 X29.38 Y50.15 Z-3.8 I-0.6 J-0.021
N7035 G1 X29.356 Y50.149
N7040 X14.257 Y49.023
N7045 X14.191 Y49.014
N7050 X14.127 Y48.998
N7055 X14.065 Y48.976
N7060 G3 X13.75 Y48.188 Z-4. I0.237 J-0.551
N7065 G1 X13.769 Y48.147
N7070 X13.844 Y47.946
N7075 X13.87 Y47.865
N7080 X13.902 Y47.745
N7085 X13.927 Y47.634
N7090 X13.967 Y47.489
N7095 X14.019 Y47.349
N7100 X14.085 Y47.214
N7105 X14.161 Y47.085
N7110 X14.246 Y46.961
N7115 X14.337 Y46.842
N7120 X14.438 Y46.726
N7125 X14.553 Y46.605
N7130 X14.689 Y46.475
N7135 X14.842 Y46.343
N7140 X15.019 Y46.204
N7145 X15.221 Y46.061
N7150 X15.455 Y45.912
N7155 X15.721 Y45.761
N7160 X16.032 Y45.603
N7165 X16.387 Y45.444
N7170 X16.81 Y45.279
N7175 X17.293 Y45.117
N7180 X17.859 Y44.957
N7185 X18.56 Y44.796
N7190 X19.429 Y44.64
N7195 X20.307 Y44.526
N7200 X21.19 Y44.446
N7205 X22.075 Y44.395
N7210 X22.96 Y44.371
N7215 X23.846 Y44.378
N7220 X24.731 Y44.421
N7225 X25.506 Y44.497
N7230 X26.15 Y44.592
N7235 X26.722 Y44.705
N7240 X27.204 Y44.825
N7245 X27.629 Y44.952
N7250 X27.975 Y45.075
N7255 X28.279 Y45.2
N7260 X28.529 Y45.317
N7265 X28.747 Y45.433
N7270 X28.962 Y45.56
N7275 X29.014 Y45.594
N7280 X29.298 Y45.818
N7285 X29.541 Y46.084
N7290 X29.738 Y46.388
N7295 X29.882 Y46.719
N7300 X29.97 Y47.069
N7305 X30. Y47.429
N7310 Y48.506
N7315 G3 X29.38 Y49.085 Z-3.8 I-0.6 J-0.021
N7320 G1 X29.371
N7325 X14.487 Y48.343
N7330 X14.406 Y48.334
N7335 G3 X13.927 Y47.634 Z-4. I0.111 J-0.59
N7340 G1 X13.947 Y47.543
N7345 X13.98 Y47.342
N7350 X13.992 Y47.141
N7355 X13.993 Y47.08
N7360 X14.004 Y46.93
N7365 X14.033 Y46.783
N7370 X14.077 Y46.639
N7375 X14.133 Y46.5
N7380 X14.199 Y46.366
N7385 X14.274 Y46.236
N7390 X14.356 Y46.11
N7395 X14.445 Y45.989
N7400 X14.552 Y45.856
N7405 X14.672 Y45.721
N7410 X14.812 Y45.578
N7415 X14.972 Y45.43
N7420 X15.154 Y45.278
N7425 X15.368 Y45.116
N7430 X15.599 Y44.958
N7435 X15.881 Y44.784
N7440 X16.176 Y44.622
N7445 X16.545 Y44.442
N7450 X16.938 Y44.273
N7455 X17.424 Y44.092
N7460 X17.968 Y43.919
N7465 X18.595 Y43.753
N7470 X19.353 Y43.591
N7475 X20.227 Y43.448
N7480 X21.107 Y43.346
N7485 X21.991 Y43.281
N7490 X22.877 Y43.25
N7495 X23.763 Y43.254
N7500 X24.626 Y43.297
N7505 X25.397 Y43.372
N7510 X26.049 Y43.468
N7515 X26.636 Y43.584
N7520 X27.138 Y43.709
N7525 X27.573 Y43.84
N7530 X27.941 Y43.971
N7535 X28.249 Y44.098
N7540 X28.511 Y44.22
N7545 X28.731 Y44.337
N7550 X28.951 Y44.468
N7555 X29.014 Y44.509
N7560 X29.298 Y44.733
N7565 X29.541 Y45.
N7570 X29.738 Y45.303
N7575 X29.882 Y45.634
N7580 X29.97 Y45.984
N7585 X30. Y46.344
N7590 Y47.429
N7595 G3 X29.387 Y48.008 Z-3.801 I-0.6 J-0.021
N7600 G1 X29.38 Z-3.8
N7605 X14.602 Y47.671
N7610 X14.58 Y47.67 Z-3.805
N7615 G3 X13.993 Y47.08 Z-4. I0.014 J-0.6
N7620 G1 X14. Y46.738
N7625 Y46.376
N7630 X14.007 Y46.226
N7635 X14.027 Y46.077
N7640 X14.062 Y45.931
N7645 X14.108 Y45.789
N7650 X14.164 Y45.65
N7655 X14.229 Y45.514
N7660 X14.302 Y45.383
N7665 X14.383 Y45.253
N7670 X14.477 Y45.116
N7675 X14.59 Y44.969
N7680 X14.712 Y44.824
N7685 X14.863 Y44.663
N7690 X15.025 Y44.506
N7695 X15.215 Y44.338
N7700 X15.431 Y44.165
N7705 X15.672 Y43.991
N7710 X15.961 Y43.803
N7715 X16.264 Y43.627
N7720 X16.628 Y43.437
N7725 X17.034 Y43.251
N7730 X17.493 Y43.066
N7735 X18.052 Y42.873
N7740 X18.637 Y42.702
N7745 X19.329 Y42.535
N7750 X20.127 Y42.384
N7755 X21.005 Y42.262
N7760 X21.888 Y42.182
N7765 X22.773 Y42.14
N7770 X23.659 Y42.139
N7775 X24.5 Y42.177
N7780 X25.274 Y42.25
N7785 X25.937 Y42.345
N7790 X26.531 Y42.46
N7795 X27.059 Y42.589
N7800 X27.502 Y42.721
N7805 X27.892 Y42.857
N7810 X28.201 Y42.983
N7815 X28.481 Y43.113
N7820 X28.701 Y43.229
N7825 X28.928 Y43.362
N7830 X29.007 Y43.414
N7835 X29.293 Y43.637
N7840 X29.538 Y43.905
N7845 X29.736 Y44.208
N7850 X29.881 Y44.541
N7855 X29.97 Y44.892
N7860 X30. Y45.253
N7865 Y46.344
N7870 G3 X29.402 Y46.923 Z-3.805 I-0.6 J-0.021
N7875 G1 X29.38 Z-3.8
N7880 X14.62 Y46.955
N7885 X14.601 Z-3.804
N7890 G3 X14. Y46.376 Z-4. I-0.001 J-0.6
N7895 G1 Y45.53
N7900 X14.007 Y45.38
N7905 X14.026 Y45.231
N7910 X14.059 Y45.085
N7915 X14.102 Y44.941
N7920 X14.155 Y44.801
N7925 X14.216 Y44.664
N7930 X14.284 Y44.53
N7935 X14.362 Y44.395
N7940 X14.459 Y44.246
N7945 X14.565 Y44.098
N7950 X14.691 Y43.938
N7955 X14.835 Y43.773
N7960 X14.998 Y43.604
N7965 X15.192 Y43.422
N7970 X15.399 Y43.245
N7975 X15.643 Y43.056
N7980 X15.919 Y42.864
N7985 X16.226 Y42.672
N7990 X16.588 Y42.468
N7995 X16.973 Y42.276
N8000 X17.418 Y42.08
N8005 X17.946 Y41.878
N8010 X18.495 Y41.698
N8015 X19.139 Y41.521
N8020 X19.87 Y41.358
N8025 X20.674 Y41.219
N8030 X21.538 Y41.113
N8035 X22.42 Y41.048
N8040 X23.289 Y41.027
N8045 X24.115 Y41.047
N8050 X24.891 Y41.103
N8055 X25.61 Y41.19
N8060 X26.252 Y41.301
N8065 X26.798 Y41.422
N8070 X27.291 Y41.557
N8075 X27.712 Y41.695
N8080 X28.044 Y41.821
N8085 X28.362 Y41.96
N8090 X28.593 Y42.076
N8095 X28.83 Y42.208
N8100 X29.025 Y42.331
N8105 X29.057 Y42.353
N8110 X29.329 Y42.577
N8115 X29.562 Y42.841
N8120 X29.75 Y43.14
N8125 X29.888 Y43.464
N8130 X29.972 Y43.807
N8135 X30. Y44.158
N8140 Y45.253
N8145 G3 X29.412 Y45.832 Z-3.807 I-0.6 J-0.021
N8150 G1 X29.38 Y45.833 Z-3.8
N8155 X14.62 Y46.109
N8160 X14.611 Z-3.802
N8165 G3 X14. Y45.53 Z-4. I-0.011 J-0.6
N8170 G1 Y44.614
N8175 X14.007 Y44.464
N8180 X14.027 Y44.315
N8185 X14.058 Y44.169
N8190 X14.1 Y44.025
N8195 X14.152 Y43.884
N8200 X14.211 Y43.746
N8205 X14.28 Y43.605
N8210 X14.358 Y43.465
N8215 X14.454 Y43.311
N8220 X14.564 Y43.153
N8225 X14.69 Y42.989
N8230 X14.84 Y42.811
N8235 X15.003 Y42.636
N8240 X15.197 Y42.448
N8245 X15.414 Y42.257
N8250 X15.655 Y42.064
N8255 X15.944 Y41.856
N8260 X16.25 Y41.657
N8265 X16.601 Y41.453
N8270 X17.012 Y41.24
N8275 X17.443 Y41.042
N8280 X17.944 Y40.841
N8285 X18.527 Y40.64
N8290 X19.145 Y40.459
N8295 X19.826 Y40.296
N8300 X20.585 Y40.153
N8305 X21.394 Y40.041
N8310 X22.227 Y39.966
N8315 X23.061 Y39.932
N8320 X23.878 Y39.939
N8325 X24.66 Y39.983
N8330 X25.388 Y40.06
N8335 X26.045 Y40.163
N8340 X26.612 Y40.279
N8345 X27.129 Y40.412
N8350 X27.57 Y40.549
N8355 X27.954 Y40.688
N8360 X28.251 Y40.813
N8365 X28.529 Y40.946
N8370 X28.744 Y41.062
N8375 X28.968 Y41.197
N8380 X29.028 Y41.238
N8385 X29.308 Y41.462
N8390 X29.548 Y41.728
N8395 X29.742 Y42.029
N8400 X29.884 Y42.358
N8405 X29.971 Y42.706
N8410 X30. Y43.063
N8415 Y44.158
N8420 G3 X29.419 Y44.737 Z-3.808 I-0.6 J-0.021
N8425 G1 X29.38 Y44.738 Z-3.8
N8430 X14.62 Y45.192
N8435 X14.618 Y45.193
N8440 G3 X14. Y44.614 Z-4. I-0.018 J-0.6
N8445 G1 Y43.657
N8450 X14.007 Y43.507
N8455 X14.027 Y43.358
N8460 X14.058 Y43.212
N8465 X14.1 Y43.067
N8470 X14.15 Y42.926
N8475 X14.208 Y42.788
N8480 X14.277 Y42.643
N8485 X14.356 Y42.499
N8490 X14.453 Y42.338
N8495 X14.564 Y42.175
N8500 X14.692 Y42.005
N8505 X14.844 Y41.821
N8510 X15.009 Y41.641
N8515 X15.207 Y41.444
N8520 X15.428 Y41.246
N8525 X15.672 Y41.046
N8530 X15.962 Y40.833
N8535 X16.273 Y40.626
N8540 X16.63 Y40.413
N8545 X17.044 Y40.193
N8550 X17.484 Y39.986
N8555 X17.976 Y39.783
N8560 X18.542 Y39.58
N8565 X19.175 Y39.388
N8570 X19.828 Y39.225
N8575 X20.546 Y39.081
N8580 X21.319 Y38.966
N8585 X22.124 Y38.885
N8590 X22.94 Y38.844
N8595 X23.748 Y38.842
N8600 X24.526 Y38.878
N8605 X25.256 Y38.948
N8610 X25.91 Y39.042
N8615 X26.497 Y39.157
N8620 X27.025 Y39.287
N8625 X27.477 Y39.421
N8630 X27.876 Y39.562
N8635 X28.184 Y39.687
N8640 X28.475 Y39.823
N8645 X28.695 Y39.939
N8650 X28.925 Y40.074
N8655 X29.009 Y40.13
N8660 X29.294 Y40.353
N8665 X29.539 Y40.62
N8670 X29.736 Y40.924
N8675 X29.882 Y41.256
N8680 X29.97 Y41.607
N8685 X30. Y41.968
N8690 Y43.063
N8695 G3 X29.424 Y43.642 Z-3.809 I-0.6 J-0.021
N8700 G1 X29.38 Y43.644 Z-3.8
N8705 X14.624 Y44.235
N8710 X14.62 Y44.236
N8715 G3 X14. Y43.657 Z-4. I-0.02 J-0.6
N8720 G1 Y42.711
N8725 X14.007 Y42.561
N8730 X14.023 Y42.412
N8735 X14.051 Y42.265
N8740 X14.089 Y42.12
N8745 X14.136 Y41.977
N8750 X14.192 Y41.838
N8755 X14.256 Y41.696
N8760 X14.332 Y41.548
N8765 X14.426 Y41.386
N8770 X14.531 Y41.224
N8775 X14.658 Y41.047
N8780 X14.8 Y40.867
N8785 X14.965 Y40.68
N8790 X15.16 Y40.478
N8795 X15.369 Y40.281
N8800 X15.616 Y40.071
N8805 X15.896 Y39.855
N8810 X16.196 Y39.646
N8815 X16.55 Y39.425
N8820 X16.948 Y39.202
N8825 X17.374 Y38.99
N8830 X17.86 Y38.776
N8835 X18.41 Y38.567
N8840 X18.997 Y38.374
N8845 X19.625 Y38.203
N8850 X20.32 Y38.048
N8855 X20.417 Y38.032
N8860 X20.54 Y38.014
N8865 X20.664 Y38.004
N8870 X20.789 Y38.
N8875 G3 X21.367 Y38.62 Z-3.8 I-0.021 J0.6
N8880 X21.099 Y39.1 I-0.6 J-0.02
N8885 G1 X14.931 Y43.19
N8890 G3 X14.62 Y43.29 I-0.332 J-0.5
N8895 X14. Y42.711 Z-4. I-0.02 J-0.6
N8900 G1 Y41.704
N8905 X14.007 Y41.555
N8910 X14.023 Y41.405
N8915 X14.051 Y41.258
N8920 X14.089 Y41.113
N8925 X14.136 Y40.97
N8930 X14.19 Y40.831
N8935 X14.257 Y40.682
N8940 X14.333 Y40.533
N8945 X14.427 Y40.369
N8950 X14.536 Y40.199
N8955 X14.66 Y40.025
N8960 X14.81 Y39.834
N8965 X14.973 Y39.646
N8970 X15.168 Y39.443
N8975 X15.389 Y39.233
N8980 X15.629 Y39.027
N8985 X15.914 Y38.806
N8990 X16.229 Y38.584
N8995 X16.575 Y38.365
N9000 X16.717 Y38.285
N9005 X17.06 Y38.128
N9010 X17.425 Y38.032
N9015 X17.8 Y38.
N9020 G3 X18.379 Y38.62 Z-3.8 I-0.021 J0.6
N9025 X18.197 Y39.03 I-0.6 J-0.02
N9030 G1 X15.017 Y42.114
N9035 G3 X14.62 Y42.283 I-0.418 J-0.431
N9040 X14. Y41.704 Z-4. I-0.02 J-0.6
N9045 G1 Y40.899
N9050 X14.001 Y40.698
N9055 X14.02 Y40.472
N9060 X14.04 Y40.324
N9065 X14.071 Y40.177
N9070 X14.112 Y40.033
N9075 X14.161 Y39.891
N9080 X14.218 Y39.752
N9085 X14.287 Y39.602
N9090 X14.37 Y39.445
N9095 X14.467 Y39.28
N9100 X14.585 Y39.101
N9105 X14.715 Y38.923
N9110 X14.792 Y38.827
N9115 X15.045 Y38.563
N9120 X15.337 Y38.344
N9125 X15.662 Y38.176
N9130 X16.009 Y38.065
N9135 X16.371 Y38.013
N9140 G3 X16.986 Y38.596 Z-3.8 I0.015 J0.6
N9145 G1 Y38.612
N9150 G3 X16.84 Y39.005 I-0.6 J0.
N9155 G1 X15.054 Y41.071
N9160 G3 X14.619 Y41.278 I-0.454 J-0.392
N9165 X14.001 Y40.698 Z-4. I-0.019 J-0.6
N9170 G1 X14.022 Y40.094
N9175 X14.04 Y39.892
N9180 X14.071 Y39.658
N9185 X14.099 Y39.49
N9190 X14.176 Y39.288
N9195 X14.26 Y39.087
N9200 X14.272 Y39.06
N9205 X14.323 Y38.973
N9210 X14.388 Y38.886
N9215 X14.543 Y38.684
N9220 X14.599 Y38.617
N9225 X14.674 Y38.55
N9230 X14.958 Y38.333
N9235 X15.041 Y38.282
N9240 X15.076 Y38.265
N9245 X15.277 Y38.181
N9250 X15.479 Y38.102
N9255 X15.587 Y38.08
N9260 X15.881 Y38.042
N9265 X16.484 Y38.006
N9270 X16.685 Y38.
N9275 X24.728
N9280 X25.571 Y38.042
N9285 X26.028 Y38.087
N9290 X26.484 Y38.155
N9295 X26.921 Y38.242
N9300 X27.334 Y38.345
N9305 X27.708 Y38.458
N9310 X28.019 Y38.569
N9315 X28.32 Y38.693
N9320 X28.553 Y38.802
N9325 X28.774 Y38.92
N9330 X28.979 Y39.042
N9335 X29.016 Y39.066
N9340 X29.298 Y39.289
N9345 X29.541 Y39.554
N9350 X29.737 Y39.856
N9355 X29.881 Y40.186
N9360 X29.969 Y40.534
N9365 X30. Y40.893
N9370 G3 X29.382 Y41.473 Z-3.8 I-0.6 J-0.019
N9375 X29.137 Y41.413 I0.019 J-0.6
N9380 G1 X24.486 Y39.139
N9385 G3 X24.15 Y38.62 I0.264 J-0.539
N9390 X24.728 Y38. Z-4. I0.6 J-0.02
N9395 G1 X27.141
N9400 X27.343 Y38.001
N9405 X27.855 Y38.022
N9410 X27.905 Y38.024
N9415 X27.946 Y38.025
N9420 X28.25 Y38.071
N9425 X28.397 Y38.1
N9430 X28.543 Y38.137
N9435 X28.563 Y38.143
N9440 X28.815 Y38.236
N9445 X29.053 Y38.36
N9450 X29.275 Y38.512
N9455 G3 X29.351 Y39.356 Z-3.8 I-0.385 J0.46
N9460 X28.684 Y39.535 I-0.461 J-0.384
N9465 G1 X27.737 Y39.189
N9470 G3 X27.343 Y38.622 I0.206 J-0.563
N9475 X27.946 Y38.025 Z-4. I0.6 J0.003
N9480 G1 X28.147 Y38.045
N9485 X28.413 Y38.08
N9490 X28.481 Y38.092
N9495 X28.549 Y38.111
N9500 X28.75 Y38.192
N9505 X28.951 Y38.277
N9510 X28.96 Y38.282
N9515 X29.056 Y38.343
N9520 X29.238 Y38.483
N9525 X29.353 Y38.573
N9530 X29.41 Y38.629
N9535 X29.457 Y38.684
N9540 X29.612 Y38.886
N9545 X29.687 Y38.986
N9550 X29.74 Y39.087
N9555 X29.824 Y39.288
N9560 X29.902 Y39.49
N9565 X29.933 Y39.691
N9570 X29.96 Y39.892
N9575 X29.978 Y40.094
N9580 X29.999 Y40.698
N9585 X30. Y41.503
N9590 Y41.968
N9595 G3 X29.535 Y42.531 I-0.6 J-0.021
N9600 G1 X29.444 Y42.552 Z-3.993
N9605 X29.355 Y42.573 Z-3.971
N9610 X29.27 Y42.593 Z-3.935
N9615 X29.192 Y42.611 Z-3.885
N9620 X29.122 Y42.627 Z-3.824
N9625 X29.062 Y42.641 Z-3.753
N9630 X29.014 Y42.652 Z-3.672
N9635 X28.979 Y42.66 Z-3.585
N9640 X28.958 Y42.665 Z-3.494
N9645 X28.951 Y42.666 Z-3.4
N9650 G0 Z5.
N9655 X38.79 Y55.693
N9660 Z-2.8
N9665 G1 Z-3.4 F1200.
N9670 X38.797 Y55.691 Z-3.494
N9675 X38.818 Y55.685 Z-3.585
N9680 X38.853 Y55.675 Z-3.672
N9685 X38.9 Y55.662 Z-3.753
N9690 X38.959 Y55.646 Z-3.824
N9695 X39.028 Y55.627 Z-3.885
N9700 X39.106 Y55.605 Z-3.935
N9705 X39.19 Y55.582 Z-3.971
N9710 X39.278 Y55.558 Z-3.993
N9715 X39.368 Y55.533 Z-4.
N9720 G3 X42.625 Y55. I4.087 J14.763
N9725 G1 X42.826 Y54.996
N9730 X43.228 Y54.986
N9735 X43.429 Y54.965
N9740 X43.63 Y54.93
N9745 X43.831 Y54.881
N9750 X44.093 Y54.791
N9755 X44.234 Y54.73
N9760 X44.435 Y54.632
N9765 X44.57 Y54.567
N9770 X44.765 Y54.488
N9775 X45.008 Y54.404
N9780 X45.314 Y54.314
N9785 X45.71 Y54.218
N9790 X46.239 Y54.117
N9795 X46.991 Y54.011
N9800 X47.873 Y53.93
N9805 X48.758 Y53.881
N9810 X49.644 Y53.851
N9815 X50.53 Y53.832
N9820 X51.416 Y53.82
N9825 X52.302 Y53.813
N9830 X53.188 Y53.808
N9835 X54.074 Y53.805
N9840 X55.846 Y53.802
N9845 X60.277 Y53.8
N9850 X66.69
N9855 X67.074 Y53.834
N9860 X67.447 Y53.935
N9865 X67.797 Y54.099
N9870 X68.112 Y54.322
N9875 G3 X68.242 Y55.041 I-0.404 J0.444
N9880 G1 X68.199 Y55.124 Z-3.993
N9885 X68.157 Y55.206 Z-3.971
N9890 X68.117 Y55.283 Z-3.935
N9895 X68.08 Y55.354 Z-3.885
N9900 X68.047 Y55.418 Z-3.824
N9905 X68.019 Y55.472 Z-3.753
N9910 X67.997 Y55.516 Z-3.672
N9915 X67.98 Y55.548 Z-3.585
N9920 X67.97 Y55.568 Z-3.494
N9925 X67.967 Y55.574 Z-3.4
N9930 G0 Z5.
N9935 X43.613 Y55.735
N9940 Z-2.8
N9945 G1 Z-3.4 F1200.
N9950 X43.617 Y55.728 Z-3.494
N9955 X43.627 Y55.709 Z-3.585
N9960 X43.645 Y55.677 Z-3.672
N9965 X43.668 Y55.634 Z-3.753
N9970 X43.697 Y55.58 Z-3.824
N9975 X43.732 Y55.517 Z-3.885
N9980 X43.77 Y55.447 Z-3.935
N9985 X43.811 Y55.371 Z-3.971
N9990 X43.855 Y55.29 Z-3.993
N9995 X43.9 Y55.208 Z-4.
N10000 G3 X44.435 Y54.632 I1.39 J0.756
N10005 G1 X44.636 Y54.513
N10010 X44.837 Y54.367
N10015 X45.038 Y54.194
N10020 X45.103 Y54.129
N10025 X45.215 Y54.028
N10030 X45.332 Y53.935
N10035 X45.455 Y53.849
N10040 X45.592 Y53.763
N10045 X45.749 Y53.674
N10050 X45.945 Y53.576
N10055 X46.178 Y53.473
N10060 X46.444 Y53.371
N10065 X46.783 Y53.259
N10070 X47.18 Y53.149
N10075 X47.698 Y53.033
N10080 X48.382 Y52.914
N10085 X49.261 Y52.805
N10090 X50.144 Y52.734
N10095 X51.029 Y52.688
N10100 X51.915 Y52.658
N10105 X52.801 Y52.638
N10110 X53.687 Y52.625
N10115 X54.573 Y52.616
N10120 X55.459 Y52.611
N10125 X56.345 Y52.607
N10130 X58.117 Y52.603
N10135 X61.662 Y52.601
N10140 X65.206 Y52.6
N10145 X65.543 Y52.613
N10150 X65.869 Y52.65
N10155 X66.186 Y52.736
N10160 X66.487 Y52.867
N10165 X66.765 Y53.042
N10170 X67.013 Y53.256
N10175 X67.76 Y54.003
N10180 X67.962 Y54.194
N10185 X68.112 Y54.322
N10190 G3 X68.153 Y55.169 Z-3.8 I-0.404 J0.444
N10195 X67.702 Y55.366 I-0.444 J-0.403
N10200 G1 X45.536 Y55.138
N10205 G3 X45.132 Y54.976 I0.006 J-0.6
N10210 X45.103 Y54.129 Z-4. I0.41 J-0.438
N10215 G1 X45.239 Y53.993
N10220 X45.408 Y53.785
N10225 X45.44 Y53.744
N10230 X45.542 Y53.583
N10235 X45.622 Y53.457
N10240 X45.715 Y53.339
N10245 X45.817 Y53.229
N10250 X45.926 Y53.126
N10255 X46.041 Y53.03
N10260 X46.178 Y52.926
N10265 X46.324 Y52.826
N10270 X46.506 Y52.714
N10275 X46.716 Y52.598
N10280 X46.952 Y52.483
N10285 X47.251 Y52.355
N10290 X47.576 Y52.234
N10295 X47.983 Y52.104
N10300 X48.461 Y51.977
N10305 X49.076 Y51.846
N10310 X49.883 Y51.714
N10315 X50.763 Y51.613
N10320 X51.647 Y51.545
N10325 X52.532 Y51.499
N10330 X53.417 Y51.467
N10335 X54.303 Y51.446
N10340 X55.189 Y51.431
N10345 X56.075 Y51.421
N10350 X56.961 Y51.414
N10355 X57.847 Y51.41
N10360 X58.734 Y51.406
N10365 X60.506 Y51.403
N10370 X63.164 Y51.401
N10375 X64.05 Y51.405
N10380 X64.373 Y51.421
N10385 X64.773 Y51.478
N10390 X65.156 Y51.607
N10395 X65.509 Y51.804
N10400 X65.82 Y52.063
N10405 X67.013 Y53.256
N10410 G3 X66.984 Y54.104 Z-3.8 I-0.439 J0.409
N10415 X66.58 Y54.265 I-0.41 J-0.438
N10420 G1 X46.086 Y54.448
N10425 G3 X45.815 Y54.387 I-0.005 J-0.6
N10430 X45.542 Y53.583 Z-4. I0.266 J-0.538
N10435 G1 X45.65 Y53.382
N10440 X45.756 Y53.181
N10445 X45.832 Y52.979
N10450 X45.893 Y52.842
N10455 X45.964 Y52.71
N10460 X46.047 Y52.585
N10465 X46.139 Y52.467
N10470 X46.239 Y52.355
N10475 X46.344 Y52.248
N10480 X46.469 Y52.134
N10485 X46.603 Y52.023
N10490 X46.77 Y51.898
N10495 X46.946 Y51.779
N10500 X47.166 Y51.645
N10505 X47.405 Y51.515
N10510 X47.693 Y51.377
N10515 X48.03 Y51.235
N10520 X48.412 Y51.095
N10525 X48.875 Y50.951
N10530 X49.437 Y50.805
N10535 X50.116 Y50.664
N10540 X50.992 Y50.526
N10545 X51.872 Y50.429
N10550 X52.756 Y50.36
N10555 X53.641 Y50.312
N10560 X54.526 Y50.279
N10565 X55.412 Y50.255
N10570 X56.298 Y50.238
N10575 X57.184 Y50.226
N10580 X58.07 Y50.218
N10585 X58.956 Y50.213
N10590 X59.842 Y50.209
N10595 X61.615 Y50.204
N10600 X62.501
N10605 X63.129 Y50.222
N10610 X63.239 Y50.231
N10615 X63.623 Y50.295
N10620 X63.99 Y50.426
N10625 X64.327 Y50.619
N10630 X64.626 Y50.869
N10635 X65.82 Y52.063
N10640 G3 X65.791 Y52.91 Z-3.8 I-0.439 J0.409
N10645 X65.403 Y53.071 I-0.41 J-0.438
N10650 G1 X46.422 Y53.772
N10655 X46.349 Y53.771
N10660 X46.277 Y53.76
N10665 X46.206 Y53.741
N10670 G3 X45.832 Y52.979 Z-4. I0.194 J-0.568
N10675 G1 X45.842 Y52.953
N10680 X45.893 Y52.778
N10685 X45.941 Y52.577
N10690 X45.968 Y52.416
N10695 X46.001 Y52.27
N10700 X46.051 Y52.128
N10705 X46.113 Y51.992
N10710 X46.187 Y51.861
N10715 X46.269 Y51.736
N10720 X46.359 Y51.615
N10725 X46.455 Y51.5
N10730 X46.567 Y51.378
N10735 X46.694 Y51.254
N10740 X46.841 Y51.122
N10745 X47.008 Y50.987
N10750 X47.2 Y50.846
N10755 X47.42 Y50.702
N10760 X47.672 Y50.553
N10765 X47.962 Y50.4
N10770 X48.292 Y50.246
N10775 X48.68 Y50.087
N10780 X49.128 Y49.929
N10785 X49.669 Y49.767
N10790 X50.286 Y49.615
N10795 X51.079 Y49.459
N10800 X51.956 Y49.332
N10805 X52.837 Y49.239
N10810 X53.721 Y49.172
N10815 X54.606 Y49.123
N10820 X55.491 Y49.088
N10825 X56.377 Y49.063
N10830 X57.263 Y49.045
N10835 X58.149 Y49.032
N10840 X59.035 Y49.022
N10845 X59.921 Y49.016
N10850 X60.807 Y49.011
N10855 X61.688 Y49.016
N10860 X61.993 Y49.032
N10865 X62.391 Y49.09
N10870 X62.771 Y49.22
N10875 X63.122 Y49.416
N10880 X63.431 Y49.673
N10885 X64.626 Y50.869
N10890 G3 X64.597 Y51.716 Z-3.8 I-0.439 J0.409
N10895 X64.228 Y51.876 I-0.41 J-0.438
N10900 G1 X46.604 Y53.095
N10905 X46.543 Y53.097
N10910 X46.482 Y53.091
N10915 G3 X45.968 Y52.416 Z-4. I0.081 J-0.594
N10920 G1 X45.975 Y52.375
N10925 X45.992 Y52.174
N10930 X45.999 Y51.973
N10935 Y51.912
N10940 X46.007 Y51.762
N10945 X46.029 Y51.614
N10950 X46.067 Y51.469
N10955 X46.118 Y51.328
N10960 X46.18 Y51.191
N10965 X46.251 Y51.059
N10970 X46.329 Y50.931
N10975 X46.415 Y50.807
N10980 X46.515 Y50.676
N10985 X46.627 Y50.544
N10990 X46.758 Y50.404
N10995 X46.909 Y50.257
N11000 X47.077 Y50.109
N11005 X47.278 Y49.949
N11010 X47.491 Y49.795
N11015 X47.753 Y49.625
N11020 X48.031 Y49.463
N11025 X48.364 Y49.29
N11030 X48.735 Y49.12
N11035 X49.169 Y48.946
N11040 X49.68 Y48.77
N11045 X50.252 Y48.603
N11050 X50.96 Y48.433
N11055 X51.831 Y48.269
N11060 X52.708 Y48.146
N11065 X53.59 Y48.055
N11070 X54.473 Y47.987
N11075 X55.358 Y47.937
N11080 X56.243 Y47.9
N11085 X57.129 Y47.873
N11090 X58.015 Y47.853
N11095 X58.901 Y47.838
N11100 X59.787 Y47.829
N11105 X60.548 Y47.832
N11110 X60.786 Y47.845
N11115 X61.193 Y47.901
N11120 X61.585 Y48.024
N11125 X61.951 Y48.21
N11130 X62.281 Y48.455
N11135 X62.566 Y48.751
N11140 X62.733 Y48.958
N11145 X62.915 Y49.154
N11150 X63.136 Y49.378
N11155 X63.431 Y49.673
N11160 G3 X63.402 Y50.521 Z-3.8 I-0.439 J0.409
N11165 X63.058 Y50.679 I-0.41 J-0.438
N11170 G1 X46.664 Y52.489
N11175 X46.618 Y52.492
N11180 G3 X45.999 Y51.912 Z-4. I-0.019 J-0.6
N11185 G1 X46. Y51.167
N11190 X46.007 Y51.017
N11195 X46.025 Y50.869
N11200 X46.058 Y50.722
N11205 X46.102 Y50.579
N11210 X46.157 Y50.439
N11215 X46.22 Y50.303
N11220 X46.291 Y50.171
N11225 X46.373 Y50.038
N11230 X46.464 Y49.903
N11235 X46.571 Y49.76
N11240 X46.697 Y49.609
N11245 X46.835 Y49.457
N11250 X47.002 Y49.292
N11255 X47.182 Y49.131
N11260 X47.393 Y48.959
N11265 X47.633 Y48.783
N11270 X47.899 Y48.606
N11275 X48.217 Y48.416
N11280 X48.551 Y48.239
N11285 X48.958 Y48.048
N11290 X49.409 Y47.861
N11295 X49.935 Y47.674
N11300 X50.559 Y47.485
N11305 X51.284 Y47.304
N11310 X52.153 Y47.131
N11315 X53.03 Y47.
N11320 X53.91 Y46.9
N11325 X54.793 Y46.824
N11330 X55.677 Y46.767
N11335 X56.562 Y46.724
N11340 X57.448 Y46.692
N11345 X58.334 Y46.668
N11350 X59.22 Y46.657
N11355 X59.677 Y46.672
N11360 X60.081 Y46.706
N11365 X60.369 Y46.744
N11370 X60.669 Y46.799
N11375 X60.709 Y46.808
N11380 X61.043 Y46.916
N11385 X61.356 Y47.077
N11390 X61.638 Y47.287
N11395 X61.882 Y47.54
N11400 X62.081 Y47.829
N11405 X62.231 Y48.147
N11410 X62.331 Y48.36
N11415 X62.437 Y48.55
N11420 X62.566 Y48.751
N11425 G3 X62.649 Y49.056 Z-3.932 I-0.517 J0.305
N11430 X62.354 Y49.573 Z-3.8 I-0.6 J0.
N11435 G1 X62.283 Y49.608
N11440 X62.207 Y49.635
N11445 X62.129 Y49.65
N11450 X46.68 Y51.741
N11455 X46.62 Y51.746
N11460 X46.601 Z-3.804
N11465 X46.6
N11470 G3 X46. Y51.167 Z-4. I0. J-0.6
N11475 G1 Y50.301
N11480 X46.007 Y50.151
N11485 X46.026 Y50.002
N11490 X46.058 Y49.856
N11495 X46.101 Y49.712
N11500 X46.153 Y49.571
N11505 X46.214 Y49.434
N11510 X46.282 Y49.3
N11515 X46.359 Y49.166
N11520 X46.453 Y49.019
N11525 X46.561 Y48.868
N11530 X46.685 Y48.711
N11535 X46.831 Y48.542
N11540 X46.99 Y48.377
N11545 X47.18 Y48.196
N11550 X47.39 Y48.016
N11555 X47.629 Y47.831
N11560 X47.911 Y47.633
N11565 X48.208 Y47.446
N11570 X48.567 Y47.243
N11575 X48.966 Y47.043
N11580 X49.414 Y46.844
N11585 X49.963 Y46.632
N11590 X50.539 Y46.442
N11595 X51.236 Y46.248
N11600 X52.082 Y46.057
N11605 X52.955 Y45.904
N11610 X53.833 Y45.785
N11615 X54.715 Y45.693
N11620 X55.598 Y45.623
N11625 X56.482 Y45.568
N11630 X57.367 Y45.528
N11635 X58.253 Y45.507
N11640 X58.908 Y45.522
N11645 X59.337 Y45.552
N11650 X59.697 Y45.596
N11655 X59.985 Y45.644
N11660 X60.256 Y45.704
N11665 X60.473 Y45.763
N11670 X60.559 Y45.791
N11675 X60.927 Y45.949
N11680 X61.26 Y46.171
N11685 X61.547 Y46.449
N11690 X61.78 Y46.775
N11695 X61.949 Y47.137
N11700 X62.05 Y47.524
N11705 G3 X61.561 Y48.192 Z-3.806 I-0.595 J0.077
N11710 G1 X61.533 Y48.197 Z-3.8
N11715 X46.706 Y50.871
N11720 X46.62 Y50.88
N11725 G3 X46. Y50.301 Z-4. I-0.02 J-0.6
N11730 G1 Y49.355
N11735 X46.007 Y49.205
N11740 X46.029 Y49.057
N11745 X46.062 Y48.911
N11750 X46.106 Y48.767
N11755 X46.159 Y48.627
N11760 X46.219 Y48.49
N11765 X46.29 Y48.349
N11770 X46.372 Y48.205
N11775 X46.469 Y48.052
N11780 X46.584 Y47.888
N11785 X46.711 Y47.726
N11790 X46.865 Y47.547
N11795 X47.034 Y47.369
N11800 X47.229 Y47.182
N11805 X47.458 Y46.983
N11810 X47.702 Y46.792
N11815 X47.998 Y46.582
N11820 X48.321 Y46.376
N11825 X48.683 Y46.169
N11830 X49.116 Y45.948
N11835 X49.574 Y45.743
N11840 X50.122 Y45.528
N11845 X50.76 Y45.313
N11850 X51.481 Y45.109
N11855 X52.344 Y44.909
N11860 X53.216 Y44.752
N11865 X54.094 Y44.628
N11870 X54.975 Y44.53
N11875 X55.857 Y44.455
N11880 X56.742 Y44.4
N11885 X57.619 Y44.373
N11890 X58.27 Y44.385
N11895 X58.805 Y44.42
N11900 X59.19 Y44.465
N11905 X59.558 Y44.526
N11910 X59.827 Y44.584
N11915 X60.085 Y44.653
N11920 X60.328 Y44.731
N11925 X60.519 Y44.803
N11930 X60.728 Y44.893
N11935 X60.772 Y44.914
N11940 X61.114 Y45.123
N11945 X61.413 Y45.391
N11950 X61.658 Y45.708
N11955 X61.842 Y46.064
N11960 X61.958 Y46.448
N11965 X62.002 Y46.847
N11970 X62.008 Y47.141
N11975 X62.02 Y47.342
N11980 X62.05 Y47.524
N11985 G3 X61.533 Y48.197 Z-3.8 I-0.595 J0.077
N11990 G1 X61.525 Y48.198
N11995 X46.669 Y49.93
N12000 X46.62 Y49.934
N12005 G3 X46. Y49.355 Z-4. I-0.02 J-0.6
N12010 G1 Y48.439
N12015 X46.007 Y48.289
N12020 X46.025 Y48.14
N12025 X46.055 Y47.993
N12030 X46.095 Y47.849
N12035 X46.144 Y47.707
N12040 X46.201 Y47.568
N12045 X46.266 Y47.43
N12050 X46.345 Y47.283
N12055 X46.439 Y47.125
N12060 X46.546 Y46.964
N12065 X46.676 Y46.788
N12070 X46.819 Y46.613
N12075 X46.987 Y46.426
N12080 X47.182 Y46.23
N12085 X47.396 Y46.035
N12090 X47.65 Y45.824
N12095 X47.927 Y45.617
N12100 X48.244 Y45.403
N12105 X48.621 Y45.174
N12110 X49.016 Y44.96
N12115 X49.487 Y44.733
N12120 X50.039 Y44.5
N12125 X50.62 Y44.288
N12130 X51.32 Y44.07
N12135 X52.145 Y43.856
N12140 X53.013 Y43.676
N12145 X53.887 Y43.532
N12150 X54.766 Y43.418
N12155 X55.647 Y43.331
N12160 X56.532 Y43.273
N12165 X57.315 Y43.255
N12170 X57.955 Y43.272
N12175 X58.472 Y43.311
N12180 X58.931 Y43.368
N12185 X59.327 Y43.437
N12190 X59.634 Y43.506
N12195 X59.944 Y43.591
N12200 X60.189 Y43.672
N12205 X60.404 Y43.755
N12210 X60.633 Y43.856
N12215 X60.811 Y43.945
N12220 X60.88 Y43.984
N12225 X61.199 Y44.203
N12230 X61.475 Y44.474
N12235 X61.699 Y44.79
N12240 X61.865 Y45.141
N12245 X61.966 Y45.515
N12250 X62. Y45.9
N12255 Y46.738
N12260 X62.002 Y46.847
N12265 G3 X61.466 Y47.434 Z-3.815 I-0.6 J-0.009
N12270 G1 X61.394 Y47.442 Z-3.8
N12275 X46.663 Y49.015
N12280 X46.62 Y49.018
N12285 G3 X46. Y48.439 Z-4. I-0.02 J-0.6
N12290 G1 Y47.432
N12295 X46.007 Y47.283
N12300 X46.027 Y47.134
N12305 X46.058 Y46.987
N12310 X46.099 Y46.843
N12315 X46.149 Y46.701
N12320 X46.206 Y46.563
N12325 X46.276 Y46.413
N12330 X46.356 Y46.263
N12335 X46.454 Y46.1
N12340 X46.568 Y45.929
N12345 X46.697 Y45.754
N12350 X46.854 Y45.562
N12355 X47.024 Y45.373
N12360 X47.226 Y45.17
N12365 X47.456 Y44.961
N12370 X47.709 Y44.751
N12375 X48.015 Y44.522
N12380 X48.343 Y44.301
N12385 X48.716 Y44.074
N12390 X49.161 Y43.833
N12395 X49.63 Y43.608
N12400 X50.186 Y43.374
N12405 X50.833 Y43.137
N12410 X51.565 Y42.909
N12415 X52.411 Y42.69
N12420 X53.278 Y42.511
N12425 X54.153 Y42.367
N12430 X55.032 Y42.256
N12435 X55.915 Y42.18
N12440 X56.709 Y42.148
N12445 X57.414 Y42.154
N12450 X57.991 Y42.187
N12455 X58.513 Y42.243
N12460 X58.954 Y42.312
N12465 X59.356 Y42.395
N12470 X59.699 Y42.483
N12475 X59.987 Y42.572
N12480 X60.264 Y42.673
N12485 X60.474 Y42.761
N12490 X60.702 Y42.871
N12495 X60.891 Y42.973
N12500 X60.939 Y43.002
N12505 X61.243 Y43.223
N12510 X61.505 Y43.493
N12515 X61.716 Y43.804
N12520 X61.872 Y44.146
N12525 X61.968 Y44.51
N12530 X62. Y44.884
N12535 Y45.9
N12540 G3 X61.462 Y46.476 Z-3.817 I-0.6 J-0.021
N12545 G1 X61.38 Y46.485 Z-3.8
N12550 X46.661 Y48.008
N12555 X46.62 Y48.011
N12560 G3 X46. Y47.432 Z-4. I-0.02 J-0.6
N12565 G1 Y46.426
N12570 X46.007 Y46.276
N12575 X46.027 Y46.127
N12580 X46.057 Y45.98
N12585 X46.098 Y45.836
N12590 X46.146 Y45.694
N12595 X46.203 Y45.554
N12600 X46.272 Y45.406
N12605 X46.352 Y45.252
N12610 X46.452 Y45.082
N12615 X46.563 Y44.913
N12620 X46.698 Y44.726
N12625 X46.85 Y44.537
N12630 X47.025 Y44.34
N12635 X47.234 Y44.127
N12640 X47.459 Y43.919
N12645 X47.724 Y43.695
N12650 X48.026 Y43.466
N12655 X48.356 Y43.239
N12660 X48.752 Y42.995
N12665 X49.185 Y42.756
N12670 X49.674 Y42.517
N12675 X50.257 Y42.265
N12680 X50.896 Y42.026
N12685 X51.609 Y41.798
N12690 X52.44 Y41.576
N12695 X53.306 Y41.39
N12700 X54.18 Y41.242
N12705 X55.059 Y41.133
N12710 X55.911 Y41.067
N12715 X56.642 Y41.046
N12720 X57.31 Y41.06
N12725 X57.917 Y41.101
N12730 X58.433 Y41.162
N12735 X58.904 Y41.241
N12740 X59.319 Y41.332
N12745 X59.688 Y41.431
N12750 X59.976 Y41.524
N12755 X60.27 Y41.635
N12760 X60.489 Y41.73
N12765 X60.712 Y41.84
N12770 X60.912 Y41.951
N12775 X60.96 Y41.981
N12780 X61.258 Y42.203
N12785 X61.515 Y42.472
N12790 X61.723 Y42.781
N12795 X61.875 Y43.12
N12800 X61.969 Y43.48
N12805 X62. Y43.85
N12810 Y44.884
N12815 G3 X61.463 Y45.46 Z-3.818 I-0.6 J-0.021
N12820 G1 X61.38 Y45.469 Z-3.8
N12825 X46.662 Y47.002
N12830 X46.62 Y47.004
N12835 G3 X46. Y46.426 Z-4. I-0.02 J-0.6
N12840 G1 Y45.419
N12845 X46.007 Y45.269
N12850 X46.025 Y45.12
N12855 X46.054 Y44.973
N12860 X46.092 Y44.828
N12865 X46.139 Y44.686
N12870 X46.194 Y44.544
N12875 X46.26 Y44.397
N12880 X46.341 Y44.239
N12885 X46.437 Y44.07
N12890 X46.547 Y43.897
N12895 X46.682 Y43.707
N12900 X46.829 Y43.519
N12905 X47.006 Y43.314
N12910 X47.209 Y43.102
N12915 X47.435 Y42.888
N12920 X47.704 Y42.656
N12925 X47.996 Y42.428
N12930 X48.336 Y42.189
N12935 X48.736 Y41.935
N12940 X49.157 Y41.696
N12945 X49.648 Y41.448
N12950 X50.229 Y41.189
N12955 X50.844 Y40.95
N12960 X51.541 Y40.717
N12965 X52.328 Y40.497
N12970 X53.18 Y40.303
N12975 X54.052 Y40.148
N12980 X54.902 Y40.039
N12985 X55.711 Y39.975
N12990 X56.459 Y39.953
N12995 X57.121 Y39.965
N13000 X57.733 Y40.006
N13005 X58.295 Y40.072
N13010 X58.778 Y40.152
N13015 X59.213 Y40.246
N13020 X59.609 Y40.352
N13025 X59.921 Y40.453
N13030 X60.221 Y40.565
N13035 X60.462 Y40.669
N13040 X60.676 Y40.774
N13045 X60.891 Y40.894
N13050 X60.958 Y40.935
N13055 X61.256 Y41.157
N13060 X61.514 Y41.426
N13065 X61.722 Y41.735
N13070 X61.875 Y42.074
N13075 X61.968 Y42.434
N13080 X62. Y42.805
N13085 Y43.85
N13090 G3 X61.464 Y44.426 Z-3.818 I-0.6 J-0.021
N13095 G1 X61.38 Y44.435 Z-3.8
N13100 X46.663 Y45.995
N13105 X46.62 Y45.998
N13110 G3 X46. Y45.419 Z-4. I-0.02 J-0.6
N13115 G1 Y44.412
N13120 X46.008 Y44.253
N13125 X46.023 Y44.104
N13130 X46.049 Y43.956
N13135 X46.086 Y43.811
N13140 X46.131 Y43.668
N13145 X46.184 Y43.526
N13150 X46.247 Y43.379
N13155 X46.325 Y43.22
N13160 X46.419 Y43.05
N13165 X46.526 Y42.877
N13170 X46.658 Y42.686
N13175 X46.803 Y42.496
N13180 X46.979 Y42.287
N13185 X47.178 Y42.073
N13190 X47.4 Y41.856
N13195 X47.667 Y41.619
N13200 X47.954 Y41.389
N13205 X48.292 Y41.144
N13210 X48.686 Y40.887
N13215 X49.1 Y40.644
N13220 X49.583 Y40.392
N13225 X50.146 Y40.132
N13230 X50.753 Y39.887
N13235 X51.417 Y39.655
N13240 X52.162 Y39.436
N13245 X52.957 Y39.243
N13250 X53.774 Y39.087
N13255 X54.589 Y38.971
N13260 X55.376 Y38.899
N13265 X56.127 Y38.866
N13270 X56.835 Y38.87
N13275 X57.462 Y38.904
N13280 X58.041 Y38.964
N13285 X58.569 Y39.045
N13290 X59.033 Y39.139
N13295 X59.445 Y39.244
N13300 X59.809 Y39.355
N13305 X60.104 Y39.462
N13310 X60.383 Y39.578
N13315 X60.597 Y39.679
N13320 X60.826 Y39.802
N13325 X61.006 Y39.91
N13330 X61.023 Y39.922
N13335 X61.305 Y40.146
N13340 X61.546 Y40.412
N13345 X61.741 Y40.714
N13350 X61.883 Y41.044
N13355 X61.971 Y41.393
N13360 X62. Y41.751
N13365 Y42.805
N13370 G3 X61.465 Y43.381 Z-3.818 I-0.6 J-0.021
N13375 G1 X61.38 Y43.39 Z-3.8
N13380 X46.664 Y44.988
N13385 X46.62 Y44.991
N13390 G3 X46. Y44.412 Z-4. I-0.02 J-0.6
N13395 G1 Y43.315
N13400 X46.007 Y43.165
N13405 X46.025 Y43.016
N13410 X46.054 Y42.869
N13415 X46.092 Y42.724
N13420 X46.139 Y42.581
N13425 X46.192 Y42.441
N13430 X46.262 Y42.284
N13435 X46.341 Y42.126
N13440 X46.44 Y41.95
N13445 X46.552 Y41.771
N13450 X46.686 Y41.58
N13455 X46.844 Y41.375
N13460 X47.021 Y41.169
N13465 X47.232 Y40.945
N13470 X47.464 Y40.722
N13475 X47.731 Y40.489
N13480 X48.05 Y40.237
N13485 X48.386 Y39.997
N13490 X48.781 Y39.743
N13495 X49.238 Y39.48
N13500 X49.721 Y39.232
N13505 X50.269 Y38.984
N13510 X50.894 Y38.737
N13515 X51.583 Y38.502
N13520 X52.315 Y38.293
N13525 X53.068 Y38.116
N13530 X53.5 Y38.036
N13535 X53.632 Y38.016
N13540 X53.764 Y38.004
N13545 X53.898 Y38.
N13550 X57.304
N13555 X58.12 Y38.041
N13560 X58.518 Y38.08
N13565 X58.904 Y38.138
N13570 X59.267 Y38.21
N13575 X59.614 Y38.296
N13580 X59.931 Y38.392
N13585 X60.185 Y38.483
N13590 X60.445 Y38.59
N13595 X60.643 Y38.683
N13600 X60.854 Y38.795
N13605 X60.924 Y38.837
N13610 X61.222 Y39.049
N13615 X61.48 Y39.308
N13620 X61.692 Y39.606
N13625 X61.852 Y39.935
N13630 X61.954 Y40.287
N13635 X61.998 Y40.65
N13640 G3 X61.398 Y41.25 Z-3.8 I-0.6 J0.
N13645 X61.128 Y41.186 I-0.001 J-0.6
N13650 G1 X57.055 Y39.136
N13655 G3 X56.725 Y38.62 I0.27 J-0.536
N13660 X57.304 Y38. Z-4. I0.6 J-0.02
N13665 G1 X59.315
N13670 X59.516 Y38.006
N13675 X60.119 Y38.042
N13680 X60.413 Y38.08
N13685 X60.521 Y38.102
N13690 X60.723 Y38.181
N13695 X60.924 Y38.265
N13700 X60.959 Y38.282
N13705 X61.042 Y38.333
N13710 X61.326 Y38.55
N13715 X61.401 Y38.617
N13720 X61.457 Y38.684
N13725 X61.612 Y38.886
N13730 X61.677 Y38.973
N13735 X61.728 Y39.06
N13740 X61.74 Y39.087
N13745 X61.824 Y39.288
N13750 X61.901 Y39.49
N13755 X61.929 Y39.658
N13760 X61.96 Y39.892
N13765 X61.978 Y40.094
N13770 X61.999 Y40.698
N13775 X62. Y41.503
N13780 Y41.751
N13785 G3 X61.463 Y42.326 Z-3.818 I-0.6 J-0.021
N13790 G1 X61.38 Y42.335 Z-3.8
N13795 X46.663 Y43.891
N13800 X46.62 Y43.894
N13805 G3 X46. Y43.315 Z-4. I-0.02 J-0.6
N13810 G1 Y42.247
N13815 X46.007 Y42.098
N13820 X46.025 Y41.949
N13825 X46.053 Y41.801
N13830 X46.091 Y41.656
N13835 X46.138 Y41.514
N13840 X46.193 Y41.367
N13845 X46.261 Y41.213
N13850 X46.342 Y41.05
N13855 X46.441 Y40.873
N13860 X46.554 Y40.693
N13865 X46.693 Y40.493
N13870 X46.845 Y40.296
N13875 X47.027 Y40.082
N13880 X47.238 Y39.858
N13885 X47.472 Y39.632
N13890 X47.75 Y39.388
N13895 X48.055 Y39.146
N13900 X48.398 Y38.901
N13905 X48.802 Y38.64
N13910 X49.245 Y38.383
N13915 X49.514 Y38.245
N13920 X49.836 Y38.11
N13925 X50.174 Y38.028
N13930 X50.522 Y38.
N13935 G3 X51.101 Y38.62 Z-3.8 I-0.021 J0.6
N13940 X50.91 Y39.039 I-0.6 J-0.02
N13945 G1 X47.008 Y42.666
N13950 G3 X46.62 Y42.826 I-0.409 J-0.439
N13955 X46. Y42.247 Z-4. I-0.02 J-0.6
N13960 G1 Y41.191
N13965 X46.007 Y41.041
N13970 X46.023 Y40.892
N13975 X46.05 Y40.744
N13980 X46.086 Y40.599
N13985 X46.131 Y40.456
N13990 X46.186 Y40.308
N13995 X46.25 Y40.158
N14000 X46.331 Y39.991
N14005 X46.426 Y39.818
N14010 X46.538 Y39.636
N14015 X46.673 Y39.437
N14020 X46.822 Y39.241
N14025 X47.004 Y39.023
N14030 X47.206 Y38.804
N14035 X47.439 Y38.575
N14040 X47.457 Y38.559
N14045 X47.779 Y38.32
N14050 X48.138 Y38.144
N14055 X48.523 Y38.036
N14060 X48.922 Y38.
N14065 G3 X49.501 Y38.62 Z-3.8 I-0.021 J0.6
N14070 X49.348 Y39. I-0.6 J-0.02
N14075 G1 X47.047 Y41.57
N14080 G3 X46.62 Y41.77 I-0.447 J-0.4
N14085 X46. Y41.191 Z-4. I-0.02 J-0.6
N14090 G1 X46.001 Y40.698
N14095 X46.022 Y40.094
N14100 X46.04 Y39.892
N14105 X46.043 Y39.867
N14110 X46.056 Y39.77
N14115 X46.083 Y39.623
N14120 X46.12 Y39.477
N14125 X46.155 Y39.364
N14130 X46.199 Y39.238
N14135 X46.25 Y39.114
N14140 X46.309 Y38.994
N14145 G3 X46.782 Y39.204 I0.226 J0.129
N14150 G1 X46.775 Y39.225
N14155 X46.57 Y39.852
N14160 X46.562 Y39.876
N14165 G3 X46.056 Y39.77 I-0.247 J-0.081
N14170 G1 X46.067 Y39.691
N14175 X46.098 Y39.49
N14180 X46.176 Y39.288
N14185 X46.26 Y39.087
N14190 X46.313 Y38.986
N14195 X46.388 Y38.886
N14200 X46.543 Y38.684
N14205 X46.59 Y38.629
N14210 X46.647 Y38.573
N14215 X46.848 Y38.417
N14220 X46.944 Y38.343
N14225 X47.04 Y38.282
N14230 X47.049 Y38.277
N14235 X47.25 Y38.192
N14240 X47.451 Y38.111
N14245 X47.519 Y38.092
N14250 X47.587 Y38.08
N14255 X47.853 Y38.045
N14260 X48.054 Y38.025
N14265 X48.657 Y38.001
N14270 X48.859 Y38.
N14275 X53.898
N14280 G3 X54.461 Y38.465 I-0.021 J0.6
N14285 G1 X54.483 Y38.556 Z-3.993
N14290 X54.503 Y38.645 Z-3.971
N14295 X54.523 Y38.73 Z-3.935
N14300 X54.541 Y38.808 Z-3.885
N14305 X54.557 Y38.878 Z-3.824
N14310 X54.571 Y38.938 Z-3.753
N14315 X54.582 Y38.986 Z-3.672
N14320 X54.59 Y39.021 Z-3.585
N14325 X54.595 Y39.042 Z-3.494
N14330 X54.596 Y39.049 Z-3.4
N14335 G0 Z5.
N14340 X69.947 Y55.629
N14345 Z-2.8
N14350 G1 Z-3.4 F1200.
N14355 X69.954 Y55.627 Z-3.494
N14360 X69.976 Y55.622 Z-3.585
N14365 X70.011 Y55.613 Z-3.672
N14370 X70.058 Y55.6 Z-3.753
N14375 X70.117 Y55.585 Z-3.824
N14380 X70.187 Y55.567 Z-3.885
N14385 X70.264 Y55.547 Z-3.935
N14390 X70.349 Y55.525 Z-3.971
N14395 X70.437 Y55.502 Z-3.993
N14400 X70.528 Y55.478 Z-4.
N14405 G3 X73.793 Y54.999 I3.845 J14.828
N14410 G1 X73.994 Y54.998
N14415 X74.162 Y54.993
N14420 X74.396 Y54.972
N14425 X74.597 Y54.937
N14430 X74.798 Y54.89
N14435 X74.999 Y54.821
N14440 X75.201 Y54.747
N14445 X75.402 Y54.647
N14450 X75.51 Y54.59
N14455 X75.603 Y54.53
N14460 X75.804 Y54.396
N14465 X75.813 Y54.389
N14470 X76.005 Y54.225
N14475 X76.046 Y54.187
N14480 X76.206 Y54.027
N14485 X76.243 Y53.986
N14490 X76.41 Y53.785
N14495 X76.542 Y53.583
N14500 X76.608 Y53.481
N14505 X76.658 Y53.382
N14510 X76.755 Y53.181
N14515 X76.809 Y53.029
N14520 X77.15 Y52.211
N14525 X77.369 Y51.352
N14530 X77.519 Y50.479
N14535 X77.618 Y49.598
N14540 X77.684 Y48.715
N14545 X77.726 Y47.829
N14550 X77.753 Y46.944
N14555 X77.77 Y46.058
N14560 X77.781 Y45.172
N14565 X77.788 Y44.286
N14570 X77.792 Y43.399
N14575 X77.795 Y42.513
N14580 X77.798 Y40.741
N14585 X77.8 Y36.31
N14590 Y2.638
N14595 Y1.752
N14600 X77.535 Y0.906
N14605 X77.348 Y0.644
N14610 X77.163 Y0.329
N14615 X77.037 Y-0.015
N14620 X76.975 Y-0.375
N14625 X76.956 Y-0.486
N14630 X76.959 Y-0.512 Z-3.994
N14635 G2 X77.148 Y-1.406 Z-3.8 I-3.397 J-1.187
N14640 X77.16 Y-1.745 I-3.586 J-0.294
N14645 X76.771 Y-2.3 I-0.6 J0.008
N14650 G1 X71.537 Y-4.259
N14655 G2 X70.879 Y-4.097 I-0.21 J0.562
N14660 X70.644 Y-3.804 I2.683 J2.398
N14665 X70.221 Y-3.035 Z-3.987 I2.918 J2.105
N14670 G1 X70.21 Y-3.018 Z-3.991
N14675 X70.193 Y-3.005 Z-3.996
N14680 X70.173 Y-3. Z-4.
N14685 X70.016 Y-2.993
N14690 X69.57 Y-2.963
N14695 X69.369 Y-2.925
N14700 X69.168 Y-2.88
N14705 X69.068 Y-2.85
N14710 X68.967 Y-2.815
N14715 X68.766 Y-2.73
N14720 X68.565 Y-2.629
N14725 X68.43 Y-2.563
N14730 X68.233 Y-2.484
N14735 X67.987 Y-2.399
N14740 X67.676 Y-2.309
N14745 X67.275 Y-2.213
N14750 X66.737 Y-2.112
N14755 X65.969 Y-2.005
N14760 X65.087 Y-1.927
N14765 X64.202 Y-1.879
N14770 X63.316 Y-1.85
N14775 X62.43 Y-1.831
N14780 X61.544 Y-1.82
N14785 X60.658 Y-1.812
N14790 X59.772 Y-1.808
N14795 X58.886 Y-1.805
N14800 X57.114 Y-1.802
N14805 X52.683 Y-1.8
N14810 X46.312
N14815 X45.923 Y-1.835
N14820 X45.547 Y-1.937
N14825 X45.194 Y-2.105
N14830 X44.877 Y-2.333
N14835 G3 X44.753 Y-3.052 I0.407 J-0.441
N14840 G1 X44.796 Y-3.135 Z-3.993
N14845 X44.839 Y-3.217 Z-3.971
N14850 X44.88 Y-3.294 Z-3.935
N14855 X44.917 Y-3.365 Z-3.885
N14860 X44.95 Y-3.428 Z-3.824
N14865 X44.979 Y-3.482 Z-3.753
N14870 X45.001 Y-3.526 Z-3.672
N14875 X45.018 Y-3.558 Z-3.585
N14880 X45.028 Y-3.577 Z-3.494
N14885 X45.032 Y-3.584 Z-3.4
N14890 G0 Z5.
N14895 X69.422 Y-3.703
N14900 Z-2.8
N14905 G1 Z-3.4 F1200.
N14910 X69.418 Y-3.697 Z-3.494
N14915 X69.407 Y-3.678 Z-3.585
N14920 X69.389 Y-3.647 Z-3.672
N14925 X69.364 Y-3.605 Z-3.753
N14930 X69.333 Y-3.552 Z-3.824
N14935 X69.297 Y-3.49 Z-3.885
N14940 X69.256 Y-3.421 Z-3.935
N14945 X69.212 Y-3.346 Z-3.971
N14950 X69.166 Y-3.267 Z-3.993
N14955 X69.118 Y-3.186 Z-4.
N14960 G3 X68.565 Y-2.629 I-1.365 J-0.802
N14965 G1 X68.495 Y-2.59
N14970 X68.364 Y-2.509
N14975 X68.163 Y-2.365
N14980 X67.954 Y-2.187
N14985 X67.848 Y-2.086
N14990 X67.734 Y-1.988
N14995 X67.614 Y-1.898
N15000 X67.482 Y-1.809
N15005 X67.34 Y-1.724
N15010 X67.169 Y-1.632
N15015 X66.956 Y-1.531
N15020 X66.713 Y-1.43
N15025 X66.421 Y-1.324
N15030 X66.057 Y-1.213
N15035 X65.613 Y-1.1
N15040 X65.039 Y-0.983
N15045 X64.255 Y-0.863
N15050 X63.374 Y-0.772
N15055 X62.49 Y-0.713
N15060 X61.605 Y-0.674
N15065 X60.719 Y-0.649
N15070 X59.833 Y-0.632
N15075 X58.947 Y-0.621
N15080 X58.061 Y-0.614
N15085 X57.175 Y-0.609
N15090 X56.288 Y-0.606
N15095 X54.516 Y-0.603
N15100 X50.972 Y-0.6
N15105 X48.313
N15110 X47.591 Y-0.608
N15115 X47.144 Y-0.634
N15120 X47.124 Y-0.636
N15125 X46.737 Y-0.714
N15130 X46.37 Y-0.859
N15135 X46.036 Y-1.067
N15140 X45.743 Y-1.332
N15145 X45.503 Y-1.645
N15150 G3 X45.717 Y-2.466 Z-3.8 I0.518 J-0.304
N15155 X46.005 Y-2.548 I0.304 J0.517
N15160 G1 X67.403 Y-3.106
N15165 G3 X67.839 Y-2.934 I0.016 J0.6
N15170 X68.019 Y-2.506 Z-3.901 I-0.42 J0.428
N15175 X67.848 Y-2.086 Z-4. I-0.6 J0.
N15180 G1 X67.743 Y-1.986
N15185 X66.956 Y-1.199
N15190 X66.786 Y-1.045
N15195 X66.67 Y-0.95
N15200 X66.536 Y-0.851
N15205 X66.392 Y-0.756
N15210 X66.213 Y-0.649
N15215 X65.995 Y-0.533
N15220 X65.764 Y-0.424
N15225 X65.472 Y-0.304
N15230 X65.132 Y-0.183
N15235 X64.721 Y-0.058
N15240 X64.219 Y0.068
N15245 X63.57 Y0.197
N15250 X62.697 Y0.327
N15255 X61.816 Y0.415
N15260 X60.931 Y0.474
N15265 X60.046 Y0.515
N15270 X59.161 Y0.542
N15275 X58.275 Y0.561
N15280 X57.389 Y0.573
N15285 X56.503 Y0.582
N15290 X55.616 Y0.588
N15295 X54.73 Y0.592
N15300 X52.958 Y0.596
N15305 X50.3 Y0.599
N15310 X49.414 Y0.598
N15315 X48.671 Y0.587
N15320 X48.226 Y0.558
N15325 X47.876 Y0.519
N15330 X47.58 Y0.471
N15335 X47.479 Y0.449
N15340 X47.121 Y0.341
N15345 X46.785 Y0.176
N15350 X46.482 Y-0.044
N15355 X46.219 Y-0.31
N15360 X46.004 Y-0.616
N15365 X45.842 Y-0.953
N15370 X45.756 Y-1.181
N15375 X45.625 Y-1.429
N15380 X45.542 Y-1.583
N15385 X45.503 Y-1.645
N15390 G3 X45.717 Y-2.466 Z-3.8 I0.518 J-0.304
N15395 X46.03 Y-2.548 I0.304 J0.517
N15400 G1 X66.527 Y-2.208
N15405 G3 X66.927 Y-2.046 I-0.01 J0.6
N15410 X66.956 Y-1.199 Z-4. I-0.41 J0.438
N15415 G1 X65.831 Y-0.074
N15420 X65.685 Y0.059
N15425 X65.569 Y0.154
N15430 X65.434 Y0.253
N15435 X65.266 Y0.366
N15440 X65.086 Y0.474
N15445 X64.867 Y0.591
N15450 X64.593 Y0.721
N15455 X64.306 Y0.84
N15460 X63.94 Y0.972
N15465 X63.52 Y1.1
N15470 X62.985 Y1.235
N15475 X62.315 Y1.371
N15480 X61.439 Y1.504
N15485 X60.558 Y1.595
N15490 X59.674 Y1.658
N15495 X58.789 Y1.701
N15500 X57.903 Y1.732
N15505 X57.017 Y1.753
N15510 X56.131 Y1.767
N15515 X55.245 Y1.778
N15520 X54.359 Y1.785
N15525 X53.473 Y1.789
N15530 X52.587 Y1.793
N15535 X51.701 Y1.795
N15540 X50.815
N15545 X49.928 Y1.788
N15550 X49.223 Y1.76
N15555 X48.746 Y1.717
N15560 X48.409 Y1.67
N15565 X48.086 Y1.609
N15570 X47.832 Y1.548
N15575 X47.592 Y1.478
N15580 X47.362 Y1.399
N15585 X47.176 Y1.325
N15590 X47.159 Y1.317
N15595 X46.846 Y1.138
N15600 X46.569 Y0.907
N15605 X46.337 Y0.631
N15610 X46.158 Y0.319
N15615 X46.036 Y-0.02
N15620 X45.975 Y-0.375
N15625 X45.941 Y-0.577
N15630 X45.893 Y-0.778
N15635 X45.842 Y-0.953
N15640 G3 X46.277 Y-1.682 Z-3.8 I0.582 J-0.147
N15645 G1 X46.36 Y-1.697
N15650 X46.444 Y-1.7
N15655 X65.412 Y-1.083
N15660 G3 X65.802 Y-0.922 I-0.019 J0.6
N15665 X65.831 Y-0.074 Z-4. I-0.41 J0.438
N15670 G1 X64.723 Y1.034
N15675 X64.534 Y1.205
N15680 X64.412 Y1.305
N15685 X64.277 Y1.406
N15690 X64.107 Y1.519
N15695 X63.916 Y1.634
N15700 X63.696 Y1.752
N15705 X63.416 Y1.885
N15710 X63.117 Y2.009
N15715 X62.745 Y2.143
N15720 X62.31 Y2.277
N15725 X61.76 Y2.416
N15730 X61.075 Y2.555
N15735 X60.199 Y2.688
N15740 X59.317 Y2.781
N15745 X58.434 Y2.846
N15750 X57.549 Y2.892
N15755 X56.663 Y2.924
N15760 X55.777 Y2.947
N15765 X54.891 Y2.963
N15770 X54.005 Y2.974
N15775 X53.119 Y2.982
N15780 X52.233 Y2.987
N15785 X51.347
N15790 X50.461 Y2.971
N15795 X49.743 Y2.932
N15800 X49.189 Y2.874
N15805 X48.719 Y2.802
N15810 X48.377 Y2.733
N15815 X48.054 Y2.651
N15820 X47.805 Y2.574
N15825 X47.577 Y2.492
N15830 X47.353 Y2.398
N15835 X47.178 Y2.315
N15840 X47.159 Y2.305
N15845 X46.83 Y2.088
N15850 X46.545 Y1.816
N15855 X46.313 Y1.498
N15860 X46.141 Y1.143
N15865 X46.036 Y0.764
N15870 X46. Y0.372
N15875 X45.999 Y0.027
N15880 X45.992 Y-0.174
N15885 X45.975 Y-0.375
N15890 G3 X46.547 Y-1.002 Z-3.8 I0.599 J-0.027
N15895 G1 X46.61 Y-1.001
N15900 X64.319 Y0.026
N15905 G3 X64.694 Y0.186 I-0.035 J0.599
N15910 X64.723 Y1.034 Z-4. I-0.41 J0.438
N15915 G1 X63.538 Y2.22
N15920 X63.371 Y2.37
N15925 X63.244 Y2.474
N15930 X63.108 Y2.575
N15935 X62.938 Y2.689
N15940 X62.739 Y2.809
N15945 X62.518 Y2.927
N15950 X62.237 Y3.06
N15955 X61.927 Y3.189
N15960 X61.551 Y3.325
N15965 X61.106 Y3.461
N15970 X60.545 Y3.604
N15975 X59.848 Y3.745
N15980 X58.972 Y3.878
N15985 X58.091 Y3.972
N15990 X57.207 Y4.038
N15995 X56.323 Y4.085
N16000 X55.437 Y4.118
N16005 X54.551 Y4.142
N16010 X53.665 Y4.159
N16015 X52.779 Y4.169
N16020 X51.893
N16025 X51.007 Y4.15
N16030 X50.184 Y4.101
N16035 X49.558 Y4.033
N16040 X49.057 Y3.954
N16045 X48.617 Y3.862
N16050 X48.29 Y3.777
N16055 X47.98 Y3.68
N16060 X47.726 Y3.587
N16065 X47.511 Y3.497
N16070 X47.282 Y3.386
N16075 X47.104 Y3.29
N16080 X47.057 Y3.261
N16085 X46.754 Y3.039
N16090 X46.493 Y2.769
N16095 X46.282 Y2.459
N16100 X46.127 Y2.118
N16105 X46.032 Y1.755
N16110 X46. Y1.381
N16115 Y0.372
N16120 G3 X46.618 Y-0.209 Z-3.8 I0.6 J0.02
N16125 G1 X46.651 Y-0.207
N16130 X63.15 Y1.213
N16135 G3 X63.508 Y1.372 I-0.051 J0.598
N16140 X63.538 Y2.22 Z-4. I-0.41 J0.438
N16145 G1 X63.113 Y2.645
N16150 X62.915 Y2.846
N16155 X62.729 Y3.047
N16160 X62.599 Y3.208
N16165 X62.491 Y3.328
N16170 X62.386 Y3.434
N16175 X62.274 Y3.535
N16180 X62.141 Y3.643
N16185 X61.996 Y3.749
N16190 X61.822 Y3.865
N16195 X61.608 Y3.992
N16200 X61.381 Y4.112
N16205 X61.093 Y4.247
N16210 X60.764 Y4.382
N16215 X60.377 Y4.52
N16220 X59.91 Y4.66
N16225 X59.326 Y4.805
N16230 X58.594 Y4.95
N16235 X57.717 Y5.079
N16240 X56.836 Y5.171
N16245 X55.952 Y5.236
N16250 X55.067 Y5.282
N16255 X54.182 Y5.315
N16260 X53.296 Y5.335
N16265 X52.41 Y5.34
N16270 X51.524 Y5.323
N16275 X50.653 Y5.275
N16280 X49.958 Y5.202
N16285 X49.382 Y5.113
N16290 X48.91 Y5.016
N16295 X48.488 Y4.908
N16300 X48.151 Y4.804
N16305 X47.849 Y4.695
N16310 X47.592 Y4.587
N16315 X47.379 Y4.486
N16320 X47.155 Y4.365
N16325 X46.974 Y4.255
N16330 X46.693 Y4.032
N16335 X46.453 Y3.765
N16340 X46.259 Y3.464
N16345 X46.116 Y3.134
N16350 X46.029 Y2.786
N16355 X46. Y2.429
N16360 Y1.381
N16365 G3 X46.62 Y0.802 Z-3.8 I0.6 J0.021
N16370 G1 X46.655 Y0.804
N16375 X62.175 Y2.249
N16380 G3 X62.482 Y2.368 I-0.056 J0.597
N16385 X62.599 Y3.208 Z-4. I-0.362 J0.479
N16390 G1 X62.566 Y3.249
N16395 X62.437 Y3.45
N16400 X62.331 Y3.64
N16405 X62.25 Y3.812
N16410 X62.179 Y3.944
N16415 X62.1 Y4.071
N16420 X62.01 Y4.192
N16425 X61.913 Y4.306
N16430 X61.809 Y4.415
N16435 X61.698 Y4.52
N16440 X61.559 Y4.64
N16445 X61.408 Y4.757
N16450 X61.226 Y4.885
N16455 X61.016 Y5.018
N16460 X60.778 Y5.153
N16465 X60.485 Y5.3
N16470 X60.172 Y5.439
N16475 X59.768 Y5.595
N16480 X59.337 Y5.739
N16485 X58.788 Y5.892
N16490 X58.113 Y6.045
N16495 X57.255 Y6.196
N16500 X56.376 Y6.307
N16505 X55.493 Y6.387
N16510 X54.609 Y6.443
N16515 X53.723 Y6.479
N16520 X52.837 Y6.493
N16525 X51.951 Y6.483
N16530 X51.066 Y6.439
N16535 X50.301 Y6.363
N16540 X49.686 Y6.272
N16545 X49.142 Y6.165
N16550 X48.692 Y6.052
N16555 X48.282 Y5.929
N16560 X47.967 Y5.817
N16565 X47.674 Y5.696
N16570 X47.439 Y5.586
N16575 X47.224 Y5.472
N16580 X47.017 Y5.349
N16585 X46.985 Y5.328
N16590 X46.701 Y5.104
N16595 X46.458 Y4.838
N16600 X46.262 Y4.535
N16605 X46.118 Y4.204
N16610 X46.03 Y3.853
N16615 X46. Y3.494
N16620 Y2.429
N16625 G3 X46.62 Y1.85 Z-3.8 I0.6 J0.021
N16630 G1 X46.644 Y1.851
N16635 X61.743 Y2.977
N16640 X61.809 Y2.986
N16645 X61.873 Y3.002
N16650 X61.935 Y3.024
N16655 G3 X62.25 Y3.812 Z-4. I-0.237 J0.551
N16660 G1 X62.231 Y3.853
N16665 X62.156 Y4.054
N16670 X62.13 Y4.135
N16675 X62.098 Y4.255
N16680 X62.073 Y4.366
N16685 X62.033 Y4.511
N16690 X61.981 Y4.651
N16695 X61.915 Y4.786
N16700 X61.839 Y4.915
N16705 X61.754 Y5.039
N16710 X61.663 Y5.158
N16715 X61.562 Y5.274
N16720 X61.447 Y5.395
N16725 X61.311 Y5.525
N16730 X61.158 Y5.657
N16735 X60.981 Y5.796
N16740 X60.779 Y5.939
N16745 X60.545 Y6.088
N16750 X60.279 Y6.239
N16755 X59.968 Y6.397
N16760 X59.613 Y6.556
N16765 X59.19 Y6.721
N16770 X58.707 Y6.883
N16775 X58.141 Y7.043
N16780 X57.44 Y7.204
N16785 X56.571 Y7.36
N16790 X55.693 Y7.474
N16795 X54.81 Y7.554
N16800 X53.925 Y7.605
N16805 X53.04 Y7.629
N16810 X52.154 Y7.622
N16815 X51.269 Y7.579
N16820 X50.494 Y7.503
N16825 X49.85 Y7.408
N16830 X49.278 Y7.295
N16835 X48.796 Y7.175
N16840 X48.371 Y7.048
N16845 X48.025 Y6.925
N16850 X47.721 Y6.8
N16855 X47.471 Y6.683
N16860 X47.253 Y6.567
N16865 X47.038 Y6.44
N16870 X46.986 Y6.406
N16875 X46.702 Y6.182
N16880 X46.459 Y5.916
N16885 X46.262 Y5.612
N16890 X46.118 Y5.281
N16895 X46.03 Y4.931
N16900 X46. Y4.571
N16905 Y3.494
N16910 G3 X46.62 Y2.915 Z-3.8 I0.6 J0.021
N16915 G1 X46.629
N16920 X61.513 Y3.657
N16925 X61.594 Y3.666
N16930 G3 X62.073 Y4.366 Z-4. I-0.111 J0.59
N16935 G1 X62.053 Y4.457
N16940 X62.02 Y4.658
N16945 X62.008 Y4.859
N16950 X62.007 Y4.92
N16955 X61.996 Y5.07
N16960 X61.967 Y5.217
N16965 X61.923 Y5.361
N16970 X61.867 Y5.5
N16975 X61.801 Y5.634
N16980 X61.726 Y5.764
N16985 X61.644 Y5.89
N16990 X61.555 Y6.011
N16995 X61.448 Y6.144
N17000 X61.328 Y6.279
N17005 X61.188 Y6.422
N17010 X61.028 Y6.57
N17015 X60.846 Y6.722
N17020 X60.632 Y6.884
N17025 X60.401 Y7.042
N17030 X60.119 Y7.216
N17035 X59.824 Y7.378
N17040 X59.455 Y7.558
N17045 X59.062 Y7.727
N17050 X58.576 Y7.908
N17055 X58.032 Y8.081
N17060 X57.405 Y8.247
N17065 X56.647 Y8.409
N17070 X55.773 Y8.552
N17075 X54.893 Y8.654
N17080 X54.009 Y8.719
N17085 X53.123 Y8.75
N17090 X52.237 Y8.746
N17095 X51.374 Y8.703
N17100 X50.603 Y8.628
N17105 X49.951 Y8.532
N17110 X49.364 Y8.416
N17115 X48.862 Y8.291
N17120 X48.427 Y8.16
N17125 X48.059 Y8.029
N17130 X47.751 Y7.902
N17135 X47.489 Y7.78
N17140 X47.269 Y7.663
N17145 X47.049 Y7.532
N17150 X46.986 Y7.491
N17155 X46.702 Y7.267
N17160 X46.459 Y7.
N17165 X46.262 Y6.697
N17170 X46.118 Y6.366
N17175 X46.03 Y6.016
N17180 X46. Y5.656
N17185 Y4.571
N17190 G3 X46.613 Y3.992 Z-3.801 I0.6 J0.021
N17195 G1 X46.62 Z-3.8
N17200 X61.398 Y4.329
N17205 X61.42 Y4.33 Z-3.805
N17210 G3 X62.007 Y4.92 Z-4. I-0.014 J0.6
N17215 G1 X62. Y5.262
N17220 Y5.624
N17225 X61.993 Y5.774
N17230 X61.973 Y5.923
N17235 X61.938 Y6.069
N17240 X61.892 Y6.211
N17245 X61.836 Y6.35
N17250 X61.771 Y6.486
N17255 X61.698 Y6.617
N17260 X61.617 Y6.747
N17265 X61.523 Y6.884
N17270 X61.41 Y7.031
N17275 X61.288 Y7.176
N17280 X61.137 Y7.337
N17285 X60.975 Y7.494
N17290 X60.785 Y7.662
N17295 X60.569 Y7.835
N17300 X60.328 Y8.009
N17305 X60.039 Y8.197
N17310 X59.736 Y8.373
N17315 X59.372 Y8.563
N17320 X58.966 Y8.749
N17325 X58.507 Y8.934
N17330 X57.948 Y9.127
N17335 X57.363 Y9.298
N17340 X56.671 Y9.465
N17345 X55.873 Y9.616
N17350 X54.995 Y9.738
N17355 X54.112 Y9.818
N17360 X53.227 Y9.86
N17365 X52.341 Y9.861
N17370 X51.5 Y9.823
N17375 X50.726 Y9.75
N17380 X50.063 Y9.655
N17385 X49.469 Y9.54
N17390 X48.941 Y9.411
N17395 X48.498 Y9.279
N17400 X48.108 Y9.143
N17405 X47.799 Y9.017
N17410 X47.519 Y8.887
N17415 X47.299 Y8.771
N17420 X47.072 Y8.638
N17425 X46.993 Y8.586
N17430 X46.707 Y8.363
N17435 X46.462 Y8.095
N17440 X46.264 Y7.792
N17445 X46.119 Y7.459
N17450 X46.03 Y7.108
N17455 X46. Y6.747
N17460 Y5.656
N17465 G3 X46.598 Y5.077 Z-3.805 I0.6 J0.021
N17470 G1 X46.62 Z-3.8
N17475 X61.38 Y5.045
N17480 X61.399 Z-3.804
N17485 G3 X62. Y5.624 Z-4. I0.001 J0.6
N17490 G1 Y6.47
N17495 X61.993 Y6.62
N17500 X61.974 Y6.769
N17505 X61.941 Y6.915
N17510 X61.898 Y7.059
N17515 X61.845 Y7.199
N17520 X61.784 Y7.336
N17525 X61.716 Y7.47
N17530 X61.638 Y7.605
N17535 X61.541 Y7.754
N17540 X61.435 Y7.902
N17545 X61.309 Y8.062
N17550 X61.165 Y8.227
N17555 X61.002 Y8.396
N17560 X60.808 Y8.578
N17565 X60.601 Y8.755
N17570 X60.357 Y8.944
N17575 X60.081 Y9.136
N17580 X59.774 Y9.328
N17585 X59.412 Y9.532
N17590 X59.027 Y9.724
N17595 X58.582 Y9.92
N17600 X58.054 Y10.122
N17605 X57.505 Y10.302
N17610 X56.861 Y10.479
N17615 X56.13 Y10.642
N17620 X55.326 Y10.781
N17625 X54.462 Y10.887
N17630 X53.58 Y10.952
N17635 X52.711 Y10.973
N17640 X51.885 Y10.953
N17645 X51.109 Y10.897
N17650 X50.39 Y10.81
N17655 X49.748 Y10.699
N17660 X49.202 Y10.578
N17665 X48.709 Y10.443
N17670 X48.288 Y10.305
N17675 X47.956 Y10.179
N17680 X47.638 Y10.04
N17685 X47.407 Y9.924
N17690 X47.17 Y9.792
N17695 X46.975 Y9.669
N17700 X46.943 Y9.647
N17705 X46.671 Y9.423
N17710 X46.438 Y9.159
N17715 X46.25 Y8.86
N17720 X46.112 Y8.536
N17725 X46.028 Y8.193
N17730 X46. Y7.842
N17735 Y6.747
N17740 G3 X46.588 Y6.168 Z-3.807 I0.6 J0.021
N17745 G1 X46.62 Y6.167 Z-3.8
N17750 X61.38 Y5.891
N17755 X61.389 Z-3.802
N17760 G3 X62. Y6.47 Z-4. I0.011 J0.6
N17765 G1 Y7.386
N17770 X61.993 Y7.536
N17775 X61.973 Y7.685
N17780 X61.942 Y7.831
N17785 X61.9 Y7.975
N17790 X61.848 Y8.116
N17795 X61.789 Y8.254
N17800 X61.72 Y8.394
N17805 X61.642 Y8.535
N17810 X61.546 Y8.689
N17815 X61.436 Y8.847
N17820 X61.31 Y9.011
N17825 X61.16 Y9.189
N17830 X60.997 Y9.364
N17835 X60.803 Y9.552
N17840 X60.586 Y9.743
N17845 X60.345 Y9.936
N17850 X60.056 Y10.144
N17855 X59.75 Y10.343
N17860 X59.399 Y10.547
N17865 X58.988 Y10.76
N17870 X58.557 Y10.958
N17875 X58.056 Y11.159
N17880 X57.473 Y11.36
N17885 X56.855 Y11.541
N17890 X56.174 Y11.704
N17895 X55.415 Y11.847
N17900 X54.606 Y11.959
N17905 X53.773 Y12.034
N17910 X52.939 Y12.068
N17915 X52.122 Y12.061
N17920 X51.34 Y12.017
N17925 X50.612 Y11.94
N17930 X49.955 Y11.837
N17935 X49.388 Y11.721
N17940 X48.871 Y11.588
N17945 X48.43 Y11.451
N17950 X48.046 Y11.312
N17955 X47.749 Y11.187
N17960 X47.471 Y11.054
N17965 X47.256 Y10.938
N17970 X47.032 Y10.803
N17975 X46.972 Y10.762
N17980 X46.692 Y10.538
N17985 X46.452 Y10.272
N17990 X46.258 Y9.971
N17995 X46.116 Y9.642
N18000 X46.029 Y9.294
N18005 X46. Y8.937
N18010 Y7.842
N18015 G3 X46.581 Y7.263 Z-3.808 I0.6 J0.021
N18020 G1 X46.62 Y7.262 Z-3.8
N18025 X61.38 Y6.808
N18030 X61.382 Y6.807
N18035 G3 X62. Y7.386 Z-4. I0.018 J0.6
N18040 G1 Y8.343
N18045 X61.993 Y8.493
N18050 X61.973 Y8.642
N18055 X61.942 Y8.788
N18060 X61.9 Y8.933
N18065 X61.85 Y9.074
N18070 X61.792 Y9.212
N18075 X61.723 Y9.357
N18080 X61.644 Y9.501
N18085 X61.547 Y9.662
N18090 X61.436 Y9.825
N18095 X61.308 Y9.995
N18100 X61.156 Y10.179
N18105 X60.991 Y10.359
N18110 X60.793 Y10.556
N18115 X60.572 Y10.754
N18120 X60.328 Y10.954
N18125 X60.038 Y11.167
N18130 X59.727 Y11.374
N18135 X59.37 Y11.587
N18140 X58.956 Y11.807
N18145 X58.516 Y12.014
N18150 X58.024 Y12.217
N18155 X57.458 Y12.42
N18160 X56.825 Y12.612
N18165 X56.172 Y12.775
N18170 X55.454 Y12.919
N18175 X54.681 Y13.034
N18180 X53.876 Y13.115
N18185 X53.06 Y13.156
N18190 X52.252 Y13.158
N18195 X51.474 Y13.122
N18200 X50.744 Y13.052
N18205 X50.09 Y12.958
N18210 X49.503 Y12.843
N18215 X48.975 Y12.713
N18220 X48.523 Y12.579
N18225 X48.124 Y12.438
N18230 X47.816 Y12.313
N18235 X47.525 Y12.177
N18240 X47.305 Y12.061
N18245 X47.075 Y11.926
N18250 X46.991 Y11.87
N18255 X46.706 Y11.647
N18260 X46.461 Y11.38
N18265 X46.264 Y11.076
N18270 X46.118 Y10.745
N18275 X46.03 Y10.393
N18280 X46. Y10.032
N18285 Y8.937
N18290 G3 X46.576 Y8.358 Z-3.809 I0.6 J0.021
N18295 G1 X46.62 Y8.356 Z-3.8
N18300 X61.376 Y7.765
N18305 X61.38 Y7.764
N18310 G3 X62. Y8.343 Z-4. I0.02 J0.6
N18315 G1 Y9.289
N18320 X61.993 Y9.439
N18325 X61.977 Y9.588
N18330 X61.949 Y9.735
N18335 X61.911 Y9.88
N18340 X61.864 Y10.023
N18345 X61.808 Y10.162
N18350 X61.744 Y10.304
N18355 X61.668 Y10.452
N18360 X61.574 Y10.614
N18365 X61.469 Y10.776
N18370 X61.342 Y10.953
N18375 X61.2 Y11.133
N18380 X61.035 Y11.32
N18385 X60.84 Y11.522
N18390 X60.631 Y11.719
N18395 X60.384 Y11.929
N18400 X60.104 Y12.145
N18405 X59.804 Y12.354
N18410 X59.45 Y12.575
N18415 X59.052 Y12.798
N18420 X58.626 Y13.01
N18425 X58.14 Y13.224
N18430 X57.59 Y13.433
N18435 X57.003 Y13.626
N18440 X56.375 Y13.797
N18445 X55.68 Y13.952
N18450 X55.583 Y13.968
N18455 X55.46 Y13.986
N18460 X55.336 Y13.996
N18465 X55.211 Y14.
N18470 G3 X54.633 Y13.38 Z-3.8 I0.021 J-0.6
N18475 X54.901 Y12.9 I0.6 J0.02
N18480 G1 X61.069 Y8.81
N18485 G3 X61.38 Y8.71 I0.332 J0.5
N18490 X62. Y9.289 Z-4. I0.02 J0.6
N18495 G1 Y10.296
N18500 X61.993 Y10.445
N18505 X61.977 Y10.595
N18510 X61.949 Y10.742
N18515 X61.911 Y10.887
N18520 X61.864 Y11.03
N18525 X61.81 Y11.169
N18530 X61.743 Y11.318
N18535 X61.667 Y11.467
N18540 X61.573 Y11.631
N18545 X61.464 Y11.801
N18550 X61.34 Y11.975
N18555 X61.19 Y12.166
N18560 X61.027 Y12.354
N18565 X60.832 Y12.557
N18570 X60.611 Y12.767
N18575 X60.371 Y12.973
N18580 X60.086 Y13.194
N18585 X59.771 Y13.416
N18590 X59.425 Y13.635
N18595 X59.283 Y13.715
N18600 X58.94 Y13.872
N18605 X58.575 Y13.968
N18610 X58.2 Y14.
N18615 G3 X57.621 Y13.38 Z-3.8 I0.021 J-0.6
N18620 X57.803 Y12.97 I0.6 J0.02
N18625 G1 X60.983 Y9.886
N18630 G3 X61.38 Y9.717 I0.418 J0.431
N18635 X62. Y10.296 Z-4. I0.02 J0.6
N18640 G1 Y11.101
N18645 X61.999 Y11.302
N18650 X61.98 Y11.528
N18655 X61.96 Y11.676
N18660 X61.929 Y11.823
N18665 X61.888 Y11.967
N18670 X61.839 Y12.109
N18675 X61.782 Y12.248
N18680 X61.713 Y12.398
N18685 X61.63 Y12.555
N18690 X61.533 Y12.72
N18695 X61.415 Y12.899
N18700 X61.285 Y13.077
N18705 X61.208 Y13.173
N18710 X60.955 Y13.437
N18715 X60.663 Y13.656
N18720 X60.338 Y13.824
N18725 X59.991 Y13.935
N18730 X59.629 Y13.987
N18735 G3 X59.014 Y13.404 Z-3.8 I-0.015 J-0.6
N18740 G1 Y13.388
N18745 G3 X59.16 Y12.995 I0.6 J0.
N18750 G1 X60.946 Y10.929
N18755 G3 X61.381 Y10.722 I0.454 J0.392
N18760 X61.999 Y11.302 Z-4. I0.019 J0.6
N18765 G1 X61.978 Y11.906
N18770 X61.96 Y12.108
N18775 X61.929 Y12.342
N18780 X61.901 Y12.51
N18785 X61.824 Y12.712
N18790 X61.74 Y12.913
N18795 X61.728 Y12.94
N18800 X61.677 Y13.027
N18805 X61.612 Y13.114
N18810 X61.457 Y13.316
N18815 X61.401 Y13.383
N18820 X61.326 Y13.45
N18825 X61.042 Y13.667
N18830 X60.959 Y13.718
N18835 X60.924 Y13.735
N18840 X60.723 Y13.819
N18845 X60.521 Y13.898
N18850 X60.413 Y13.92
N18855 X60.119 Y13.958
N18860 X59.516 Y13.994
N18865 X59.315 Y14.
N18870 X51.272
N18875 X50.429 Y13.958
N18880 X49.972 Y13.913
N18885 X49.516 Y13.845
N18890 X49.079 Y13.758
N18895 X48.666 Y13.655
N18900 X48.292 Y13.542
N18905 X47.981 Y13.431
N18910 X47.68 Y13.307
N18915 X47.447 Y13.198
N18920 X47.226 Y13.08
N18925 X47.021 Y12.958
N18930 X46.984 Y12.934
N18935 X46.702 Y12.711
N18940 X46.459 Y12.446
N18945 X46.263 Y12.144
N18950 X46.119 Y11.814
N18955 X46.031 Y11.466
N18960 X46. Y11.107
N18965 G3 X46.618 Y10.527 Z-3.8 I0.6 J0.019
N18970 X46.863 Y10.587 I-0.019 J0.6
N18975 G1 X51.514 Y12.861
N18980 G3 X51.85 Y13.38 I-0.264 J0.539
N18985 X51.272 Y14. Z-4. I-0.6 J0.02
N18990 G1 X48.859
N18995 X48.657 Y13.999
N19000 X48.145 Y13.978
N19005 X48.095 Y13.976
N19010 X48.054 Y13.975
N19015 X47.75 Y13.929
N19020 X47.603 Y13.9
N19025 X47.457 Y13.863
N19030 X47.437 Y13.857
N19035 X47.185 Y13.764
N19040 X46.947 Y13.64
N19045 X46.725 Y13.488
N19050 G3 X46.649 Y12.644 Z-3.8 I0.385 J-0.46
N19055 X47.316 Y12.465 I0.461 J0.384
N19060 G1 X48.263 Y12.811
N19065 G3 X48.657 Y13.378 I-0.206 J0.563
N19070 X48.054 Y13.975 Z-4. I-0.6 J-0.003
N19075 G1 X47.853 Y13.955
N19080 X47.587 Y13.92
N19085 X47.519 Y13.908
N19090 X47.451 Y13.889
N19095 X47.25 Y13.808
N19100 X47.049 Y13.723
N19105 X47.04 Y13.718
N19110 X46.944 Y13.657
N19115 X46.762 Y13.517
N19120 X46.647 Y13.427
N19125 X46.59 Y13.371
N19130 X46.543 Y13.316
N19135 X46.388 Y13.114
N19140 X46.313 Y13.014
N19145 X46.26 Y12.913
N19150 X46.176 Y12.712
N19155 X46.098 Y12.51
N19160 X46.067 Y12.309
N19165 X46.04 Y12.108
N19170 X46.022 Y11.906
N19175 X46.001 Y11.302
N19180 X46. Y10.497
N19185 Y10.032
N19190 G3 X46.465 Y9.469 I0.6 J0.021
N19195 G1 X46.556 Y9.448 Z-3.993
N19200 X46.645 Y9.427 Z-3.971
N19205 X46.73 Y9.407 Z-3.935
N19210 X46.808 Y9.389 Z-3.885
N19215 X46.878 Y9.373 Z-3.824
N19220 X46.938 Y9.359 Z-3.753
N19225 X46.986 Y9.348 Z-3.672
N19230 X47.021 Y9.34 Z-3.585
N19235 X47.042 Y9.335 Z-3.494
N19240 X47.049 Y9.334 Z-3.4
N19245 G0 Z5.
N19250 X-0.877 Y-2.402
N19255 Z-2.8
N19260 G1 Z-3.4 F1200.
N19265 X-0.876 Y-2.394 Z-3.494
N19270 X-0.872 Y-2.373 Z-3.585
N19275 X-0.865 Y-2.338 Z-3.672
N19280 X-0.855 Y-2.289 Z-3.753
N19285 X-0.844 Y-2.229 Z-3.824
N19290 X-0.83 Y-2.159 Z-3.885
N19295 X-0.815 Y-2.08 Z-3.935
N19300 X-0.798 Y-1.995 Z-3.971
N19305 X-0.781 Y-1.905 Z-3.993
N19310 X-0.763 Y-1.813 Z-4.
N19315 G3 X-0.809 Y-1.029 I-1.554 J0.302
N19320 G1 X-0.827 Y-0.979
N19325 X-0.896 Y-0.778
N19330 X-0.941 Y-0.577
N19335 X-0.975 Y-0.375
N19340 X-0.992 Y-0.174
N19345 X-0.999 Y0.027
N19350 X-1. Y0.833
N19355 Y51.57
N19360 X-0.999 Y51.973
N19365 X-0.992 Y52.174
N19370 X-0.975 Y52.375
N19375 G3 X-1.394 Y52.974 I-0.599 J0.027
N19380 G1 X-1.483 Y53.003 Z-3.993
N19385 X-1.57 Y53.03 Z-3.971
N19390 X-1.653 Y53.057 Z-3.935
N19395 X-1.73 Y53.081 Z-3.885
N19400 X-1.798 Y53.103 Z-3.824
N19405 X-1.856 Y53.121 Z-3.753
N19410 X-1.903 Y53.136 Z-3.672
N19415 X-1.937 Y53.147 Z-3.585
N19420 X-1.958 Y53.153 Z-3.494
N19425 X-1.965 Y53.156 Z-3.4
N19430 G0 Z5.
N19435 X76.877 Y54.402
N19440 Z-2.8
N19445 G1 Z-3.4 F1200.
N19450 X76.876 Y54.394 Z-3.494
N19455 X76.872 Y54.373 Z-3.585
N19460 X76.865 Y54.338 Z-3.672
N19465 X76.855 Y54.289 Z-3.753
N19470 X76.844 Y54.229 Z-3.824
N19475 X76.83 Y54.159 Z-3.885
N19480 X76.815 Y54.08 Z-3.935
N19485 X76.798 Y53.995 Z-3.971
N19490 X76.781 Y53.905 Z-3.993
N19495 X76.763 Y53.813 Z-4.
N19500 G3 X76.809 Y53.029 I1.554 J-0.302
N19505 G1 X76.827 Y52.979
N19510 X76.896 Y52.778
N19515 X76.941 Y52.577
N19520 X76.975 Y52.375
N19525 X76.992 Y52.174
N19530 X76.999 Y51.973
N19535 X77. Y51.167
N19540 Y0.43
N19545 X76.999 Y0.027
N19550 X76.992 Y-0.174
N19555 X76.975 Y-0.375
N19560 X76.978 Y-0.468
N19565 X76.996 Y-0.559
N19570 X77.027 Y-0.625 Z-3.995
N19575 X77.059 Y-0.691 Z-3.982
N19580 X77.089 Y-0.755 Z-3.959
N19585 X77.146 Y-0.809 Z-3.921
N19590 X77.199 Y-0.86 Z-3.871
N19595 X77.246 Y-0.904 Z-3.812
N19600 X77.298 Y-0.929 Z-3.741
N19605 X77.339 Y-0.948 Z-3.663
N19610 X77.369 Y-0.963 Z-3.579
N19615 X77.387 Y-0.971 Z-3.491
N19620 X77.394 Y-0.974 Z-3.4
N19625 G0 Z5.
N19630 X37.21 Y-3.693
N19635 Z-5.8
N19640 G1 Z-6.4 F1200.
N19645 X37.203 Y-3.691 Z-6.494
N19650 X37.182 Y-3.685 Z-6.585
N19655 X37.147 Y-3.675 Z-6.672
N19660 X37.1 Y-3.662 Z-6.753
N19665 X37.041 Y-3.646 Z-6.824
N19670 X36.972 Y-3.627 Z-6.885
N19675 X36.894 Y-3.605 Z-6.935
N19680 X36.81 Y-3.582 Z-6.971
N19685 X36.722 Y-3.558 Z-6.993
N19690 X36.632 Y-3.533 Z-7.
N19695 G3 X33.375 Y-3. I-4.087 J-14.763
N19700 G1 X33.174 Y-2.996
N19705 X32.772 Y-2.986
N19710 X32.571 Y-2.965
N19715 X32.37 Y-2.93
N19720 X32.169 Y-2.881
N19725 X31.907 Y-2.791
N19730 X31.766 Y-2.73
N19735 X31.565 Y-2.632
N19740 X31.43 Y-2.567
N19745 X31.235 Y-2.488
N19750 X30.992 Y-2.404
N19755 X30.686 Y-2.314
N19760 X30.29 Y-2.218
N19765 X29.761 Y-2.117
N19770 X29.009 Y-2.011
N19775 X28.127 Y-1.93
N19780 X27.242 Y-1.881
N19785 X26.356 Y-1.851
N19790 X25.47 Y-1.832
N19795 X24.584 Y-1.82
N19800 X23.698 Y-1.813
N19805 X22.812 Y-1.808
N19810 X21.926 Y-1.805
N19815 X20.154 Y-1.802
N19820 X15.723 Y-1.8
N19825 X9.31
N19830 X8.926 Y-1.834
N19835 X8.553 Y-1.935
N19840 X8.203 Y-2.099
N19845 X7.888 Y-2.322
N19850 G3 X7.758 Y-3.041 I0.404 J-0.444
N19855 G1 X7.801 Y-3.124 Z-6.993
N19860 X7.843 Y-3.206 Z-6.971
N19865 X7.883 Y-3.283 Z-6.935
N19870 X7.92 Y-3.354 Z-6.885
N19875 X7.953 Y-3.418 Z-6.824
N19880 X7.981 Y-3.472 Z-6.753
N19885 X8.003 Y-3.516 Z-6.672
N19890 X8.02 Y-3.548 Z-6.585
N19895 X8.03 Y-3.568 Z-6.494
N19900 X8.033 Y-3.574 Z-6.4
N19905 G0 Z5.
N19910 X32.387 Y-3.735
N19915 Z-5.8
N19920 G1 Z-6.4 F1200.
N19925 X32.383 Y-3.728 Z-6.494
N19930 X32.373 Y-3.709 Z-6.585
N19935 X32.355 Y-3.677 Z-6.672
N19940 X32.332 Y-3.634 Z-6.753
N19945 X32.303 Y-3.58 Z-6.824
N19950 X32.268 Y-3.517 Z-6.885
N19955 X32.23 Y-3.447 Z-6.935
N19960 X32.189 Y-3.371 Z-6.971
N19965 X32.145 Y-3.29 Z-6.993
N19970 X32.1 Y-3.208 Z-7.
N19975 G3 X31.565 Y-2.632 I-1.39 J-0.756
N19980 G1 X31.364 Y-2.513
N19985 X31.163 Y-2.367
N19990 X30.962 Y-2.194
N19995 X30.897 Y-2.129
N20000 X30.785 Y-2.028
N20005 X30.668 Y-1.935
N20010 X30.545 Y-1.849
N20015 X30.408 Y-1.763
N20020 X30.251 Y-1.674
N20025 X30.055 Y-1.576
N20030 X29.822 Y-1.473
N20035 X29.556 Y-1.371
N20040 X29.217 Y-1.259
N20045 X28.82 Y-1.149
N20050 X28.302 Y-1.033
N20055 X27.618 Y-0.914
N20060 X26.739 Y-0.805
N20065 X25.856 Y-0.734
N20070 X24.971 Y-0.688
N20075 X24.085 Y-0.658
N20080 X23.199 Y-0.638
N20085 X22.313 Y-0.625
N20090 X21.427 Y-0.616
N20095 X20.541 Y-0.611
N20100 X19.655 Y-0.607
N20105 X17.883 Y-0.603
N20110 X14.338 Y-0.601
N20115 X10.794 Y-0.6
N20120 X10.457 Y-0.613
N20125 X10.131 Y-0.65
N20130 X9.814 Y-0.736
N20135 X9.513 Y-0.867
N20140 X9.235 Y-1.042
N20145 X8.987 Y-1.256
N20150 X8.24 Y-2.003
N20155 X8.038 Y-2.194
N20160 X7.888 Y-2.322
N20165 G3 X7.847 Y-3.169 Z-6.8 I0.404 J-0.444
N20170 X8.298 Y-3.366 I0.444 J0.403
N20175 G1 X30.464 Y-3.138
N20180 G3 X30.868 Y-2.976 I-0.006 J0.6
N20185 X30.897 Y-2.129 Z-7. I-0.41 J0.438
N20190 G1 X30.761 Y-1.993
N20195 X30.592 Y-1.785
N20200 X30.56 Y-1.744
N20205 X30.458 Y-1.583
N20210 X30.378 Y-1.457
N20215 X30.285 Y-1.339
N20220 X30.183 Y-1.229
N20225 X30.074 Y-1.126
N20230 X29.959 Y-1.03
N20235 X29.822 Y-0.926
N20240 X29.676 Y-0.826
N20245 X29.494 Y-0.714
N20250 X29.284 Y-0.598
N20255 X29.048 Y-0.483
N20260 X28.749 Y-0.355
N20265 X28.424 Y-0.234
N20270 X28.017 Y-0.104
N20275 X27.539 Y0.023
N20280 X26.924 Y0.154
N20285 X26.117 Y0.286
N20290 X25.237 Y0.387
N20295 X24.353 Y0.455
N20300 X23.468 Y0.501
N20305 X22.583 Y0.533
N20310 X21.697 Y0.554
N20315 X20.811 Y0.569
N20320 X19.925 Y0.579
N20325 X19.039 Y0.586
N20330 X18.153 Y0.59
N20335 X17.266 Y0.594
N20340 X15.494 Y0.597
N20345 X12.836 Y0.599
N20350 X11.95 Y0.595
N20355 X11.627 Y0.579
N20360 X11.227 Y0.522
N20365 X10.844 Y0.393
N20370 X10.491 Y0.196
N20375 X10.18 Y-0.063
N20380 X8.987 Y-1.256
N20385 G3 X9.016 Y-2.104 Z-6.8 I0.439 J-0.409
N20390 X9.42 Y-2.265 I0.41 J0.438
N20395 G1 X29.914 Y-2.448
N20400 G3 X30.185 Y-2.387 I0.005 J0.6
N20405 X30.458 Y-1.583 Z-7. I-0.266 J0.538
N20410 G1 X30.35 Y-1.382
N20415 X30.244 Y-1.181
N20420 X30.168 Y-0.979
N20425 X30.107 Y-0.842
N20430 X30.036 Y-0.71
N20435 X29.953 Y-0.585
N20440 X29.861 Y-0.467
N20445 X29.761 Y-0.355
N20450 X29.656 Y-0.248
N20455 X29.531 Y-0.134
N20460 X29.397 Y-0.023
N20465 X29.23 Y0.102
N20470 X29.054 Y0.221
N20475 X28.834 Y0.355
N20480 X28.595 Y0.485
N20485 X28.307 Y0.623
N20490 X27.97 Y0.765
N20495 X27.588 Y0.905
