%
(WELD-AID-S2)
(T17  D=6. CR=0. - ZMIN=7. - BULLNOSE END MILL)
N10 G90 G94 G17 G91.1
N15 G21
N20 G53 G0 Z0.
(FACE1)
N25 T17 M6
N30 S15000 M3
N35 G54
N40 G64 P0.01 Q0.01
N45 M8
N50 G0 X60.188 Y-79.001
N55 G43 Z25. H17
N60 G0 Z15.
N65 G1 Z7.6 F400.
N70 G18 G3 X59.588 Z7. I-0.6 K0. F900.
N75 G1 X-7.588
N80 X-8.01
N85 G17 G2 Y-76.033 I0. J1.484
N90 G1 X60.01
N95 G3 Y-73.064 I0. J1.484
N100 G1 X-8.01
N105 G2 Y-70.096 I0. J1.484
N110 G1 X60.01
N115 G3 Y-67.127 I0. J1.484
N120 G1 X-8.01
N125 G2 Y-64.158 I0. J1.484
N130 G1 X60.01
N135 G3 Y-61.19 I0. J1.484
N140 G1 X-8.01
N145 G2 Y-58.221 I0. J1.484
N150 G1 X60.01
N155 G3 Y-55.252 I0. J1.484
N160 G1 X-8.01
N165 G2 Y-52.284 I0. J1.484
N170 G1 X60.01
N175 G3 Y-49.315 I0. J1.484
N180 G1 X-8.01
N185 G2 Y-46.347 I0. J1.484
N190 G1 X60.01
N195 G3 Y-43.378 I0. J1.484
N200 G1 X-8.01
N205 G2 Y-40.409 I0. J1.484
N210 G1 X60.01
N215 G3 Y-37.441 I0. J1.484
N220 G1 X-8.01
N225 G2 Y-34.472 I0. J1.484
N230 G1 X60.01
N235 G3 Y-31.503 I0. J1.484
N240 G1 X-8.01
N245 G2 Y-28.535 I0. J1.484
N250 G1 X60.01
N255 G3 Y-25.566 I0. J1.484
N260 G1 X-8.01
N265 G2 Y-22.598 I0. J1.484
N270 G1 X60.01
N275 G3 Y-19.629 I0. J1.484
N280 G1 X-8.01
N285 G2 Y-16.66 I0. J1.484
N290 G1 X60.01
N295 G3 Y-13.692 I0. J1.484
N300 G1 X-8.01
N305 G2 Y-10.723 I0. J1.484
N310 G1 X60.01
N315 G3 Y-7.754 I0. J1.484
N320 G1 X-8.01
N325 G2 Y-4.786 I0. J1.484
N330 G1 X60.01
N335 G3 Y-1.817 I0. J1.484
N340 G1 X-8.01
N345 G2 Y1.151 I0. J1.484
N350 G1 X60.01
N355 G3 Y4.12 I0. J1.484
N360 G1 X-8.01
N365 G18 G3 X-8.61 Z7.6 I0. K0.6
N370 G0 Z25.
N375 G17
N380 M9
N385 G53 G0 Z0.
N390 M30
%
