%
(WOOD_BOX_100X40_S1_V2)
(T1  D=6. CR=0. TAPER=45DEG - ZMIN=-2.8 - CHAMFER MILL)
(T8  D=6. CR=3. - ZMIN=-23.1 - BALL END MILL)
(T10  D=6. CR=0. - ZMIN=-26.5 - FLAT END MILL)
N10 G90 G94 G17 G91.1
N15 G21
N20 G53 G0 Z0.
(FACE1)
N25 T10 M6
N30 T8
N35 S18000 M3
N40 G54
N45 G64 P0.01 Q0.01
N50 G0 X110.313 Y-52.206
N55 G43 Z15. H10
N60 G0 Z5.
N65 G1 Z-0.9 F960.
N70 G18 G3 X109.713 Z-1.5 I-0.6 K0. F2880.
N75 G1 X-3.713
N80 X-7.646
N85 G17 G2 Y-48.451 I0. J1.877
N90 G1 X113.646
N95 X116.006
N100 G3 Y-44.697 I0. J1.877
N105 G1 X-10.006
N110 X-11.376
N115 G2 Y-40.943 I0. J1.877
N120 G1 X117.376
N125 X117.96
N130 G3 Y-37.188 I0. J1.877
N135 G1 X-11.96
N140 X-12.
N145 G2 Y-33.434 I0. J1.877
N150 G1 X118.
N155 G3 Y-29.679 I0. J1.877
N160 G1 X-12.
N165 G2 Y-25.925 I0. J1.877
N170 G1 X118.
N175 G3 Y-22.171 I0. J1.877
N180 G1 X-12.
N185 G2 Y-18.416 I0. J1.877
N190 G1 X118.
N195 G3 Y-14.662 I0. J1.877
N200 G1 X-12.
N205 G2 Y-10.908 I0. J1.877
N210 G1 X118.
N215 G3 Y-7.153 I0. J1.877
N220 G1 X117.793
N225 X-11.793
N230 G2 Y-3.399 I0. J1.877
N235 G1 X-10.875
N240 X116.875
N245 G3 Y0.356 I0. J1.877
N250 G1 X115.105
N255 X-9.105
N260 G2 Y4.11 I0. J1.877
N265 G1 X-6.173
N270 X112.173
N275 G18 G2 X112.773 Z-0.9 I0. K0.6
N280 G0 Z15.
N285 G17
(2D ADAPTIVE1)
N290 G64 P0.1 Q0.1
N295 G0 X-4.716 Y-50.95
N300 Z15.
N305 Z5.
N310 Z-12.3
N315 G1 Z-12.9 F2880.
N320 X-4.71 Y-50.945 Z-12.994
N325 X-4.691 Y-50.933 Z-13.085
N330 X-4.661 Y-50.913 Z-13.172
N335 X-4.621 Y-50.886 Z-13.253
N340 X-4.57 Y-50.851 Z-13.324
N345 X-4.511 Y-50.811 Z-13.385
N350 X-4.444 Y-50.767 Z-13.435
N355 X-4.372 Y-50.718 Z-13.471
N360 X-4.296 Y-50.667 Z-13.493
N365 X-4.218 Y-50.614 Z-13.5
N370 G3 X-1.695 Y-48.487 I-8.556 J12.706
N375 G1 X-1.619 Y-48.402
N380 X-1.577 Y-47.487
N385 X-1.549 Y-46.572
N390 X-1.532 Y-45.657
N395 X-1.521 Y-44.742
N400 X-1.513 Y-43.826
N405 X-1.509 Y-42.911
N410 X-1.506 Y-41.995
N415 X-1.502 Y-40.165
N420 X-1.5 Y-36.503
N425 Y-2.403
N430 X-1.448 Y-1.949
N435 X-1.142 Y-1.086
N440 X-0.569 Y-0.372
N445 X0.161 Y0.18
N450 X0.98 Y0.59
N455 X1.847 Y0.883
N460 X2.74 Y1.087
N465 X3.644 Y1.226
N470 X4.555 Y1.32
N475 X5.468 Y1.382
N480 X6.383 Y1.423
N485 X7.298 Y1.45
N490 X8.213 Y1.468
N495 X9.128 Y1.479
N500 X10.044 Y1.486
N505 X10.959 Y1.491
N510 X11.875 Y1.494
N515 X13.706 Y1.498
N520 X17.367 Y1.5
N525 X51.238
N530 X101.586
N535 X103.417
N540 X103.646 Y1.498
N545 X103.873 Y1.469
N550 X104.318 Y1.361
N555 X105.141 Y0.961
N560 X105.807 Y0.333
N565 X106.315 Y-0.429
N570 X106.687 Y-1.265
N575 X106.951 Y-2.142
N580 X107.134 Y-3.039
N585 X107.258 Y-3.946
N590 X107.341 Y-4.858
N595 X107.396 Y-5.771
N600 X107.432 Y-6.686
N605 X107.456 Y-7.601
N610 X107.471 Y-8.516
N615 X107.481 Y-9.432
N620 X107.488 Y-10.347
N625 X107.492 Y-11.263
N630 X107.497 Y-13.093
N635 X107.499 Y-15.84
N640 X107.5 Y-29.571
N645 Y-43.76
N650 X107.407 Y-44.208
N655 X107.045 Y-45.049
N660 X106.438 Y-45.734
N665 X105.689 Y-46.26
N670 X104.859 Y-46.648
N675 X103.986 Y-46.923
N680 X103.091 Y-47.115
N685 X102.185 Y-47.245
N690 X101.274 Y-47.333
N695 X100.36 Y-47.39
N700 X99.446 Y-47.429
N705 X98.53 Y-47.454
N710 X97.615 Y-47.47
N715 X96.7 Y-47.48
N720 X95.784 Y-47.487
N725 X94.869 Y-47.492
N730 X93.954 Y-47.495
N735 X92.123 Y-47.498
N740 X88.461 Y-47.5
N745 X57.337
N750 X6.988
N755 X3.784
N760 X3.333 Y-47.425
N765 X2.483 Y-47.085
N770 X1.787 Y-46.49
N775 X1.253 Y-45.747
N780 X0.86 Y-44.92
N785 X0.58 Y-44.049
N790 X0.386 Y-43.154
N795 X0.255 Y-42.248
N800 X0.167 Y-41.337
N805 X0.109 Y-40.423
N810 X0.071 Y-39.508
N815 X0.046 Y-38.593
N820 X0.03 Y-37.678
N825 X0.019 Y-36.763
N830 X0.012 Y-35.847
N835 X0.01 Y-35.339
N840 X0.007 Y-35.25
N845 X0.001 Y-35.162
N850 X-0.01 Y-35.073
N855 X-0.022 Y-34.963
N860 X-0.145 Y-33.714
N865 X-0.178 Y-33.298
N870 X-0.194 Y-33.09
N875 X-0.2 Y-32.882
N880 Y-13.118
N885 X-0.194 Y-12.91
N890 X-0.178 Y-12.702
N895 X-0.154 Y-11.787
N900 X-0.099 Y-10.873
N905 X-0.063 Y-9.958
N910 X-0.041 Y-9.043
N915 X-0.026 Y-8.128
N920 X-0.017 Y-7.212
N925 X-0.011 Y-6.297
N930 X-0.007 Y-5.381
N935 X-0.005 Y-4.466
N940 X0.19 Y-3.572
N945 X0.623 Y-2.765
N950 X1.235 Y-2.084
N955 X1.968 Y-1.536
N960 X2.779 Y-1.111
N965 X3.637 Y-0.791
N970 X4.522 Y-0.556
N975 X5.421 Y-0.387
N980 X6.329 Y-0.267
N985 X7.24 Y-0.183
N990 X8.154 Y-0.125
N995 X9.068 Y-0.085
N1000 X9.983 Y-0.057
N1005 X10.418 Y-0.048
N1010 X10.506 Y-0.045
N1015 X10.593 Y-0.037
N1020 X10.68 Y-0.026
N1025 X10.8 Y-0.008
N1030 X11.008 Y0.019
N1035 X12.255 Y0.142
N1040 X12.918 Y0.197
N1045 X13.087 Y0.199
N1050 X15.166 Y0.2
N1055 X92.705
N1060 X92.913 Y0.199
N1065 X93.082 Y0.197
N1070 X93.121 Y0.194
N1075 X94.036 Y0.164
N1080 X94.95 Y0.105
N1085 X95.864 Y0.068
N1090 X96.779 Y0.044
N1095 X97.695 Y0.028
N1100 X98.61 Y0.018
N1105 X99.525 Y0.012
N1110 X100.441 Y0.008
N1115 X101.356 Y0.005
N1120 X102.26 Y-0.141
N1125 X103.086 Y-0.535
N1130 X103.792 Y-1.118
N1135 X104.365 Y-1.832
N1140 X104.813 Y-2.631
N1145 X105.151 Y-3.481
N1150 X105.401 Y-4.362
N1155 X105.582 Y-5.259
N1160 X105.711 Y-6.165
N1165 X105.802 Y-7.076
N1170 X105.865 Y-7.99
N1175 X105.908 Y-8.904
N1180 X105.938 Y-9.819
N1185 X105.951 Y-10.413
N1190 X105.954 Y-10.494
N1195 X105.961 Y-10.574
N1200 X105.971 Y-10.653
N1205 X106.01 Y-10.926
N1210 X106.022 Y-11.037
N1215 X106.145 Y-12.286
N1220 X106.178 Y-12.702
N1225 X106.194 Y-12.91
N1230 X106.2 Y-13.118
N1235 Y-32.882
N1240 X106.194 Y-33.09
N1245 X106.178 Y-33.298
N1250 X106.154 Y-34.213
N1255 X106.099 Y-35.127
N1260 X106.063 Y-36.042
N1265 X106.041 Y-36.957
N1270 X106.026 Y-37.872
N1275 X106.017 Y-38.788
N1280 X106.011 Y-39.703
N1285 X106.007 Y-40.619
N1290 X106.005 Y-41.534
N1295 X105.807 Y-42.428
N1300 X105.374 Y-43.234
N1305 X104.763 Y-43.916
N1310 X104.03 Y-44.464
N1315 X103.219 Y-44.889
N1320 X102.361 Y-45.209
N1325 X101.476 Y-45.443
N1330 X100.577 Y-45.613
N1335 X99.669 Y-45.733
N1340 X98.758 Y-45.817
N1345 X97.844 Y-45.875
N1350 X96.929 Y-45.915
N1355 X96.014 Y-45.942
N1360 X95.584 Y-45.951
N1365 X95.496 Y-45.955
N1370 X95.409 Y-45.962
N1375 X95.322 Y-45.974
N1380 X95.2 Y-45.993
N1385 X94.992 Y-46.019
N1390 X93.745 Y-46.142
N1395 X93.082 Y-46.197
N1400 X92.913 Y-46.199
N1405 X90.834 Y-46.2
N1410 X13.295
N1415 X13.087 Y-46.199
N1420 X12.918 Y-46.197
N1425 X12.879 Y-46.194
N1430 X11.964 Y-46.164
N1435 X11.05 Y-46.105
N1440 X10.136 Y-46.068
N1445 X9.221 Y-46.044
N1450 X8.305 Y-46.028
N1455 X7.39 Y-46.018
N1460 X6.475 Y-46.012
N1465 X5.561 Y-45.963
N1470 X4.698 Y-45.657
N1475 X3.944 Y-45.137
N1480 X3.323 Y-44.465
N1485 X2.831 Y-43.693
N1490 X2.455 Y-42.858
N1495 X2.176 Y-41.986
N1500 X1.973 Y-41.094
N1505 X1.836 Y-40.244
N1510 X1.789 Y-40.028
N1515 X1.718 Y-39.819
N1520 X1.625 Y-39.619
N1525 X1.027 Y-38.499
N1530 X0.917 Y-38.291
N1535 X0.822 Y-38.082
N1540 X0.742 Y-37.875
N1545 X0.672 Y-37.667
N1550 X0.294 Y-36.419
N1555 X0.198 Y-36.094
N1560 X0.111 Y-35.795
N1565 X0.064 Y-35.587
N1570 X-0.01 Y-35.073
N1575 G3 X-0.55 Y-34.581 I-0.591 J-0.106
N1580 G1 X-0.643 Y-34.573 Z-13.493
N1585 X-0.734 Y-34.566 Z-13.471
N1590 X-0.821 Y-34.558 Z-13.435
N1595 X-0.901 Y-34.551 Z-13.385
N1600 X-0.972 Y-34.545 Z-13.324
N1605 X-1.033 Y-34.54 Z-13.253
N1610 X-1.082 Y-34.536 Z-13.172
N1615 X-1.118 Y-34.533 Z-13.085
N1620 X-1.14 Y-34.531 Z-12.994
N1625 X-1.148 Z-12.9
N1630 G0 Z5.
N1635 X14.1 Y-46.825
N1640 Z-12.3
N1645 G1 Z-12.9 F2880.
N1650 X14.094 Y-46.82 Z-12.994
N1655 X14.077 Y-46.808 Z-13.085
N1660 X14.047 Y-46.787 Z-13.172
N1665 X14.007 Y-46.758 Z-13.253
N1670 X13.957 Y-46.723 Z-13.324
N1675 X13.899 Y-46.681 Z-13.385
N1680 X13.834 Y-46.635 Z-13.435
N1685 X13.763 Y-46.584 Z-13.471
N1690 X13.688 Y-46.531 Z-13.493
N1695 X13.612 Y-46.477 Z-13.5
N1700 G3 X12.879 Y-46.194 I-0.918 J-1.289
N1705 G1 X12.255 Y-46.142
N1710 X11.008 Y-46.019
N1715 X10.778 Y-45.989
N1720 X10.384 Y-45.929
N1725 X10.176 Y-45.882
N1730 X9.553 Y-45.698
N1735 X8.306 Y-45.32
N1740 X8.098 Y-45.248
N1745 X7.89 Y-45.166
N1750 X7.038 Y-44.831
N1755 X6.235 Y-44.391
N1760 X5.995 Y-44.191
N1765 X5.922 Y-44.134
N1770 X5.846 Y-44.079
N1775 X5.768 Y-44.028
N1780 G3 X4.95 Y-44.252 Z-13.3 I-0.297 J-0.521
N1785 X5.187 Y-45.078 I0.521 J-0.298
N1790 G1 X7.332 Y-46.229
N1795 G3 X8.15 Y-45.973 I0.284 J0.529
N1800 X7.89 Y-45.166 Z-13.5 I-0.534 J0.274
N1805 G1 X7.682 Y-45.068
N1810 X7.455 Y-44.949
N1815 X6.227 Y-44.292
N1820 X5.919 Y-44.117
N1825 X5.811 Y-44.055
N1830 X5.603 Y-43.926
N1835 X5.312 Y-43.701
N1840 X5.187 Y-43.602
N1845 X4.04 Y-42.66
N1850 X3.94 Y-42.576
N1855 X3.732 Y-42.391
N1860 X3.586 Y-42.244
N1865 X3.404 Y-42.036
N1870 X3.316 Y-41.932
N1875 X2.378 Y-40.788
N1880 X2.277 Y-40.66
N1885 X2.057 Y-40.372
N1890 X1.929 Y-40.164
N1895 X1.694 Y-39.748
N1900 X1.625 Y-39.619
N1905 G3 X0.95 Y-39.341 I-0.519 J-0.301
N1910 G1 X0.859 Y-39.365 Z-13.493
N1915 X0.771 Y-39.389 Z-13.471
N1920 X0.687 Y-39.412 Z-13.435
N1925 X0.609 Y-39.433 Z-13.385
N1930 X0.54 Y-39.451 Z-13.324
N1935 X0.481 Y-39.467 Z-13.253
N1940 X0.433 Y-39.48 Z-13.172
N1945 X0.399 Y-39.49 Z-13.085
N1950 X0.377 Y-39.495 Z-12.994
N1955 X0.37 Y-39.497 Z-12.9
N1960 G0 Z5.
N1965 X-0.801 Y-13.927
N1970 Z-12.3
N1975 G1 Z-12.9 F2880.
N1980 X-0.797 Y-13.921 Z-12.994
N1985 X-0.784 Y-13.903 Z-13.085
N1990 X-0.764 Y-13.873 Z-13.172
N1995 X-0.735 Y-13.833 Z-13.253
N2000 X-0.7 Y-13.783 Z-13.324
N2005 X-0.659 Y-13.725 Z-13.385
N2010 X-0.613 Y-13.659 Z-13.435
N2015 X-0.563 Y-13.588 Z-13.471
N2020 X-0.51 Y-13.513 Z-13.493
N2025 X-0.456 Y-13.436 Z-13.5
N2030 G3 X-0.178 Y-12.702 I-1.295 J0.91
N2035 G1 X-0.145 Y-12.286
N2040 X-0.022 Y-11.037
N2045 X-0.01 Y-10.927
N2050 X0.064 Y-10.413
N2055 X0.111 Y-10.205
N2060 X0.232 Y-9.789
N2065 X0.294 Y-9.581
N2070 X0.672 Y-8.333
N2075 X0.742 Y-8.125
N2080 X0.872 Y-7.731
N2085 X0.996 Y-7.265
N2090 X1.183 Y-6.368
N2095 X1.428 Y-5.487
N2100 X1.852 Y-4.675
N2105 X2.434 Y-3.969
N2110 X3.135 Y-3.38
N2115 X3.918 Y-2.906
N2120 X4.756 Y-2.536
N2125 X4.856 Y-2.503
N2130 X5.071 Y-2.419
N2135 X5.274 Y-2.312
N2140 X5.464 Y-2.181
N2145 G3 X5.625 Y-1.469 I-0.384 J0.461
N2150 G1 X5.586 Y-1.383 Z-13.493
N2155 X5.547 Y-1.3 Z-13.471
N2160 X5.511 Y-1.221 Z-13.435
N2165 X5.477 Y-1.149 Z-13.385
N2170 X5.447 Y-1.084 Z-13.324
N2175 X5.421 Y-1.028 Z-13.253
N2180 X5.401 Y-0.983 Z-13.172
N2185 X5.386 Y-0.951 Z-13.085
N2190 X5.376 Y-0.931 Z-12.994
N2195 X5.373 Y-0.924 Z-12.9
N2200 G0 Z5.
N2205 X-0.207 Y-9.119
N2210 Z-12.3
N2215 G1 Z-12.9 F2880.
N2220 X-0.201 Y-9.115 Z-12.994
N2225 X-0.184 Y-9.101 Z-13.085
N2230 X-0.155 Y-9.079 Z-13.172
N2235 X-0.117 Y-9.048 Z-13.253
N2240 X-0.069 Y-9.011 Z-13.324
N2245 X-0.012 Y-8.966 Z-13.385
N2250 X0.051 Y-8.917 Z-13.435
N2255 X0.119 Y-8.863 Z-13.471
N2260 X0.191 Y-8.806 Z-13.493
N2265 X0.265 Y-8.748 Z-13.5
N2270 G3 X0.742 Y-8.125 I-0.979 J1.244
N2275 G1 X0.823 Y-7.917
N2280 X0.917 Y-7.709
N2285 X1.03 Y-7.495
N2290 X1.694 Y-6.252
N2295 X1.929 Y-5.836
N2300 X2.057 Y-5.628
N2305 X2.277 Y-5.34
N2310 X2.378 Y-5.212
N2315 X3.316 Y-4.068
N2320 X3.405 Y-3.964
N2325 X3.586 Y-3.756
N2330 X3.732 Y-3.609
N2335 X3.94 Y-3.424
N2340 X4.04 Y-3.34
N2345 X5.187 Y-2.398
N2350 X5.312 Y-2.299
N2355 X5.603 Y-2.074
N2360 X5.811 Y-1.945
N2365 X6.019 Y-1.826
N2370 X6.227 Y-1.708
N2375 X7.474 Y-1.041
N2380 X7.682 Y-0.932
N2385 X7.89 Y-0.834
N2390 X8.098 Y-0.752
N2395 X8.306 Y-0.68
N2400 X9.553 Y-0.302
N2405 X10.176 Y-0.118
N2410 X10.384 Y-0.071
N2415 X10.68 Y-0.026
N2420 G3 X11.167 Y0.519 I-0.111 J0.59
N2425 G1 X11.174 Y0.612 Z-13.493
N2430 X11.181 Y0.704 Z-13.471
N2435 X11.188 Y0.79 Z-13.435
N2440 X11.194 Y0.87 Z-13.385
N2445 X11.199 Y0.942 Z-13.324
N2450 X11.204 Y1.003 Z-13.253
N2455 X11.207 Y1.052 Z-13.172
N2460 X11.21 Y1.088 Z-13.085
N2465 X11.212 Y1.11 Z-12.994
N2470 Y1.117 Z-12.9
N2475 G0 Z5.
N2480 X91.9 Y0.825
N2485 Z-12.3
N2490 G1 Z-12.9 F2880.
N2495 X91.906 Y0.82 Z-12.994
N2500 X91.923 Y0.808 Z-13.085
N2505 X91.953 Y0.787 Z-13.172
N2510 X91.993 Y0.758 Z-13.253
N2515 X92.043 Y0.723 Z-13.324
N2520 X92.101 Y0.681 Z-13.385
N2525 X92.166 Y0.635 Z-13.435
N2530 X92.237 Y0.584 Z-13.471
N2535 X92.312 Y0.531 Z-13.493
N2540 X92.388 Y0.477 Z-13.5
N2545 G3 X93.121 Y0.194 I0.918 J1.289
N2550 G1 X93.745 Y0.142
N2555 X94.992 Y0.019
N2560 X95.221 Y-0.011
N2565 X95.616 Y-0.071
N2570 X95.824 Y-0.118
N2575 X96.447 Y-0.302
N2580 X97.694 Y-0.68
N2585 X97.902 Y-0.752
N2590 X98.21 Y-0.856
N2595 X98.66 Y-0.98
N2600 X99.554 Y-1.173
N2605 X100.44 Y-1.406
N2610 X101.258 Y-1.816
N2615 X101.974 Y-2.387
N2620 X102.572 Y-3.08
N2625 X103.055 Y-3.857
N2630 X103.434 Y-4.691
N2635 X103.488 Y-4.854
N2640 X103.569 Y-5.057
N2645 X103.671 Y-5.251
N2650 X103.794 Y-5.432
N2655 G3 X104.505 Y-5.599 I0.464 J0.38
N2660 G1 X104.591 Y-5.561 Z-13.493
N2665 X104.674 Y-5.523 Z-13.471
N2670 X104.753 Y-5.487 Z-13.435
N2675 X104.827 Y-5.454 Z-13.385
N2680 X104.892 Y-5.425 Z-13.324
N2685 X104.948 Y-5.4 Z-13.253
N2690 X104.992 Y-5.379 Z-13.172
N2695 X105.025 Y-5.365 Z-13.085
N2700 X105.045 Y-5.356 Z-12.994
N2705 X105.052 Y-5.353 Z-12.9
N2710 G0 Z5.
N2715 X96.915 Y0.204
N2720 Z-12.3
N2725 G1 Z-12.9 F2880.
N2730 X96.919 Y0.198 Z-12.994
N2735 X96.933 Y0.181 Z-13.085
N2740 X96.955 Y0.153 Z-13.172
N2745 X96.985 Y0.114 Z-13.253
N2750 X97.022 Y0.065 Z-13.324
N2755 X97.066 Y0.009 Z-13.385
N2760 X97.115 Y-0.055 Z-13.435
N2765 X97.169 Y-0.123 Z-13.471
N2770 X97.225 Y-0.196 Z-13.493
N2775 X97.282 Y-0.27 Z-13.5
N2780 G3 X97.902 Y-0.752 I1.251 J0.969
N2785 G1 X98.11 Y-0.834
N2790 X98.318 Y-0.932
N2795 X98.545 Y-1.051
N2800 X99.773 Y-1.708
N2805 X100.081 Y-1.883
N2810 X100.189 Y-1.945
N2815 X100.397 Y-2.074
N2820 X100.688 Y-2.299
N2825 X100.813 Y-2.398
N2830 X101.96 Y-3.34
N2835 X102.06 Y-3.424
N2840 X102.268 Y-3.609
N2845 X102.414 Y-3.756
N2850 X102.595 Y-3.964
N2855 X102.684 Y-4.068
N2860 X103.623 Y-5.212
N2865 X103.723 Y-5.339
N2870 X103.943 Y-5.628
N2875 X104.071 Y-5.836
N2880 X104.306 Y-6.252
N2885 X104.973 Y-7.501
N2890 X105.083 Y-7.709
N2895 X105.178 Y-7.918
N2900 X105.258 Y-8.125
N2905 X105.328 Y-8.333
N2910 X105.707 Y-9.581
N2915 X105.802 Y-9.905
N2920 X105.889 Y-10.205
N2925 X105.936 Y-10.413
N2930 X105.971 Y-10.653
N2935 X106.01 Y-10.926 Z-13.441
N2940 X106.022 Y-11.037 Z-13.418
N2945 X106.06 Y-11.416 Z-13.337
N2950 X106.077 Y-11.589 Z-13.3
N2955 X106.145 Y-12.286
N2960 X106.162 Y-12.494
N2965 X106.194 Y-12.91
N2970 X106.2 Y-13.118
N2975 Y-32.357
N2980 Y-32.531 Z-13.337
N2985 Y-32.882 Z-13.412
N2990 X106.194 Y-33.09 Z-13.456
N2995 X106.178 Y-33.298 Z-13.5
N3000 X106.145 Y-33.714
N3005 X106.022 Y-34.963
N3010 X106.01 Y-35.074
N3015 X105.936 Y-35.587
N3020 X105.889 Y-35.795
N3025 X105.768 Y-36.211
N3030 X105.707 Y-36.419
N3035 X105.328 Y-37.667
N3040 X105.258 Y-37.875
N3045 X105.129 Y-38.268
N3050 X105.004 Y-38.735
N3055 X104.817 Y-39.631
N3060 X104.572 Y-40.513
N3065 X104.148 Y-41.324
N3070 X103.566 Y-42.031
N3075 X102.865 Y-42.619
N3080 X102.082 Y-43.093
N3085 X101.244 Y-43.464
N3090 X101.146 Y-43.496
N3095 X100.931 Y-43.579
N3100 X100.727 Y-43.687
N3105 X100.538 Y-43.817
N3110 G3 X100.377 Y-44.53 I0.384 J-0.461
N3115 G1 X100.416 Y-44.615 Z-13.493
N3120 X100.455 Y-44.698 Z-13.471
N3125 X100.491 Y-44.777 Z-13.435
N3130 X100.525 Y-44.85 Z-13.385
N3135 X100.555 Y-44.915 Z-13.324
N3140 X100.58 Y-44.971 Z-13.253
N3145 X100.601 Y-45.015 Z-13.172
N3150 X100.616 Y-45.048 Z-13.085
N3155 X100.625 Y-45.068 Z-12.994
N3160 X100.628 Y-45.075 Z-12.9
N3165 G0 Z5.
N3170 X106.207 Y-36.881
N3175 Z-12.3
N3180 G1 Z-12.9 F2880.
N3185 X106.201 Y-36.885 Z-12.994
N3190 X106.184 Y-36.899 Z-13.085
N3195 X106.156 Y-36.921 Z-13.172
N3200 X106.117 Y-36.952 Z-13.253
N3205 X106.069 Y-36.989 Z-13.324
N3210 X106.013 Y-37.034 Z-13.385
N3215 X105.949 Y-37.083 Z-13.435
N3220 X105.881 Y-37.137 Z-13.471
N3225 X105.809 Y-37.194 Z-13.493
N3230 X105.735 Y-37.252 Z-13.5
N3235 G3 X105.258 Y-37.875 I0.979 J-1.244
N3240 G1 X105.178 Y-38.083
N3245 X105.083 Y-38.291
N3250 X104.97 Y-38.505
N3255 X104.306 Y-39.748
N3260 X104.071 Y-40.164
N3265 X103.943 Y-40.372
N3270 X103.723 Y-40.661
N3275 X103.623 Y-40.788
N3280 X102.684 Y-41.932
N3285 X102.595 Y-42.036
N3290 X102.414 Y-42.244
N3295 X102.268 Y-42.391
N3300 X102.06 Y-42.576
N3305 X101.96 Y-42.66
N3310 X100.813 Y-43.602
N3315 X100.688 Y-43.701
N3320 X100.397 Y-43.926
N3325 X100.189 Y-44.055
N3330 X99.981 Y-44.174
N3335 X99.773 Y-44.292
N3340 X98.526 Y-44.959
N3345 X98.318 Y-45.068
N3350 X98.11 Y-45.166
N3355 X97.902 Y-45.248
N3360 X97.694 Y-45.32
N3365 X96.447 Y-45.698
N3370 X95.824 Y-45.882
N3375 X95.616 Y-45.929
N3380 X95.322 Y-45.974
N3385 X95.233 Y-45.998
N3390 X95.148 Y-46.036
N3395 X95.091 Y-46.082 Z-13.495
N3400 X95.034 Y-46.127 Z-13.482
N3405 X94.979 Y-46.172 Z-13.459
N3410 X94.939 Y-46.24 Z-13.421
N3415 X94.902 Y-46.303 Z-13.371
N3420 X94.869 Y-46.359 Z-13.312
N3425 X94.857 Y-46.414 Z-13.241
N3430 X94.848 Y-46.459 Z-13.163
N3435 X94.841 Y-46.492 Z-13.079
N3440 X94.837 Y-46.512 Z-12.991
N3445 X94.835 Y-46.518 Z-12.9
N3450 G0 Z5.
N3455 X-4.716 Y-50.95
N3460 Z-25.3
N3465 G1 Z-25.9 F2880.
N3470 X-4.71 Y-50.945 Z-25.994
N3475 X-4.691 Y-50.933 Z-26.085
N3480 X-4.661 Y-50.913 Z-26.172
N3485 X-4.621 Y-50.886 Z-26.253
N3490 X-4.57 Y-50.851 Z-26.324
N3495 X-4.511 Y-50.811 Z-26.385
N3500 X-4.444 Y-50.767 Z-26.435
N3505 X-4.372 Y-50.718 Z-26.471
N3510 X-4.296 Y-50.667 Z-26.493
N3515 X-4.218 Y-50.614 Z-26.5
N3520 G3 X-1.695 Y-48.487 I-8.556 J12.706
N3525 G1 X-1.619 Y-48.402
N3530 X-1.577 Y-47.487
N3535 X-1.549 Y-46.572
N3540 X-1.532 Y-45.657
N3545 X-1.521 Y-44.742
N3550 X-1.513 Y-43.826
N3555 X-1.509 Y-42.911
N3560 X-1.506 Y-41.995
N3565 X-1.502 Y-40.165
N3570 X-1.5 Y-36.503
N3575 Y-2.403
N3580 X-1.448 Y-1.949
N3585 X-1.142 Y-1.086
N3590 X-0.569 Y-0.372
N3595 X0.161 Y0.18
N3600 X0.98 Y0.59
N3605 X1.847 Y0.883
N3610 X2.74 Y1.087
N3615 X3.644 Y1.226
N3620 X4.555 Y1.32
N3625 X5.468 Y1.382
N3630 X6.383 Y1.423
N3635 X7.298 Y1.45
N3640 X8.213 Y1.468
N3645 X9.128 Y1.479
N3650 X10.044 Y1.486
N3655 X10.959 Y1.491
N3660 X11.875 Y1.494
N3665 X13.706 Y1.498
N3670 X17.367 Y1.5
N3675 X51.238
N3680 X101.586
N3685 X103.417
N3690 X103.646 Y1.498
N3695 X103.873 Y1.469
N3700 X104.318 Y1.361
N3705 X105.141 Y0.961
N3710 X105.807 Y0.333
N3715 X106.315 Y-0.429
N3720 X106.687 Y-1.265
N3725 X106.951 Y-2.142
N3730 X107.134 Y-3.039
N3735 X107.258 Y-3.946
N3740 X107.341 Y-4.858
N3745 X107.396 Y-5.771
N3750 X107.432 Y-6.686
N3755 X107.456 Y-7.601
N3760 X107.471 Y-8.516
N3765 X107.481 Y-9.432
N3770 X107.488 Y-10.347
N3775 X107.492 Y-11.263
N3780 X107.497 Y-13.093
N3785 X107.499 Y-15.84
N3790 X107.5 Y-29.571
N3795 Y-43.76
N3800 X107.407 Y-44.208
N3805 X107.045 Y-45.049
N3810 X106.438 Y-45.734
N3815 X105.689 Y-46.26
N3820 X104.859 Y-46.648
N3825 X103.986 Y-46.923
N3830 X103.091 Y-47.115
N3835 X102.185 Y-47.245
N3840 X101.274 Y-47.333
N3845 X100.36 Y-47.39
N3850 X99.446 Y-47.429
N3855 X98.53 Y-47.454
N3860 X97.615 Y-47.47
N3865 X96.7 Y-47.48
N3870 X95.784 Y-47.487
N3875 X94.869 Y-47.492
N3880 X93.954 Y-47.495
N3885 X92.123 Y-47.498
N3890 X88.461 Y-47.5
N3895 X57.337
N3900 X6.988
N3905 X3.784
N3910 X3.333 Y-47.425
N3915 X2.483 Y-47.085
N3920 X1.787 Y-46.49
N3925 X1.253 Y-45.747
N3930 X0.86 Y-44.92
N3935 X0.58 Y-44.049
N3940 X0.386 Y-43.154
N3945 X0.255 Y-42.248
N3950 X0.167 Y-41.337
N3955 X0.109 Y-40.423
N3960 X0.071 Y-39.508
N3965 X0.046 Y-38.593
N3970 X0.03 Y-37.678
N3975 X0.019 Y-36.763
N3980 X0.012 Y-35.847
N3985 X0.01 Y-35.339
N3990 X0.007 Y-35.25
N3995 X0.001 Y-35.162
N4000 X-0.01 Y-35.073
N4005 X-0.022 Y-34.963
N4010 X-0.145 Y-33.714
N4015 X-0.178 Y-33.298
N4020 X-0.194 Y-33.09
N4025 X-0.2 Y-32.882
N4030 Y-13.118
N4035 X-0.194 Y-12.91
N4040 X-0.178 Y-12.702
N4045 X-0.154 Y-11.787
N4050 X-0.099 Y-10.873
N4055 X-0.063 Y-9.958
N4060 X-0.041 Y-9.043
N4065 X-0.026 Y-8.128
N4070 X-0.017 Y-7.212
N4075 X-0.011 Y-6.297
N4080 X-0.007 Y-5.381
N4085 X-0.005 Y-4.466
N4090 X0.19 Y-3.572
N4095 X0.623 Y-2.765
N4100 X1.235 Y-2.084
N4105 X1.968 Y-1.536
N4110 X2.779 Y-1.111
N4115 X3.637 Y-0.791
N4120 X4.522 Y-0.556
N4125 X5.421 Y-0.387
N4130 X6.329 Y-0.267
N4135 X7.24 Y-0.183
N4140 X8.154 Y-0.125
N4145 X9.068 Y-0.085
N4150 X9.983 Y-0.057
N4155 X10.418 Y-0.048
N4160 X10.506 Y-0.045
N4165 X10.593 Y-0.037
N4170 X10.68 Y-0.026
N4175 X10.8 Y-0.008
N4180 X11.008 Y0.019
N4185 X12.255 Y0.142
N4190 X12.918 Y0.197
N4195 X13.087 Y0.199
N4200 X15.166 Y0.2
N4205 X92.705
N4210 X92.913 Y0.199
N4215 X93.082 Y0.197
N4220 X93.121 Y0.194
N4225 X94.036 Y0.164
N4230 X94.95 Y0.105
N4235 X95.864 Y0.068
N4240 X96.779 Y0.044
N4245 X97.695 Y0.028
N4250 X98.61 Y0.018
N4255 X99.525 Y0.012
N4260 X100.441 Y0.008
N4265 X101.356 Y0.005
N4270 X102.26 Y-0.141
N4275 X103.086 Y-0.535
N4280 X103.792 Y-1.118
N4285 X104.365 Y-1.832
N4290 X104.813 Y-2.631
N4295 X105.151 Y-3.481
N4300 X105.401 Y-4.362
N4305 X105.582 Y-5.259
N4310 X105.711 Y-6.165
N4315 X105.802 Y-7.076
N4320 X105.865 Y-7.99
N4325 X105.908 Y-8.904
N4330 X105.938 Y-9.819
N4335 X105.951 Y-10.413
N4340 X105.954 Y-10.494
N4345 X105.961 Y-10.574
N4350 X105.971 Y-10.653
N4355 X106.01 Y-10.926
N4360 X106.022 Y-11.037
N4365 X106.145 Y-12.286
N4370 X106.178 Y-12.702
N4375 X106.194 Y-12.91
N4380 X106.2 Y-13.118
N4385 Y-32.882
N4390 X106.194 Y-33.09
N4395 X106.178 Y-33.298
N4400 X106.154 Y-34.213
N4405 X106.099 Y-35.127
N4410 X106.063 Y-36.042
N4415 X106.041 Y-36.957
N4420 X106.026 Y-37.872
N4425 X106.017 Y-38.788
N4430 X106.011 Y-39.703
N4435 X106.007 Y-40.619
N4440 X106.005 Y-41.534
N4445 X105.807 Y-42.428
N4450 X105.374 Y-43.234
N4455 X104.763 Y-43.916
N4460 X104.03 Y-44.464
N4465 X103.219 Y-44.889
N4470 X102.361 Y-45.209
N4475 X101.476 Y-45.443
N4480 X100.577 Y-45.613
N4485 X99.669 Y-45.733
N4490 X98.758 Y-45.817
N4495 X97.844 Y-45.875
N4500 X96.929 Y-45.915
N4505 X96.014 Y-45.942
N4510 X95.584 Y-45.951
N4515 X95.496 Y-45.955
N4520 X95.409 Y-45.962
N4525 X95.322 Y-45.974
N4530 X95.2 Y-45.993
N4535 X94.992 Y-46.019
N4540 X93.745 Y-46.142
N4545 X93.082 Y-46.197
N4550 X92.913 Y-46.199
N4555 X90.834 Y-46.2
N4560 X13.295
N4565 X13.087 Y-46.199
N4570 X12.918 Y-46.197
N4575 X12.879 Y-46.194
N4580 X11.964 Y-46.164
N4585 X11.05 Y-46.105
N4590 X10.136 Y-46.068
N4595 X9.221 Y-46.044
N4600 X8.305 Y-46.028
N4605 X7.39 Y-46.018
N4610 X6.475 Y-46.012
N4615 X5.561 Y-45.963
N4620 X4.698 Y-45.657
N4625 X3.944 Y-45.137
N4630 X3.323 Y-44.465
N4635 X2.831 Y-43.693
N4640 X2.455 Y-42.858
N4645 X2.176 Y-41.986
N4650 X1.973 Y-41.094
N4655 X1.836 Y-40.244
N4660 X1.789 Y-40.028
N4665 X1.718 Y-39.819
N4670 X1.625 Y-39.619
N4675 X1.027 Y-38.499
N4680 X0.917 Y-38.291
N4685 X0.822 Y-38.082
N4690 X0.742 Y-37.875
N4695 X0.672 Y-37.667
N4700 X0.294 Y-36.419
N4705 X0.198 Y-36.094
N4710 X0.111 Y-35.795
N4715 X0.064 Y-35.587
N4720 X-0.01 Y-35.073
N4725 G3 X-0.55 Y-34.581 I-0.591 J-0.106
N4730 G1 X-0.643 Y-34.573 Z-26.493
N4735 X-0.734 Y-34.566 Z-26.471
N4740 X-0.821 Y-34.558 Z-26.435
N4745 X-0.901 Y-34.551 Z-26.385
N4750 X-0.972 Y-34.545 Z-26.324
N4755 X-1.033 Y-34.54 Z-26.253
N4760 X-1.082 Y-34.536 Z-26.172
N4765 X-1.118 Y-34.533 Z-26.085
N4770 X-1.14 Y-34.531 Z-25.994
N4775 X-1.148 Z-25.9
N4780 G0 Z5.
N4785 X14.1 Y-46.825
N4790 Z-25.3
N4795 G1 Z-25.9 F2880.
N4800 X14.094 Y-46.82 Z-25.994
N4805 X14.077 Y-46.808 Z-26.085
N4810 X14.047 Y-46.787 Z-26.172
N4815 X14.007 Y-46.758 Z-26.253
N4820 X13.957 Y-46.723 Z-26.324
N4825 X13.899 Y-46.681 Z-26.385
N4830 X13.834 Y-46.635 Z-26.435
N4835 X13.763 Y-46.584 Z-26.471
N4840 X13.688 Y-46.531 Z-26.493
N4845 X13.612 Y-46.477 Z-26.5
N4850 G3 X12.879 Y-46.194 I-0.918 J-1.289
N4855 G1 X12.255 Y-46.142
N4860 X11.008 Y-46.019
N4865 X10.778 Y-45.989
N4870 X10.384 Y-45.929
N4875 X10.176 Y-45.882
N4880 X9.553 Y-45.698
N4885 X8.306 Y-45.32
N4890 X8.098 Y-45.248
N4895 X7.89 Y-45.166
N4900 X7.038 Y-44.831
N4905 X6.235 Y-44.391
N4910 X5.995 Y-44.191
N4915 X5.922 Y-44.134
N4920 X5.846 Y-44.079
N4925 X5.768 Y-44.028
N4930 G3 X4.95 Y-44.252 Z-26.3 I-0.297 J-0.521
N4935 X5.187 Y-45.078 I0.521 J-0.298
N4940 G1 X7.332 Y-46.229
N4945 G3 X8.15 Y-45.973 I0.284 J0.529
N4950 X7.89 Y-45.166 Z-26.5 I-0.534 J0.274
N4955 G1 X7.682 Y-45.068
N4960 X7.455 Y-44.949
N4965 X6.227 Y-44.292
N4970 X5.919 Y-44.117
N4975 X5.811 Y-44.055
N4980 X5.603 Y-43.926
N4985 X5.312 Y-43.701
N4990 X5.187 Y-43.602
N4995 X4.04 Y-42.66
N5000 X3.94 Y-42.576
N5005 X3.732 Y-42.391
N5010 X3.586 Y-42.244
N5015 X3.404 Y-42.036
N5020 X3.316 Y-41.932
N5025 X2.378 Y-40.788
N5030 X2.277 Y-40.66
N5035 X2.057 Y-40.372
N5040 X1.929 Y-40.164
N5045 X1.694 Y-39.748
N5050 X1.625 Y-39.619
N5055 G3 X0.95 Y-39.341 I-0.519 J-0.301
N5060 G1 X0.859 Y-39.365 Z-26.493
N5065 X0.771 Y-39.389 Z-26.471
N5070 X0.687 Y-39.412 Z-26.435
N5075 X0.609 Y-39.433 Z-26.385
N5080 X0.54 Y-39.451 Z-26.324
N5085 X0.481 Y-39.467 Z-26.253
N5090 X0.433 Y-39.48 Z-26.172
N5095 X0.399 Y-39.49 Z-26.085
N5100 X0.377 Y-39.495 Z-25.994
N5105 X0.37 Y-39.497 Z-25.9
N5110 G0 Z5.
N5115 X-0.801 Y-13.927
N5120 Z-25.3
N5125 G1 Z-25.9 F2880.
N5130 X-0.797 Y-13.921 Z-25.994
N5135 X-0.784 Y-13.903 Z-26.085
N5140 X-0.764 Y-13.873 Z-26.172
N5145 X-0.735 Y-13.833 Z-26.253
N5150 X-0.7 Y-13.783 Z-26.324
N5155 X-0.659 Y-13.725 Z-26.385
N5160 X-0.613 Y-13.659 Z-26.435
N5165 X-0.563 Y-13.588 Z-26.471
N5170 X-0.51 Y-13.513 Z-26.493
N5175 X-0.456 Y-13.436 Z-26.5
N5180 G3 X-0.178 Y-12.702 I-1.295 J0.91
N5185 G1 X-0.145 Y-12.286
N5190 X-0.022 Y-11.037
N5195 X-0.01 Y-10.927
N5200 X0.064 Y-10.413
N5205 X0.111 Y-10.205
N5210 X0.232 Y-9.789
N5215 X0.294 Y-9.581
N5220 X0.672 Y-8.333
N5225 X0.742 Y-8.125
N5230 X0.872 Y-7.731
N5235 X0.996 Y-7.265
N5240 X1.183 Y-6.368
N5245 X1.428 Y-5.487
N5250 X1.852 Y-4.675
N5255 X2.434 Y-3.969
N5260 X3.135 Y-3.38
N5265 X3.918 Y-2.906
N5270 X4.756 Y-2.536
N5275 X4.856 Y-2.503
N5280 X5.071 Y-2.419
N5285 X5.274 Y-2.312
N5290 X5.464 Y-2.181
N5295 G3 X5.625 Y-1.469 I-0.384 J0.461
N5300 G1 X5.586 Y-1.383 Z-26.493
N5305 X5.547 Y-1.3 Z-26.471
N5310 X5.511 Y-1.221 Z-26.435
N5315 X5.477 Y-1.149 Z-26.385
N5320 X5.447 Y-1.084 Z-26.324
N5325 X5.421 Y-1.028 Z-26.253
N5330 X5.401 Y-0.983 Z-26.172
N5335 X5.386 Y-0.951 Z-26.085
N5340 X5.376 Y-0.931 Z-25.994
N5345 X5.373 Y-0.924 Z-25.9
N5350 G0 Z5.
N5355 X-0.207 Y-9.119
N5360 Z-25.3
N5365 G1 Z-25.9 F2880.
N5370 X-0.201 Y-9.115 Z-25.994
N5375 X-0.184 Y-9.101 Z-26.085
N5380 X-0.155 Y-9.079 Z-26.172
N5385 X-0.117 Y-9.048 Z-26.253
N5390 X-0.069 Y-9.011 Z-26.324
N5395 X-0.012 Y-8.966 Z-26.385
N5400 X0.051 Y-8.917 Z-26.435
N5405 X0.119 Y-8.863 Z-26.471
N5410 X0.191 Y-8.806 Z-26.493
N5415 X0.265 Y-8.748 Z-26.5
N5420 G3 X0.742 Y-8.125 I-0.979 J1.244
N5425 G1 X0.823 Y-7.917
N5430 X0.917 Y-7.709
N5435 X1.03 Y-7.495
N5440 X1.694 Y-6.252
N5445 X1.929 Y-5.836
N5450 X2.057 Y-5.628
N5455 X2.277 Y-5.34
N5460 X2.378 Y-5.212
N5465 X3.316 Y-4.068
N5470 X3.405 Y-3.964
N5475 X3.586 Y-3.756
N5480 X3.732 Y-3.609
N5485 X3.94 Y-3.424
N5490 X4.04 Y-3.34
N5495 X5.187 Y-2.398
N5500 X5.312 Y-2.299
N5505 X5.603 Y-2.074
N5510 X5.811 Y-1.945
N5515 X6.019 Y-1.826
N5520 X6.227 Y-1.708
N5525 X7.474 Y-1.041
N5530 X7.682 Y-0.932
N5535 X7.89 Y-0.834
N5540 X8.098 Y-0.752
N5545 X8.306 Y-0.68
N5550 X9.553 Y-0.302
N5555 X10.176 Y-0.118
N5560 X10.384 Y-0.071
N5565 X10.68 Y-0.026
N5570 G3 X11.167 Y0.519 I-0.111 J0.59
N5575 G1 X11.174 Y0.612 Z-26.493
N5580 X11.181 Y0.704 Z-26.471
N5585 X11.188 Y0.79 Z-26.435
N5590 X11.194 Y0.87 Z-26.385
N5595 X11.199 Y0.942 Z-26.324
N5600 X11.204 Y1.003 Z-26.253
N5605 X11.207 Y1.052 Z-26.172
N5610 X11.21 Y1.088 Z-26.085
N5615 X11.212 Y1.11 Z-25.994
N5620 Y1.117 Z-25.9
N5625 G0 Z5.
N5630 X91.9 Y0.825
N5635 Z-25.3
N5640 G1 Z-25.9 F2880.
N5645 X91.906 Y0.82 Z-25.994
N5650 X91.923 Y0.808 Z-26.085
N5655 X91.953 Y0.787 Z-26.172
N5660 X91.993 Y0.758 Z-26.253
N5665 X92.043 Y0.723 Z-26.324
N5670 X92.101 Y0.681 Z-26.385
N5675 X92.166 Y0.635 Z-26.435
N5680 X92.237 Y0.584 Z-26.471
N5685 X92.312 Y0.531 Z-26.493
N5690 X92.388 Y0.477 Z-26.5
N5695 G3 X93.121 Y0.194 I0.918 J1.289
N5700 G1 X93.745 Y0.142
N5705 X94.992 Y0.019
N5710 X95.221 Y-0.011
N5715 X95.616 Y-0.071
N5720 X95.824 Y-0.118
N5725 X96.447 Y-0.302
N5730 X97.694 Y-0.68
N5735 X97.902 Y-0.752
N5740 X98.21 Y-0.856
N5745 X98.66 Y-0.98
N5750 X99.554 Y-1.173
N5755 X100.44 Y-1.406
N5760 X101.258 Y-1.816
N5765 X101.974 Y-2.387
N5770 X102.572 Y-3.08
N5775 X103.055 Y-3.857
N5780 X103.434 Y-4.691
N5785 X103.488 Y-4.854
N5790 X103.569 Y-5.057
N5795 X103.671 Y-5.251
N5800 X103.794 Y-5.432
N5805 G3 X104.505 Y-5.599 I0.464 J0.38
N5810 G1 X104.591 Y-5.561 Z-26.493
N5815 X104.674 Y-5.523 Z-26.471
N5820 X104.753 Y-5.487 Z-26.435
N5825 X104.827 Y-5.454 Z-26.385
N5830 X104.892 Y-5.425 Z-26.324
N5835 X104.948 Y-5.4 Z-26.253
N5840 X104.992 Y-5.379 Z-26.172
N5845 X105.025 Y-5.365 Z-26.085
N5850 X105.045 Y-5.356 Z-25.994
N5855 X105.052 Y-5.353 Z-25.9
N5860 G0 Z5.
N5865 X96.915 Y0.204
N5870 Z-25.3
N5875 G1 Z-25.9 F2880.
N5880 X96.919 Y0.198 Z-25.994
N5885 X96.933 Y0.181 Z-26.085
N5890 X96.955 Y0.153 Z-26.172
N5895 X96.985 Y0.114 Z-26.253
N5900 X97.022 Y0.065 Z-26.324
N5905 X97.066 Y0.009 Z-26.385
N5910 X97.115 Y-0.055 Z-26.435
N5915 X97.169 Y-0.123 Z-26.471
N5920 X97.225 Y-0.196 Z-26.493
N5925 X97.282 Y-0.27 Z-26.5
N5930 G3 X97.902 Y-0.752 I1.251 J0.969
N5935 G1 X98.11 Y-0.834
N5940 X98.318 Y-0.932
N5945 X98.545 Y-1.051
N5950 X99.773 Y-1.708
N5955 X100.081 Y-1.883
N5960 X100.189 Y-1.945
N5965 X100.397 Y-2.074
N5970 X100.688 Y-2.299
N5975 X100.813 Y-2.398
N5980 X101.96 Y-3.34
N5985 X102.06 Y-3.424
N5990 X102.268 Y-3.609
N5995 X102.414 Y-3.756
N6000 X102.595 Y-3.964
N6005 X102.684 Y-4.068
N6010 X103.623 Y-5.212
N6015 X103.723 Y-5.339
N6020 X103.943 Y-5.628
N6025 X104.071 Y-5.836
N6030 X104.306 Y-6.252
N6035 X104.973 Y-7.501
N6040 X105.083 Y-7.709
N6045 X105.178 Y-7.918
N6050 X105.258 Y-8.125
N6055 X105.328 Y-8.333
N6060 X105.707 Y-9.581
N6065 X105.802 Y-9.905
N6070 X105.889 Y-10.205
N6075 X105.936 Y-10.413
N6080 X105.971 Y-10.653
N6085 X106.01 Y-10.926 Z-26.441
N6090 X106.022 Y-11.037 Z-26.418
N6095 X106.06 Y-11.416 Z-26.337
N6100 X106.077 Y-11.589 Z-26.3
N6105 X106.145 Y-12.286
N6110 X106.162 Y-12.494
N6115 X106.194 Y-12.91
N6120 X106.2 Y-13.118
N6125 Y-32.357
N6130 Y-32.531 Z-26.337
N6135 Y-32.882 Z-26.412
N6140 X106.194 Y-33.09 Z-26.456
N6145 X106.178 Y-33.298 Z-26.5
N6150 X106.145 Y-33.714
N6155 X106.022 Y-34.963
N6160 X106.01 Y-35.074
N6165 X105.936 Y-35.587
N6170 X105.889 Y-35.795
N6175 X105.768 Y-36.211
N6180 X105.707 Y-36.419
N6185 X105.328 Y-37.667
N6190 X105.258 Y-37.875
N6195 X105.129 Y-38.268
N6200 X105.004 Y-38.735
N6205 X104.817 Y-39.631
N6210 X104.572 Y-40.513
N6215 X104.148 Y-41.324
N6220 X103.566 Y-42.031
N6225 X102.865 Y-42.619
N6230 X102.082 Y-43.093
N6235 X101.244 Y-43.464
N6240 X101.146 Y-43.496
N6245 X100.931 Y-43.579
N6250 X100.727 Y-43.687
N6255 X100.538 Y-43.817
N6260 G3 X100.377 Y-44.53 I0.384 J-0.461
N6265 G1 X100.416 Y-44.615 Z-26.493
N6270 X100.455 Y-44.698 Z-26.471
N6275 X100.491 Y-44.777 Z-26.435
N6280 X100.525 Y-44.85 Z-26.385
N6285 X100.555 Y-44.915 Z-26.324
N6290 X100.58 Y-44.971 Z-26.253
N6295 X100.601 Y-45.015 Z-26.172
N6300 X100.616 Y-45.048 Z-26.085
N6305 X100.625 Y-45.068 Z-25.994
N6310 X100.628 Y-45.075 Z-25.9
N6315 G0 Z5.
N6320 X106.207 Y-36.881
N6325 Z-25.3
N6330 G1 Z-25.9 F2880.
N6335 X106.201 Y-36.885 Z-25.994
N6340 X106.184 Y-36.899 Z-26.085
N6345 X106.156 Y-36.921 Z-26.172
N6350 X106.117 Y-36.952 Z-26.253
N6355 X106.069 Y-36.989 Z-26.324
N6360 X106.013 Y-37.034 Z-26.385
N6365 X105.949 Y-37.083 Z-26.435
N6370 X105.881 Y-37.137 Z-26.471
N6375 X105.809 Y-37.194 Z-26.493
N6380 X105.735 Y-37.252 Z-26.5
N6385 G3 X105.258 Y-37.875 I0.979 J-1.244
N6390 G1 X105.178 Y-38.083
N6395 X105.083 Y-38.291
N6400 X104.97 Y-38.505
N6405 X104.306 Y-39.748
N6410 X104.071 Y-40.164
N6415 X103.943 Y-40.372
N6420 X103.723 Y-40.661
N6425 X103.623 Y-40.788
N6430 X102.684 Y-41.932
N6435 X102.595 Y-42.036
N6440 X102.414 Y-42.244
N6445 X102.268 Y-42.391
N6450 X102.06 Y-42.576
N6455 X101.96 Y-42.66
N6460 X100.813 Y-43.602
N6465 X100.688 Y-43.701
N6470 X100.397 Y-43.926
N6475 X100.189 Y-44.055
N6480 X99.981 Y-44.174
N6485 X99.773 Y-44.292
N6490 X98.526 Y-44.959
N6495 X98.318 Y-45.068
N6500 X98.11 Y-45.166
N6505 X97.902 Y-45.248
N6510 X97.694 Y-45.32
N6515 X96.447 Y-45.698
N6520 X95.824 Y-45.882
N6525 X95.616 Y-45.929
N6530 X95.322 Y-45.974
N6535 G3 X94.835 Y-46.518 I0.111 J-0.59
N6540 G1 X94.828 Y-46.612 Z-26.493
N6545 X94.821 Y-46.703 Z-26.471
N6550 X94.815 Y-46.79 Z-26.435
N6555 X94.809 Y-46.87 Z-26.385
N6560 X94.803 Y-46.941 Z-26.324
N6565 X94.799 Y-47.002 Z-26.253
N6570 X94.795 Y-47.051 Z-26.172
N6575 X94.792 Y-47.087 Z-26.085
N6580 X94.791 Y-47.109 Z-25.994
N6585 X94.79 Y-47.117 Z-25.9
N6590 G0 Z15.
(2D CONTOUR1)
N6595 G64 P0.01 Q0.01
N6600 G0 X12.4 Y1.8
N6605 Z15.
N6610 Z5.
N6615 G1 Z1. F480.
N6620 Z-25.9
N6625 G19 G2 Y1.2 Z-26.5 J-0.6 K0. F1440.
N6630 G1 Y0.6
N6635 G17 G3 X13. Y0. I0.6 J0.
N6640 G1 X93.
N6645 G2 X106. Y-13. I0. J-13.
N6650 G1 Y-33.
N6655 G2 X93. Y-46. I-13. J0.
N6660 G1 X13.
N6665 G2 X0. Y-33. I0. J13.
N6670 G1 Y-13.
N6675 G2 X13. Y0. I13. J0.
N6680 G3 X13.6 Y0.6 I0. J0.6
N6685 G1 Y1.2
N6690 G19 G3 Y1.8 Z-25.9 J0. K0.6
N6695 G0 Z15.
N6700 G17
(2D ADAPTIVE3)
N6705 S20000 M3
N6710 G64 P0.1 Q0.1
N6715 G0 X26.248 Y-22.605
N6720 Z15.
N6725 Z5.
N6730 Z2.5
N6735 G3 X21.671 Y-20.324 Z2.078 I-3.054 J-0.395 F800.
N6740 X21.295 Y-25.411 Z1.656 I1.519 J-2.67
N6745 X26.134 Y-23.835 Z1.234 I1.89 J2.412
N6750 X22.85 Y-19.964 Z0.813 I-2.941 J0.834
N6755 X20.518 Y-24.459 Z0.391 I0.342 J-3.03
N6760 X25.549 Y-24.913 Z-0.031 I2.668 J1.462
N6765 X24.066 Y-20.096 Z-0.453 I-2.358 J1.91
N6770 X20.18 Y-23.287 Z-0.875 I-0.872 J-2.899
N6775 X24.594 Y-25.668 Z-1.297 I3.006 J0.291
N6780 X25.123 Y-20.692 Z-1.719 I-1.405 J2.665
N6785 X20.331 Y-22.085 Z-2.141 I-1.929 J-2.304
N6790 X23.428 Y-25.983 Z-2.563 I2.857 J-0.91
N6795 X25.855 Y-21.65 Z-2.984 I-0.24 J2.981
N6800 X20.938 Y-21.047 Z-3.406 I-2.661 J-1.348
N6805 X22.24 Y-25.814 Z-3.828 I2.251 J-1.947
N6810 X26.149 Y-22.81 Z-4.25 I0.946 J2.814
N6815 X21.898 Y-20.338 Z-4.672 I-2.955 J-0.19
N6820 X21.223 Y-25.196 Z-5.094 I1.293 J-2.656
N6825 X25.963 Y-23.983 Z-5.516 I1.963 J2.197
N6830 X23.051 Y-20.066 Z-5.938 I-2.77 J0.981
N6835 X20.536 Y-24.235 Z-6.359 I0.141 J-2.928
N6840 X25.335 Y-24.98 Z-6.781 I2.65 J1.237
N6845 X24.209 Y-20.269 Z-7.203 I-2.144 J1.978
N6850 X20.286 Y-23.089 Z-7.625 I-1.016 J-2.727
N6855 X24.372 Y-25.645 Z-8.047 I2.901 J0.093
N6860 X25.186 Y-20.907 Z-8.469 I-1.183 J2.642
N6865 X20.505 Y-21.946 Z-8.891 I-1.992 J-2.09
N6870 X23.234 Y-25.874 Z-9.313 I2.683 J-1.049
N6875 X25.828 Y-21.87 Z-9.734 I-0.046 J2.872
N6880 X21.152 Y-20.989 Z-10.156 I-2.634 J-1.128
N6885 X22.106 Y-25.639 Z-10.578 I2.037 J-2.005
N6890 X26.037 Y-23.001 Z-11. I1.08 J2.638
N6895 X20.336 I-2.851 J0.
N6900 X26.037 I2.851 J0.
N6905 G1 X26.051 Y-22.043 F2400.
N6910 X26.085 Y-21.928
N6915 X26.11 Y-21.78
N6920 X26.117 Y-21.63
N6925 X26.108 Y-21.481
N6930 X26.085 Y-21.332
N6935 X26.051 Y-21.186
N6940 X26.005 Y-21.043
N6945 X25.95 Y-20.904
N6950 X25.885 Y-20.769
N6955 X25.811 Y-20.638
N6960 X25.73 Y-20.511
N6965 X25.637 Y-20.385
N6970 X25.535 Y-20.26
N6975 X25.421 Y-20.138
N6980 X25.297 Y-20.02
N6985 X25.163 Y-19.906
N6990 X25.02 Y-19.798
N6995 X24.866 Y-19.696
N7000 X24.704 Y-19.602
N7005 X24.534 Y-19.515
N7010 X24.355 Y-19.438
N7015 X24.17 Y-19.37
N7020 X23.978 Y-19.312
N7025 X23.78 Y-19.265
N7030 X23.578 Y-19.229
N7035 X23.372 Y-19.206
N7040 X23.163 Y-19.194
N7045 X22.952
N7050 X22.739 Y-19.207
N7055 X22.526 Y-19.233
N7060 X22.314 Y-19.271
N7065 X22.103 Y-19.322
N7070 X21.894 Y-19.386
N7075 X21.689 Y-19.462
N7080 X21.487 Y-19.551
N7085 X21.291 Y-19.652
N7090 X21.1 Y-19.764
N7095 X20.915 Y-19.888
N7100 X20.738 Y-20.023
N7105 X20.568 Y-20.168
N7110 X20.407 Y-20.324
N7115 X20.255 Y-20.489
N7120 X20.113 Y-20.663
N7125 X19.981 Y-20.845
N7130 X19.86 Y-21.035
N7135 X19.75 Y-21.232
N7140 X19.652 Y-21.436
N7145 X19.566 Y-21.645
N7150 X19.492 Y-21.859
N7155 X19.431 Y-22.077
N7160 X19.383 Y-22.298
N7165 X19.348 Y-22.522
N7170 X19.326 Y-22.748
N7175 X19.317 Y-22.975
N7180 X19.322 Y-23.202
N7185 X19.34 Y-23.428
N7190 X19.372 Y-23.654
N7195 X19.416 Y-23.877
N7200 X19.474 Y-24.097
N7205 X19.545 Y-24.313
N7210 X19.628 Y-24.525
N7215 X19.723 Y-24.731
N7220 X19.831 Y-24.932
N7225 X19.95 Y-25.126
N7230 X20.081 Y-25.312
N7235 X20.222 Y-25.491
N7240 X20.373 Y-25.661
N7245 X20.535 Y-25.822
N7250 X20.705 Y-25.973
N7255 X20.884 Y-26.114
N7260 X21.071 Y-26.244
N7265 X21.266 Y-26.363
N7270 X21.467 Y-26.47
N7275 X21.674 Y-26.565
N7280 X21.886 Y-26.648
N7285 X22.103 Y-26.718
N7290 X22.324 Y-26.776
N7295 X22.547 Y-26.82
N7300 X22.773 Y-26.851
N7305 X23. Y-26.868
N7310 X23.228 Y-26.873
N7315 X23.456 Y-26.864
N7320 X23.683 Y-26.841
N7325 X23.908 Y-26.805
N7330 X24.13 Y-26.756
N7335 X24.35 Y-26.694
N7340 X24.565 Y-26.619
N7345 X24.776 Y-26.532
N7350 X24.981 Y-26.432
N7355 X25.18 Y-26.321
N7360 X25.371 Y-26.198
N7365 X25.556 Y-26.064
N7370 X25.732 Y-25.919
N7375 X25.899 Y-25.764
N7380 X26.057 Y-25.6
N7385 X26.205 Y-25.426
N7390 X26.343 Y-25.244
N7395 X26.469 Y-25.055
N7400 X26.584 Y-24.858
N7405 X26.695 Y-24.64
N7410 X26.828 Y-24.336
N7415 X27.006 Y-23.853
N7420 X27.117 Y-23.486
N7425 X27.194 Y-23.167
N7430 X27.246 Y-22.876
N7435 X27.278 Y-22.603
N7440 X27.293 Y-22.343
N7445 Y-22.093
N7450 X27.279 Y-21.85
N7455 X27.251 Y-21.614
N7460 X27.209 Y-21.382
N7465 X27.155 Y-21.155
N7470 X27.087 Y-20.932
N7475 X27.007 Y-20.714
N7480 X26.913 Y-20.5
N7485 X26.807 Y-20.292
N7490 X26.688 Y-20.089
N7495 X26.556 Y-19.892
N7500 X26.412 Y-19.702
N7505 X26.256 Y-19.519
N7510 X26.088 Y-19.344
N7515 X25.909 Y-19.178
N7520 X25.718 Y-19.021
N7525 X25.516 Y-18.875
N7530 X25.305 Y-18.739
N7535 X25.084 Y-18.615
N7540 X24.854 Y-18.504
N7545 X24.615 Y-18.405
N7550 X24.369 Y-18.319
N7555 X24.116 Y-18.248
N7560 X23.857 Y-18.191
N7565 X23.593 Y-18.149
N7570 X23.326 Y-18.123
N7575 X23.055 Y-18.112
N7580 X22.782 Y-18.117
N7585 X22.508 Y-18.138
N7590 X22.235 Y-18.176
N7595 X21.962 Y-18.23
N7600 X21.692 Y-18.3
N7605 X21.426 Y-18.387
N7610 X21.164 Y-18.489
N7615 X20.907 Y-18.607
N7620 X20.657 Y-18.741
N7625 X20.414 Y-18.889
N7630 X20.18 Y-19.052
N7635 X19.955 Y-19.229
N7640 X19.74 Y-19.42
N7645 X19.537 Y-19.623
N7650 X19.345 Y-19.838
N7655 X19.166 Y-20.065
N7660 X19.001 Y-20.302
N7665 X18.849 Y-20.549
N7670 X18.712 Y-20.805
N7675 X18.59 Y-21.068
N7680 X18.484 Y-21.339
N7685 X18.394 Y-21.616
N7690 X18.32 Y-21.898
N7695 X18.263 Y-22.184
N7700 X18.222 Y-22.473
N7705 X18.199 Y-22.765
N7710 X18.193 Y-23.057
N7715 X18.204 Y-23.35
N7720 X18.232 Y-23.641
N7725 X18.278 Y-23.931
N7730 X18.34 Y-24.217
N7735 X18.42 Y-24.499
N7740 X18.515 Y-24.777
N7745 X18.627 Y-25.048
N7750 X18.755 Y-25.312
N7755 X18.898 Y-25.569
N7760 X19.056 Y-25.816
N7765 X19.229 Y-26.054
N7770 X19.415 Y-26.282
N7775 X19.614 Y-26.498
N7780 X19.825 Y-26.702
N7785 X20.049 Y-26.893
N7790 X20.283 Y-27.071
N7795 X20.527 Y-27.235
N7800 X20.781 Y-27.384
N7805 X21.043 Y-27.518
N7810 X21.312 Y-27.636
N7815 X21.588 Y-27.739
N7820 X21.869 Y-27.825
N7825 X22.155 Y-27.894
N7830 X22.445 Y-27.946
N7835 X22.737 Y-27.981
N7840 X23.031 Y-27.999
N7845 X23.325
N7850 X23.619 Y-27.983
N7855 X23.911 Y-27.949
N7860 X24.201 Y-27.897
N7865 X24.488 Y-27.829
N7870 X24.769 Y-27.744
N7875 X25.046 Y-27.643
N7880 X25.316 Y-27.526
N7885 X25.578 Y-27.393
N7890 X25.833 Y-27.244
N7895 X26.078 Y-27.081
N7900 X26.313 Y-26.904
N7905 X26.538 Y-26.712
N7910 X26.757 Y-26.503
N7915 X26.969 Y-26.274
N7920 X27.194 Y-26.002
N7925 X27.41 Y-25.705
N7930 X27.611 Y-25.393
N7935 X27.794 Y-25.068
N7940 X27.956 Y-24.736
N7945 X28.096 Y-24.4
N7950 X28.214 Y-24.064
N7955 X28.31 Y-23.727
N7960 X28.384 Y-23.392
N7965 X28.438 Y-23.059
N7970 X28.471 Y-22.728
N7975 X28.485 Y-22.401
N7980 X28.479 Y-22.077
N7985 X28.455 Y-21.758
N7990 X28.412 Y-21.443
N7995 X28.351 Y-21.134
N8000 X28.273 Y-20.83
N8005 X28.177 Y-20.532
N8010 X28.064 Y-20.241
N8015 X27.935 Y-19.958
N8020 X27.788 Y-19.682
N8025 X27.626 Y-19.416
N8030 X27.447 Y-19.158
N8035 X27.254 Y-18.911
N8040 X27.045 Y-18.675
N8045 X26.822 Y-18.451
N8050 X26.585 Y-18.239
N8055 X26.335 Y-18.04
N8060 X26.072 Y-17.856
N8065 X25.797 Y-17.686
N8070 X25.51 Y-17.532
N8075 X25.214 Y-17.394
N8080 X24.908 Y-17.274
N8085 X24.594 Y-17.17
N8090 X24.272 Y-17.085
N8095 X23.944 Y-17.019
N8100 X23.61 Y-16.972
N8105 X23.273 Y-16.944
N8110 X22.933 Y-16.936
N8115 X22.591 Y-16.949
N8120 X22.249 Y-16.981
N8125 X21.909 Y-17.034
N8130 X21.57 Y-17.107
N8135 X21.235 Y-17.2
N8140 X20.905 Y-17.314
N8145 X20.581 Y-17.447
N8150 X20.264 Y-17.599
N8155 X19.956 Y-17.77
N8160 X19.657 Y-17.96
N8165 X19.37 Y-18.167
N8170 X19.094 Y-18.392
N8175 X18.832 Y-18.633
N8180 X18.583 Y-18.889
N8185 X18.35 Y-19.16
N8190 X18.133 Y-19.445
N8195 X17.932 Y-19.743
N8200 X17.749 Y-20.052
N8205 X17.585 Y-20.373
N8210 X17.439 Y-20.702
N8215 X17.313 Y-21.041
N8220 X17.207 Y-21.386
N8225 X17.121 Y-21.738
N8230 X17.056 Y-22.094
N8235 X17.012 Y-22.454
N8240 X16.989 Y-22.816
N8245 X16.988 Y-23.179
N8250 X17.008 Y-23.541
N8255 X17.049 Y-23.902
N8260 X17.111 Y-24.261
N8265 X17.195 Y-24.615
N8270 X17.299 Y-24.964
N8275 X17.424 Y-25.306
N8280 X17.568 Y-25.64
N8285 X17.733 Y-25.966
N8290 X17.916 Y-26.281
N8295 X18.117 Y-26.585
N8300 X18.336 Y-26.877
N8305 X18.572 Y-27.155
N8310 X18.824 Y-27.42
N8315 X19.091 Y-27.669
N8320 X19.372 Y-27.901
N8325 X19.666 Y-28.117
N8330 X19.973 Y-28.316
N8335 X20.291 Y-28.495
N8340 X20.619 Y-28.656
N8345 X20.956 Y-28.798
N8350 X21.301 Y-28.919
N8355 X21.652 Y-29.02
N8360 X22.009 Y-29.1
N8365 X22.37 Y-29.158
N8370 X22.733 Y-29.196
N8375 X23.098 Y-29.212
N8380 X23.464 Y-29.206
N8385 X23.828 Y-29.179
N8390 X24.191 Y-29.131
N8395 X24.55 Y-29.061
N8400 X24.904 Y-28.971
N8405 X25.252 Y-28.859
N8410 X25.594 Y-28.728
N8415 X25.928 Y-28.575
N8420 X26.254 Y-28.403
N8425 X26.574 Y-28.209
N8430 X26.888 Y-27.992
N8435 X27.195 Y-27.753
N8440 X27.494 Y-27.489
N8445 X27.784 Y-27.203
N8450 X28.06 Y-26.895
N8455 X28.32 Y-26.568
N8460 X28.562 Y-26.225
N8465 X28.784 Y-25.867
N8470 X28.984 Y-25.498
N8475 X29.161 Y-25.118
N8480 X29.315 Y-24.731
N8485 X29.445 Y-24.338
N8490 X29.55 Y-23.941
N8495 X29.632 Y-23.542
N8500 X29.69 Y-23.141
N8505 X29.723 Y-22.74
N8510 X29.733 Y-22.341
N8515 X29.72 Y-21.945
N8520 X29.683 Y-21.552
N8525 X29.624 Y-21.163
N8530 X29.542 Y-20.78
N8535 X29.438 Y-20.404
N8540 X29.312 Y-20.035
N8545 X29.165 Y-19.675
N8550 X28.998 Y-19.325
N8555 X28.81 Y-18.984
N8560 X28.602 Y-18.655
N8565 X28.374 Y-18.339
N8570 X28.128 Y-18.036
N8575 X27.864 Y-17.747
N8580 X27.583 Y-17.473
N8585 X27.285 Y-17.216
N8590 X26.971 Y-16.976
N8595 X26.642 Y-16.753
N8600 X26.3 Y-16.55
N8605 X25.945 Y-16.366
N8610 X25.577 Y-16.203
N8615 X25.2 Y-16.061
N8620 X24.812 Y-15.941
N8625 X24.417 Y-15.844
N8630 X24.015 Y-15.77
N8635 X23.608 Y-15.719
N8640 X23.196 Y-15.692
N8645 X22.783 Y-15.69
N8650 X22.368 Y-15.712
N8655 X21.953 Y-15.758
N8660 X21.541 Y-15.83
N8665 X21.132 Y-15.925
N8670 X20.728 Y-16.045
N8675 X20.331 Y-16.189
N8680 X19.941 Y-16.356
N8685 X19.561 Y-16.547
N8690 X19.193 Y-16.76
N8695 X18.836 Y-16.995
N8700 X18.493 Y-17.251
N8705 X18.165 Y-17.528
N8710 X17.853 Y-17.824
N8715 X17.559 Y-18.139
N8720 X17.283 Y-18.471
N8725 X17.026 Y-18.819
N8730 X16.791 Y-19.182
N8735 X16.576 Y-19.559
N8740 X16.384 Y-19.948
N8745 X16.216 Y-20.349
N8750 X16.07 Y-20.759
N8755 X15.949 Y-21.177
N8760 X15.853 Y-21.603
N8765 X15.782 Y-22.033
N8770 X15.736 Y-22.468
N8775 X15.716 Y-22.904
N8780 X15.722 Y-23.342
N8785 X15.753 Y-23.778
N8790 X15.81 Y-24.213
N8795 X15.893 Y-24.643
N8800 X16.001 Y-25.068
N8805 X16.134 Y-25.486
N8810 X16.291 Y-25.896
N8815 X16.472 Y-26.296
N8820 X16.676 Y-26.685
N8825 X16.903 Y-27.061
N8830 X17.152 Y-27.423
N8835 X17.422 Y-27.77
N8840 X17.712 Y-28.101
N8845 X18.02 Y-28.414
N8850 X18.347 Y-28.708
N8855 X18.691 Y-28.983
N8860 X19.05 Y-29.237
N8865 X19.424 Y-29.47
N8870 X19.81 Y-29.68
N8875 X20.209 Y-29.867
N8880 X20.618 Y-30.031
N8885 X21.035 Y-30.17
N8890 X21.461 Y-30.284
N8895 X21.892 Y-30.373
N8900 X22.328 Y-30.436
N8905 X22.767 Y-30.474
N8910 X23.207 Y-30.486
N8915 X23.647 Y-30.472
N8920 X24.086 Y-30.432
N8925 X24.522 Y-30.366
N8930 X24.954 Y-30.275
N8935 X25.381 Y-30.158
N8940 X25.803 Y-30.015
N8945 X26.218 Y-29.847
N8950 X26.628 Y-29.652
N8955 X27.029 Y-29.431
N8960 X27.422 Y-29.184
N8965 X27.803 Y-28.911
N8970 X28.171 Y-28.614
N8975 X28.524 Y-28.293
N8980 X28.859 Y-27.949
N8985 X29.176 Y-27.584
N8990 X29.472 Y-27.199
N8995 X29.746 Y-26.796
N9000 X29.996 Y-26.377
N9005 X30.22 Y-25.945
N9010 X30.419 Y-25.5
N9015 X30.591 Y-25.046
N9020 X30.735 Y-24.584
N9025 X30.851 Y-24.116
N9030 X30.939 Y-23.644
N9035 X30.999 Y-23.17
N9040 X31.031 Y-22.694
N9045 X31.035 Y-22.22
N9050 X31.011 Y-21.747
N9055 X30.959 Y-21.279
N9060 X30.88 Y-20.815
N9065 X30.774 Y-20.358
N9070 X30.642 Y-19.908
N9075 X30.484 Y-19.468
N9080 X30.3 Y-19.038
N9085 X30.091 Y-18.62
N9090 X29.857 Y-18.214
N9095 X29.601 Y-17.823
N9100 X29.321 Y-17.447
N9105 X29.019 Y-17.087
N9110 X28.696 Y-16.745
N9115 X28.352 Y-16.422
N9120 X27.99 Y-16.12
N9125 X27.609 Y-15.838
N9130 X27.211 Y-15.578
N9135 X26.797 Y-15.342
N9140 X26.368 Y-15.13
N9145 X25.927 Y-14.943
N9150 X25.474 Y-14.781
N9155 X25.01 Y-14.646
N9160 X24.538 Y-14.538
N9165 X24.059 Y-14.458
N9170 X23.574 Y-14.406
N9175 X23.085 Y-14.383
N9180 X22.594 Y-14.388
N9185 X22.103 Y-14.422
N9190 X21.613 Y-14.486
N9195 X21.126 Y-14.578
N9200 X20.645 Y-14.699
N9205 X20.169 Y-14.849
N9210 X19.703 Y-15.027
N9215 X19.246 Y-15.233
N9220 X18.801 Y-15.465
N9225 X18.37 Y-15.724
N9230 X17.953 Y-16.009
N9235 X17.554 Y-16.318
N9240 X17.172 Y-16.651
N9245 X16.81 Y-17.007
N9250 X16.469 Y-17.383
N9255 X16.151 Y-17.78
N9260 X15.856 Y-18.196
N9265 X15.585 Y-18.628
N9270 X15.34 Y-19.077
N9275 X15.122 Y-19.539
N9280 X14.931 Y-20.014
N9285 X14.768 Y-20.5
N9290 X14.634 Y-20.996
N9295 X14.529 Y-21.499
N9300 X14.453 Y-22.007
N9305 X14.408 Y-22.519
N9310 X14.393 Y-23.034
N9315 X14.409 Y-23.549
N9320 X14.455 Y-24.062
N9325 X14.53 Y-24.572
N9330 X14.636 Y-25.077
N9335 X14.772 Y-25.575
N9340 X14.936 Y-26.065
N9345 X15.129 Y-26.544
N9350 X15.35 Y-27.011
N9355 X15.599 Y-27.465
N9360 X15.873 Y-27.903
N9365 X16.173 Y-28.324
N9370 X16.498 Y-28.727
N9375 X16.845 Y-29.111
N9380 X17.215 Y-29.473
N9385 X17.605 Y-29.813
N9390 X18.015 Y-30.13
N9395 X18.443 Y-30.422
N9400 X18.887 Y-30.688
N9405 X19.346 Y-30.928
N9410 X19.819 Y-31.14
N9415 X20.303 Y-31.324
N9420 X20.798 Y-31.479
N9425 X21.3 Y-31.605
N9430 X21.81 Y-31.702
N9435 X22.324 Y-31.768
N9440 X22.841 Y-31.803
N9445 X23.36 Y-31.809
N9450 X23.878 Y-31.783
N9455 X24.395 Y-31.727
N9460 X24.909 Y-31.641
N9465 X25.42 Y-31.524
N9470 X25.925 Y-31.376
N9475 X26.424 Y-31.198
N9480 X26.914 Y-30.989
N9485 X27.396 Y-30.75
N9490 X27.865 Y-30.481
N9495 X28.322 Y-30.183
N9500 X28.763 Y-29.856
N9505 X29.186 Y-29.502
N9510 X29.59 Y-29.122
N9515 X29.973 Y-28.716
N9520 X30.332 Y-28.287
N9525 X30.667 Y-27.837
N9530 X30.975 Y-27.367
N9535 X31.254 Y-26.88
N9540 X31.505 Y-26.377
N9545 X31.725 Y-25.86
N9550 X31.915 Y-25.333
N9555 X32.072 Y-24.796
N9560 X32.198 Y-24.252
N9565 X32.291 Y-23.703
N9570 X32.351 Y-23.151
N9575 X32.379 Y-22.597
N9580 X32.374 Y-22.044
N9585 X32.336 Y-21.494
N9590 X32.267 Y-20.947
N9595 X32.165 Y-20.407
N9600 X32.032 Y-19.874
N9605 X31.868 Y-19.35
N9610 X31.674 Y-18.837
N9615 X31.45 Y-18.337
N9620 X31.197 Y-17.851
N9625 X30.916 Y-17.38
N9630 X30.607 Y-16.927
N9635 X30.272 Y-16.491
N9640 X29.911 Y-16.076
N9645 X29.526 Y-15.682
N9650 X29.117 Y-15.311
N9655 X28.687 Y-14.964
N9660 X28.236 Y-14.642
N9665 X27.765 Y-14.347
N9670 X27.277 Y-14.079
N9675 X26.773 Y-13.839
N9680 X26.254 Y-13.629
N9685 X25.722 Y-13.45
N9690 X25.179 Y-13.302
N9695 X24.627 Y-13.185
N9700 X24.067 Y-13.101
N9705 X23.502 Y-13.05
N9710 X22.933 Y-13.033
N9715 X22.362 Y-13.049
N9720 X21.792 Y-13.098
N9725 X21.225 Y-13.181
N9730 X20.662 Y-13.298
N9735 X20.105 Y-13.448
N9740 X19.557 Y-13.631
N9745 X19.019 Y-13.847
N9750 X18.494 Y-14.094
N9755 X17.983 Y-14.372
N9760 X17.488 Y-14.681
N9765 X17.012 Y-15.019
N9770 X16.555 Y-15.384
N9775 X16.12 Y-15.777
N9780 X15.709 Y-16.195
N9785 X15.322 Y-16.638
N9790 X14.961 Y-17.103
N9795 X14.628 Y-17.589
N9800 X14.323 Y-18.094
N9805 X14.049 Y-18.618
N9810 X13.805 Y-19.157
N9815 X13.594 Y-19.71
N9820 X13.415 Y-20.275
N9825 X13.27 Y-20.85
N9830 X13.158 Y-21.433
N9835 X13.081 Y-22.022
N9840 X13.039 Y-22.614
N9845 X13.032 Y-23.209
N9850 X13.06 Y-23.804
N9855 X13.123 Y-24.396
N9860 X13.22 Y-24.984
N9865 X13.352 Y-25.565
N9870 X13.519 Y-26.138
N9875 X13.718 Y-26.7
N9880 X13.951 Y-27.249
N9885 X14.215 Y-27.785
N9890 X14.511 Y-28.303
N9895 X14.836 Y-28.804
N9900 X15.191 Y-29.285
N9905 X15.573 Y-29.744
N9910 X15.982 Y-30.18
N9915 X16.416 Y-30.592
N9920 X16.874 Y-30.977
N9925 X17.353 Y-31.334
N9930 X17.853 Y-31.663
N9935 X18.371 Y-31.962
N9940 X18.906 Y-32.23
N9945 X19.456 Y-32.466
N9950 X20.019 Y-32.669
N9955 X20.593 Y-32.839
N9960 X21.176 Y-32.974
N9965 X21.766 Y-33.076
N9970 X22.362 Y-33.142
N9975 X22.961 Y-33.173
N9980 X23.561 Y-33.169
N9985 X24.162 Y-33.129
N9990 X24.761 Y-33.054
N9995 X25.357 Y-32.944
N10000 X25.948 Y-32.798
N10005 X26.532 Y-32.616
N10010 X27.107 Y-32.4
N10015 X27.671 Y-32.149
N10020 X28.222 Y-31.863
N10025 X28.758 Y-31.544
N10030 X29.277 Y-31.193
N10035 X29.776 Y-30.809
N10040 X30.254 Y-30.395
N10045 X30.709 Y-29.953
N10050 X31.138 Y-29.482
N10055 X31.54 Y-28.986
N10060 X31.912 Y-28.467
N10065 X32.254 Y-27.925
N10070 X32.564 Y-27.364
N10075 X32.839 Y-26.786
N10080 X33.081 Y-26.193
N10085 X33.286 Y-25.588
N10090 X33.456 Y-24.972
N10095 X33.589 Y-24.348
N10100 X33.685 Y-23.718
N10105 X33.743 Y-23.085
N10110 X33.764 Y-22.45
N10115 X33.748 Y-21.816
N10120 X33.694 Y-21.186
N10125 X33.604 Y-20.56
N10130 X33.477 Y-19.941
N10135 X33.314 Y-19.331
N10140 X33.115 Y-18.733
N10145 X32.882 Y-18.147
N10150 X32.614 Y-17.576
N10155 X32.314 Y-17.021
N10160 X31.981 Y-16.485
N10165 X31.617 Y-15.969
N10170 X31.223 Y-15.476
N10175 X30.8 Y-15.005
N10180 X30.349 Y-14.56
N10185 X29.872 Y-14.141
N10190 X29.371 Y-13.75
N10195 X28.847 Y-13.389
N10200 X28.301 Y-13.059
N10205 X27.735 Y-12.761
N10210 X27.152 Y-12.496
N10215 X26.553 Y-12.266
N10220 X25.94 Y-12.07
N10225 X25.656 Y-11.998
N10230 X25.499 Y-11.965
N10235 X25.339 Y-11.945
N10240 X25.179 Y-11.938
N10245 X21.889
N10250 X21.171 Y-11.974
N10255 X20.687 Y-12.027
N10260 X20.196 Y-12.11
N10265 X19.681 Y-12.229
N10270 X19.146 Y-12.386
N10275 X18.599 Y-12.582
N10280 X18.049 Y-12.817
N10285 X17.5 Y-13.09
N10290 X16.958 Y-13.401
N10295 X16.427 Y-13.749
N10300 X15.913 Y-14.131
N10305 X15.417 Y-14.547
N10310 X14.943 Y-14.994
N10315 X14.493 Y-15.472
N10320 X14.07 Y-15.978
N10325 X13.675 Y-16.511
N10330 X13.311 Y-17.068
N10335 X12.979 Y-17.648
N10340 X12.681 Y-18.248
N10345 X12.419 Y-18.865
N10350 X12.192 Y-19.498
N10355 X12.003 Y-20.145
N10360 X11.987 Y-20.217
N10365 X11.96 Y-20.36
N10370 X11.943 Y-20.504
N10375 X11.938 Y-20.649
N10380 Y-24.194
N10385 X11.971 Y-24.847
N10390 X12.023 Y-25.328
N10395 X12.111 Y-25.844
N10400 X12.235 Y-26.383
N10405 X12.398 Y-26.938
N10410 X12.598 Y-27.495
N10415 X12.834 Y-28.05
N10420 X13.111 Y-28.605
N10425 X13.427 Y-29.156
N10430 X13.782 Y-29.697
N10435 X14.172 Y-30.223
N10440 X14.597 Y-30.73
N10445 X15.054 Y-31.214
N10450 X15.542 Y-31.673
N10455 X16.057 Y-32.104
N10460 X16.599 Y-32.506
N10465 X17.165 Y-32.875
N10470 X17.753 Y-33.212
N10475 X18.36 Y-33.513
N10480 X18.985 Y-33.779
N10485 X19.462 Y-33.949
N10490 X19.674 Y-34.012
N10495 X19.892 Y-34.049
N10500 X20.112 Y-34.062
N10505 X24.934
N10510 X25.55 Y-34.031
N10515 X25.965 Y-33.986
N10520 X26.409 Y-33.911
N10525 X26.894 Y-33.799
N10530 X27.406 Y-33.649
N10535 X27.918 Y-33.465
N10540 X28.447 Y-33.239
N10545 X28.991 Y-32.968
N10550 X29.54 Y-32.653
N10555 X30.085 Y-32.296
N10560 X30.621 Y-31.898
N10565 X31.143 Y-31.461
N10570 X31.644 Y-30.987
N10575 X32.123 Y-30.479
N10580 X32.574 Y-29.939
N10585 X32.996 Y-29.37
N10590 X33.385 Y-28.774
N10595 X33.74 Y-28.154
N10600 X34.059 Y-27.513
N10605 X34.339 Y-26.852
N10610 X34.581 Y-26.176
N10615 X34.782 Y-25.487
N10620 X34.943 Y-24.787
N10625 X35.062 Y-24.079
N10630 X35.139 Y-23.365
N10635 X35.174 Y-22.649
N10640 X35.167 Y-21.932
N10645 X35.118 Y-21.218
N10650 X35.026 Y-20.508
N10655 X34.894 Y-19.806
N10660 X34.72 Y-19.112
N10665 X34.506 Y-18.431
N10670 X34.252 Y-17.763
N10675 X33.959 Y-17.112
N10680 X33.628 Y-16.478
N10685 X33.261 Y-15.865
N10690 X32.858 Y-15.274
N10695 X32.42 Y-14.708
N10700 X31.95 Y-14.168
N10705 X31.447 Y-13.656
N10710 X30.915 Y-13.173
N10715 X30.355 Y-12.723
N10720 X29.769 Y-12.305
N10725 X29.654 Y-12.233
N10730 X29.332 Y-12.071
N10735 X28.986 Y-11.971
N10740 X28.627 Y-11.938
N10745 X25.179
N10750 G3 X24.793 Y-12.097 Z-10.91 I0.021 J-0.6 F1000.
N10755 G1 X24.541 Y-12.329 Z-10.837
N10760 X24.414 Y-12.446 Z-10.8 F2400.
N10765 X12.474 Y-23.457
N10770 X12.347 Y-23.574 Z-10.837
N10775 X12.131 Y-23.774 Z-10.899 F1000.
N10780 G3 X11.938 Y-24.194 Z-11. I0.407 J-0.441
N10785 G1 Y-27.666 F2400.
N10790 X11.949 Y-27.895
N10795 X11.976 Y-28.134
N10800 X12.023 Y-28.415
N10805 X12.091 Y-28.71
N10810 X12.19 Y-29.048
N10815 X12.314 Y-29.392
N10820 X12.482 Y-29.786
N10825 X12.68 Y-30.184
N10830 X12.923 Y-30.608
N10835 X13.22 Y-31.06
N10840 X13.564 Y-31.524
N10845 X13.943 Y-31.976
N10850 X14.373 Y-32.432
N10855 X14.853 Y-32.883
N10860 X15.378 Y-33.323
N10865 X15.943 Y-33.741
N10870 X15.952 Y-33.747
N10875 X16.282 Y-33.92
N10880 X16.639 Y-34.026
N10885 X17.01 Y-34.062
N10890 G3 X17.569 Y-33.614 Z-10.837 I-0.021 J0.6 F1000.
N10895 G1 X17.585 Y-33.529 Z-10.818 F2400.
N10900 X17.589 Y-33.442 Z-10.8
N10905 G3 X17.464 Y-33.096 I-0.6 J-0.02
N10910 G1 X13.013 Y-27.321
N10915 G3 X12.558 Y-27.088 I-0.475 J-0.366
N10920 G1 X12.471 Y-27.091 Z-10.818
N10925 X12.386 Y-27.107 Z-10.837
N10930 G3 X11.938 Y-27.666 Z-11. I0.152 J-0.581 F1000.
N10935 G1 Y-29.837 F2400.
N10940 X11.952 Y-30.109
N10945 X11.973 Y-30.301
N10950 X12.01 Y-30.524
N10955 X12.063 Y-30.752
N10960 X12.142 Y-31.02
N10965 X12.238 Y-31.29
N10970 X12.372 Y-31.603
N10975 X12.529 Y-31.918
N10980 X12.731 Y-32.269
N10985 X12.975 Y-32.642
N10990 X13.254 Y-33.018
N10995 X13.592 Y-33.421
N11000 X13.625 Y-33.456
N11005 X13.859 Y-33.666
N11010 X14.123 Y-33.836
N11015 X14.412 Y-33.96
N11020 X14.717 Y-34.037
N11025 X15.031 Y-34.062
N11030 G3 X15.59 Y-33.614 Z-10.837 I-0.021 J0.6 F1000.
N11035 G1 X15.606 Y-33.529 Z-10.818 F2400.
N11040 X15.609 Y-33.442 Z-10.8
N11045 G3 X15.505 Y-33.123 I-0.6 J-0.02
N11050 G1 X13.032 Y-29.518
N11055 G3 X12.558 Y-29.258 I-0.495 J-0.339
N11060 G1 X12.471 Y-29.261 Z-10.818
N11065 X12.386 Y-29.277 Z-10.837
N11070 G3 X11.938 Y-29.837 Z-11. I0.152 J-0.581 F1000.
N11075 G1 Y-31.79 F2400.
N11080 X11.949 Y-32.017
N11085 X11.968 Y-32.185
N11090 X12. Y-32.376
N11095 X12.048 Y-32.584
N11100 X12.103 Y-32.773
N11105 X12.107 Y-32.782
N11110 X12.248 Y-33.089
N11115 X12.441 Y-33.367
N11120 X12.68 Y-33.606
N11125 X12.956 Y-33.801
N11130 X13.263 Y-33.945
N11135 X13.589 Y-34.033
N11140 X13.926 Y-34.062
N11145 G3 X14.486 Y-33.614 Z-10.837 I-0.021 J0.6 F1000.
N11150 G1 X14.502 Y-33.529 Z-10.818 F2400.
N11155 X14.505 Y-33.442 Z-10.8
N11160 G3 X14.367 Y-33.08 I-0.6 J-0.02
N11165 G1 X13. Y-31.428
N11170 G3 X12.558 Y-31.211 I-0.462 J-0.383
N11175 G1 X12.471 Y-31.215 Z-10.818
N11180 X12.386 Y-31.23 Z-10.837
N11185 G3 X11.938 Y-31.79 Z-11. I0.152 J-0.581 F1000.
N11190 G1 Y-32.007 F2400.
N11195 X11.954 Y-32.224
N11200 X11.997 Y-32.658
N11205 X12.02 Y-32.875
N11210 X12.031 Y-32.929
N11215 X12.047 Y-32.984
N11220 X12.098 Y-33.102
N11225 X12.196 Y-33.309
N11230 X12.249 Y-33.388
N11235 X12.367 Y-33.526
N11240 X12.45 Y-33.62
N11245 X12.492 Y-33.659
N11250 X12.533 Y-33.691
N11255 X12.751 Y-33.835
N11260 X12.86 Y-33.893
N11265 X12.969 Y-33.929
N11270 X13.186 Y-33.998
N11275 X13.295 Y-34.031
N11280 X13.404 Y-34.048
N11285 X13.621 Y-34.062
N11290 X20.112
N11295 G3 X20.672 Y-33.614 Z-10.837 I-0.021 J0.6 F1000.
N11300 G1 X20.683 Y-33.564 Z-10.826 F2400.
N11305 X20.689 Y-33.513 Z-10.815
N11310 X20.695 Y-33.442 Z-10.8
N11315 X22.466 Y-12.588
N11320 X22.467 Y-12.558
N11325 X22.464 Y-12.471 Z-10.818
N11330 X22.448 Y-12.386 Z-10.837
N11335 G3 X21.889 Y-11.938 Z-11. I-0.581 J-0.152 F1000.
N11340 G1 X18.408 F2400.
N11345 X18.175 Y-11.95
N11350 X17.941 Y-11.975
N11355 X17.66 Y-12.023
N11360 X17.373 Y-12.089
N11365 X17.038 Y-12.187
N11370 X16.701 Y-12.308
N11375 X16.318 Y-12.472
N11380 X15.92 Y-12.67
N11385 X15.509 Y-12.906
N11390 X15.069 Y-13.194
N11395 X14.612 Y-13.533
N11400 X14.165 Y-13.908
N11405 X13.722 Y-14.327
N11410 X13.28 Y-14.796
N11415 X12.85 Y-15.31
N11420 X12.439 Y-15.865
N11425 X12.253 Y-16.15
N11430 X12.08 Y-16.48
N11435 X11.974 Y-16.836
N11440 X11.938 Y-17.207
N11445 G3 X12.386 Y-17.767 Z-10.837 I0.6 J0.021 F1000.
N11450 G1 X12.471 Y-17.782 Z-10.818 F2400.
N11455 X12.558 Y-17.786 Z-10.8
N11460 G3 X12.911 Y-17.656 I-0.02 J0.6
N11465 G1 X18.76 Y-13.007
N11470 G3 X18.986 Y-12.558 I-0.373 J0.47
N11475 G1 X18.983 Y-12.471 Z-10.818
N11480 X18.967 Y-12.386 Z-10.837
N11485 G3 X18.408 Y-11.938 Z-11. I-0.581 J-0.152 F1000.
N11490 G1 X16.232 F2400.
N11495 X15.987 Y-11.95
N11500 X15.796 Y-11.971
N11505 X15.578 Y-12.008
N11510 X15.35 Y-12.061
N11515 X15.087 Y-12.138
N11520 X14.819 Y-12.234
N11525 X14.514 Y-12.364
N11530 X14.199 Y-12.521
N11535 X13.858 Y-12.717
N11540 X13.486 Y-12.96
N11545 X13.121 Y-13.232
N11550 X12.724 Y-13.564
N11555 X12.544 Y-13.734
N11560 X12.334 Y-13.968
N11565 X12.164 Y-14.233
N11570 X12.04 Y-14.521
N11575 X11.964 Y-14.827
N11580 X11.938 Y-15.14
N11585 G3 X12.386 Y-15.7 Z-10.837 I0.6 J0.021 F1000.
N11590 G1 X12.471 Y-15.715 Z-10.818 F2400.
N11595 X12.558 Y-15.719 Z-10.8
N11600 G3 X12.883 Y-15.61 I-0.02 J0.6
N11605 G1 X16.556 Y-13.028
N11610 G3 X16.811 Y-12.558 I-0.345 J0.491
N11615 G1 X16.807 Y-12.471 Z-10.818
N11620 X16.792 Y-12.386 Z-10.837
N11625 G3 X16.232 Y-11.938 Z-11. I-0.581 J-0.152 F1000.
N11630 G1 X14.274 F2400.
N11635 X14.095 Y-11.947
N11640 X13.93 Y-11.965
N11645 X13.74 Y-11.997
N11650 X13.535 Y-12.044
N11655 X13.324 Y-12.106
N11660 X13.113 Y-12.183
N11665 X12.783 Y-12.363
N11670 X12.495 Y-12.603
N11675 X12.258 Y-12.895
N11680 X12.083 Y-13.227
N11685 X11.974 Y-13.587
N11690 X11.938 Y-13.961
N11695 G3 X12.386 Y-14.52 Z-10.837 I0.6 J0.021 F1000.
N11700 G1 X12.471 Y-14.536 Z-10.818 F2400.
N11705 X12.558 Y-14.539 Z-10.8
N11710 G3 X12.917 Y-14.404 I-0.02 J0.6
N11715 G1 X14.633 Y-13.002
N11720 G3 X14.853 Y-12.558 I-0.38 J0.465
N11725 G1 X14.849 Y-12.471 Z-10.818
N11730 X14.834 Y-12.386 Z-10.837
N11735 G3 X14.274 Y-11.938 Z-11. I-0.581 J-0.152 F1000.
N11740 G1 X14.056 F2400.
N11745 X13.839 Y-11.948
N11750 X13.186 Y-12.012
N11755 X13.113 Y-12.022
N11760 X13.04 Y-12.04
N11765 X12.969 Y-12.066
N11770 X12.751 Y-12.165
N11775 X12.677 Y-12.204
N11780 X12.604 Y-12.257
N11785 X12.533 Y-12.316
N11790 X12.357 Y-12.474
N11795 X12.316 Y-12.524
N11800 X12.204 Y-12.691
N11805 X12.143 Y-12.787
N11810 X12.118 Y-12.835
N11815 X12.098 Y-12.882
N11820 X12.021 Y-13.125
N11825 X11.96 Y-13.342
N11830 X11.94 Y-13.559
N11835 X11.938 Y-13.776
N11840 Y-20.649
N11845 G3 X12.106 Y-21.045 Z-10.906 I0.6 J0.021 F1000.
N11850 G1 X12.334 Y-21.281 Z-10.837
N11855 X12.455 Y-21.406 Z-10.8 F2400.
N11860 X24.189 Y-33.533
N11865 X24.31 Y-33.658 Z-10.837
N11870 X24.524 Y-33.88 Z-10.902 F1000.
N11875 G3 X24.934 Y-34.062 Z-11. I0.431 J0.417
N11880 G1 X28.198 F2400.
N11885 X28.406 Y-34.052
N11890 X28.638 Y-34.026
N11895 X28.914 Y-33.979
N11900 X29.194 Y-33.915
N11905 X29.527 Y-33.817
N11910 X29.86 Y-33.698
N11915 X30.243 Y-33.534
N11920 X30.641 Y-33.336
N11925 X31.058 Y-33.096
N11930 X31.511 Y-32.8
N11935 X31.977 Y-32.454
N11940 X32.432 Y-32.072
N11945 X32.898 Y-31.633
N11950 X33.364 Y-31.138
N11955 X33.818 Y-30.594
N11960 X34.254 Y-30.006
N11965 X34.664 Y-29.379
N11970 X35.042 Y-28.718
N11975 X35.386 Y-28.026
N11980 X35.691 Y-27.308
N11985 X35.955 Y-26.569
N11990 X36.177 Y-25.811
N11995 X36.354 Y-25.039
N12000 X36.485 Y-24.255
N12005 X36.571 Y-23.464
N12010 X36.61 Y-22.667
N12015 X36.602 Y-21.87
N12020 X36.547 Y-21.073
N12025 X36.445 Y-20.281
N12030 X36.297 Y-19.496
N12035 X36.103 Y-18.722
N12040 X35.863 Y-17.96
N12045 X35.579 Y-17.213
N12050 X35.252 Y-16.484
N12055 X34.882 Y-15.775
N12060 X34.47 Y-15.089
N12065 X34.019 Y-14.428
N12070 X33.53 Y-13.794
N12075 X33.003 Y-13.19
N12080 X32.442 Y-12.617
N12085 X32.245 Y-12.439
N12090 X31.961 Y-12.225
N12095 X31.642 Y-12.068
N12100 X31.3 Y-11.971
N12105 X30.947 Y-11.938
N12110 X28.627
N12115 G3 X28.068 Y-12.386 Z-10.837 I0.021 J-0.6 F1000.
N12120 G1 X28.054 Y-12.455 Z-10.822 F2400.
N12125 X28.048 Y-12.525 Z-10.807
N12130 Y-12.558 Z-10.8
N12135 X27.619 Y-33.442
N12140 Y-33.45 Z-10.802
N12145 X27.623 Y-33.533 Z-10.819
N12150 X27.638 Y-33.614 Z-10.837
N12155 G3 X28.198 Y-34.062 Z-11. I0.581 J0.152 F1000.
N12160 G1 X30.374 F2400.
N12165 X30.582 Y-34.052
N12170 X30.774 Y-34.031
N12175 X30.994 Y-33.993
N12180 X31.222 Y-33.941
N12185 X31.488 Y-33.863
N12190 X31.757 Y-33.766
N12195 X32.07 Y-33.633
N12200 X32.386 Y-33.476
N12205 X32.739 Y-33.272
N12210 X33.112 Y-33.029
N12215 X33.495 Y-32.744
N12220 X33.911 Y-32.395
N12225 X34.335 Y-31.995
N12230 X34.751 Y-31.553
N12235 X35.178 Y-31.043
N12240 X35.602 Y-30.47
N12245 X36.013 Y-29.841
N12250 X36.401 Y-29.163
N12255 X36.757 Y-28.447
N12260 X37.075 Y-27.698
N12265 X37.354 Y-26.918
N12270 X37.591 Y-26.108
N12275 X37.782 Y-25.273
N12280 X37.926 Y-24.42
N12285 X38.019 Y-23.554
N12290 X38.062 Y-22.679
N12295 X38.053 Y-21.801
N12300 X37.992 Y-20.923
N12305 X37.88 Y-20.048
N12310 X37.716 Y-19.181
N12315 X37.501 Y-18.324
N12320 X37.236 Y-17.481
N12325 X36.922 Y-16.655
N12330 X36.56 Y-15.848
N12335 X36.15 Y-15.063
N12340 X35.695 Y-14.304
N12345 X35.195 Y-13.572
N12350 X34.708 Y-12.941
N12355 X34.412 Y-12.601
N12360 X34.175 Y-12.372
N12365 X33.902 Y-12.186
N12370 X33.602 Y-12.05
N12375 X33.283 Y-11.966
N12380 X32.954 Y-11.938
N12385 X30.947
N12390 G3 X30.387 Y-12.386 Z-10.837 I0.021 J-0.6 F1000.
N12395 G1 X30.373 Y-12.453 Z-10.822 F2400.
N12400 X30.368 Y-12.521 Z-10.808
N12405 X30.367 Y-12.558 Z-10.8
N12410 X29.795 Y-33.442
N12415 Y-33.446 Z-10.801
N12420 X29.798 Y-33.531 Z-10.819
N12425 X29.814 Y-33.614 Z-10.837
N12430 G3 X30.374 Y-34.062 Z-11. I0.581 J0.152 F1000.
N12435 G1 X32.332 F2400.
N12440 X32.487 Y-34.054
N12445 X32.656 Y-34.036
N12450 X32.846 Y-34.004
N12455 X33.058 Y-33.955
N12460 X33.282 Y-33.889
N12465 X33.536 Y-33.798
N12470 X33.798 Y-33.686
N12475 X34.091 Y-33.54
N12480 X34.397 Y-33.365
N12485 X34.725 Y-33.149
N12490 X35.083 Y-32.884
N12495 X35.437 Y-32.587
N12500 X35.827 Y-32.219
N12505 X36.226 Y-31.795
N12510 X36.615 Y-31.329
N12515 X37.017 Y-30.787
N12520 X37.417 Y-30.174
N12525 X37.803 Y-29.5
N12530 X38.162 Y-28.778
N12535 X38.483 Y-28.022
N12540 X38.772 Y-27.214
N12545 X39.021 Y-26.361
N12550 X39.225 Y-25.473
N12555 X39.379 Y-24.557
N12560 X39.48 Y-23.623
N12565 X39.526 Y-22.675
N12570 X39.517 Y-21.719
N12575 X39.451 Y-20.764
N12580 X39.329 Y-19.814
N12585 X39.151 Y-18.873
N12590 X38.92 Y-17.944
N12595 X38.634 Y-17.029
N12600 X38.296 Y-16.133
N12605 X37.906 Y-15.259
N12610 X37.466 Y-14.408
N12615 X36.987 Y-13.599
N12620 X36.604 Y-13.033
N12625 X36.332 Y-12.676
N12630 X36.273 Y-12.608
N12635 X36.036 Y-12.377
N12640 X35.762 Y-12.189
N12645 X35.461 Y-12.051
N12650 X35.14 Y-11.966
N12655 X34.809 Y-11.938
N12660 X32.954
N12665 G3 X32.395 Y-12.386 Z-10.837 I0.021 J-0.6 F1000.
N12670 G1 X32.381 Y-12.452 Z-10.823 F2400.
N12675 X32.376 Y-12.52 Z-10.808
N12680 X32.374 Y-12.558 Z-10.8
N12685 X31.753 Y-33.442
N12690 Y-33.445 Z-10.801
N12695 X31.756 Y-33.53 Z-10.819
N12700 X31.772 Y-33.614 Z-10.837
N12705 G3 X32.332 Y-34.062 Z-11. I0.581 J0.152 F1000.
N12710 G1 X34.072 F2400.
N12715 X34.252 Y-34.053
N12720 X34.411 Y-34.036
N12725 X34.591 Y-34.005
N12730 X34.779 Y-33.962
N12735 X34.999 Y-33.897
N12740 X35.22 Y-33.818
N12745 X35.478 Y-33.708
N12750 X35.735 Y-33.58
N12755 X36.03 Y-33.411
N12760 X36.325 Y-33.218
N12765 X36.651 Y-32.975
N12770 X36.992 Y-32.689
N12775 X37.342 Y-32.359
N12780 X37.723 Y-31.955
N12785 X38.097 Y-31.508
N12790 X38.473 Y-30.999
N12795 X38.856 Y-30.413
N12800 X39.234 Y-29.752
N12805 X39.593 Y-29.031
N12810 X39.914 Y-28.275
N12815 X40.209 Y-27.45
N12820 X40.467 Y-26.565
N12825 X40.681 Y-25.632
N12830 X40.84 Y-24.688
N12835 X40.945 Y-23.736
N12840 X40.996 Y-22.78
N12845 X40.995 Y-21.822
N12850 X40.942 Y-20.866
N12855 X40.838 Y-19.914
N12860 X40.682 Y-18.969
N12865 X40.476 Y-18.033
N12870 X40.219 Y-17.111
N12875 X39.913 Y-16.204
N12880 X39.558 Y-15.314
N12885 X39.156 Y-14.445
N12890 X38.742 Y-13.663
N12895 X38.437 Y-13.16
N12900 X38.192 Y-12.807
N12905 X38.094 Y-12.681
N12910 X37.854 Y-12.425
N12915 X37.572 Y-12.217
N12920 X37.257 Y-12.064
N12925 X36.92 Y-11.97
N12930 X36.571 Y-11.938
N12935 X34.809
N12940 G3 X34.25 Y-12.386 Z-10.837 I0.021 J-0.6 F1000.
N12945 G1 X34.236 Y-12.451 Z-10.823 F2400.
N12950 X34.231 Y-12.516 Z-10.809
N12955 X34.229 Y-12.558 Z-10.8
N12960 X33.493 Y-33.441
N12965 Y-33.442
N12970 X33.497 Y-33.529 Z-10.818
N12975 X33.513 Y-33.614 Z-10.837
N12980 G3 X34.072 Y-34.062 Z-11. I0.581 J0.152 F1000.
N12985 G1 X35.813 F2400.
N12990 X35.962 Y-34.055
N12995 X36.126 Y-34.034
N13000 X36.293 Y-34.003
N13005 X36.489 Y-33.955
N13010 X36.688 Y-33.893
N13015 X36.918 Y-33.806
N13020 X37.153 Y-33.702
N13025 X37.42 Y-33.564
N13030 X37.686 Y-33.405
N13035 X37.991 Y-33.199
N13040 X38.289 Y-32.97
N13045 X38.622 Y-32.682
N13050 X38.963 Y-32.35
N13055 X39.312 Y-31.968
N13060 X39.687 Y-31.505
N13065 X40.055 Y-30.992
N13070 X40.412 Y-30.426
N13075 X40.773 Y-29.772
N13080 X41.125 Y-29.035
N13085 X41.455 Y-28.223
N13090 X41.744 Y-27.372
N13095 X41.994 Y-26.465
N13100 X42.193 Y-25.528
N13105 X42.34 Y-24.582
N13110 X42.434 Y-23.629
N13115 X42.479 Y-22.672
N13120 X42.475 Y-21.715
N13125 X42.422 Y-20.758
N13130 X42.321 Y-19.806
N13135 X42.173 Y-18.86
N13140 X41.978 Y-17.922
N13145 X41.736 Y-16.996
N13150 X41.449 Y-16.082
N13155 X41.117 Y-15.184
N13160 X40.744 Y-14.314
N13165 X40.405 Y-13.638
N13170 X40.134 Y-13.168
N13175 X39.922 Y-12.845
N13180 X39.825 Y-12.716
N13185 X39.585 Y-12.449
N13190 X39.299 Y-12.231
N13195 X38.978 Y-12.07
N13200 X38.633 Y-11.971
N13205 X38.276 Y-11.938
N13210 X36.571
N13215 G3 X36.011 Y-12.386 Z-10.837 I0.021 J-0.6 F1000.
N13220 G1 X35.998 Y-12.45 Z-10.823 F2400.
N13225 X35.992 Y-12.516 Z-10.809
N13230 X35.991 Y-12.558 Z-10.8
N13235 X35.234 Y-33.441
N13240 Y-33.442
N13245 X35.237 Y-33.529 Z-10.818
N13250 X35.253 Y-33.614 Z-10.837
N13255 G3 X35.813 Y-34.062 Z-11. I0.581 J0.152 F1000.
N13260 G1 X37.336 F2400.
N13265 X37.56 Y-34.051
N13270 X37.711 Y-34.034
N13275 X37.873 Y-34.007
N13280 X38.052 Y-33.966
N13285 X38.247 Y-33.908
N13290 X38.456 Y-33.833
N13295 X38.684 Y-33.736
N13300 X38.926 Y-33.616
N13305 X39.189 Y-33.464
N13310 X39.467 Y-33.282
N13315 X39.76 Y-33.065
N13320 X40.079 Y-32.798
N13325 X40.39 Y-32.504
N13330 X40.734 Y-32.138
N13335 X41.081 Y-31.724
N13340 X41.43 Y-31.252
N13345 X41.799 Y-30.687
N13350 X42.164 Y-30.049
N13355 X42.499 Y-29.375
N13360 X42.826 Y-28.608
N13365 X43.13 Y-27.757
N13370 X43.398 Y-26.838
N13375 X43.612 Y-25.904
N13380 X43.775 Y-24.961
N13385 X43.888 Y-24.01
N13390 X43.953 Y-23.054
N13395 X43.971 Y-22.097
N13400 X43.944 Y-21.139
N13405 X43.87 Y-20.184
N13410 X43.751 Y-19.234
N13415 X43.587 Y-18.291
N13420 X43.379 Y-17.356
N13425 X43.128 Y-16.431
N13430 X42.835 Y-15.52
N13435 X42.498 Y-14.623
N13440 X42.182 Y-13.906
N13445 X41.927 Y-13.407
N13450 X41.709 Y-13.037
N13455 X41.498 Y-12.724
N13460 X41.481 Y-12.701
N13465 X41.241 Y-12.439
N13470 X40.957 Y-12.225
N13475 X40.638 Y-12.068
N13480 X40.296 Y-11.971
N13485 X39.942 Y-11.938
N13490 X38.276
N13495 G3 X37.716 Y-12.386 Z-10.837 I0.021 J-0.6 F1000.
N13500 G1 X37.703 Y-12.448 Z-10.823 F2400.
N13505 X37.697 Y-12.511 Z-10.81
N13510 X37.695 Y-12.558 Z-10.8
N13515 X36.757 Y-33.436
N13520 Y-33.442
N13525 X36.76 Y-33.529 Z-10.818
N13530 X36.776 Y-33.614 Z-10.837
N13535 G3 X37.336 Y-34.062 Z-11. I0.581 J0.152 F1000.
N13540 G1 X38.978 F2400.
N13545 X39.144 Y-34.054
N13550 X39.293 Y-34.037
N13555 X39.451 Y-34.011
N13560 X39.629 Y-33.97
N13565 X39.815 Y-33.915
N13570 X40.027 Y-33.839
N13575 X40.242 Y-33.747
N13580 X40.487 Y-33.625
N13585 X40.734 Y-33.483
N13590 X41.008 Y-33.303
N13595 X41.291 Y-33.093
N13600 X41.594 Y-32.84
N13605 X41.918 Y-32.534
N13610 X42.239 Y-32.193
N13615 X42.586 Y-31.777
N13620 X42.933 Y-31.308
N13625 X43.275 Y-30.785
N13630 X43.631 Y-30.164
N13635 X43.985 Y-29.451
N13640 X44.303 Y-28.701
N13645 X44.603 Y-27.862
N13650 X44.871 Y-26.942
N13655 X45.086 Y-26.009
N13660 X45.25 Y-25.066
N13665 X45.367 Y-24.115
N13670 X45.437 Y-23.16
N13675 X45.462 Y-22.202
N13680 X45.444 Y-21.245
N13685 X45.382 Y-20.289
N13690 X45.277 Y-19.337
N13695 X45.131 Y-18.391
N13700 X44.944 Y-17.452
N13705 X44.716 Y-16.521
N13710 X44.446 Y-15.603
N13715 X44.137 Y-14.711
N13720 X43.832 Y-13.973
N13725 X43.599 Y-13.491
N13730 X43.379 Y-13.098
N13735 X43.189 Y-12.801
N13740 X43.142 Y-12.736
N13745 X42.901 Y-12.463
N13750 X42.614 Y-12.239
N13755 X42.289 Y-12.074
N13760 X41.94 Y-11.972
N13765 X41.577 Y-11.938
N13770 X39.942
N13775 G3 X39.383 Y-12.386 Z-10.837 I0.021 J-0.6 F1000.
N13780 G1 X39.37 Y-12.447 Z-10.824 F2400.
N13785 X39.364 Y-12.51 Z-10.81
N13790 X39.362 Y-12.558 Z-10.8
N13795 X38.4 Y-33.435
N13800 X38.399 Y-33.442
N13805 X38.403 Y-33.529 Z-10.818
N13810 X38.419 Y-33.614 Z-10.837
N13815 G3 X38.978 Y-34.062 Z-11. I0.581 J0.152 F1000.
N13820 G1 X40.501 F2400.
N13825 X40.712 Y-34.052
N13830 X40.861 Y-34.035
N13835 X41.02 Y-34.008
N13840 X41.194 Y-33.967
N13845 X41.38 Y-33.912
N13850 X41.585 Y-33.838
N13855 X41.801 Y-33.745
N13860 X42.038 Y-33.626
N13865 X42.287 Y-33.482
N13870 X42.553 Y-33.306
N13875 X42.838 Y-33.093
N13880 X43.126 Y-32.85
N13885 X43.448 Y-32.544
N13890 X43.759 Y-32.213
N13895 X44.099 Y-31.803
N13900 X44.45 Y-31.327
N13905 X44.783 Y-30.814
N13910 X45.13 Y-30.203
N13915 X45.479 Y-29.495
N13920 X45.801 Y-28.731
N13925 X46.098 Y-27.893
N13930 X46.364 Y-26.972
N13935 X46.576 Y-26.039
N13940 X46.74 Y-25.095
N13945 X46.856 Y-24.144
N13950 X46.928 Y-23.189
N13955 X46.957 Y-22.232
N13960 X46.943 Y-21.275
N13965 X46.889 Y-20.318
N13970 X46.795 Y-19.365
N13975 X46.661 Y-18.417
N13980 X46.488 Y-17.475
N13985 X46.276 Y-16.541
N13990 X46.024 Y-15.617
N13995 X45.738 Y-14.743
N14000 X45.455 Y-14.025
N14005 X45.234 Y-13.547
N14010 X45.022 Y-13.153
N14015 X44.839 Y-12.855
N14020 X44.774 Y-12.763
N14025 X44.534 Y-12.481
N14030 X44.244 Y-12.25
N14035 X43.915 Y-12.079
N14040 X43.559 Y-11.973
N14045 X43.19 Y-11.938
N14050 X41.577
N14055 G3 X41.017 Y-12.386 Z-10.837 I0.021 J-0.6 F1000.
N14060 G1 X41.005 Y-12.446 Z-10.824 F2400.
N14065 X40.999 Y-12.507 Z-10.811
N14070 X40.996 Y-12.558 Z-10.8
N14075 X39.923 Y-33.432
N14080 X39.922 Y-33.442
N14085 X39.926 Y-33.529 Z-10.818
N14090 X39.941 Y-33.614 Z-10.837
N14095 G3 X40.501 Y-34.062 Z-11. I0.581 J0.152 F1000.
N14100 G1 X42.122 F2400.
N14105 X42.272 Y-34.055
N14110 X42.421 Y-34.037
N14115 X42.582 Y-34.008
N14120 X42.754 Y-33.966
N14125 X42.944 Y-33.908
N14130 X43.144 Y-33.833
N14135 X43.364 Y-33.736
N14140 X43.596 Y-33.617
N14145 X43.849 Y-33.468
N14150 X44.111 Y-33.293
N14155 X44.4 Y-33.073
N14160 X44.682 Y-32.83
N14165 X44.999 Y-32.524
N14170 X45.312 Y-32.184
N14175 X45.644 Y-31.777
N14180 X45.997 Y-31.29
N14185 X46.326 Y-30.772
N14190 X46.666 Y-30.161
N14195 X47.009 Y-29.45
N14200 X47.335 Y-28.659
N14205 X47.63 Y-27.802
N14210 X47.888 Y-26.88
N14215 X48.093 Y-25.945
N14220 X48.25 Y-25.
N14225 X48.361 Y-24.049
N14230 X48.429 Y-23.094
N14235 X48.456 Y-22.136
N14240 X48.443 Y-21.179
N14245 X48.39 Y-20.222
N14250 X48.3 Y-19.269
N14255 X48.171 Y-18.32
N14260 X48.006 Y-17.377
N14265 X47.803 Y-16.441
N14270 X47.558 Y-15.515
N14275 X47.284 Y-14.657
N14280 X47.029 Y-13.998
N14285 X46.818 Y-13.534
N14290 X46.621 Y-13.161
N14295 X46.438 Y-12.859
N14300 X46.379 Y-12.773
N14305 X46.138 Y-12.488
N14310 X45.847 Y-12.254
N14315 X45.517 Y-12.081
N14320 X45.159 Y-11.974
N14325 X44.787 Y-11.938
N14330 X43.19
N14335 G3 X42.631 Y-12.386 Z-10.837 I0.021 J-0.6 F1000.
N14340 G1 X42.618 Y-12.446 Z-10.824 F2400.
N14345 X42.612 Y-12.507 Z-10.811
N14350 X42.609 Y-12.558 Z-10.8
N14355 X41.544 Y-33.432
N14360 X41.543 Y-33.442
N14365 X41.547 Y-33.529 Z-10.818
N14370 X41.562 Y-33.614 Z-10.837
N14375 G3 X42.122 Y-34.062 Z-11. I0.581 J0.152 F1000.
N14380 G1 X43.645 F2400.
N14385 X43.795 Y-34.055
N14390 X43.944 Y-34.038
N14395 X44.098 Y-34.01
N14400 X44.272 Y-33.969
N14405 X44.454 Y-33.915
N14410 X44.656 Y-33.84
N14415 X44.867 Y-33.749
N14420 X45.1 Y-33.631
N14425 X45.342 Y-33.489
N14430 X45.607 Y-33.314
N14435 X45.883 Y-33.106
N14440 X46.169 Y-32.863
N14445 X46.482 Y-32.563
N14450 X46.785 Y-32.237
N14455 X47.12 Y-31.831
N14460 X47.455 Y-31.372
N14465 X47.789 Y-30.854
N14470 X48.137 Y-30.237
N14475 X48.48 Y-29.534
N14480 X48.791 Y-28.789
N14485 X49.09 Y-27.933
N14490 X49.353 Y-27.012
N14495 X49.563 Y-26.077
N14500 X49.726 Y-25.133
N14505 X49.844 Y-24.183
N14510 X49.92 Y-23.228
N14515 X49.955 Y-22.271
N14520 X49.952 Y-21.314
N14525 X49.911 Y-20.357
N14530 X49.833 Y-19.402
N14535 X49.719 Y-18.451
N14540 X49.569 Y-17.506
N14545 X49.382 Y-16.566
N14550 X49.155 Y-15.636
N14555 X48.898 Y-14.783
N14560 X48.648 Y-14.099
N14565 X48.442 Y-13.625
N14570 X48.241 Y-13.228
N14575 X48.068 Y-12.931
N14580 X47.981 Y-12.801
N14585 X47.741 Y-12.507
N14590 X47.447 Y-12.265
N14595 X47.113 Y-12.086
N14600 X46.749 Y-11.975
N14605 X46.371 Y-11.938
N14610 X44.787
N14615 G3 X44.228 Y-12.386 Z-10.837 I0.021 J-0.6 F1000.
N14620 G1 X44.216 Y-12.445 Z-10.824 F2400.
N14625 X44.209 Y-12.505 Z-10.811
N14630 X44.206 Y-12.558 Z-10.8
N14635 X43.067 Y-33.43
N14640 X43.066 Y-33.442
N14645 X43.069 Y-33.529 Z-10.818
N14650 X43.085 Y-33.614 Z-10.837
N14655 G3 X43.645 Y-34.062 Z-11. I0.581 J0.152 F1000.
N14660 G1 X45.168 F2400.
N14665 X45.318 Y-34.055
N14670 X45.467 Y-34.038
N14675 X45.624 Y-34.01
N14680 X45.793 Y-33.97
N14685 X45.978 Y-33.914
N14690 X46.174 Y-33.842
N14695 X46.389 Y-33.748
N14700 X46.617 Y-33.633
N14705 X46.863 Y-33.488
N14710 X47.118 Y-33.319
N14715 X47.4 Y-33.106
N14720 X47.677 Y-32.87
N14725 X47.99 Y-32.57
N14730 X48.295 Y-32.242
N14735 X48.624 Y-31.842
N14740 X48.968 Y-31.37
N14745 X49.29 Y-30.868
N14750 X49.63 Y-30.264
N14755 X49.972 Y-29.561
N14760 X50.292 Y-28.794
N14765 X50.589 Y-27.941
N14770 X50.851 Y-27.02
N14775 X51.061 Y-26.085
N14780 X51.223 Y-25.142
N14785 X51.342 Y-24.191
N14790 X51.42 Y-23.237
N14795 X51.459 Y-22.28
N14800 X51.46 Y-21.322
N14805 X51.424 Y-20.365
N14810 X51.353 Y-19.41
N14815 X51.248 Y-18.458
N14820 X51.106 Y-17.511
N14825 X50.929 Y-16.57
N14830 X50.709 Y-15.638
N14835 X50.461 Y-14.785
N14840 X50.225 Y-14.125
N14845 X50.023 Y-13.649
N14850 X49.828 Y-13.256
N14855 X49.657 Y-12.956
N14860 X49.564 Y-12.814
N14865 X49.324 Y-12.516
N14870 X49.029 Y-12.271
N14875 X48.693 Y-12.088
N14880 X48.326 Y-11.976
N14885 X47.945 Y-11.938
N14890 X46.371
N14895 G3 X45.812 Y-12.386 Z-10.837 I0.021 J-0.6 F1000.
N14900 G1 X45.799 Y-12.444 Z-10.824 F2400.
N14905 X45.793 Y-12.503 Z-10.812
N14910 X45.79 Y-12.558 Z-10.8
N14915 X44.59 Y-33.428
N14920 X44.589 Y-33.442
N14925 X44.592 Y-33.529 Z-10.818
N14930 X44.608 Y-33.614 Z-10.837
N14935 G3 X45.168 Y-34.062 Z-11. I0.581 J0.152 F1000.
N14940 G1 X46.691 F2400.
N14945 X46.841 Y-34.055
N14950 X46.99 Y-34.037
N14955 X47.148 Y-34.009
N14960 X47.316 Y-33.968
N14965 X47.502 Y-33.911
N14970 X47.697 Y-33.839
N14975 X47.914 Y-33.744
N14980 X48.139 Y-33.628
N14985 X48.387 Y-33.482
N14990 X48.642 Y-33.312
N14995 X48.924 Y-33.097
N15000 X49.199 Y-32.861
N15005 X49.508 Y-32.563
N15010 X49.814 Y-32.231
N15015 X50.138 Y-31.834
N15020 X50.483 Y-31.358
N15025 X50.806 Y-30.853
N15030 X51.143 Y-30.247
N15035 X51.484 Y-29.542
N15040 X51.806 Y-28.762
N15045 X52.103 Y-27.901
N15050 X52.361 Y-26.979
N15055 X52.569 Y-26.044
N15060 X52.73 Y-25.1
N15065 X52.848 Y-24.15
N15070 X52.926 Y-23.195
N15075 X52.966 Y-22.239
N15080 X52.969 Y-21.281
N15085 X52.937 Y-20.324
N15090 X52.871 Y-19.368
N15095 X52.77 Y-18.416
N15100 X52.634 Y-17.468
N15105 X52.462 Y-16.526
N15110 X52.248 Y-15.592
N15115 X52.009 Y-14.763
N15120 X51.782 Y-14.117
N15125 X51.585 Y-13.647
N15130 X51.396 Y-13.263
N15135 X51.226 Y-12.963
N15140 X51.134 Y-12.821
N15145 X50.894 Y-12.521
N15150 X50.599 Y-12.273
N15155 X50.261 Y-12.09
N15160 X49.894 Y-11.976
N15165 X49.511 Y-11.938
N15170 X47.945
N15175 G3 X47.385 Y-12.386 Z-10.837 I0.021 J-0.6 F1000.
N15180 G1 X47.373 Y-12.443 Z-10.824 F2400.
N15185 X47.367 Y-12.502 Z-10.812
N15190 X47.364 Y-12.558 Z-10.8
N15195 X46.113 Y-33.427
N15200 X46.112 Y-33.442
N15205 X46.115 Y-33.529 Z-10.818
N15210 X46.131 Y-33.614 Z-10.837
N15215 G3 X46.691 Y-34.062 Z-11. I0.581 J0.152 F1000.
N15220 G1 X48.214 F2400.
N15225 X48.363 Y-34.055
N15230 X48.512 Y-34.037
N15235 X48.672 Y-34.007
N15240 X48.839 Y-33.966
N15245 X49.026 Y-33.908
N15250 X49.222 Y-33.834
N15255 X49.439 Y-33.737
N15260 X49.664 Y-33.621
N15265 X49.913 Y-33.473
N15270 X50.167 Y-33.3
N15275 X50.45 Y-33.083
N15280 X50.725 Y-32.845
N15285 X51.034 Y-32.545
N15290 X51.34 Y-32.209
N15295 X51.663 Y-31.81
N15300 X52.009 Y-31.328
N15305 X52.331 Y-30.817
N15310 X52.669 Y-30.205
N15315 X53.008 Y-29.494
N15320 X53.33 Y-28.703
N15325 X53.627 Y-27.828
N15330 X53.881 Y-26.905
N15335 X54.085 Y-25.969
N15340 X54.243 Y-25.024
N15345 X54.36 Y-24.074
N15350 X54.437 Y-23.119
N15355 X54.476 Y-22.162
N15360 X54.481 Y-21.205
N15365 X54.451 Y-20.247
N15370 X54.387 Y-19.292
N15375 X54.289 Y-18.339
N15380 X54.157 Y-17.391
N15385 X53.987 Y-16.448
N15390 X53.774 Y-15.514
N15395 X53.546 Y-14.719
N15400 X53.324 Y-14.086
N15405 X53.131 Y-13.625
N15410 X52.95 Y-13.255
N15415 X52.779 Y-12.954
N15420 X52.694 Y-12.822
N15425 X52.454 Y-12.521
N15430 X52.159 Y-12.274
N15435 X51.821 Y-12.09
N15440 X51.453 Y-11.976
N15445 X51.07 Y-11.938
N15450 X49.511
N15455 G3 X48.951 Y-12.386 Z-10.837 I0.021 J-0.6 F1000.
N15460 G1 X48.939 Y-12.443 Z-10.825 F2400.
N15465 X48.933 Y-12.5 Z-10.812
N15470 X48.929 Y-12.558 Z-10.8
N15475 X47.636 Y-33.425
N15480 X47.635 Y-33.442
N15485 X47.638 Y-33.529 Z-10.818
N15490 X47.654 Y-33.614 Z-10.837
N15495 G3 X48.214 Y-34.062 Z-11. I0.581 J0.152 F1000.
N15500 G1 X49.737 F2400.
N15505 X49.886 Y-34.055
N15510 X50.035 Y-34.036
N15515 X50.195 Y-34.005
N15520 X50.365 Y-33.962
N15525 X50.552 Y-33.902
N15530 X50.75 Y-33.826
N15535 X50.967 Y-33.728
N15540 X51.193 Y-33.609
N15545 X51.443 Y-33.458
N15550 X51.699 Y-33.282
N15555 X51.982 Y-33.062
N15560 X52.258 Y-32.82
N15565 X52.568 Y-32.515
N15570 X52.874 Y-32.175
N15575 X53.198 Y-31.769
N15580 X53.544 Y-31.281
N15585 X53.866 Y-30.763
N15590 X54.205 Y-30.14
N15595 X54.543 Y-29.42
N15600 X54.864 Y-28.615
N15605 X55.162 Y-27.721
N15610 X55.41 Y-26.796
N15615 X55.609 Y-25.859
N15620 X55.763 Y-24.914
N15625 X55.877 Y-23.963
N15630 X55.951 Y-23.008
N15635 X55.99 Y-22.051
N15640 X55.994 Y-21.093
N15645 X55.964 Y-20.136
N15650 X55.901 Y-19.181
N15655 X55.805 Y-18.228
N15660 X55.673 Y-17.279
N15665 X55.503 Y-16.337
N15670 X55.29 Y-15.403
N15675 X55.072 Y-14.649
N15680 X54.855 Y-14.037
N15685 X54.664 Y-13.584
N15690 X54.491 Y-13.233
N15695 X54.319 Y-12.931
N15700 X54.246 Y-12.818
N15705 X54.006 Y-12.519
N15710 X53.711 Y-12.272
N15715 X53.374 Y-12.089
N15720 X53.006 Y-11.976
N15725 X52.624 Y-11.938
N15730 X51.07
N15735 G3 X50.511 Y-12.386 Z-10.837 I0.021 J-0.6 F1000.
N15740 G1 X50.499 Y-12.442 Z-10.825 F2400.
N15745 X50.492 Y-12.499 Z-10.812
N15750 X50.489 Y-12.558 Z-10.8
N15755 X49.159 Y-33.424
N15760 X49.158 Y-33.442
N15765 X49.161 Y-33.529 Z-10.818
N15770 X49.177 Y-33.614 Z-10.837
N15775 G3 X49.737 Y-34.062 Z-11. I0.581 J0.152 F1000.
N15780 G1 X51.162 F2400.
N15785 X51.355 Y-34.052
N15790 X51.504 Y-34.036
N15795 X51.653 Y-34.01
N15800 X51.824 Y-33.97
N15805 X51.999 Y-33.918
N15810 X52.2 Y-33.846
N15815 X52.402 Y-33.758
N15820 X52.633 Y-33.642
N15825 X52.865 Y-33.508
N15830 X53.127 Y-33.335
N15835 X53.391 Y-33.138
N15840 X53.674 Y-32.898
N15845 X53.973 Y-32.614
N15850 X54.275 Y-32.291
N15855 X54.609 Y-31.889
N15860 X54.926 Y-31.458
N15865 X55.264 Y-30.938
N15870 X55.615 Y-30.318
N15875 X55.937 Y-29.666
N15880 X56.258 Y-28.903
N15885 X56.567 Y-28.027
N15890 X56.833 Y-27.107
N15895 X57.048 Y-26.174
N15900 X57.218 Y-25.231
N15905 X57.347 Y-24.282
N15910 X57.438 Y-23.329
N15915 X57.492 Y-22.373
N15920 X57.511 Y-21.415
N15925 X57.497 Y-20.458
N15930 X57.45 Y-19.501
N15935 X57.37 Y-18.547
N15940 X57.256 Y-17.596
N15945 X57.105 Y-16.65
N15950 X56.911 Y-15.712
N15955 X56.692 Y-14.886
N15960 X56.474 Y-14.224
N15965 X56.286 Y-13.749
N15970 X56.095 Y-13.339
N15975 X55.936 Y-13.045
N15980 X55.819 Y-12.855
N15985 X55.624 Y-12.592
N15990 X55.387 Y-12.366
N15995 X55.116 Y-12.183
N16000 X54.817 Y-12.048
N16005 X54.501 Y-11.966
N16010 X54.174 Y-11.938
N16015 X52.624
N16020 G3 X52.065 Y-12.386 Z-10.837 I0.021 J-0.6 F1000.
N16025 G1 X52.053 Y-12.44 Z-10.825 F2400.
N16030 X52.047 Y-12.496 Z-10.813
N16035 X52.042 Y-12.558 Z-10.8
N16040 X50.584 Y-33.421
N16045 X50.583 Y-33.442
N16050 X50.586 Y-33.529 Z-10.818
N16055 X50.602 Y-33.614 Z-10.837
N16060 G3 X51.162 Y-34.062 Z-11. I0.581 J0.152 F1000.
N16065 G1 X52.685 F2400.
N16070 X52.859 Y-34.053
N16075 X53.009 Y-34.037
N16080 X53.167 Y-34.009
N16085 X53.329 Y-33.971
N16090 X53.515 Y-33.915
N16095 X53.705 Y-33.845
N16100 X53.921 Y-33.751
N16105 X54.141 Y-33.64
N16110 X54.389 Y-33.495
N16115 X54.634 Y-33.333
N16120 X54.913 Y-33.122
N16125 X55.186 Y-32.89
N16130 X55.493 Y-32.597
N16135 X55.8 Y-32.267
N16140 X56.116 Y-31.884
N16145 X56.458 Y-31.416
N16150 X56.779 Y-30.917
N16155 X57.116 Y-30.319
N16160 X57.458 Y-29.619
N16165 X57.786 Y-28.834
N16170 X58.092 Y-27.96
N16175 X58.354 Y-27.039
N16180 X58.567 Y-26.105
N16185 X58.736 Y-25.163
N16190 X58.863 Y-24.214
N16195 X58.953 Y-23.26
N16200 X59.007 Y-22.304
N16205 X59.027 Y-21.346
N16210 X59.014 Y-20.389
N16215 X58.969 Y-19.432
N16220 X58.89 Y-18.478
N16225 X58.777 Y-17.527
N16230 X58.627 Y-16.581
N16235 X58.433 Y-15.643
N16240 X58.22 Y-14.843
N16245 X58.008 Y-14.199
N16250 X57.813 Y-13.708
N16255 X57.645 Y-13.346
N16260 X57.467 Y-13.017
N16265 X57.307 Y-12.759
N16270 X57.067 Y-12.479
N16275 X56.777 Y-12.249
N16280 X56.449 Y-12.078
N16285 X56.094 Y-11.973
N16290 X55.726 Y-11.938
N16295 X54.174
N16300 G3 X53.615 Y-12.386 Z-10.837 I0.021 J-0.6 F1000.
N16305 G1 X53.603 Y-12.44 Z-10.825 F2400.
N16310 X53.597 Y-12.495 Z-10.813
N16315 X53.592 Y-12.558 Z-10.8
N16320 X52.107 Y-33.42
N16325 X52.106 Y-33.442
N16330 X52.109 Y-33.529 Z-10.818
N16335 X52.125 Y-33.614 Z-10.837
N16340 G3 X52.685 Y-34.062 Z-11. I0.581 J0.152 F1000.
N16345 G1 X54.207 F2400.
N16350 X54.361 Y-34.054
N16355 X54.51 Y-34.038
N16360 X54.667 Y-34.01
N16365 X54.831 Y-33.972
N16370 X55.016 Y-33.916
N16375 X55.208 Y-33.846
N16380 X55.422 Y-33.753
N16385 X55.642 Y-33.641
N16390 X55.888 Y-33.498
N16395 X56.138 Y-33.332
N16400 X56.416 Y-33.122
N16405 X56.688 Y-32.892
N16410 X56.992 Y-32.6
N16415 X57.295 Y-32.275
N16420 X57.616 Y-31.886
N16425 X57.959 Y-31.417
N16430 X58.281 Y-30.917
N16435 X58.623 Y-30.311
N16440 X58.967 Y-29.607
N16445 X59.29 Y-28.833
N16450 X59.598 Y-27.954
N16455 X59.861 Y-27.033
N16460 X60.074 Y-26.099
N16465 X60.244 Y-25.156
N16470 X60.373 Y-24.208
N16475 X60.465 Y-23.254
N16480 X60.521 Y-22.298
N16485 X60.544 Y-21.341
N16490 X60.534 Y-20.383
N16495 X60.492 Y-19.426
N16500 X60.417 Y-18.472
N16505 X60.307 Y-17.52
N16510 X60.159 Y-16.574
N16515 X59.968 Y-15.636
N16520 X59.758 Y-14.839
N16525 X59.546 Y-14.191
N16530 X59.361 Y-13.722
N16535 X59.177 Y-13.324
N16540 X59.022 Y-13.036
N16545 X58.912 Y-12.858
N16550 X58.717 Y-12.594
N16555 X58.481 Y-12.367
N16560 X58.209 Y-12.183
N16565 X57.91 Y-12.048
N16570 X57.593 Y-11.966
N16575 X57.266 Y-11.938
N16580 X55.726
N16585 G3 X55.166 Y-12.386 Z-10.837 I0.021 J-0.6 F1000.
N16590 G1 X55.155 Y-12.44 Z-10.825 F2400.
N16595 X55.148 Y-12.494 Z-10.814
N16600 X55.144 Y-12.558 Z-10.8
N16605 X53.63 Y-33.419
N16610 X53.629 Y-33.442
N16615 X53.632 Y-33.529 Z-10.818
N16620 X53.648 Y-33.614 Z-10.837
N16625 G3 X54.207 Y-34.062 Z-11. I0.581 J0.152 F1000.
N16630 G1 X55.73 F2400.
N16635 X55.88 Y-34.055
N16640 X56.029 Y-34.037
N16645 X56.189 Y-34.008
N16650 X56.353 Y-33.968
N16655 X56.541 Y-33.91
N16660 X56.732 Y-33.838
N16665 X56.951 Y-33.741
N16670 X57.17 Y-33.628
N16675 X57.421 Y-33.48
N16680 X57.67 Y-33.312
N16685 X57.95 Y-33.097
N16690 X58.225 Y-32.861
N16695 X58.529 Y-32.565
N16700 X58.84 Y-32.227
N16705 X59.159 Y-31.833
N16710 X59.505 Y-31.354
N16715 X59.829 Y-30.842
N16720 X60.168 Y-30.232
N16725 X60.509 Y-29.52
N16730 X60.839 Y-28.714
N16735 X61.148 Y-27.809
N16740 X61.404 Y-26.886
N16745 X61.612 Y-25.951
N16750 X61.777 Y-25.008
N16755 X61.902 Y-24.058
N16760 X61.99 Y-23.104
N16765 X62.043 Y-22.148
N16770 X62.064 Y-21.191
N16775 X62.051 Y-20.233
N16780 X62.007 Y-19.276
N16785 X61.929 Y-18.322
N16790 X61.816 Y-17.371
N16795 X61.665 Y-16.425
N16800 X61.468 Y-15.488
N16805 X61.266 Y-14.739
N16810 X61.06 Y-14.122
N16815 X60.87 Y-13.651
N16820 X60.708 Y-13.307
N16825 X60.533 Y-12.986
N16830 X60.447 Y-12.847
N16835 X60.251 Y-12.586
N16840 X60.015 Y-12.362
N16845 X59.744 Y-12.18
N16850 X59.447 Y-12.047
N16855 X59.132 Y-11.965
N16860 X58.807 Y-11.938
N16865 X57.266
N16870 G3 X56.706 Y-12.386 Z-10.837 I0.021 J-0.6 F1000.
N16875 G1 X56.695 Y-12.439 Z-10.825 F2400.
N16880 X56.689 Y-12.494 Z-10.814
N16885 X56.684 Y-12.558 Z-10.8
N16890 X55.153 Y-33.419
N16895 X55.152 Y-33.442
N16900 X55.155 Y-33.529 Z-10.818
N16905 X55.171 Y-33.614 Z-10.837
N16910 G3 X55.73 Y-34.062 Z-11. I0.581 J0.152 F1000.
N16915 G1 X57.253 F2400.
N16920 X57.403 Y-34.055
N16925 X57.552 Y-34.036
N16930 X57.713 Y-34.005
N16935 X57.88 Y-33.962
N16940 X58.069 Y-33.902
N16945 X58.264 Y-33.827
N16950 X58.483 Y-33.728
N16955 X58.707 Y-33.61
N16960 X58.958 Y-33.458
N16965 X59.211 Y-33.284
N16970 X59.495 Y-33.064
N16975 X59.771 Y-32.821
N16980 X60.079 Y-32.517
N16985 X60.388 Y-32.174
N16990 X60.711 Y-31.77
N16995 X61.059 Y-31.278
N17000 X61.383 Y-30.756
N17005 X61.726 Y-30.125
N17010 X62.068 Y-29.395
N17015 X62.397 Y-28.572
N17020 X62.699 Y-27.663
N17025 X62.948 Y-26.738
N17030 X63.151 Y-25.802
N17035 X63.31 Y-24.858
N17040 X63.431 Y-23.908
N17045 X63.516 Y-22.954
N17050 X63.566 Y-21.997
N17055 X63.584 Y-21.04
N17060 X63.569 Y-20.082
N17065 X63.522 Y-19.126
N17070 X63.441 Y-18.171
N17075 X63.325 Y-17.221
N17080 X63.169 Y-16.276
N17085 X62.969 Y-15.349
N17090 X62.769 Y-14.632
N17095 X62.567 Y-14.044
N17100 X62.38 Y-13.589
N17105 X62.22 Y-13.256
N17110 X62.047 Y-12.945
N17115 X61.977 Y-12.834
N17120 X61.781 Y-12.577
N17125 X61.545 Y-12.356
N17130 X61.276 Y-12.177
N17135 X60.98 Y-12.045
N17140 X60.667 Y-11.965
N17145 X60.345 Y-11.938
N17150 X58.807
N17155 G3 X58.247 Y-12.386 Z-10.837 I0.021 J-0.6 F1000.
N17160 G1 X58.236 Y-12.439 Z-10.825 F2400.
N17165 X58.229 Y-12.493 Z-10.814
N17170 X58.225 Y-12.558 Z-10.8
N17175 X56.676 Y-33.418
N17180 X56.675 Y-33.442
N17185 X56.678 Y-33.529 Z-10.818
N17190 X56.694 Y-33.614 Z-10.837
N17195 G3 X57.253 Y-34.062 Z-11. I0.581 J0.152 F1000.
N17200 G1 X58.657 F2400.
N17205 X58.871 Y-34.051
N17210 X59.02 Y-34.035
N17215 X59.168 Y-34.009
N17220 X59.339 Y-33.969
N17225 X59.514 Y-33.917
N17230 X59.714 Y-33.845
N17235 X59.917 Y-33.757
N17240 X60.147 Y-33.641
N17245 X60.379 Y-33.507
N17250 X60.642 Y-33.334
N17255 X60.905 Y-33.137
N17260 X61.189 Y-32.897
N17265 X61.488 Y-32.613
N17270 X61.792 Y-32.288
N17275 X62.127 Y-31.883
N17280 X62.445 Y-31.452
N17285 X62.787 Y-30.923
N17290 X63.142 Y-30.298
N17295 X63.467 Y-29.637
N17300 X63.796 Y-28.855
N17305 X64.115 Y-27.953
N17310 X64.38 Y-27.032
N17315 X64.598 Y-26.1
N17320 X64.772 Y-25.158
N17325 X64.907 Y-24.21
N17330 X65.005 Y-23.257
N17335 X65.069 Y-22.302
N17340 X65.1 Y-21.345
N17345 X65.098 Y-20.387
N17350 X65.064 Y-19.43
N17355 X64.998 Y-18.474
N17360 X64.897 Y-17.522
N17365 X64.758 Y-16.574
N17370 X64.574 Y-15.64
N17375 X64.367 Y-14.836
N17380 X64.164 Y-14.205
N17385 X63.978 Y-13.728
N17390 X63.81 Y-13.359
N17395 X63.638 Y-13.035
N17400 X63.482 Y-12.78
N17405 X63.476 Y-12.77
N17410 X63.235 Y-12.486
N17415 X62.944 Y-12.253
N17420 X62.614 Y-12.08
N17425 X62.257 Y-11.974
N17430 X61.886 Y-11.938
N17435 X60.345
N17440 G3 X59.785 Y-12.386 Z-10.837 I0.021 J-0.6 F1000.
N17445 G1 X59.774 Y-12.437 Z-10.826 F2400.
N17450 X59.768 Y-12.489 Z-10.815
N17455 X59.762 Y-12.558 Z-10.8
N17460 X58.079 Y-33.414
N17465 X58.078 Y-33.442
N17470 X58.081 Y-33.529 Z-10.818
N17475 X58.097 Y-33.614 Z-10.837
N17480 G3 X58.657 Y-34.062 Z-11. I0.581 J0.152 F1000.
N17485 G1 X60.18 F2400.
N17490 X60.373 Y-34.052
N17495 X60.523 Y-34.036
N17500 X60.681 Y-34.008
N17505 X60.843 Y-33.97
N17510 X61.029 Y-33.914
N17515 X61.219 Y-33.844
N17520 X61.435 Y-33.75
N17525 X61.656 Y-33.639
N17530 X61.904 Y-33.494
N17535 X62.149 Y-33.331
N17540 X62.43 Y-33.12
N17545 X62.703 Y-32.887
N17550 X63.012 Y-32.592
N17555 X63.319 Y-32.262
N17560 X63.638 Y-31.875
N17565 X63.984 Y-31.402
N17570 X64.306 Y-30.901
N17575 X64.651 Y-30.29
N17580 X64.998 Y-29.58
N17585 X65.331 Y-28.783
N17590 X65.647 Y-27.88
N17595 X65.909 Y-26.959
N17600 X66.124 Y-26.026
N17605 X66.297 Y-25.084
N17610 X66.43 Y-24.135
N17615 X66.527 Y-23.183
N17620 X66.59 Y-22.227
N17625 X66.62 Y-21.27
N17630 X66.618 Y-20.312
N17635 X66.584 Y-19.355
N17640 X66.517 Y-18.4
N17645 X66.415 Y-17.447
N17650 X66.274 Y-16.5
N17655 X66.087 Y-15.561
N17660 X65.891 Y-14.806
N17665 X65.684 Y-14.166
N17670 X65.509 Y-13.718
N17675 X65.328 Y-13.324
N17680 X65.176 Y-13.039
N17685 X65.068 Y-12.863
N17690 X64.873 Y-12.598
N17695 X64.636 Y-12.37
N17700 X64.364 Y-12.185
N17705 X64.065 Y-12.049
N17710 X63.746 Y-11.966
N17715 X63.418 Y-11.938
N17720 X61.886
N17725 G3 X61.327 Y-12.386 Z-10.837 I0.021 J-0.6 F1000.
N17730 G1 X61.316 Y-12.437 Z-10.826 F2400.
N17735 X61.309 Y-12.489 Z-10.815
N17740 X61.304 Y-12.558 Z-10.8
N17745 X59.602 Y-33.414
N17750 X59.601 Y-33.442
N17755 X59.604 Y-33.529 Z-10.818
N17760 X59.62 Y-33.614 Z-10.837
N17765 G3 X60.18 Y-34.062 Z-11. I0.581 J0.152 F1000.
N17770 G1 X61.702 F2400.
N17775 X61.876 Y-34.053
N17780 X62.025 Y-34.037
N17785 X62.182 Y-34.009
N17790 X62.346 Y-33.971
N17795 X62.531 Y-33.915
N17800 X62.723 Y-33.845
N17805 X62.938 Y-33.752
N17810 X63.159 Y-33.64
N17815 X63.405 Y-33.496
N17820 X63.656 Y-33.329
N17825 X63.936 Y-33.119
N17830 X64.208 Y-32.887
N17835 X64.516 Y-32.593
N17840 X64.819 Y-32.267
N17845 X65.145 Y-31.873
N17850 X65.488 Y-31.403
N17855 X65.815 Y-30.896
N17860 X66.164 Y-30.276
N17865 X66.513 Y-29.563
N17870 X66.841 Y-28.779
N17875 X67.157 Y-27.875
N17880 X67.42 Y-26.954
N17885 X67.636 Y-26.021
N17890 X67.809 Y-25.079
N17895 X67.944 Y-24.131
N17900 X68.043 Y-23.178
N17905 X68.108 Y-22.223
N17910 X68.14 Y-21.266
N17915 Y-20.308
N17920 X68.107 Y-19.351
N17925 X68.042 Y-18.395
N17930 X67.941 Y-17.443
N17935 X67.802 Y-16.495
N17940 X67.616 Y-15.556
N17945 X67.42 Y-14.799
N17950 X67.22 Y-14.177
N17955 X67.035 Y-13.702
N17960 X66.874 Y-13.351
N17965 X66.701 Y-13.025
N17970 X66.545 Y-12.769
N17975 X66.304 Y-12.485
N17980 X66.013 Y-12.253
N17985 X65.683 Y-12.08
N17990 X65.327 Y-11.974
N17995 X64.956 Y-11.938
N18000 X63.418
N18005 G3 X62.859 Y-12.386 Z-10.837 I0.021 J-0.6 F1000.
N18010 G1 X62.848 Y-12.437 Z-10.826 F2400.
N18015 X62.841 Y-12.489 Z-10.815
N18020 X62.836 Y-12.558 Z-10.8
N18025 X61.125 Y-33.413
N18030 X61.124 Y-33.442
N18035 X61.127 Y-33.529 Z-10.818
N18040 X61.143 Y-33.614 Z-10.837
N18045 G3 X61.702 Y-34.062 Z-11. I0.581 J0.152 F1000.
N18050 G1 X63.225 F2400.
N18055 X63.38 Y-34.054
N18060 X63.529 Y-34.038
N18065 X63.686 Y-34.01
N18070 X63.85 Y-33.971
N18075 X64.035 Y-33.916
N18080 X64.227 Y-33.846
N18085 X64.441 Y-33.753
N18090 X64.663 Y-33.641
N18095 X64.909 Y-33.497
N18100 X65.161 Y-33.33
N18105 X65.44 Y-33.12
N18110 X65.714 Y-32.887
N18115 X66.024 Y-32.591
N18120 X66.327 Y-32.265
N18125 X66.655 Y-31.868
N18130 X66.999 Y-31.398
N18135 X67.325 Y-30.891
N18140 X67.675 Y-30.271
N18145 X68.024 Y-29.557
N18150 X68.354 Y-28.768
N18155 X68.67 Y-27.864
N18160 X68.934 Y-26.943
N18165 X69.15 Y-26.01
N18170 X69.324 Y-25.069
N18175 X69.46 Y-24.121
N18180 X69.56 Y-23.168
N18185 X69.626 Y-22.213
N18190 X69.659 Y-21.256
N18195 X69.661 Y-20.298
N18200 X69.63 Y-19.341
N18205 X69.566 Y-18.385
N18210 X69.467 Y-17.433
N18215 X69.328 Y-16.485
N18220 X69.143 Y-15.545
N18225 X68.95 Y-14.796
N18230 X68.745 Y-14.161
N18235 X68.573 Y-13.716
N18240 X68.393 Y-13.325
N18245 X68.243 Y-13.041
N18250 X68.136 Y-12.866
N18255 X67.941 Y-12.6
N18260 X67.704 Y-12.371
N18265 X67.432 Y-12.186
N18270 X67.132 Y-12.049
N18275 X66.813 Y-11.966
N18280 X66.485 Y-11.938
N18285 X64.956
N18290 G3 X64.396 Y-12.386 Z-10.837 I0.021 J-0.6 F1000.
N18295 G1 X64.385 Y-12.437 Z-10.826 F2400.
N18300 X64.379 Y-12.488 Z-10.815
N18305 X64.373 Y-12.558 Z-10.8
N18310 X62.648 Y-33.413
N18315 X62.647 Y-33.442
N18320 X62.65 Y-33.529 Z-10.818
N18325 X62.666 Y-33.614 Z-10.837
N18330 G3 X63.225 Y-34.062 Z-11. I0.581 J0.152 F1000.
N18335 G1 X64.748 F2400.
N18340 X64.898 Y-34.055
N18345 X65.047 Y-34.037
N18350 X65.207 Y-34.008
N18355 X65.372 Y-33.968
N18360 X65.559 Y-33.911
N18365 X65.752 Y-33.839
N18370 X65.97 Y-33.743
N18375 X66.191 Y-33.629
N18380 X66.442 Y-33.481
N18385 X66.693 Y-33.312
N18390 X66.975 Y-33.097
N18395 X67.251 Y-32.861
N18400 X67.56 Y-32.561
N18405 X67.869 Y-32.225
N18410 X68.195 Y-31.826
N18415 X68.544 Y-31.342
N18420 X68.871 Y-30.829
N18425 X69.219 Y-30.204
N18430 X69.567 Y-29.481
N18435 X69.904 Y-28.662
N18440 X70.215 Y-27.756
N18445 X70.474 Y-26.834
N18450 X70.687 Y-25.9
N18455 X70.857 Y-24.958
N18460 X70.99 Y-24.009
N18465 X71.087 Y-23.057
N18470 X71.151 Y-22.101
N18475 X71.182 Y-21.144
N18480 X71.181 Y-20.186
N18485 X71.148 Y-19.229
N18490 X71.082 Y-18.274
N18495 X70.979 Y-17.321
N18500 X70.837 Y-16.374
N18505 X70.648 Y-15.443
N18510 X70.456 Y-14.717
N18515 X70.26 Y-14.119
N18520 X70.077 Y-13.654
N18525 X69.919 Y-13.315
N18530 X69.747 Y-12.996
N18535 X69.661 Y-12.856
N18540 X69.466 Y-12.593
N18545 X69.229 Y-12.366
N18550 X68.958 Y-12.183
N18555 X68.659 Y-12.048
N18560 X68.342 Y-11.966
N18565 X68.015 Y-11.938
N18570 X66.485
N18575 G3 X65.925 Y-12.386 Z-10.837 I0.021 J-0.6 F1000.
N18580 G1 X65.914 Y-12.437 Z-10.826 F2400.
N18585 X65.908 Y-12.488 Z-10.815
N18590 X65.902 Y-12.558 Z-10.8
N18595 X64.171 Y-33.413
N18600 X64.17 Y-33.442
N18605 X64.173 Y-33.529 Z-10.818
N18610 X64.189 Y-33.614 Z-10.837
N18615 G3 X64.748 Y-34.062 Z-11. I0.581 J0.152 F1000.
N18620 G1 X66.271 F2400.
N18625 X66.421 Y-34.055
N18630 X66.57 Y-34.036
N18635 X66.73 Y-34.006
N18640 X66.898 Y-33.964
N18645 X67.086 Y-33.905
N18650 X67.282 Y-33.83
N18655 X67.5 Y-33.733
N18660 X67.725 Y-33.615
N18665 X67.976 Y-33.465
N18670 X68.231 Y-33.29
N18675 X68.516 Y-33.071
N18680 X68.793 Y-32.83
N18685 X69.105 Y-32.523
N18690 X69.413 Y-32.184
N18695 X69.742 Y-31.775
N18700 X70.092 Y-31.284
N18705 X70.421 Y-30.759
N18710 X70.772 Y-30.119
N18715 X71.121 Y-29.381
N18720 X71.457 Y-28.547
N18725 X71.763 Y-27.639
N18730 X72.017 Y-26.716
N18735 X72.225 Y-25.781
N18740 X72.392 Y-24.838
N18745 X72.522 Y-23.889
N18750 X72.616 Y-22.936
N18755 X72.677 Y-21.98
N18760 X72.705 Y-21.023
N18765 X72.701 Y-20.065
N18770 X72.665 Y-19.108
N18775 X72.596 Y-18.153
N18780 X72.489 Y-17.201
N18785 X72.343 Y-16.255
N18790 X72.155 Y-15.352
N18795 X71.964 Y-14.647
N18800 X71.769 Y-14.065
N18805 X71.587 Y-13.612
N18810 X71.43 Y-13.28
N18815 X71.26 Y-12.967
N18820 X71.185 Y-12.847
N18825 X70.989 Y-12.586
N18830 X70.753 Y-12.362
N18835 X70.482 Y-12.18
N18840 X70.185 Y-12.047
N18845 X69.87 Y-11.965
N18850 X69.545 Y-11.938
N18855 X68.015
N18860 G3 X67.456 Y-12.386 Z-10.837 I0.021 J-0.6 F1000.
N18865 G1 X67.445 Y-12.436 Z-10.826 F2400.
N18870 X67.439 Y-12.488 Z-10.815
N18875 X67.433 Y-12.558 Z-10.8
N18880 X65.694 Y-33.413
N18885 X65.693 Y-33.442
N18890 X65.696 Y-33.529 Z-10.818
N18895 X65.712 Y-33.614 Z-10.837
N18900 G3 X66.271 Y-34.062 Z-11. I0.581 J0.152 F1000.
N18905 G1 X67.696 F2400.
N18910 X67.901 Y-34.052
N18915 X68.05 Y-34.036
N18920 X68.2 Y-34.01
N18925 X68.371 Y-33.969
N18930 X68.548 Y-33.917
N18935 X68.748 Y-33.844
N18940 X68.952 Y-33.756
N18945 X69.184 Y-33.639
N18950 X69.418 Y-33.504
N18955 X69.681 Y-33.33
N18960 X69.948 Y-33.13
N18965 X70.234 Y-32.889
N18970 X70.537 Y-32.601
N18975 X70.843 Y-32.273
N18980 X71.183 Y-31.863
N18985 X71.505 Y-31.425
N18990 X71.852 Y-30.89
N18995 X72.212 Y-30.255
N19000 X72.545 Y-29.577
N19005 X72.881 Y-28.779
N19010 X73.2 Y-27.876
N19015 X73.466 Y-26.956
N19020 X73.687 Y-26.024
N19025 X73.865 Y-25.083
N19030 X74.006 Y-24.136
N19035 X74.111 Y-23.184
N19040 X74.182 Y-22.229
N19045 X74.22 Y-21.272
N19050 X74.227 Y-20.314
N19055 X74.201 Y-19.357
N19060 X74.142 Y-18.401
N19065 X74.048 Y-17.448
N19070 X73.915 Y-16.499
N19075 X73.737 Y-15.579
N19080 X73.54 Y-14.804
N19085 X73.343 Y-14.186
N19090 X73.163 Y-13.717
N19095 X73. Y-13.36
N19100 X72.83 Y-13.036
N19105 X72.677 Y-12.784
N19110 X72.671 Y-12.775
N19115 X72.43 Y-12.489
N19120 X72.139 Y-12.255
N19125 X71.808 Y-12.081
N19130 X71.45 Y-11.974
N19135 X71.078 Y-11.938
N19140 X69.545
N19145 G3 X68.985 Y-12.386 Z-10.837 I0.021 J-0.6 F1000.
N19150 G1 X68.975 Y-12.435 Z-10.826 F2400.
N19155 X68.968 Y-12.485 Z-10.816
N19160 X68.962 Y-12.558 Z-10.8
N19165 X67.12 Y-33.41
N19170 X67.118 Y-33.442
N19175 X67.121 Y-33.529 Z-10.818
N19180 X67.137 Y-33.614 Z-10.837
N19185 G3 X67.696 Y-34.062 Z-11. I0.581 J0.152 F1000.
N19190 G1 X69.219 F2400.
N19195 X69.409 Y-34.053
N19200 X69.558 Y-34.036
N19205 X69.716 Y-34.008
N19210 X69.88 Y-33.97
N19215 X70.066 Y-33.914
N19220 X70.257 Y-33.844
N19225 X70.473 Y-33.75
N19230 X70.697 Y-33.637
N19235 X70.945 Y-33.492
N19240 X71.194 Y-33.327
N19245 X71.476 Y-33.115
N19250 X71.751 Y-32.881
