%
(WOOD_BOX_S1_V1)
(T1  D=6. CR=0. TAPER=45DEG - ZMIN=-3. - CHAMFER MILL)
(T8  D=6. CR=3. - ZMIN=-21.5 - BALL END MILL)
(T10  D=6. CR=0. - ZMIN=-26.5 - FLAT END MILL)
N10 G90 G94 G17 G91.1
N15 G21
N20 G53 G0 Z0.
(FACE1)
N25 T10 M6
N30 T8
N35 S18000 M3
N40 G54
N45 M8
N50 G0 X71.893 Y-4.647
N55 G43 Z15. H10
N60 G0 Z5.
N65 G1 Z-0.9 F1400.
N70 G18 G3 X71.293 Z-1.5 I-0.6 K0.
N75 G1 X-2.293
N80 X-6.239
N85 G17 G2 Y-0.834 I0. J1.906
N90 G1 X75.239
N95 X77.592
N100 G3 Y2.979 I0. J1.906
N105 G1 X-8.592
N110 X-9.933
N115 G2 Y6.791 I0. J1.906
N120 G1 X78.933
N125 X79.479
N130 G3 Y10.604 I0. J1.906
N135 G1 X-10.479
N140 X-10.5
N145 G2 Y14.417 I0. J1.906
N150 G1 X79.5
N155 G3 Y18.23 I0. J1.906
N160 G1 X-10.5
N165 G2 Y22.043 I0. J1.906
N170 G1 X79.5
N175 G3 Y25.856 I0. J1.906
N180 G1 X-10.5
N185 G2 Y29.669 I0. J1.906
N190 G1 X79.5
N195 G3 Y33.481 I0. J1.906
N200 G1 X-10.5
N205 G2 Y37.294 I0. J1.906
N210 G1 X79.5
N215 G3 Y41.107 I0. J1.906
N220 G1 X-10.5
N225 G2 Y44.92 I0. J1.906
N230 G1 X79.5
N235 G3 Y48.733 I0. J1.906
N240 G1 X-10.5
N245 G2 Y52.546 I0. J1.906
N250 G1 X79.5
N255 G3 Y56.359 I0. J1.906
N260 G1 X-10.5
N265 G2 Y60.171 I0. J1.906
N270 G1 X-10.32
N275 X79.32
N280 G3 Y63.984 I0. J1.906
N285 G1 X78.415
N290 X-9.415
N295 G2 Y67.797 I0. J1.906
N300 G1 X-7.64
N305 X76.64
N310 G3 Y71.61 I0. J1.906
N315 G1 X73.673
N320 X-4.673
N325 G18 G3 X-5.273 Z-0.9 I0. K0.6
N330 G0 Z15.
N335 G17
(2D ADAPTIVE1)
N340 G0 X-0.47 Y-6.282
N345 Z15.
N350 Z5.
N355 Z-7.4
N360 G1 Z-8. F1400.
N365 Z-10.
N370 G3 X0. Y-3.016 I-14.839 J3.801
N375 G1 Y-2.931
N380 X-0.479 Y-2.102
N385 X-0.819 Y-1.207
N390 X-1.053 Y-0.278
N395 X-1.211 Y0.666
N400 X-1.314 Y1.619
N405 X-1.381 Y2.574
N410 X-1.424 Y3.531
N415 X-1.452 Y4.488
N420 X-1.47 Y5.445
N425 X-1.481 Y6.403
N430 X-1.488 Y7.361
N435 X-1.492 Y8.318
N440 X-1.495 Y9.276
N445 X-1.498 Y11.191
N450 X-1.5 Y15.98
N455 Y47.584
N460 Y66.738
N465 X-1.408 Y67.208
N470 X-1.029 Y68.087
N475 X-0.385 Y68.796
N480 X0.41 Y69.33
N485 X1.287 Y69.715
N490 X2.207 Y69.982
N495 X3.147 Y70.163
N500 X4.097 Y70.283
N505 X5.052 Y70.361
N510 X6.008 Y70.412
N515 X6.965 Y70.444
N520 X7.923 Y70.464
N525 X8.881 Y70.477
N530 X9.838 Y70.486
N535 X10.796 Y70.491
N540 X11.754 Y70.494
N545 X13.669 Y70.498
N550 X17.5 Y70.5
N555 X28.034
N560 X66.821
N565 X67.287 Y70.389
N570 X68.154 Y69.981
N575 X68.847 Y69.321
N580 X69.368 Y68.517
N585 X69.741 Y67.635
N590 X70. Y66.713
N595 X70.175 Y65.772
N600 X70.291 Y64.821
N605 X70.366 Y63.866
N610 X70.415 Y62.91
N615 X70.446 Y61.952
N620 X70.466 Y60.995
N625 X70.478 Y60.037
N630 X70.486 Y59.08
N635 X70.491 Y58.122
N640 X70.495 Y57.164
N645 X70.498 Y55.249
N650 X70.5 Y51.418
N655 Y9.28
N660 Y2.576
N665 X70.496 Y2.336
N670 X70.464 Y2.099
N675 X70.344 Y1.636
N680 X69.91 Y0.782
N685 X69.234 Y0.103
N690 X68.421 Y-0.404
N695 X67.535 Y-0.767
N700 X66.611 Y-1.018
N705 X65.668 Y-1.187
N710 X64.717 Y-1.298
N715 X63.762 Y-1.371
N720 X62.806 Y-1.418
N725 X61.848 Y-1.448
N730 X60.891 Y-1.467
N735 X59.933 Y-1.479
N740 X58.976 Y-1.487
N745 X58.018 Y-1.492
N750 X57.06 Y-1.495
N755 X55.145 Y-1.498
N760 X51.314 Y-1.5
N765 X28.329
N770 X4.387
N775 X3.91 Y-1.461
N780 X2.989 Y-1.197
N785 X2.203 Y-0.65
N790 X1.579 Y0.076
N795 X1.105 Y0.909
N800 X0.76 Y1.802
N805 X0.515 Y2.728
N810 X0.345 Y3.67
N815 X0.229 Y4.621
N820 X0.151 Y5.575
N825 X0.099 Y6.532
N830 X0.065 Y7.489
N835 X0.042 Y8.446
N840 X0.027 Y9.404
N845 X0.018 Y10.361
N850 X0.012 Y11.319
N855 X0.008 Y12.277
N860 X0.003 Y14.192
N865 X0.001 Y17.065
N870 X0. Y22.811
N875 Y63.992
N880 X0.042 Y64.949
N885 X0.363 Y65.851
N890 X0.919 Y66.631
N895 X1.636 Y67.266
N900 X2.457 Y67.759
N905 X3.341 Y68.128
N910 X4.26 Y68.397
N915 X5.198 Y68.588
N920 X6.147 Y68.722
N925 X7.1 Y68.813
N930 X8.056 Y68.876
N935 X9.012 Y68.917
N940 X9.97 Y68.945
N945 X10.927 Y68.964
N950 X11.885 Y68.976
N955 X12.843 Y68.984
N960 X13.8 Y68.99
N965 X14.758 Y68.993
N970 X16.673 Y68.997
N975 X20.504 Y68.999
N980 X57.854 Y69.
N985 X64.558
N990 X65.493 Y68.791
N995 X66.328 Y68.322
N1000 X67.024 Y67.664
N1005 X67.573 Y66.88
N1010 X67.991 Y66.018
N1015 X68.298 Y65.111
N1020 X68.518 Y64.178
N1025 X68.673 Y63.233
N1030 X68.78 Y62.282
N1035 X68.853 Y61.327
N1040 X68.902 Y60.37
N1045 X68.935 Y59.413
N1050 X68.957 Y58.456
N1055 X68.972 Y57.498
N1060 X68.981 Y56.541
N1065 X68.988 Y55.583
N1070 X68.992 Y54.625
N1075 X68.997 Y52.71
N1080 X68.999 Y49.837
N1085 X69. Y37.387
N1090 Y26.852
N1095 Y4.825
N1100 X68.901 Y3.872
N1105 X68.528 Y2.99
N1110 X67.937 Y2.237
N1115 X67.195 Y1.631
N1120 X66.36 Y1.163
N1125 X65.468 Y0.814
N1130 X64.544 Y0.562
N1135 X63.603 Y0.383
N1140 X62.654 Y0.258
N1145 X61.7 Y0.173
N1150 X60.744 Y0.115
N1155 X59.787 Y0.076
N1160 X58.829 Y0.051
N1165 X57.872 Y0.033
N1170 X56.914 Y0.022
N1175 X55.957 Y0.014
N1180 X54.999 Y0.009
N1185 X54.041 Y0.006
N1190 X52.126 Y0.003
N1195 X48.295 Y0.
N1200 X42.549
N1205 X6.156
N1210 X5.22 Y0.2
N1215 X4.372 Y0.645
N1220 X3.656 Y1.281
N1225 X3.081 Y2.047
N1230 X2.636 Y2.895
N1235 X2.304 Y3.793
N1240 X2.061 Y4.72
N1245 X1.887 Y5.662
N1250 X1.765 Y6.612
N1255 X1.68 Y7.565
N1260 X1.622 Y8.521
N1265 X1.582 Y9.478
N1270 X1.555 Y10.436
N1275 X1.552 Y10.583
N1280 X1.54 Y10.766
N1285 X1.512 Y10.948
N1290 X1.467 Y11.125
N1295 X1.366 Y11.457
N1300 X1.307 Y11.674
N1305 X1.256 Y11.892
N1310 X1.223 Y12.109
N1315 X1.197 Y12.326
N1320 X1.069 Y13.631
N1325 X1.008 Y14.283
N1330 X1.004 Y14.5
N1335 X1.001 Y14.935
N1340 X1. Y16.457
N1345 Y53.847
N1350 X1.001 Y54.065
N1355 X1.004 Y54.5
N1360 X1.008 Y54.717
N1365 X1.069 Y55.369
N1370 X1.197 Y56.674
N1375 X1.223 Y56.891
N1380 X1.319 Y57.844
N1385 X1.387 Y58.799
N1390 X1.429 Y59.756
N1395 X1.455 Y60.713
N1400 X1.472 Y61.671
N1405 X1.487 Y62.628
N1410 X1.68 Y63.567
N1415 X2.105 Y64.424
N1420 X2.717 Y65.161
N1425 X3.463 Y65.762
N1430 X4.296 Y66.234
N1435 X5.184 Y66.593
N1440 X6.104 Y66.858
N1445 X7.042 Y67.051
N1450 X7.99 Y67.189
N1455 X8.943 Y67.286
N1460 X9.898 Y67.353
N1465 X10.406 Y67.378
N1470 X10.569 Y67.393
N1475 X10.731 Y67.421
N1480 X10.889 Y67.462
N1485 X11.457 Y67.634
N1490 X11.674 Y67.693
N1495 X11.892 Y67.744
N1500 X12.109 Y67.777
N1505 X12.326 Y67.803
N1510 X13.631 Y67.931
N1515 X14.283 Y67.992
N1520 X14.5 Y67.996
N1525 X14.935 Y67.999
N1530 X16.457 Y68.
N1535 X53.847
N1540 X54.065 Y67.999
N1545 X54.5 Y67.996
N1550 X54.717 Y67.992
N1555 X55.369 Y67.931
N1560 X56.674 Y67.803
N1565 X56.891 Y67.777
N1570 X57.844 Y67.681
N1575 X58.799 Y67.613
N1580 X59.756 Y67.571
N1585 X60.713 Y67.545
N1590 X61.671 Y67.528
N1595 X62.628 Y67.516
N1600 X63.566 Y67.32
N1605 X64.424 Y66.895
N1610 X65.159 Y66.282
N1615 X65.76 Y65.535
N1620 X66.231 Y64.702
N1625 X66.59 Y63.814
N1630 X66.856 Y62.894
N1635 X67.049 Y61.956
N1640 X67.187 Y61.008
N1645 X67.285 Y60.055
N1650 X67.353 Y59.1
N1655 X67.378 Y58.595
N1660 X67.392 Y58.432
N1665 X67.42 Y58.271
N1670 X67.461 Y58.113
N1675 X67.634 Y57.543
N1680 X67.693 Y57.326
N1685 X67.744 Y57.108
N1690 X67.777 Y56.891
N1695 X67.803 Y56.674
N1700 X67.931 Y55.369
N1705 X67.992 Y54.717
N1710 X67.996 Y54.5
N1715 X67.999 Y54.065
N1720 X68. Y52.543
N1725 Y15.153
N1730 X67.999 Y14.935
N1735 X67.996 Y14.5
N1740 X67.992 Y14.283
N1745 X67.931 Y13.631
N1750 X67.803 Y12.326
N1755 X67.777 Y12.109
N1760 X67.681 Y11.156
N1765 X67.613 Y10.201
N1770 X67.571 Y9.244
N1775 X67.545 Y8.287
N1780 X67.528 Y7.329
N1785 X67.509 Y6.372
N1790 X67.315 Y5.434
N1795 X66.888 Y4.577
N1800 X66.274 Y3.842
N1805 X65.528 Y3.241
N1810 X64.694 Y2.77
N1815 X63.807 Y2.411
N1820 X62.887 Y2.145
N1825 X61.949 Y1.951
N1830 X61.001 Y1.813
N1835 X60.048 Y1.716
N1840 X59.093 Y1.648
N1845 X58.597 Y1.623
N1850 X58.435 Y1.609
N1855 X58.274 Y1.581
N1860 X58.116 Y1.54
N1865 X57.543 Y1.366
N1870 X57.326 Y1.307
N1875 X57.108 Y1.256
N1880 X56.891 Y1.223
N1885 X56.674 Y1.197
N1890 X55.369 Y1.069
N1895 X54.717 Y1.008
N1900 X54.5 Y1.004
N1905 X54.065 Y1.001
N1910 X52.543 Y1.
N1915 X15.153
N1920 X14.935 Y1.001
N1925 X14.5 Y1.004
N1930 X14.283 Y1.008
N1935 X13.631 Y1.069
N1940 X12.326 Y1.197
N1945 X12.109 Y1.223
N1950 X11.156 Y1.319
N1955 X10.201 Y1.387
N1960 X9.244 Y1.429
N1965 X8.287 Y1.455
N1970 X7.338 Y1.583
N1975 X6.448 Y1.937
N1980 X5.664 Y2.487
N1985 X5.009 Y3.187
N1990 X4.486 Y3.988
N1995 X4.08 Y4.856
N2000 X3.774 Y5.763
N2005 X3.666 Y6.21
N2010 X3.592 Y6.45
N2015 X3.489 Y6.678
N2020 X3.359 Y6.892
N2025 X3.208 Y7.109
N2030 X3.083 Y7.327
N2035 X2.965 Y7.544
N2040 X2.327 Y8.739
N2045 X2.272 Y8.848
N2050 X2.063 Y9.283
N2055 X1.967 Y9.5
N2060 X1.892 Y9.73
N2065 X1.828 Y9.935
N2070 X1.467 Y11.125
N2075 G3 X0.858 Y11.53 I-0.568 J-0.194
N2080 G1 X0.765 Y11.524 Z-9.993
N2085 X0.673 Y11.518 Z-9.971
N2090 X0.587 Y11.512 Z-9.935
N2095 X0.507 Y11.506 Z-9.885
N2100 X0.435 Y11.502 Z-9.824
N2105 X0.374 Y11.497 Z-9.753
N2110 X0.325 Y11.494 Z-9.672
N2115 X0.289 Y11.492 Z-9.585
N2120 X0.267 Y11.49 Z-9.494
N2125 X0.26 Z-9.4
N2130 G0 Z5.
N2135 X13.285 Y0.511
N2140 Z-8.8
N2145 G1 Z-9.4 F1400.
N2150 X13.279 Y0.516 Z-9.494
N2155 X13.262 Y0.53 Z-9.585
N2160 X13.235 Y0.553 Z-9.672
N2165 X13.197 Y0.584 Z-9.753
N2170 X13.149 Y0.622 Z-9.824
N2175 X13.094 Y0.668 Z-9.885
N2180 X13.032 Y0.719 Z-9.935
N2185 X12.964 Y0.774 Z-9.971
N2190 X12.894 Y0.832 Z-9.993
N2195 X12.821 Y0.891 Z-10.
N2200 G3 X12.109 Y1.223 I-1.003 J-1.224
N2205 G1 X11.892 Y1.256
N2210 X11.674 Y1.307
N2215 X11.457 Y1.366
N2220 X9.935 Y1.828
N2225 X9.718 Y1.896
N2230 X9.5 Y1.967
N2235 X9.283 Y2.063
N2240 X8.848 Y2.272
N2245 X8.739 Y2.327
N2250 X7.518 Y2.979
N2255 X7.327 Y3.083
N2260 X7.109 Y3.208
N2265 X6.892 Y3.359
N2270 X6.817 Y3.414
N2275 X6.674 Y3.52
N2280 X5.37 Y4.591
N2285 X5.22 Y4.718
N2290 X4.974 Y4.935
N2295 X4.718 Y5.221
N2300 X4.591 Y5.37
N2305 X3.52 Y6.674
N2310 X3.414 Y6.817
N2315 X3.359 Y6.892
N2320 G3 X2.652 Y7.075 I-0.473 J-0.369
N2325 G1 X2.566 Y7.038 Z-9.993
N2330 X2.481 Y7.002 Z-9.971
N2335 X2.401 Y6.968 Z-9.935
N2340 X2.327 Y6.937 Z-9.885
N2345 X2.262 Y6.909 Z-9.824
N2350 X2.205 Y6.885 Z-9.753
N2355 X2.16 Y6.866 Z-9.672
N2360 X2.127 Y6.852 Z-9.585
N2365 X2.107 Y6.843 Z-9.494
N2370 X2.1 Y6.84 Z-9.4
N2375 G0 Z5.
N2380 X0.511 Y55.715
N2385 Z-8.8
N2390 G1 Z-9.4 F1400.
N2395 X0.516 Y55.721 Z-9.494
N2400 X0.53 Y55.738 Z-9.585
N2405 X0.553 Y55.765 Z-9.672
N2410 X0.584 Y55.803 Z-9.753
N2415 X0.622 Y55.851 Z-9.824
N2420 X0.668 Y55.906 Z-9.885
N2425 X0.719 Y55.968 Z-9.935
N2430 X0.774 Y56.036 Z-9.971
N2435 X0.832 Y56.106 Z-9.993
N2440 X0.891 Y56.179 Z-10.
N2445 G3 X1.223 Y56.891 I-1.224 J1.003
N2450 G1 X1.256 Y57.108
N2455 X1.307 Y57.326
N2460 X1.366 Y57.543
N2465 X1.828 Y59.065
N2470 X1.896 Y59.282
N2475 X1.967 Y59.5
N2480 X2.063 Y59.717
N2485 X2.195 Y60.032
N2490 X2.515 Y60.934
N2495 X2.818 Y61.843
N2500 X3.278 Y62.683
N2505 X3.89 Y63.42
N2510 X4.622 Y64.037
N2515 X5.441 Y64.534
N2520 X5.556 Y64.592
N2525 X5.666 Y64.659
N2530 X5.769 Y64.736
N2535 G3 X5.823 Y65.583 Z-9.8 I-0.397 J0.45
N2540 X4.89 Y65.544 I-0.451 J-0.396
N2545 G1 X1.049 Y60.352
N2550 G3 X1.254 Y59.463 I0.482 J-0.357
N2555 X2.063 Y59.717 Z-10. I0.278 J0.532
N2560 G1 X2.272 Y60.152
N2565 X2.327 Y60.261
N2570 X2.979 Y61.482
N2575 X3.083 Y61.673
N2580 X3.208 Y61.891
N2585 X3.359 Y62.108
N2590 X3.414 Y62.183
N2595 X3.52 Y62.326
N2600 X4.591 Y63.63
N2605 X4.718 Y63.78
N2610 X4.935 Y64.026
N2615 X5.221 Y64.282
N2620 X5.37 Y64.409
N2625 X6.674 Y65.48
N2630 X6.817 Y65.586
N2635 X6.892 Y65.641
N2640 X7.109 Y65.792
N2645 X7.327 Y65.917
N2650 X7.544 Y66.035
N2655 X8.739 Y66.673
N2660 X8.848 Y66.728
N2665 X9.283 Y66.937
N2670 X9.5 Y67.033
N2675 X9.73 Y67.108
N2680 X9.935 Y67.172
N2685 X10.889 Y67.462
N2690 G3 X11.294 Y68.07 I-0.194 J0.568
N2695 G1 X11.287 Y68.164 Z-9.993
N2700 X11.281 Y68.255 Z-9.971
N2705 X11.275 Y68.342 Z-9.935
N2710 X11.27 Y68.422 Z-9.885
N2715 X11.265 Y68.493 Z-9.824
N2720 X11.261 Y68.554 Z-9.753
N2725 X11.258 Y68.603 Z-9.672
N2730 X11.255 Y68.639 Z-9.585
N2735 X11.254 Y68.661 Z-9.494
N2740 X11.253 Y68.669 Z-9.4
N2745 G0 Z5.
N2750 X55.715 Y68.489
N2755 Z-8.8
N2760 G1 Z-9.4 F1400.
N2765 X55.721 Y68.484 Z-9.494
N2770 X55.738 Y68.47 Z-9.585
N2775 X55.765 Y68.447 Z-9.672
N2780 X55.803 Y68.416 Z-9.753
N2785 X55.851 Y68.378 Z-9.824
N2790 X55.906 Y68.332 Z-9.885
N2795 X55.968 Y68.281 Z-9.935
N2800 X56.036 Y68.226 Z-9.971
N2805 X56.106 Y68.168 Z-9.993
N2810 X56.179 Y68.109 Z-10.
N2815 G3 X56.891 Y67.777 I1.003 J1.224
N2820 G1 X57.108 Y67.744
N2825 X57.326 Y67.693
N2830 X57.543 Y67.634
N2835 X59.065 Y67.172
N2840 X59.282 Y67.104
N2845 X59.5 Y67.033
N2850 X59.717 Y66.937
N2855 X60.029 Y66.806
N2860 X60.931 Y66.486
N2865 X61.84 Y66.183
N2870 X62.68 Y65.723
N2875 X63.416 Y65.111
N2880 X64.034 Y64.379
N2885 X64.531 Y63.56
N2890 X64.587 Y63.449
N2895 X64.652 Y63.343
N2900 X64.727 Y63.243
N2905 G3 X65.573 Y63.189 Z-9.8 I0.45 J0.397
N2910 X65.534 Y64.122 I-0.396 J0.451
N2915 G1 X60.352 Y67.951
N2920 G3 X59.463 Y67.746 I-0.357 J-0.483
N2925 X59.717 Y66.937 Z-10. I0.532 J-0.278
N2930 G1 X60.152 Y66.728
N2935 X60.261 Y66.673
N2940 X61.482 Y66.021
N2945 X61.673 Y65.917
N2950 X61.891 Y65.792
N2955 X62.108 Y65.641
N2960 X62.183 Y65.586
N2965 X62.326 Y65.48
N2970 X63.63 Y64.409
N2975 X63.78 Y64.282
N2980 X64.026 Y64.065
N2985 X64.282 Y63.779
N2990 X64.409 Y63.63
N2995 X65.48 Y62.326
N3000 X65.586 Y62.183
N3005 X65.641 Y62.108
N3010 X65.792 Y61.891
N3015 X65.917 Y61.673
N3020 X66.035 Y61.456
N3025 X66.673 Y60.261
N3030 X66.728 Y60.152
N3035 X66.937 Y59.717
N3040 X67.033 Y59.5
N3045 X67.108 Y59.27
N3050 X67.172 Y59.065
N3055 X67.461 Y58.113
N3060 G3 X68.069 Y57.708 I0.568 J0.194
N3065 G1 X68.163 Y57.714 Z-9.993
N3070 X68.254 Y57.721 Z-9.971
N3075 X68.341 Y57.726 Z-9.935
N3080 X68.421 Y57.732 Z-9.885
N3085 X68.493 Y57.737 Z-9.824
N3090 X68.554 Y57.741 Z-9.753
N3095 X68.603 Y57.744 Z-9.672
N3100 X68.639 Y57.747 Z-9.585
N3105 X68.661 Y57.748 Z-9.494
N3110 X68.668 Y57.749 Z-9.4
N3115 G0 Z5.
N3120 X68.489 Y13.285
N3125 Z-8.8
N3130 G1 Z-9.4 F1400.
N3135 X68.484 Y13.279 Z-9.494
N3140 X68.47 Y13.262 Z-9.585
N3145 X68.447 Y13.235 Z-9.672
N3150 X68.416 Y13.197 Z-9.753
N3155 X68.378 Y13.149 Z-9.824
N3160 X68.332 Y13.094 Z-9.885
N3165 X68.281 Y13.032 Z-9.935
N3170 X68.226 Y12.964 Z-9.971
N3175 X68.168 Y12.894 Z-9.993
N3180 X68.109 Y12.821 Z-10.
N3185 G3 X67.777 Y12.109 I1.224 J-1.003
N3190 G1 X67.744 Y11.892
N3195 X67.693 Y11.674
N3200 X67.634 Y11.457
N3205 X67.172 Y9.935
N3210 X67.104 Y9.718
N3215 X67.033 Y9.5
N3220 X66.937 Y9.283
N3225 X66.803 Y8.965
N3230 X66.483 Y8.063
N3235 X66.178 Y7.155
N3240 X65.716 Y6.316
N3245 X65.103 Y5.58
N3250 X64.37 Y4.964
N3255 X63.551 Y4.467
N3260 X63.45 Y4.417
N3265 X63.353 Y4.357
N3270 X63.262 Y4.289
N3275 G3 X63.208 Y3.443 Z-9.8 I0.397 J-0.45
N3280 X64.142 Y3.483 I0.451 J0.396
N3285 G1 X67.951 Y8.649
N3290 G3 X67.746 Y9.537 I-0.483 J0.356
N3295 X66.937 Y9.283 Z-10. I-0.278 J-0.532
N3300 G1 X66.728 Y8.848
N3305 X66.673 Y8.739
N3310 X66.021 Y7.518
N3315 X65.917 Y7.327
N3320 X65.792 Y7.109
N3325 X65.641 Y6.892
N3330 X65.586 Y6.817
N3335 X65.48 Y6.674
N3340 X64.409 Y5.37
N3345 X64.282 Y5.221
N3350 X64.026 Y4.935
N3355 X63.78 Y4.718
N3360 X63.63 Y4.591
N3365 X62.326 Y3.52
N3370 X62.183 Y3.414
N3375 X62.108 Y3.359
N3380 X61.891 Y3.208
N3385 X61.673 Y3.083
N3390 X61.456 Y2.965
N3395 X60.261 Y2.327
N3400 X60.152 Y2.272
N3405 X59.717 Y2.063
N3410 X59.5 Y1.967
N3415 X59.27 Y1.892
N3420 X59.065 Y1.828
N3425 X58.116 Y1.54
N3430 X58.03 Y1.503
N3435 X57.952 Y1.454
N3440 X57.902 Y1.4 Z-9.995
N3445 X57.852 Y1.347 Z-9.982
N3450 X57.804 Y1.295 Z-9.959
N3455 X57.774 Y1.222 Z-9.921
N3460 X57.747 Y1.154 Z-9.871
N3465 X57.722 Y1.094 Z-9.812
N3470 X57.717 Y1.045 Z-9.752
N3475 X57.713 Y1.004 Z-9.687
N3480 X57.71 Y0.972 Z-9.617
N3485 Y0.95 Z-9.546
N3490 X57.711 Y0.936 Z-9.474
N3495 Y0.931 Z-9.4
N3500 G0 Z5.
N3505 X-0.47 Y-6.282
N3510 Z-17.4
N3515 G1 Z-18. F1400.
N3520 Z-20.
N3525 G3 X0. Y-3.016 I-14.839 J3.801
N3530 G1 Y-2.931
N3535 X-0.479 Y-2.102
N3540 X-0.819 Y-1.207
N3545 X-1.053 Y-0.278
N3550 X-1.211 Y0.666
N3555 X-1.314 Y1.619
N3560 X-1.381 Y2.574
N3565 X-1.424 Y3.531
N3570 X-1.452 Y4.488
N3575 X-1.47 Y5.445
N3580 X-1.481 Y6.403
N3585 X-1.488 Y7.361
N3590 X-1.492 Y8.318
N3595 X-1.495 Y9.276
N3600 X-1.498 Y11.191
N3605 X-1.5 Y15.98
N3610 Y47.584
N3615 Y66.738
N3620 X-1.408 Y67.208
N3625 X-1.029 Y68.087
N3630 X-0.385 Y68.796
N3635 X0.41 Y69.33
N3640 X1.287 Y69.715
N3645 X2.207 Y69.982
N3650 X3.147 Y70.163
N3655 X4.097 Y70.283
N3660 X5.052 Y70.361
N3665 X6.008 Y70.412
N3670 X6.965 Y70.444
N3675 X7.923 Y70.464
N3680 X8.881 Y70.477
N3685 X9.838 Y70.486
N3690 X10.796 Y70.491
N3695 X11.754 Y70.494
N3700 X13.669 Y70.498
N3705 X17.5 Y70.5
N3710 X28.034
N3715 X66.821
N3720 X67.287 Y70.389
N3725 X68.154 Y69.981
N3730 X68.847 Y69.321
N3735 X69.368 Y68.517
N3740 X69.741 Y67.635
N3745 X70. Y66.713
N3750 X70.175 Y65.772
N3755 X70.291 Y64.821
N3760 X70.366 Y63.866
N3765 X70.415 Y62.91
N3770 X70.446 Y61.952
N3775 X70.466 Y60.995
N3780 X70.478 Y60.037
N3785 X70.486 Y59.08
N3790 X70.491 Y58.122
N3795 X70.495 Y57.164
N3800 X70.498 Y55.249
N3805 X70.5 Y51.418
N3810 Y9.28
N3815 Y2.576
N3820 X70.496 Y2.336
N3825 X70.464 Y2.099
N3830 X70.344 Y1.636
N3835 X69.91 Y0.782
N3840 X69.234 Y0.103
N3845 X68.421 Y-0.404
N3850 X67.535 Y-0.767
N3855 X66.611 Y-1.018
N3860 X65.668 Y-1.187
N3865 X64.717 Y-1.298
N3870 X63.762 Y-1.371
N3875 X62.806 Y-1.418
N3880 X61.848 Y-1.448
N3885 X60.891 Y-1.467
N3890 X59.933 Y-1.479
N3895 X58.976 Y-1.487
N3900 X58.018 Y-1.492
N3905 X57.06 Y-1.495
N3910 X55.145 Y-1.498
N3915 X51.314 Y-1.5
N3920 X28.329
N3925 X4.387
N3930 X3.91 Y-1.461
N3935 X2.989 Y-1.197
N3940 X2.203 Y-0.65
N3945 X1.579 Y0.076
N3950 X1.105 Y0.909
N3955 X0.76 Y1.802
N3960 X0.515 Y2.728
N3965 X0.345 Y3.67
N3970 X0.229 Y4.621
N3975 X0.151 Y5.575
N3980 X0.099 Y6.532
N3985 X0.065 Y7.489
N3990 X0.042 Y8.446
N3995 X0.027 Y9.404
N4000 X0.018 Y10.361
N4005 X0.012 Y11.319
N4010 X0.008 Y12.277
N4015 X0.003 Y14.192
N4020 X0.001 Y17.065
N4025 X0. Y22.811
N4030 Y63.992
N4035 X0.042 Y64.949
N4040 X0.363 Y65.851
N4045 X0.919 Y66.631
N4050 X1.636 Y67.266
N4055 X2.457 Y67.759
N4060 X3.341 Y68.128
N4065 X4.26 Y68.397
N4070 X5.198 Y68.588
N4075 X6.147 Y68.722
N4080 X7.1 Y68.813
N4085 X8.056 Y68.876
N4090 X9.012 Y68.917
N4095 X9.97 Y68.945
N4100 X10.927 Y68.964
N4105 X11.885 Y68.976
N4110 X12.843 Y68.984
N4115 X13.8 Y68.99
N4120 X14.758 Y68.993
N4125 X16.673 Y68.997
N4130 X20.504 Y68.999
N4135 X57.854 Y69.
N4140 X64.558
N4145 X65.493 Y68.791
N4150 X66.328 Y68.322
N4155 X67.024 Y67.664
N4160 X67.573 Y66.88
N4165 X67.991 Y66.018
N4170 X68.298 Y65.111
N4175 X68.518 Y64.178
N4180 X68.673 Y63.233
N4185 X68.78 Y62.282
N4190 X68.853 Y61.327
N4195 X68.902 Y60.37
N4200 X68.935 Y59.413
N4205 X68.957 Y58.456
N4210 X68.972 Y57.498
N4215 X68.981 Y56.541
N4220 X68.988 Y55.583
N4225 X68.992 Y54.625
N4230 X68.997 Y52.71
N4235 X68.999 Y49.837
N4240 X69. Y37.387
N4245 Y26.852
N4250 Y4.825
N4255 X68.901 Y3.872
N4260 X68.528 Y2.99
N4265 X67.937 Y2.237
N4270 X67.195 Y1.631
N4275 X66.36 Y1.163
N4280 X65.468 Y0.814
N4285 X64.544 Y0.562
N4290 X63.603 Y0.383
N4295 X62.654 Y0.258
N4300 X61.7 Y0.173
N4305 X60.744 Y0.115
N4310 X59.787 Y0.076
N4315 X58.829 Y0.051
N4320 X57.872 Y0.033
N4325 X56.914 Y0.022
N4330 X55.957 Y0.014
N4335 X54.999 Y0.009
N4340 X54.041 Y0.006
N4345 X52.126 Y0.003
N4350 X48.295 Y0.
N4355 X42.549
N4360 X6.156
N4365 X5.22 Y0.2
N4370 X4.372 Y0.645
N4375 X3.656 Y1.281
N4380 X3.081 Y2.047
N4385 X2.636 Y2.895
N4390 X2.304 Y3.793
N4395 X2.061 Y4.72
N4400 X1.887 Y5.662
N4405 X1.765 Y6.612
N4410 X1.68 Y7.565
N4415 X1.622 Y8.521
N4420 X1.582 Y9.478
N4425 X1.555 Y10.436
N4430 X1.552 Y10.583
N4435 X1.54 Y10.766
N4440 X1.512 Y10.948
N4445 X1.467 Y11.125
N4450 X1.366 Y11.457
N4455 X1.307 Y11.674
N4460 X1.256 Y11.892
N4465 X1.223 Y12.109
N4470 X1.197 Y12.326
N4475 X1.069 Y13.631
N4480 X1.008 Y14.283
N4485 X1.004 Y14.5
N4490 X1.001 Y14.935
N4495 X1. Y16.457
N4500 Y53.847
N4505 X1.001 Y54.065
N4510 X1.004 Y54.5
N4515 X1.008 Y54.717
N4520 X1.069 Y55.369
N4525 X1.197 Y56.674
N4530 X1.223 Y56.891
N4535 X1.319 Y57.844
N4540 X1.387 Y58.799
N4545 X1.429 Y59.756
N4550 X1.455 Y60.713
N4555 X1.472 Y61.671
N4560 X1.487 Y62.628
N4565 X1.68 Y63.567
N4570 X2.105 Y64.424
N4575 X2.717 Y65.161
N4580 X3.463 Y65.762
N4585 X4.296 Y66.234
N4590 X5.184 Y66.593
N4595 X6.104 Y66.858
N4600 X7.042 Y67.051
N4605 X7.99 Y67.189
N4610 X8.943 Y67.286
N4615 X9.898 Y67.353
N4620 X10.406 Y67.378
N4625 X10.569 Y67.393
N4630 X10.731 Y67.421
N4635 X10.889 Y67.462
N4640 X11.457 Y67.634
N4645 X11.674 Y67.693
N4650 X11.892 Y67.744
N4655 X12.109 Y67.777
N4660 X12.326 Y67.803
N4665 X13.631 Y67.931
N4670 X14.283 Y67.992
N4675 X14.5 Y67.996
N4680 X14.935 Y67.999
N4685 X16.457 Y68.
N4690 X53.847
N4695 X54.065 Y67.999
N4700 X54.5 Y67.996
N4705 X54.717 Y67.992
N4710 X55.369 Y67.931
N4715 X56.674 Y67.803
N4720 X56.891 Y67.777
N4725 X57.844 Y67.681
N4730 X58.799 Y67.613
N4735 X59.756 Y67.571
N4740 X60.713 Y67.545
N4745 X61.671 Y67.528
N4750 X62.628 Y67.516
N4755 X63.566 Y67.32
N4760 X64.424 Y66.895
N4765 X65.159 Y66.282
N4770 X65.76 Y65.535
N4775 X66.231 Y64.702
N4780 X66.59 Y63.814
N4785 X66.856 Y62.894
N4790 X67.049 Y61.956
N4795 X67.187 Y61.008
N4800 X67.285 Y60.055
N4805 X67.353 Y59.1
N4810 X67.378 Y58.595
N4815 X67.392 Y58.432
N4820 X67.42 Y58.271
N4825 X67.461 Y58.113
N4830 X67.634 Y57.543
N4835 X67.693 Y57.326
N4840 X67.744 Y57.108
N4845 X67.777 Y56.891
N4850 X67.803 Y56.674
N4855 X67.931 Y55.369
N4860 X67.992 Y54.717
N4865 X67.996 Y54.5
N4870 X67.999 Y54.065
N4875 X68. Y52.543
N4880 Y15.153
N4885 X67.999 Y14.935
N4890 X67.996 Y14.5
N4895 X67.992 Y14.283
N4900 X67.931 Y13.631
N4905 X67.803 Y12.326
N4910 X67.777 Y12.109
N4915 X67.681 Y11.156
N4920 X67.613 Y10.201
N4925 X67.571 Y9.244
N4930 X67.545 Y8.287
N4935 X67.528 Y7.329
N4940 X67.509 Y6.372
N4945 X67.315 Y5.434
N4950 X66.888 Y4.577
N4955 X66.274 Y3.842
N4960 X65.528 Y3.241
N4965 X64.694 Y2.77
N4970 X63.807 Y2.411
N4975 X62.887 Y2.145
N4980 X61.949 Y1.951
N4985 X61.001 Y1.813
N4990 X60.048 Y1.716
N4995 X59.093 Y1.648
N5000 X58.597 Y1.623
N5005 X58.435 Y1.609
N5010 X58.274 Y1.581
N5015 X58.116 Y1.54
N5020 X57.543 Y1.366
N5025 X57.326 Y1.307
N5030 X57.108 Y1.256
N5035 X56.891 Y1.223
N5040 X56.674 Y1.197
N5045 X55.369 Y1.069
N5050 X54.717 Y1.008
N5055 X54.5 Y1.004
N5060 X54.065 Y1.001
N5065 X52.543 Y1.
N5070 X15.153
N5075 X14.935 Y1.001
N5080 X14.5 Y1.004
N5085 X14.283 Y1.008
N5090 X13.631 Y1.069
N5095 X12.326 Y1.197
N5100 X12.109 Y1.223
N5105 X11.156 Y1.319
N5110 X10.201 Y1.387
N5115 X9.244 Y1.429
N5120 X8.287 Y1.455
N5125 X7.338 Y1.583
N5130 X6.448 Y1.937
N5135 X5.664 Y2.487
N5140 X5.009 Y3.187
N5145 X4.486 Y3.988
N5150 X4.08 Y4.856
N5155 X3.774 Y5.763
N5160 X3.666 Y6.21
N5165 X3.592 Y6.45
N5170 X3.489 Y6.678
N5175 X3.359 Y6.892
N5180 X3.208 Y7.109
N5185 X3.083 Y7.327
N5190 X2.965 Y7.544
N5195 X2.327 Y8.739
N5200 X2.272 Y8.848
N5205 X2.063 Y9.283
N5210 X1.967 Y9.5
N5215 X1.892 Y9.73
N5220 X1.828 Y9.935
N5225 X1.467 Y11.125
N5230 G3 X0.858 Y11.53 I-0.568 J-0.194
N5235 G1 X0.765 Y11.524 Z-19.993
N5240 X0.673 Y11.518 Z-19.971
N5245 X0.587 Y11.512 Z-19.935
N5250 X0.507 Y11.506 Z-19.885
N5255 X0.435 Y11.502 Z-19.824
N5260 X0.374 Y11.497 Z-19.753
N5265 X0.325 Y11.494 Z-19.672
N5270 X0.289 Y11.492 Z-19.585
N5275 X0.267 Y11.49 Z-19.494
N5280 X0.26 Z-19.4
N5285 G0 Z5.
N5290 X13.285 Y0.511
N5295 Z-18.8
N5300 G1 Z-19.4 F1400.
N5305 X13.279 Y0.516 Z-19.494
N5310 X13.262 Y0.53 Z-19.585
N5315 X13.235 Y0.553 Z-19.672
N5320 X13.197 Y0.584 Z-19.753
N5325 X13.149 Y0.622 Z-19.824
N5330 X13.094 Y0.668 Z-19.885
N5335 X13.032 Y0.719 Z-19.935
N5340 X12.964 Y0.774 Z-19.971
N5345 X12.894 Y0.832 Z-19.993
N5350 X12.821 Y0.891 Z-20.
N5355 G3 X12.109 Y1.223 I-1.003 J-1.224
N5360 G1 X11.892 Y1.256
N5365 X11.674 Y1.307
N5370 X11.457 Y1.366
N5375 X9.935 Y1.828
N5380 X9.718 Y1.896
N5385 X9.5 Y1.967
N5390 X9.283 Y2.063
N5395 X8.848 Y2.272
N5400 X8.739 Y2.327
N5405 X7.518 Y2.979
N5410 X7.327 Y3.083
N5415 X7.109 Y3.208
N5420 X6.892 Y3.359
N5425 X6.817 Y3.414
N5430 X6.674 Y3.52
N5435 X5.37 Y4.591
N5440 X5.22 Y4.718
N5445 X4.974 Y4.935
N5450 X4.718 Y5.221
N5455 X4.591 Y5.37
N5460 X3.52 Y6.674
N5465 X3.414 Y6.817
N5470 X3.359 Y6.892
N5475 G3 X2.652 Y7.075 I-0.473 J-0.369
N5480 G1 X2.566 Y7.038 Z-19.993
N5485 X2.481 Y7.002 Z-19.971
N5490 X2.401 Y6.968 Z-19.935
N5495 X2.327 Y6.937 Z-19.885
N5500 X2.262 Y6.909 Z-19.824
N5505 X2.205 Y6.885 Z-19.753
N5510 X2.16 Y6.866 Z-19.672
N5515 X2.127 Y6.852 Z-19.585
N5520 X2.107 Y6.843 Z-19.494
N5525 X2.1 Y6.84 Z-19.4
N5530 G0 Z5.
N5535 X0.511 Y55.715
N5540 Z-18.8
N5545 G1 Z-19.4 F1400.
N5550 X0.516 Y55.721 Z-19.494
N5555 X0.53 Y55.738 Z-19.585
N5560 X0.553 Y55.765 Z-19.672
N5565 X0.584 Y55.803 Z-19.753
N5570 X0.622 Y55.851 Z-19.824
N5575 X0.668 Y55.906 Z-19.885
N5580 X0.719 Y55.968 Z-19.935
N5585 X0.774 Y56.036 Z-19.971
N5590 X0.832 Y56.106 Z-19.993
N5595 X0.891 Y56.179 Z-20.
N5600 G3 X1.223 Y56.891 I-1.224 J1.003
N5605 G1 X1.256 Y57.108
N5610 X1.307 Y57.326
N5615 X1.366 Y57.543
N5620 X1.828 Y59.065
N5625 X1.896 Y59.282
N5630 X1.967 Y59.5
N5635 X2.063 Y59.717
N5640 X2.195 Y60.032
N5645 X2.515 Y60.934
N5650 X2.818 Y61.843
N5655 X3.278 Y62.683
N5660 X3.89 Y63.42
N5665 X4.622 Y64.037
N5670 X5.441 Y64.534
N5675 X5.556 Y64.592
N5680 X5.666 Y64.659
N5685 X5.769 Y64.736
N5690 G3 X5.823 Y65.583 Z-19.8 I-0.397 J0.45
N5695 X4.89 Y65.544 I-0.451 J-0.396
N5700 G1 X1.049 Y60.352
N5705 G3 X1.254 Y59.463 I0.482 J-0.357
N5710 X2.063 Y59.717 Z-20. I0.278 J0.532
N5715 G1 X2.272 Y60.152
N5720 X2.327 Y60.261
N5725 X2.979 Y61.482
N5730 X3.083 Y61.673
N5735 X3.208 Y61.891
N5740 X3.359 Y62.108
N5745 X3.414 Y62.183
N5750 X3.52 Y62.326
N5755 X4.591 Y63.63
N5760 X4.718 Y63.78
N5765 X4.935 Y64.026
N5770 X5.221 Y64.282
N5775 X5.37 Y64.409
N5780 X6.674 Y65.48
N5785 X6.817 Y65.586
N5790 X6.892 Y65.641
N5795 X7.109 Y65.792
N5800 X7.327 Y65.917
N5805 X7.544 Y66.035
N5810 X8.739 Y66.673
N5815 X8.848 Y66.728
N5820 X9.283 Y66.937
N5825 X9.5 Y67.033
N5830 X9.73 Y67.108
N5835 X9.935 Y67.172
N5840 X10.889 Y67.462
N5845 G3 X11.294 Y68.07 I-0.194 J0.568
N5850 G1 X11.287 Y68.164 Z-19.993
N5855 X11.281 Y68.255 Z-19.971
N5860 X11.275 Y68.342 Z-19.935
N5865 X11.27 Y68.422 Z-19.885
N5870 X11.265 Y68.493 Z-19.824
N5875 X11.261 Y68.554 Z-19.753
N5880 X11.258 Y68.603 Z-19.672
N5885 X11.255 Y68.639 Z-19.585
N5890 X11.254 Y68.661 Z-19.494
N5895 X11.253 Y68.669 Z-19.4
N5900 G0 Z5.
N5905 X55.715 Y68.489
N5910 Z-18.8
N5915 G1 Z-19.4 F1400.
N5920 X55.721 Y68.484 Z-19.494
N5925 X55.738 Y68.47 Z-19.585
N5930 X55.765 Y68.447 Z-19.672
N5935 X55.803 Y68.416 Z-19.753
N5940 X55.851 Y68.378 Z-19.824
N5945 X55.906 Y68.332 Z-19.885
N5950 X55.968 Y68.281 Z-19.935
N5955 X56.036 Y68.226 Z-19.971
N5960 X56.106 Y68.168 Z-19.993
N5965 X56.179 Y68.109 Z-20.
N5970 G3 X56.891 Y67.777 I1.003 J1.224
N5975 G1 X57.108 Y67.744
N5980 X57.326 Y67.693
N5985 X57.543 Y67.634
N5990 X59.065 Y67.172
N5995 X59.282 Y67.104
N6000 X59.5 Y67.033
N6005 X59.717 Y66.937
N6010 X60.029 Y66.806
N6015 X60.931 Y66.486
N6020 X61.84 Y66.183
N6025 X62.68 Y65.723
N6030 X63.416 Y65.111
N6035 X64.034 Y64.379
N6040 X64.531 Y63.56
N6045 X64.587 Y63.449
N6050 X64.652 Y63.343
N6055 X64.727 Y63.243
N6060 G3 X65.573 Y63.189 Z-19.8 I0.45 J0.397
N6065 X65.534 Y64.122 I-0.396 J0.451
N6070 G1 X60.352 Y67.951
N6075 G3 X59.463 Y67.746 I-0.357 J-0.483
N6080 X59.717 Y66.937 Z-20. I0.532 J-0.278
N6085 G1 X60.152 Y66.728
N6090 X60.261 Y66.673
N6095 X61.482 Y66.021
N6100 X61.673 Y65.917
N6105 X61.891 Y65.792
N6110 X62.108 Y65.641
N6115 X62.183 Y65.586
N6120 X62.326 Y65.48
N6125 X63.63 Y64.409
N6130 X63.78 Y64.282
N6135 X64.026 Y64.065
N6140 X64.282 Y63.779
N6145 X64.409 Y63.63
N6150 X65.48 Y62.326
N6155 X65.586 Y62.183
N6160 X65.641 Y62.108
N6165 X65.792 Y61.891
N6170 X65.917 Y61.673
N6175 X66.035 Y61.456
N6180 X66.673 Y60.261
N6185 X66.728 Y60.152
N6190 X66.937 Y59.717
N6195 X67.033 Y59.5
N6200 X67.108 Y59.27
N6205 X67.172 Y59.065
N6210 X67.461 Y58.113
N6215 G3 X68.069 Y57.708 I0.568 J0.194
N6220 G1 X68.163 Y57.714 Z-19.993
N6225 X68.254 Y57.721 Z-19.971
N6230 X68.341 Y57.726 Z-19.935
N6235 X68.421 Y57.732 Z-19.885
N6240 X68.493 Y57.737 Z-19.824
N6245 X68.554 Y57.741 Z-19.753
N6250 X68.603 Y57.744 Z-19.672
N6255 X68.639 Y57.747 Z-19.585
N6260 X68.661 Y57.748 Z-19.494
N6265 X68.668 Y57.749 Z-19.4
N6270 G0 Z5.
N6275 X68.489 Y13.285
N6280 Z-18.8
N6285 G1 Z-19.4 F1400.
N6290 X68.484 Y13.279 Z-19.494
N6295 X68.47 Y13.262 Z-19.585
N6300 X68.447 Y13.235 Z-19.672
N6305 X68.416 Y13.197 Z-19.753
N6310 X68.378 Y13.149 Z-19.824
N6315 X68.332 Y13.094 Z-19.885
N6320 X68.281 Y13.032 Z-19.935
N6325 X68.226 Y12.964 Z-19.971
N6330 X68.168 Y12.894 Z-19.993
N6335 X68.109 Y12.821 Z-20.
N6340 G3 X67.777 Y12.109 I1.224 J-1.003
N6345 G1 X67.744 Y11.892
N6350 X67.693 Y11.674
N6355 X67.634 Y11.457
N6360 X67.172 Y9.935
N6365 X67.104 Y9.718
N6370 X67.033 Y9.5
N6375 X66.937 Y9.283
N6380 X66.803 Y8.965
N6385 X66.483 Y8.063
N6390 X66.178 Y7.155
N6395 X65.716 Y6.316
N6400 X65.103 Y5.58
N6405 X64.37 Y4.964
N6410 X63.551 Y4.467
N6415 X63.45 Y4.417
N6420 X63.353 Y4.357
N6425 X63.262 Y4.289
N6430 G3 X63.208 Y3.443 Z-19.8 I0.397 J-0.45
N6435 X64.142 Y3.483 I0.451 J0.396
N6440 G1 X67.951 Y8.649
N6445 G3 X67.746 Y9.537 I-0.483 J0.356
N6450 X66.937 Y9.283 Z-20. I-0.278 J-0.532
N6455 G1 X66.728 Y8.848
N6460 X66.673 Y8.739
N6465 X66.021 Y7.518
N6470 X65.917 Y7.327
N6475 X65.792 Y7.109
N6480 X65.641 Y6.892
N6485 X65.586 Y6.817
N6490 X65.48 Y6.674
N6495 X64.409 Y5.37
N6500 X64.282 Y5.221
N6505 X64.026 Y4.935
N6510 X63.78 Y4.718
N6515 X63.63 Y4.591
N6520 X62.326 Y3.52
N6525 X62.183 Y3.414
N6530 X62.108 Y3.359
N6535 X61.891 Y3.208
N6540 X61.673 Y3.083
N6545 X61.456 Y2.965
N6550 X60.261 Y2.327
N6555 X60.152 Y2.272
N6560 X59.717 Y2.063
N6565 X59.5 Y1.967
N6570 X59.27 Y1.892
N6575 X59.065 Y1.828
N6580 X58.116 Y1.54
N6585 X58.03 Y1.503
N6590 X57.952 Y1.454
N6595 X57.902 Y1.4 Z-19.995
N6600 X57.852 Y1.347 Z-19.982
N6605 X57.804 Y1.295 Z-19.959
N6610 X57.774 Y1.222 Z-19.921
N6615 X57.747 Y1.154 Z-19.871
N6620 X57.722 Y1.094 Z-19.812
N6625 X57.717 Y1.045 Z-19.752
N6630 X57.713 Y1.004 Z-19.687
N6635 X57.71 Y0.972 Z-19.617
N6640 Y0.95 Z-19.546
N6645 X57.711 Y0.936 Z-19.474
N6650 Y0.931 Z-19.4
N6655 G0 Z5.
N6660 X-0.47 Y-6.282
N6665 Z-23.9
N6670 G1 Z-24.5 F1400.
N6675 Z-26.5
N6680 G3 X0. Y-3.016 I-14.839 J3.801
N6685 G1 Y-2.931
N6690 X-0.479 Y-2.102
N6695 X-0.819 Y-1.207
N6700 X-1.053 Y-0.278
N6705 X-1.211 Y0.666
N6710 X-1.314 Y1.619
N6715 X-1.381 Y2.574
N6720 X-1.424 Y3.531
N6725 X-1.452 Y4.488
N6730 X-1.47 Y5.445
N6735 X-1.481 Y6.403
N6740 X-1.488 Y7.361
N6745 X-1.492 Y8.318
N6750 X-1.495 Y9.276
N6755 X-1.498 Y11.191
N6760 X-1.5 Y15.98
N6765 Y47.584
N6770 Y66.738
N6775 X-1.408 Y67.208
N6780 X-1.029 Y68.087
N6785 X-0.385 Y68.796
N6790 X0.41 Y69.33
N6795 X1.287 Y69.715
N6800 X2.207 Y69.982
N6805 X3.147 Y70.163
N6810 X4.097 Y70.283
N6815 X5.052 Y70.361
N6820 X6.008 Y70.412
N6825 X6.965 Y70.444
N6830 X7.923 Y70.464
N6835 X8.881 Y70.477
N6840 X9.838 Y70.486
N6845 X10.796 Y70.491
N6850 X11.754 Y70.494
N6855 X13.669 Y70.498
N6860 X17.5 Y70.5
N6865 X28.034
N6870 X66.821
N6875 X67.287 Y70.389
N6880 X68.154 Y69.981
N6885 X68.847 Y69.321
N6890 X69.368 Y68.517
N6895 X69.741 Y67.635
N6900 X70. Y66.713
N6905 X70.175 Y65.772
N6910 X70.291 Y64.821
N6915 X70.366 Y63.866
N6920 X70.415 Y62.91
N6925 X70.446 Y61.952
N6930 X70.466 Y60.995
N6935 X70.478 Y60.037
N6940 X70.486 Y59.08
N6945 X70.491 Y58.122
N6950 X70.495 Y57.164
N6955 X70.498 Y55.249
N6960 X70.5 Y51.418
N6965 Y9.28
N6970 Y2.576
N6975 X70.496 Y2.336
N6980 X70.464 Y2.099
N6985 X70.344 Y1.636
N6990 X69.91 Y0.782
N6995 X69.234 Y0.103
N7000 X68.421 Y-0.404
N7005 X67.535 Y-0.767
N7010 X66.611 Y-1.018
N7015 X65.668 Y-1.187
N7020 X64.717 Y-1.298
N7025 X63.762 Y-1.371
N7030 X62.806 Y-1.418
N7035 X61.848 Y-1.448
N7040 X60.891 Y-1.467
N7045 X59.933 Y-1.479
N7050 X58.976 Y-1.487
N7055 X58.018 Y-1.492
N7060 X57.06 Y-1.495
N7065 X55.145 Y-1.498
N7070 X51.314 Y-1.5
N7075 X28.329
N7080 X4.387
N7085 X3.91 Y-1.461
N7090 X2.989 Y-1.197
N7095 X2.203 Y-0.65
N7100 X1.579 Y0.076
N7105 X1.105 Y0.909
N7110 X0.76 Y1.802
N7115 X0.515 Y2.728
N7120 X0.345 Y3.67
N7125 X0.229 Y4.621
N7130 X0.151 Y5.575
N7135 X0.099 Y6.532
N7140 X0.065 Y7.489
N7145 X0.042 Y8.446
N7150 X0.027 Y9.404
N7155 X0.018 Y10.361
N7160 X0.012 Y11.319
N7165 X0.008 Y12.277
N7170 X0.003 Y14.192
N7175 X0.001 Y17.065
N7180 X0. Y22.811
N7185 Y63.992
N7190 X0.042 Y64.949
N7195 X0.363 Y65.851
N7200 X0.919 Y66.631
N7205 X1.636 Y67.266
N7210 X2.457 Y67.759
N7215 X3.341 Y68.128
N7220 X4.26 Y68.397
N7225 X5.198 Y68.588
N7230 X6.147 Y68.722
N7235 X7.1 Y68.813
N7240 X8.056 Y68.876
N7245 X9.012 Y68.917
N7250 X9.97 Y68.945
N7255 X10.927 Y68.964
N7260 X11.885 Y68.976
N7265 X12.843 Y68.984
N7270 X13.8 Y68.99
N7275 X14.758 Y68.993
N7280 X16.673 Y68.997
N7285 X20.504 Y68.999
N7290 X57.854 Y69.
N7295 X64.558
N7300 X65.493 Y68.791
N7305 X66.328 Y68.322
N7310 X67.024 Y67.664
N7315 X67.573 Y66.88
N7320 X67.991 Y66.018
N7325 X68.298 Y65.111
N7330 X68.518 Y64.178
N7335 X68.673 Y63.233
N7340 X68.78 Y62.282
N7345 X68.853 Y61.327
N7350 X68.902 Y60.37
N7355 X68.935 Y59.413
N7360 X68.957 Y58.456
N7365 X68.972 Y57.498
N7370 X68.981 Y56.541
N7375 X68.988 Y55.583
N7380 X68.992 Y54.625
N7385 X68.997 Y52.71
N7390 X68.999 Y49.837
N7395 X69. Y37.387
N7400 Y26.852
N7405 Y4.825
N7410 X68.901 Y3.872
N7415 X68.528 Y2.99
N7420 X67.937 Y2.237
N7425 X67.195 Y1.631
N7430 X66.36 Y1.163
N7435 X65.468 Y0.814
N7440 X64.544 Y0.562
N7445 X63.603 Y0.383
N7450 X62.654 Y0.258
N7455 X61.7 Y0.173
N7460 X60.744 Y0.115
N7465 X59.787 Y0.076
N7470 X58.829 Y0.051
N7475 X57.872 Y0.033
N7480 X56.914 Y0.022
N7485 X55.957 Y0.014
N7490 X54.999 Y0.009
N7495 X54.041 Y0.006
N7500 X52.126 Y0.003
N7505 X48.295 Y0.
N7510 X42.549
N7515 X6.156
N7520 X5.22 Y0.2
N7525 X4.372 Y0.645
N7530 X3.656 Y1.281
N7535 X3.081 Y2.047
N7540 X2.636 Y2.895
N7545 X2.304 Y3.793
N7550 X2.061 Y4.72
N7555 X1.887 Y5.662
N7560 X1.765 Y6.612
N7565 X1.68 Y7.565
N7570 X1.622 Y8.521
N7575 X1.582 Y9.478
N7580 X1.555 Y10.436
N7585 X1.552 Y10.583
N7590 X1.54 Y10.766
N7595 X1.512 Y10.948
N7600 X1.467 Y11.125
N7605 X1.366 Y11.457
N7610 X1.307 Y11.674
N7615 X1.256 Y11.892
N7620 X1.223 Y12.109
N7625 X1.197 Y12.326
N7630 X1.069 Y13.631
N7635 X1.008 Y14.283
N7640 X1.004 Y14.5
N7645 X1.001 Y14.935
N7650 X1. Y16.457
N7655 Y53.847
N7660 X1.001 Y54.065
N7665 X1.004 Y54.5
N7670 X1.008 Y54.717
N7675 X1.069 Y55.369
N7680 X1.197 Y56.674
N7685 X1.223 Y56.891
N7690 X1.319 Y57.844
N7695 X1.387 Y58.799
N7700 X1.429 Y59.756
N7705 X1.455 Y60.713
N7710 X1.472 Y61.671
N7715 X1.487 Y62.628
N7720 X1.68 Y63.567
N7725 X2.105 Y64.424
N7730 X2.717 Y65.161
N7735 X3.463 Y65.762
N7740 X4.296 Y66.234
N7745 X5.184 Y66.593
N7750 X6.104 Y66.858
N7755 X7.042 Y67.051
N7760 X7.99 Y67.189
N7765 X8.943 Y67.286
N7770 X9.898 Y67.353
N7775 X10.406 Y67.378
N7780 X10.569 Y67.393
N7785 X10.731 Y67.421
N7790 X10.889 Y67.462
N7795 X11.457 Y67.634
N7800 X11.674 Y67.693
N7805 X11.892 Y67.744
N7810 X12.109 Y67.777
N7815 X12.326 Y67.803
N7820 X13.631 Y67.931
N7825 X14.283 Y67.992
N7830 X14.5 Y67.996
N7835 X14.935 Y67.999
N7840 X16.457 Y68.
N7845 X53.847
N7850 X54.065 Y67.999
N7855 X54.5 Y67.996
N7860 X54.717 Y67.992
N7865 X55.369 Y67.931
N7870 X56.674 Y67.803
N7875 X56.891 Y67.777
N7880 X57.844 Y67.681
N7885 X58.799 Y67.613
N7890 X59.756 Y67.571
N7895 X60.713 Y67.545
N7900 X61.671 Y67.528
N7905 X62.628 Y67.516
N7910 X63.566 Y67.32
N7915 X64.424 Y66.895
N7920 X65.159 Y66.282
N7925 X65.76 Y65.535
N7930 X66.231 Y64.702
N7935 X66.59 Y63.814
N7940 X66.856 Y62.894
N7945 X67.049 Y61.956
N7950 X67.187 Y61.008
N7955 X67.285 Y60.055
N7960 X67.353 Y59.1
N7965 X67.378 Y58.595
N7970 X67.392 Y58.432
N7975 X67.42 Y58.271
N7980 X67.461 Y58.113
N7985 X67.634 Y57.543
N7990 X67.693 Y57.326
N7995 X67.744 Y57.108
N8000 X67.777 Y56.891
N8005 X67.803 Y56.674
N8010 X67.931 Y55.369
N8015 X67.992 Y54.717
N8020 X67.996 Y54.5
N8025 X67.999 Y54.065
N8030 X68. Y52.543
N8035 Y15.153
N8040 X67.999 Y14.935
N8045 X67.996 Y14.5
N8050 X67.992 Y14.283
N8055 X67.931 Y13.631
N8060 X67.803 Y12.326
N8065 X67.777 Y12.109
N8070 X67.681 Y11.156
N8075 X67.613 Y10.201
N8080 X67.571 Y9.244
N8085 X67.545 Y8.287
N8090 X67.528 Y7.329
N8095 X67.509 Y6.372
N8100 X67.315 Y5.434
N8105 X66.888 Y4.577
N8110 X66.274 Y3.842
N8115 X65.528 Y3.241
N8120 X64.694 Y2.77
N8125 X63.807 Y2.411
N8130 X62.887 Y2.145
N8135 X61.949 Y1.951
N8140 X61.001 Y1.813
N8145 X60.048 Y1.716
N8150 X59.093 Y1.648
N8155 X58.597 Y1.623
N8160 X58.435 Y1.609
N8165 X58.274 Y1.581
N8170 X58.116 Y1.54
N8175 X57.543 Y1.366
N8180 X57.326 Y1.307
N8185 X57.108 Y1.256
N8190 X56.891 Y1.223
N8195 X56.674 Y1.197
N8200 X55.369 Y1.069
N8205 X54.717 Y1.008
N8210 X54.5 Y1.004
N8215 X54.065 Y1.001
N8220 X52.543 Y1.
N8225 X15.153
N8230 X14.935 Y1.001
N8235 X14.5 Y1.004
N8240 X14.283 Y1.008
N8245 X13.631 Y1.069
N8250 X12.326 Y1.197
N8255 X12.109 Y1.223
N8260 X11.156 Y1.319
N8265 X10.201 Y1.387
N8270 X9.244 Y1.429
N8275 X8.287 Y1.455
N8280 X7.338 Y1.583
N8285 X6.448 Y1.937
N8290 X5.664 Y2.487
N8295 X5.009 Y3.187
N8300 X4.486 Y3.988
N8305 X4.08 Y4.856
N8310 X3.774 Y5.763
N8315 X3.666 Y6.21
N8320 X3.592 Y6.45
N8325 X3.489 Y6.678
N8330 X3.359 Y6.892
N8335 X3.208 Y7.109
N8340 X3.083 Y7.327
N8345 X2.965 Y7.544
N8350 X2.327 Y8.739
N8355 X2.272 Y8.848
N8360 X2.063 Y9.283
N8365 X1.967 Y9.5
N8370 X1.892 Y9.73
N8375 X1.828 Y9.935
N8380 X1.467 Y11.125
N8385 G3 X0.858 Y11.53 I-0.568 J-0.194
N8390 G1 X0.765 Y11.524 Z-26.493
N8395 X0.673 Y11.518 Z-26.471
N8400 X0.587 Y11.512 Z-26.435
N8405 X0.507 Y11.506 Z-26.385
N8410 X0.435 Y11.502 Z-26.324
N8415 X0.374 Y11.497 Z-26.253
N8420 X0.325 Y11.494 Z-26.172
N8425 X0.289 Y11.492 Z-26.085
N8430 X0.267 Y11.49 Z-25.994
N8435 X0.26 Z-25.9
N8440 G0 Z5.
N8445 X13.285 Y0.511
N8450 Z-25.3
N8455 G1 Z-25.9 F1400.
N8460 X13.279 Y0.516 Z-25.994
N8465 X13.262 Y0.53 Z-26.085
N8470 X13.235 Y0.553 Z-26.172
N8475 X13.197 Y0.584 Z-26.253
N8480 X13.149 Y0.622 Z-26.324
N8485 X13.094 Y0.668 Z-26.385
N8490 X13.032 Y0.719 Z-26.435
N8495 X12.964 Y0.774 Z-26.471
N8500 X12.894 Y0.832 Z-26.493
N8505 X12.821 Y0.891 Z-26.5
N8510 G3 X12.109 Y1.223 I-1.003 J-1.224
N8515 G1 X11.892 Y1.256
N8520 X11.674 Y1.307
N8525 X11.457 Y1.366
N8530 X9.935 Y1.828
N8535 X9.718 Y1.896
N8540 X9.5 Y1.967
N8545 X9.283 Y2.063
N8550 X8.848 Y2.272
N8555 X8.739 Y2.327
N8560 X7.518 Y2.979
N8565 X7.327 Y3.083
N8570 X7.109 Y3.208
N8575 X6.892 Y3.359
N8580 X6.817 Y3.414
N8585 X6.674 Y3.52
N8590 X5.37 Y4.591
N8595 X5.22 Y4.718
N8600 X4.974 Y4.935
N8605 X4.718 Y5.221
N8610 X4.591 Y5.37
N8615 X3.52 Y6.674
N8620 X3.414 Y6.817
N8625 X3.359 Y6.892
N8630 G3 X2.652 Y7.075 I-0.473 J-0.369
N8635 G1 X2.566 Y7.038 Z-26.493
N8640 X2.481 Y7.002 Z-26.471
N8645 X2.401 Y6.968 Z-26.435
N8650 X2.327 Y6.937 Z-26.385
N8655 X2.262 Y6.909 Z-26.324
N8660 X2.205 Y6.885 Z-26.253
N8665 X2.16 Y6.866 Z-26.172
N8670 X2.127 Y6.852 Z-26.085
N8675 X2.107 Y6.843 Z-25.994
N8680 X2.1 Y6.84 Z-25.9
N8685 G0 Z5.
N8690 X0.511 Y55.715
N8695 Z-25.3
N8700 G1 Z-25.9 F1400.
N8705 X0.516 Y55.721 Z-25.994
N8710 X0.53 Y55.738 Z-26.085
N8715 X0.553 Y55.765 Z-26.172
N8720 X0.584 Y55.803 Z-26.253
N8725 X0.622 Y55.851 Z-26.324
N8730 X0.668 Y55.906 Z-26.385
N8735 X0.719 Y55.968 Z-26.435
N8740 X0.774 Y56.036 Z-26.471
N8745 X0.832 Y56.106 Z-26.493
N8750 X0.891 Y56.179 Z-26.5
N8755 G3 X1.223 Y56.891 I-1.224 J1.003
N8760 G1 X1.256 Y57.108
N8765 X1.307 Y57.326
N8770 X1.366 Y57.543
N8775 X1.828 Y59.065
N8780 X1.896 Y59.282
N8785 X1.967 Y59.5
N8790 X2.063 Y59.717
N8795 X2.195 Y60.032
N8800 X2.515 Y60.934
N8805 X2.818 Y61.843
N8810 X3.278 Y62.683
N8815 X3.89 Y63.42
N8820 X4.622 Y64.037
N8825 X5.441 Y64.534
N8830 X5.556 Y64.592
N8835 X5.666 Y64.659
N8840 X5.769 Y64.736
N8845 G3 X5.823 Y65.583 Z-26.3 I-0.397 J0.45
N8850 X4.89 Y65.544 I-0.451 J-0.396
N8855 G1 X1.049 Y60.352
N8860 G3 X1.254 Y59.463 I0.482 J-0.357
N8865 X2.063 Y59.717 Z-26.5 I0.278 J0.532
N8870 G1 X2.272 Y60.152
N8875 X2.327 Y60.261
N8880 X2.979 Y61.482
N8885 X3.083 Y61.673
N8890 X3.208 Y61.891
N8895 X3.359 Y62.108
N8900 X3.414 Y62.183
N8905 X3.52 Y62.326
N8910 X4.591 Y63.63
N8915 X4.718 Y63.78
N8920 X4.935 Y64.026
N8925 X5.221 Y64.282
N8930 X5.37 Y64.409
N8935 X6.674 Y65.48
N8940 X6.817 Y65.586
N8945 X6.892 Y65.641
N8950 X7.109 Y65.792
N8955 X7.327 Y65.917
N8960 X7.544 Y66.035
N8965 X8.739 Y66.673
N8970 X8.848 Y66.728
N8975 X9.283 Y66.937
N8980 X9.5 Y67.033
N8985 X9.73 Y67.108
N8990 X9.935 Y67.172
N8995 X10.889 Y67.462
N9000 G3 X11.294 Y68.07 I-0.194 J0.568
N9005 G1 X11.287 Y68.164 Z-26.493
N9010 X11.281 Y68.255 Z-26.471
N9015 X11.275 Y68.342 Z-26.435
N9020 X11.27 Y68.422 Z-26.385
N9025 X11.265 Y68.493 Z-26.324
N9030 X11.261 Y68.554 Z-26.253
N9035 X11.258 Y68.603 Z-26.172
N9040 X11.255 Y68.639 Z-26.085
N9045 X11.254 Y68.661 Z-25.994
N9050 X11.253 Y68.669 Z-25.9
N9055 G0 Z5.
N9060 X55.715 Y68.489
N9065 Z-25.3
N9070 G1 Z-25.9 F1400.
N9075 X55.721 Y68.484 Z-25.994
N9080 X55.738 Y68.47 Z-26.085
N9085 X55.765 Y68.447 Z-26.172
N9090 X55.803 Y68.416 Z-26.253
N9095 X55.851 Y68.378 Z-26.324
N9100 X55.906 Y68.332 Z-26.385
N9105 X55.968 Y68.281 Z-26.435
N9110 X56.036 Y68.226 Z-26.471
N9115 X56.106 Y68.168 Z-26.493
N9120 X56.179 Y68.109 Z-26.5
N9125 G3 X56.891 Y67.777 I1.003 J1.224
N9130 G1 X57.108 Y67.744
N9135 X57.326 Y67.693
N9140 X57.543 Y67.634
N9145 X59.065 Y67.172
N9150 X59.282 Y67.104
N9155 X59.5 Y67.033
N9160 X59.717 Y66.937
N9165 X60.029 Y66.806
N9170 X60.931 Y66.486
N9175 X61.84 Y66.183
N9180 X62.68 Y65.723
N9185 X63.416 Y65.111
N9190 X64.034 Y64.379
N9195 X64.531 Y63.56
N9200 X64.587 Y63.449
N9205 X64.652 Y63.343
N9210 X64.727 Y63.243
N9215 G3 X65.573 Y63.189 Z-26.3 I0.45 J0.397
N9220 X65.534 Y64.122 I-0.396 J0.451
N9225 G1 X60.352 Y67.951
N9230 G3 X59.463 Y67.746 I-0.357 J-0.483
N9235 X59.717 Y66.937 Z-26.5 I0.532 J-0.278
N9240 G1 X60.152 Y66.728
N9245 X60.261 Y66.673
N9250 X61.482 Y66.021
N9255 X61.673 Y65.917
N9260 X61.891 Y65.792
N9265 X62.108 Y65.641
N9270 X62.183 Y65.586
N9275 X62.326 Y65.48
N9280 X63.63 Y64.409
N9285 X63.78 Y64.282
N9290 X64.026 Y64.065
N9295 X64.282 Y63.779
N9300 X64.409 Y63.63
N9305 X65.48 Y62.326
N9310 X65.586 Y62.183
N9315 X65.641 Y62.108
N9320 X65.792 Y61.891
N9325 X65.917 Y61.673
N9330 X66.035 Y61.456
N9335 X66.673 Y60.261
N9340 X66.728 Y60.152
N9345 X66.937 Y59.717
N9350 X67.033 Y59.5
N9355 X67.108 Y59.27
N9360 X67.172 Y59.065
N9365 X67.461 Y58.113
N9370 G3 X68.069 Y57.708 I0.568 J0.194
N9375 G1 X68.163 Y57.714 Z-26.493
N9380 X68.254 Y57.721 Z-26.471
N9385 X68.341 Y57.726 Z-26.435
N9390 X68.421 Y57.732 Z-26.385
N9395 X68.493 Y57.737 Z-26.324
N9400 X68.554 Y57.741 Z-26.253
N9405 X68.603 Y57.744 Z-26.172
N9410 X68.639 Y57.747 Z-26.085
N9415 X68.661 Y57.748 Z-25.994
N9420 X68.668 Y57.749 Z-25.9
N9425 G0 Z5.
N9430 X68.489 Y13.285
N9435 Z-25.3
N9440 G1 Z-25.9 F1400.
N9445 X68.484 Y13.279 Z-25.994
N9450 X68.47 Y13.262 Z-26.085
N9455 X68.447 Y13.235 Z-26.172
N9460 X68.416 Y13.197 Z-26.253
N9465 X68.378 Y13.149 Z-26.324
N9470 X68.332 Y13.094 Z-26.385
N9475 X68.281 Y13.032 Z-26.435
N9480 X68.226 Y12.964 Z-26.471
N9485 X68.168 Y12.894 Z-26.493
N9490 X68.109 Y12.821 Z-26.5
N9495 G3 X67.777 Y12.109 I1.224 J-1.003
N9500 G1 X67.744 Y11.892
N9505 X67.693 Y11.674
N9510 X67.634 Y11.457
N9515 X67.172 Y9.935
N9520 X67.104 Y9.718
N9525 X67.033 Y9.5
N9530 X66.937 Y9.283
N9535 X66.803 Y8.965
N9540 X66.483 Y8.063
N9545 X66.178 Y7.155
N9550 X65.716 Y6.316
N9555 X65.103 Y5.58
N9560 X64.37 Y4.964
N9565 X63.551 Y4.467
N9570 X63.45 Y4.417
N9575 X63.353 Y4.357
N9580 X63.262 Y4.289
N9585 G3 X63.208 Y3.443 Z-26.3 I0.397 J-0.45
N9590 X64.142 Y3.483 I0.451 J0.396
N9595 G1 X67.951 Y8.649
N9600 G3 X67.746 Y9.537 I-0.483 J0.356
N9605 X66.937 Y9.283 Z-26.5 I-0.278 J-0.532
N9610 G1 X66.728 Y8.848
N9615 X66.673 Y8.739
N9620 X66.021 Y7.518
N9625 X65.917 Y7.327
N9630 X65.792 Y7.109
N9635 X65.641 Y6.892
N9640 X65.586 Y6.817
N9645 X65.48 Y6.674
N9650 X64.409 Y5.37
N9655 X64.282 Y5.221
N9660 X64.026 Y4.935
N9665 X63.78 Y4.718
N9670 X63.63 Y4.591
N9675 X62.326 Y3.52
N9680 X62.183 Y3.414
N9685 X62.108 Y3.359
N9690 X61.891 Y3.208
N9695 X61.673 Y3.083
N9700 X61.456 Y2.965
N9705 X60.261 Y2.327
N9710 X60.152 Y2.272
N9715 X59.717 Y2.063
N9720 X59.5 Y1.967
N9725 X59.27 Y1.892
N9730 X59.065 Y1.828
N9735 X58.116 Y1.54
N9740 G3 X57.711 Y0.931 I0.194 J-0.568
N9745 G1 X57.717 Y0.838 Z-26.493
N9750 X57.723 Y0.746 Z-26.471
N9755 X57.729 Y0.66 Z-26.435
N9760 X57.735 Y0.58 Z-26.385
N9765 X57.739 Y0.508 Z-26.324
N9770 X57.744 Y0.447 Z-26.253
N9775 X57.747 Y0.398 Z-26.172
N9780 X57.749 Y0.362 Z-26.085
N9785 X57.751 Y0.34 Z-25.994
N9790 Y0.333 Z-25.9
N9795 G0 Z15.
(2D CONTOUR1)
N9800 G0 X35.1 Y-0.3
N9805 Z15.
N9810 Z5.
N9815 G1 Z1. F466.67
N9820 Z-25.9
N9825 G19 G3 Y0.3 Z-26.5 J0.6 K0. F1400.
N9830 G1 Y0.9
N9835 G17 G3 X34.5 Y1.5 I-0.6 J0.
N9840 G1 X14.5
N9845 G2 X1.5 Y14.5 I0. J13.
N9850 G1 Y54.5
N9855 G2 X14.5 Y67.5 I13. J0.
N9860 G1 X54.5
N9865 G2 X67.5 Y54.5 I0. J-13.
N9870 G1 Y14.5
N9875 G2 X54.5 Y1.5 I-13. J0.
N9880 G1 X34.5
N9885 G3 X33.9 Y0.9 I0. J-0.6
N9890 G1 Y0.3
N9895 G19 G2 Y-0.3 Z-25.9 J0. K0.6
N9900 G0 Z15.
N9905 G17
(ADAPTIVE2)
N9910 G0 X34.413 Y37.507
N9915 Z15.
N9920 Z5.
N9925 Z2.5
N9930 G3 X31.596 Y33.717 Z2.025 I0.087 J-3.007 F466.67
N9935 X35.923 Y31.862 Z1.55 I2.896 J0.78
N9940 X36.722 Y36.489 Z1.075 I-1.427 J2.629
N9945 X32.049 Y36.193 Z0.6 I-2.22 J-1.993
N9950 X33.417 Y31.728 Z0.125 I2.447 J-1.692
N9955 X37.431 Y34.089 Z-0.35 I1.075 J2.765
N9960 X34.213 Y37.436 Z-0.825 I-2.931 J0.403
N9965 X31.71 Y33.54 Z-1.3 I0.287 J-2.936
N9970 X36.069 Y32.014 Z-1.775 I2.781 J0.958
N9975 X36.54 Y36.595 Z-2.25 I-1.572 J2.476
N9980 X31.988 Y35.992 Z-2.725 I-2.038 J-2.098
N9985 X33.626 Y31.716 Z-3.2 I2.507 J-1.491
N9990 X37.394 Y34.294 Z-3.675 I0.867 J2.776
N9995 X34.022 Y37.353 Z-4.15 I-2.893 J0.198
N10000 X31.836 Y33.374 Z-4.625 I0.477 J-2.852
N10005 X36.2 Y32.174 Z-5.1 I2.656 J1.123
N10010 X36.355 Y36.685 Z-5.575 I-1.704 J2.316
N10015 X31.944 Y35.791 Z-6.05 I-1.852 J-2.188
N10020 X33.831 Y31.72 Z-6.525 I2.551 J-1.29
N10025 X37.343 Y34.492 Z-7. I0.661 J2.773
N10030 X31.642 I-2.85 J0.
N10035 X37.343 I2.85 J0.
N10040 G1 X37.347 Y34.732 F1400.
N10045 X37.523 Y35.673
N10050 X37.564 Y35.817
N10055 X37.589 Y35.965
N10060 X37.599 Y36.115
N10065 X37.596 Y36.265
N10070 X37.58 Y36.424
N10075 X37.55 Y36.592
N10080 X37.503 Y36.768
N10085 X37.438 Y36.95
N10090 X37.354 Y37.135
N10095 X37.251 Y37.323
N10100 X37.127 Y37.511
N10105 X36.983 Y37.697
N10110 X36.817 Y37.877
N10115 X36.63 Y38.05
N10120 X36.422 Y38.214
N10125 X36.195 Y38.365
N10130 X35.949 Y38.501
N10135 X35.685 Y38.621
N10140 X35.406 Y38.721
N10145 X35.113 Y38.801
N10150 X34.808 Y38.857
N10155 X34.494 Y38.89
N10160 X34.173 Y38.898
N10165 X33.847 Y38.88
N10170 X33.52 Y38.835
N10175 X33.193 Y38.763
N10180 X32.869 Y38.663
N10185 X32.552 Y38.537
N10190 X32.243 Y38.385
N10195 X31.945 Y38.207
N10200 X31.66 Y38.004
N10205 X31.391 Y37.778
N10210 X31.14 Y37.53
N10215 X30.908 Y37.261
N10220 X30.698 Y36.973
N10225 X30.511 Y36.668
N10230 X30.348 Y36.348
N10235 X30.212 Y36.015
N10240 X30.102 Y35.672
N10245 X30.02 Y35.32
N10250 X29.966 Y34.962
N10255 X29.942 Y34.6
N10260 X29.946 Y34.237
N10265 X29.98 Y33.875
N10270 X30.042 Y33.516
N10275 X30.133 Y33.164
N10280 X30.253 Y32.819
N10285 X30.399 Y32.485
N10290 X30.573 Y32.164
N10295 X30.771 Y31.857
N10300 X30.994 Y31.567
N10305 X31.239 Y31.296
N10310 X31.505 Y31.045
N10315 X31.791 Y30.817
N10320 X32.094 Y30.612
N10325 X32.412 Y30.432
N10330 X32.745 Y30.278
N10335 X33.088 Y30.151
N10340 X33.441 Y30.052
N10345 X33.8 Y29.982
N10350 X34.164 Y29.941
N10355 X34.53 Y29.929
N10360 X34.896 Y29.947
N10365 X35.26 Y29.994
N10370 X35.618 Y30.07
N10375 X35.969 Y30.174
N10380 X36.311 Y30.307
N10385 X36.641 Y30.466
N10390 X36.957 Y30.651
N10395 X37.258 Y30.861
N10400 X37.54 Y31.095
N10405 X37.803 Y31.35
N10410 X38.045 Y31.626
N10415 X38.263 Y31.92
N10420 X38.493 Y32.288
N10425 X38.855 Y32.986
N10430 X39.111 Y33.595
N10435 X39.28 Y34.109
N10440 X39.392 Y34.573
N10445 X39.461 Y35.014
N10450 X39.494 Y35.441
N10455 X39.493 Y35.854
N10460 X39.459 Y36.256
N10465 X39.393 Y36.649
N10470 X39.298 Y37.032
N10475 X39.171 Y37.407
N10480 X39.015 Y37.77
N10485 X38.829 Y38.122
N10490 X38.614 Y38.461
N10495 X38.37 Y38.784
N10500 X38.099 Y39.089
N10505 X37.8 Y39.375
N10510 X37.476 Y39.639
N10515 X37.126 Y39.88
N10520 X36.753 Y40.095
N10525 X36.358 Y40.281
N10530 X35.944 Y40.438
N10535 X35.514 Y40.563
N10540 X35.069 Y40.653
N10545 X34.613 Y40.709
N10550 X34.149 Y40.727
N10555 X33.68 Y40.709
N10560 X33.209 Y40.652
N10565 X32.741 Y40.557
N10570 X32.278 Y40.423
N10575 X31.825 Y40.252
N10580 X31.383 Y40.043
N10585 X30.957 Y39.798
N10590 X30.55 Y39.518
N10595 X30.164 Y39.204
N10600 X29.803 Y38.859
N10605 X29.47 Y38.484
N10610 X29.166 Y38.082
N10615 X28.895 Y37.656
N10620 X28.657 Y37.207
N10625 X28.456 Y36.74
N10630 X28.293 Y36.257
N10635 X28.169 Y35.761
N10640 X28.085 Y35.255
N10645 X28.041 Y34.744
N10650 X28.039 Y34.23
N10655 X28.078 Y33.716
N10660 X28.158 Y33.207
N10665 X28.28 Y32.705
N10670 X28.441 Y32.214
N10675 X28.641 Y31.737
N10680 X28.879 Y31.278
N10685 X29.153 Y30.838
N10690 X29.462 Y30.422
N10695 X29.803 Y30.032
N10700 X30.175 Y29.67
N10705 X30.574 Y29.34
N10710 X31. Y29.042
N10715 X31.447 Y28.779
N10720 X31.915 Y28.553
N10725 X32.399 Y28.365
N10730 X32.897 Y28.217
N10735 X33.406 Y28.109
N10740 X33.921 Y28.042
N10745 X34.44 Y28.017
N10750 X34.96 Y28.033
N10755 X35.477 Y28.091
N10760 X35.987 Y28.191
N10765 X36.488 Y28.331
N10770 X36.976 Y28.51
N10775 X37.448 Y28.729
N10780 X37.901 Y28.984
N10785 X38.332 Y29.276
N10790 X38.748 Y29.609
N10795 X39.195 Y30.029
N10800 X39.623 Y30.502
N10805 X40.025 Y31.025
N10810 X40.389 Y31.586
N10815 X40.703 Y32.168
N10820 X40.962 Y32.758
N10825 X41.168 Y33.352
N10830 X41.322 Y33.945
N10835 X41.426 Y34.538
N10840 X41.481 Y35.127
N10845 X41.488 Y35.711
N10850 X41.449 Y36.288
N10855 X41.364 Y36.856
N10860 X41.235 Y37.412
N10865 X41.062 Y37.954
N10870 X40.846 Y38.48
N10875 X40.589 Y38.987
N10880 X40.291 Y39.473
N10885 X39.954 Y39.936
N10890 X39.578 Y40.372
N10895 X39.167 Y40.779
N10900 X38.72 Y41.155
N10905 X38.242 Y41.496
N10910 X37.733 Y41.8
N10915 X37.197 Y42.065
N10920 X36.637 Y42.288
N10925 X36.055 Y42.466
N10930 X35.457 Y42.598
N10935 X34.845 Y42.683
N10940 X34.224 Y42.718
N10945 X33.598 Y42.703
N10950 X32.971 Y42.638
N10955 X32.347 Y42.522
N10960 X31.73 Y42.355
N10965 X31.125 Y42.138
N10970 X30.536 Y41.871
N10975 X29.968 Y41.556
N10980 X29.424 Y41.195
N10985 X28.908 Y40.79
N10990 X28.425 Y40.343
N10995 X27.977 Y39.856
N11000 X27.568 Y39.333
N11005 X27.202 Y38.777
N11010 X26.88 Y38.192
N11015 X26.605 Y37.581
N11020 X26.38 Y36.949
N11025 X26.205 Y36.299
N11030 X26.084 Y35.636
N11035 X26.016 Y34.964
N11040 X26.002 Y34.287
N11045 X26.042 Y33.611
N11050 X26.136 Y32.94
N11055 X26.285 Y32.277
N11060 X26.486 Y31.628
N11065 X26.739 Y30.997
N11070 X27.042 Y30.387
N11075 X27.393 Y29.804
N11080 X27.79 Y29.25
N11085 X28.23 Y28.729
N11090 X28.711 Y28.246
N11095 X29.23 Y27.802
N11100 X29.782 Y27.401
N11105 X30.365 Y27.046
N11110 X30.975 Y26.739
N11115 X31.608 Y26.481
N11120 X32.259 Y26.275
N11125 X32.925 Y26.122
N11130 X33.602 Y26.023
N11135 X34.284 Y25.979
N11140 X34.967 Y25.989
N11145 X35.648 Y26.054
N11150 X36.321 Y26.174
N11155 X36.983 Y26.347
N11160 X37.628 Y26.573
N11165 X38.256 Y26.852
N11170 X38.88 Y27.19
N11175 X39.493 Y27.589
N11180 X40.089 Y28.051
N11185 X40.662 Y28.572
N11190 X41.2 Y29.147
N11195 X41.694 Y29.768
N11200 X42.137 Y30.427
N11205 X42.524 Y31.118
N11210 X42.852 Y31.832
N11215 X43.12 Y32.564
N11220 X43.326 Y33.31
N11225 X43.471 Y34.063
N11230 X43.554 Y34.819
N11235 X43.576 Y35.573
N11240 X43.537 Y36.323
N11245 X43.439 Y37.063
N11250 X43.283 Y37.79
N11255 X43.069 Y38.501
N11260 X42.799 Y39.192
N11265 X42.474 Y39.858
N11270 X42.097 Y40.498
N11275 X41.668 Y41.106
N11280 X41.19 Y41.68
N11285 X40.666 Y42.216
N11290 X40.098 Y42.711
N11295 X39.488 Y43.16
N11300 X38.841 Y43.562
N11305 X38.16 Y43.912
N11310 X37.449 Y44.209
N11315 X36.711 Y44.448
N11320 X35.953 Y44.629
N11325 X35.177 Y44.749
N11330 X34.391 Y44.807
N11335 X33.597 Y44.801
N11340 X32.803 Y44.732
N11345 X32.012 Y44.598
N11350 X31.231 Y44.4
N11355 X30.464 Y44.139
N11360 X29.717 Y43.816
N11365 X28.996 Y43.432
N11370 X28.305 Y42.989
N11375 X27.649 Y42.491
N11380 X27.033 Y41.94
N11385 X26.462 Y41.339
N11390 X25.939 Y40.692
N11395 X25.468 Y40.003
N11400 X25.053 Y39.277
N11405 X24.697 Y38.518
N11410 X24.402 Y37.732
N11415 X24.171 Y36.922
N11420 X24.005 Y36.095
N11425 X23.906 Y35.257
N11430 X23.874 Y34.411
N11435 X23.911 Y33.565
N11440 X24.015 Y32.723
N11445 X24.187 Y31.892
N11450 X24.425 Y31.077
N11455 X24.728 Y30.282
N11460 X25.094 Y29.514
N11465 X25.521 Y28.777
N11470 X26.006 Y28.077
N11475 X26.546 Y27.417
N11480 X27.137 Y26.803
N11485 X27.776 Y26.237
N11490 X28.458 Y25.725
N11495 X29.18 Y25.269
N11500 X29.936 Y24.872
N11505 X30.722 Y24.537
N11510 X31.532 Y24.267
N11515 X32.361 Y24.062
N11520 X33.205 Y23.924
N11525 X34.056 Y23.854
N11530 X34.911 Y23.853
N11535 X35.763 Y23.921
N11540 X36.608 Y24.057
N11545 X37.443 Y24.261
N11550 X38.266 Y24.534
N11555 X39.074 Y24.876
N11560 X39.864 Y25.288
N11565 X40.631 Y25.77
N11570 X41.371 Y26.323
N11575 X42.074 Y26.942
N11580 X42.733 Y27.623
N11585 X43.338 Y28.359
N11590 X43.883 Y29.142
N11595 X44.363 Y29.967
N11600 X44.775 Y30.825
N11605 X45.115 Y31.711
N11610 X45.382 Y32.616
N11615 X45.574 Y33.535
N11620 X45.691 Y34.462
N11625 X45.734 Y35.391
N11630 X45.701 Y36.316
N11635 X45.595 Y37.233
N11640 X45.417 Y38.135
N11645 X45.167 Y39.019
N11650 X44.847 Y39.878
N11655 X44.459 Y40.71
N11660 X44.005 Y41.508
N11665 X43.488 Y42.268
N11670 X42.91 Y42.986
N11675 X42.275 Y43.657
N11680 X41.585 Y44.278
N11685 X40.845 Y44.843
N11690 X40.058 Y45.349
N11695 X39.23 Y45.792
N11700 X38.365 Y46.169
N11705 X37.468 Y46.477
N11710 X36.545 Y46.714
N11715 X35.602 Y46.876
N11720 X34.648 Y46.962
N11725 X33.69 Y46.971
N11730 X32.735 Y46.904
N11735 X31.788 Y46.762
N11740 X30.855 Y46.546
N11745 X29.942 Y46.257
N11750 X29.054 Y45.898
N11755 X28.197 Y45.471
N11760 X27.375 Y44.978
N11765 X26.594 Y44.424
N11770 X25.858 Y43.811
N11775 X25.171 Y43.144
N11780 X24.537 Y42.426
N11785 X23.96 Y41.662
N11790 X23.442 Y40.857
N11795 X22.987 Y40.014
N11800 X22.597 Y39.139
N11805 X22.275 Y38.237
N11810 X22.022 Y37.314
N11815 X21.841 Y36.373
N11820 X21.732 Y35.422
N11825 X21.695 Y34.465
N11830 X21.73 Y33.508
N11835 X21.837 Y32.556
N11840 X22.015 Y31.615
N11845 X22.263 Y30.69
N11850 X22.58 Y29.786
N11855 X22.963 Y28.908
N11860 X23.41 Y28.061
N11865 X23.919 Y27.25
N11870 X24.487 Y26.479
N11875 X25.111 Y25.753
N11880 X25.788 Y25.075
N11885 X26.514 Y24.451
N11890 X27.285 Y23.883
N11895 X28.097 Y23.375
N11900 X28.945 Y22.929
N11905 X29.823 Y22.548
N11910 X30.728 Y22.233
N11915 X31.653 Y21.987
N11920 X32.594 Y21.81
N11925 X33.546 Y21.703
N11930 X34.503 Y21.668
N11935 X35.46 Y21.703
N11940 X36.412 Y21.81
N11945 X37.353 Y21.986
N11950 X38.279 Y22.232
N11955 X39.184 Y22.546
N11960 X40.063 Y22.926
N11965 X40.912 Y23.369
N11970 X41.727 Y23.872
N11975 X42.505 Y24.43
N11980 X43.243 Y25.041
N11985 X43.938 Y25.7
N11990 X44.585 Y26.406
N11995 X45.181 Y27.155
N12000 X45.724 Y27.945
N12005 X46.211 Y28.769
N12010 X46.642 Y29.624
N12015 X47.015 Y30.506
N12020 X47.327 Y31.412
N12025 X47.576 Y32.337
N12030 X47.758 Y33.277
N12035 X47.874 Y34.227
N12040 X47.924 Y35.184
N12045 X47.908 Y36.141
N12050 X47.827 Y37.096
N12055 X47.68 Y38.042
N12060 X47.467 Y38.976
N12065 X47.188 Y39.892
N12070 X46.844 Y40.786
N12075 X46.438 Y41.653
N12080 X45.972 Y42.49
N12085 X45.449 Y43.292
N12090 X44.872 Y44.056
N12095 X44.244 Y44.779
N12100 X43.567 Y45.457
N12105 X42.843 Y46.084
N12110 X42.077 Y46.658
N12115 X41.273 Y47.178
N12120 X40.435 Y47.642
N12125 X39.567 Y48.048
N12130 X38.675 Y48.395
N12135 X37.76 Y48.68
N12140 X36.828 Y48.9
N12145 X35.883 Y49.055
N12150 X34.93 Y49.146
N12155 X33.972 Y49.173
N12160 X33.015 Y49.137
N12165 X32.063 Y49.038
N12170 X31.119 Y48.874
N12175 X30.189 Y48.646
N12180 X29.276 Y48.356
N12185 X28.385 Y48.007
N12190 X27.517 Y47.601
N12195 X26.678 Y47.14
N12200 X25.871 Y46.624
N12205 X25.1 Y46.056
N12210 X24.369 Y45.437
N12215 X23.679 Y44.773
N12220 X23.034 Y44.065
N12225 X22.436 Y43.317
N12230 X21.886 Y42.533
N12235 X21.388 Y41.715
N12240 X20.946 Y40.866
N12245 X20.56 Y39.989
N12250 X20.232 Y39.089
N12255 X19.963 Y38.17
N12260 X19.752 Y37.236
N12265 X19.601 Y36.29
N12270 X19.512 Y35.337
N12275 X19.487 Y34.379
N12280 X19.523 Y33.422
N12285 X19.62 Y32.47
N12290 X19.778 Y31.525
N12295 X19.994 Y30.592
N12300 X20.268 Y29.674
N12305 X20.602 Y28.777
N12310 X20.994 Y27.903
N12315 X21.44 Y27.056
N12320 X21.94 Y26.238
N12325 X22.489 Y25.454
N12330 X23.087 Y24.705
N12335 X23.73 Y23.996
N12340 X24.42 Y23.332
N12345 X25.151 Y22.713
N12350 X25.92 Y22.143
N12355 X26.724 Y21.622
N12360 X27.559 Y21.153
N12365 X28.422 Y20.738
N12370 X29.31 Y20.378
N12375 X30.219 Y20.077
N12380 X31.146 Y19.836
N12385 X32.086 Y19.653
N12390 X33.036 Y19.531
N12395 X33.991 Y19.467
N12400 X34.949 Y19.463
N12405 X35.905 Y19.52
N12410 X36.855 Y19.64
N12415 X37.796 Y19.82
N12420 X38.723 Y20.059
N12425 X39.634 Y20.355
N12430 X40.524 Y20.708
N12435 X41.392 Y21.114
N12440 X42.232 Y21.573
N12445 X43.042 Y22.084
N12450 X43.82 Y22.643
N12455 X44.563 Y23.247
N12460 X45.268 Y23.894
N12465 X45.935 Y24.582
N12470 X46.559 Y25.308
N12475 X47.14 Y26.07
N12480 X47.672 Y26.866
N12485 X48.157 Y27.692
N12490 X48.592 Y28.545
N12495 X48.977 Y29.422
N12500 X49.309 Y30.32
N12505 X49.589 Y31.236
N12510 X49.813 Y32.167
N12515 X49.98 Y33.11
N12520 X50.09 Y34.062
N12525 X50.142 Y35.018
N12530 X50.137 Y35.976
N12535 X50.077 Y36.932
N12540 X49.96 Y37.882
N12545 X49.787 Y38.824
N12550 X49.556 Y39.753
N12555 X49.268 Y40.667
N12560 X48.924 Y41.561
N12565 X48.527 Y42.432
N12570 X48.08 Y43.279
N12575 X47.583 Y44.098
N12580 X47.039 Y44.886
N12585 X46.448 Y45.639
N12590 X45.811 Y46.355
N12595 X45.132 Y47.03
N12600 X44.414 Y47.664
N12605 X43.659 Y48.253
N12610 X42.871 Y48.798
N12615 X42.053 Y49.295
N12620 X41.207 Y49.743
N12625 X40.335 Y50.139
N12630 X39.44 Y50.482
N12635 X38.527 Y50.771
N12640 X37.599 Y51.006
N12645 X36.658 Y51.187
N12650 X35.709 Y51.313
N12655 X34.754 Y51.384
N12660 X33.796 Y51.399
N12665 X32.84 Y51.357
N12670 X31.887 Y51.259
N12675 X30.942 Y51.106
N12680 X30.007 Y50.898
N12685 X29.085 Y50.639
N12690 X28.179 Y50.327
N12695 X27.293 Y49.964
N12700 X26.429 Y49.55
N12705 X25.591 Y49.087
N12710 X24.781 Y48.576
N12715 X24.001 Y48.02
N12720 X23.254 Y47.421
N12725 X22.541 Y46.782
N12730 X21.865 Y46.104
N12735 X21.229 Y45.388
N12740 X20.634 Y44.637
N12745 X20.084 Y43.853
N12750 X19.579 Y43.039
N12755 X19.12 Y42.199
N12760 X18.708 Y41.334
N12765 X18.345 Y40.448
N12770 X18.033 Y39.543
N12775 X17.772 Y38.621
N12780 X17.565 Y37.686
N12785 X17.41 Y36.741
N12790 X17.309 Y35.789
N12795 X17.261 Y34.832
N12800 X17.266 Y33.874
N12805 X17.323 Y32.918
N12810 X17.434 Y31.967
N12815 X17.599 Y31.024
N12820 X17.816 Y30.091
N12825 X18.085 Y29.172
N12830 X18.404 Y28.269
N12835 X18.773 Y27.385
N12840 X19.189 Y26.523
N12845 X19.652 Y25.684
N12850 X20.162 Y24.873
N12855 X20.716 Y24.092
N12860 X21.313 Y23.344
N12865 X21.951 Y22.629
N12870 X22.628 Y21.952
N12875 X23.341 Y21.312
N12880 X24.088 Y20.713
N12885 X24.867 Y20.156
N12890 X25.677 Y19.644
N12895 X26.513 Y19.178
N12900 X27.375 Y18.76
N12905 X28.258 Y18.39
N12910 X29.161 Y18.07
N12915 X30.08 Y17.799
N12920 X31.012 Y17.579
N12925 X31.954 Y17.411
N12930 X32.905 Y17.297
N12935 X33.861 Y17.235
N12940 X34.819 Y17.226
N12945 X35.775 Y17.271
N12950 X36.728 Y17.367
N12955 X37.674 Y17.516
N12960 X38.611 Y17.715
N12965 X39.535 Y17.967
N12970 X40.444 Y18.27
N12975 X41.334 Y18.621
N12980 X42.205 Y19.021
N12985 X43.052 Y19.467
N12990 X43.875 Y19.957
N12995 X44.671 Y20.489
N13000 X45.438 Y21.062
N13005 X46.174 Y21.676
N13010 X46.875 Y22.328
N13015 X47.541 Y23.016
N13020 X48.171 Y23.738
N13025 X48.761 Y24.492
N13030 X49.312 Y25.275
N13035 X49.822 Y26.086
N13040 X50.29 Y26.922
N13045 X50.713 Y27.781
N13050 X51.091 Y28.661
N13055 X51.421 Y29.56
N13060 X51.705 Y30.474
N13065 X51.94 Y31.403
N13070 X52.126 Y32.342
N13075 X52.263 Y33.29
N13080 X52.351 Y34.244
N13085 X52.39 Y35.201
N13090 X52.377 Y36.158
N13095 X52.314 Y37.114
N13100 X52.2 Y38.065
N13105 X52.036 Y39.008
N13110 X51.823 Y39.942
N13115 X51.561 Y40.863
N13120 X51.251 Y41.769
N13125 X50.894 Y42.658
N13130 X50.489 Y43.526
N13135 X50.039 Y44.371
N13140 X49.545 Y45.192
N13145 X49.009 Y45.985
N13150 X48.431 Y46.749
N13155 X47.815 Y47.482
N13160 X47.161 Y48.182
N13165 X46.471 Y48.846
N13170 X45.747 Y49.472
N13175 X44.99 Y50.06
N13180 X44.204 Y50.607
N13185 X43.39 Y51.112
N13190 X42.552 Y51.574
N13195 X41.69 Y51.993
N13200 X40.808 Y52.366
N13205 X39.908 Y52.693
N13210 X38.992 Y52.972
N13215 X38.063 Y53.203
N13220 X37.122 Y53.386
N13225 X36.174 Y53.52
N13230 X35.22 Y53.606
N13235 X34.263 Y53.642
N13240 X33.306 Y53.63
N13245 X32.35 Y53.57
N13250 X31.399 Y53.46
N13255 X30.454 Y53.301
N13260 X29.519 Y53.093
N13265 X28.596 Y52.839
N13270 X27.686 Y52.539
N13275 X26.793 Y52.193
N13280 X25.919 Y51.803
N13285 X25.064 Y51.37
N13290 X24.233 Y50.894
N13295 X23.428 Y50.376
N13300 X22.649 Y49.818
N13305 X21.9 Y49.222
N13310 X21.181 Y48.589
N13315 X20.494 Y47.922
N13320 X19.842 Y47.221
N13325 X19.225 Y46.489
N13330 X18.644 Y45.727
N13335 X18.103 Y44.937
N13340 X17.603 Y44.12
N13345 X17.144 Y43.279
N13350 X16.728 Y42.417
N13355 X16.354 Y41.535
N13360 X16.025 Y40.636
N13365 X15.74 Y39.721
N13370 X15.5 Y38.794
N13375 X15.307 Y37.856
N13380 X15.162 Y36.91
N13385 X15.064 Y35.957
N13390 X15.013 Y35.
N13395 X15.01 Y34.043
N13400 X15.053 Y33.086
N13405 X15.143 Y32.133
N13410 X15.28 Y31.185
N13415 X15.463 Y30.245
N13420 X15.692 Y29.315
N13425 X15.968 Y28.398
N13430 X16.289 Y27.495
N13435 X16.653 Y26.61
N13440 X17.06 Y25.743
N13445 X17.509 Y24.897
N13450 X17.999 Y24.074
N13455 X18.528 Y23.276
N13460 X19.096 Y22.504
N13465 X19.701 Y21.762
N13470 X20.343 Y21.052
N13475 X21.02 Y20.374
N13480 X21.728 Y19.729
N13485 X22.468 Y19.121
N13490 X23.236 Y18.549
N13495 X24.031 Y18.015
N13500 X24.851 Y17.521
N13505 X25.695 Y17.067
N13510 X26.56 Y16.657
N13515 X27.445 Y16.29
N13520 X28.346 Y15.967
N13525 X29.262 Y15.688
N13530 X30.191 Y15.454
N13535 X31.13 Y15.265
N13540 X32.077 Y15.123
N13545 X33.03 Y15.026
N13550 X33.986 Y14.976
N13555 X34.944 Y14.975
N13560 X35.901 Y15.021
N13565 X36.854 Y15.113
N13570 X37.801 Y15.251
N13575 X38.741 Y15.435
N13580 X39.671 Y15.664
N13585 X40.589 Y15.938
N13590 X41.493 Y16.255
N13595 X42.38 Y16.616
N13600 X43.248 Y17.02
N13605 X44.096 Y17.465
N13610 X44.922 Y17.95
N13615 X45.724 Y18.473
N13620 X46.501 Y19.033
N13625 X47.251 Y19.629
N13630 X47.972 Y20.258
N13635 X48.664 Y20.921
N13640 X49.323 Y21.616
N13645 X49.948 Y22.341
N13650 X50.539 Y23.095
N13655 X51.094 Y23.876
N13660 X51.613 Y24.681
N13665 X52.094 Y25.509
N13670 X52.537 Y26.358
N13675 X52.94 Y27.227
N13680 X53.302 Y28.113
N13685 X53.623 Y29.015
N13690 X53.9 Y29.932
N13695 X54.134 Y30.861
N13700 X54.325 Y31.799
N13705 X54.472 Y32.746
N13710 X54.575 Y33.698
N13715 X54.634 Y34.654
N13720 X54.648 Y35.611
N13725 X54.619 Y36.569
N13730 X54.544 Y37.523
N13735 X54.424 Y38.473
N13740 X54.258 Y39.417
N13745 X54.048 Y40.351
N13750 X53.795 Y41.275
N13755 X53.5 Y42.186
N13760 X53.162 Y43.082
N13765 X52.783 Y43.961
N13770 X52.363 Y44.822
N13775 X51.903 Y45.662
N13780 X51.404 Y46.479
N13785 X50.866 Y47.272
N13790 X50.291 Y48.038
N13795 X49.682 Y48.777
N13800 X49.039 Y49.487
N13805 X48.364 Y50.166
N13810 X47.657 Y50.812
N13815 X46.922 Y51.426
N13820 X46.159 Y52.004
N13825 X45.369 Y52.546
N13830 X44.554 Y53.049
N13835 X43.717 Y53.515
N13840 X42.86 Y53.941
N13845 X41.983 Y54.327
N13850 X41.09 Y54.673
N13855 X40.263 Y54.95
N13860 X40.118 Y54.99
N13865 X39.969 Y55.014
N13870 X39.818 Y55.022
N13875 X30.367
N13880 X29.41 Y54.975
N13885 X28.59 Y54.889
N13890 X27.654 Y54.715
N13895 X26.73 Y54.465
N13900 X25.825 Y54.152
N13905 X24.941 Y53.784
N13910 X24.078 Y53.367
N13915 X23.239 Y52.907
N13920 X22.423 Y52.405
N13925 X21.632 Y51.865
N13930 X20.866 Y51.29
N13935 X20.128 Y50.679
N13940 X19.418 Y50.037
N13945 X18.738 Y49.363
N13950 X18.089 Y48.658
N13955 X17.473 Y47.925
N13960 X16.891 Y47.165
N13965 X16.343 Y46.379
N13970 X15.831 Y45.569
N13975 X15.356 Y44.738
N13980 X14.917 Y43.887
N13985 X14.516 Y43.017
N13990 X14.154 Y42.131
N13995 X14.059 Y41.865
N14000 X14.014 Y41.711
N14005 X13.987 Y41.554
N14010 X13.978 Y41.394
N14015 Y29.497
N14020 X14.021 Y28.632
N14025 X14.118 Y27.89
N14030 X14.305 Y27.017
N14035 X14.58 Y26.099
N14040 X14.92 Y25.204
N14045 X15.316 Y24.332
N14050 X15.76 Y23.484
N14055 X16.247 Y22.659
N14060 X16.776 Y21.86
N14065 X17.342 Y21.088
N14070 X17.945 Y20.344
N14075 X18.581 Y19.628
N14080 X19.248 Y18.941
N14085 X19.946 Y18.285
N14090 X20.671 Y17.66
N14095 X21.424 Y17.067
N14100 X22.201 Y16.508
N14105 X23.002 Y15.983
N14110 X23.826 Y15.495
N14115 X24.672 Y15.045
N14120 X25.536 Y14.633
N14125 X26.418 Y14.259
N14130 X26.936 Y14.066
N14135 X27.096 Y14.017
N14140 X27.259 Y13.987
N14145 X27.426 Y13.978
N14150 X39.503
N14155 X40.457 Y14.025
N14160 X40.932 Y14.088
N14165 X41.759 Y14.24
N14170 X42.684 Y14.488
N14175 X43.587 Y14.807
N14180 X44.467 Y15.185
N14185 X45.324 Y15.613
N14190 X46.157 Y16.085
N14195 X46.965 Y16.599
N14200 X47.749 Y17.149
N14205 X48.507 Y17.735
N14210 X49.239 Y18.352
N14215 X49.943 Y19.001
N14220 X50.619 Y19.68
N14225 X51.265 Y20.387
N14230 X51.881 Y21.12
N14235 X52.466 Y21.878
N14240 X53.018 Y22.661
N14245 X53.536 Y23.467
N14250 X54.02 Y24.293
N14255 X54.469 Y25.139
N14260 X54.882 Y26.003
N14265 X54.909 Y26.066
N14270 X54.972 Y26.244
N14275 X55.01 Y26.429
N14280 X55.022 Y26.617
N14285 Y42.114
N14290 X54.985 Y42.861
N14295 X54.904 Y43.48
N14300 X54.747 Y44.214
N14305 X54.499 Y45.041
N14310 X54.151 Y45.934
N14315 X53.738 Y46.798
N14320 X53.271 Y47.634
N14325 X52.758 Y48.442
N14330 X52.204 Y49.223
N14335 X51.613 Y49.977
N14340 X50.988 Y50.703
N14345 X50.332 Y51.401
N14350 X49.647 Y52.07
N14355 X48.933 Y52.708
N14360 X48.193 Y53.316
N14365 X47.426 Y53.89
N14370 X46.636 Y54.431
N14375 X46.028 Y54.81
N14380 X45.796 Y54.927
N14385 X45.546 Y54.998
N14390 X45.287 Y55.022
N14395 X39.818
N14400 G3 X39.24 Y54.402 Z-6.8 I0.021 J-0.6
N14405 X39.453 Y53.964 I0.6 J0.02
N14410 G1 X54.036 Y41.676
N14415 G3 X54.402 Y41.535 I0.387 J0.459
N14420 X55.022 Y42.114 Z-7. I0.02 J0.6
N14425 G1 Y46.682
N14430 X54.998 Y47.177
N14435 X54.944 Y47.584
N14440 X54.838 Y48.08
N14445 X54.675 Y48.624
N14450 X54.426 Y49.265
N14455 X54.064 Y50.01
N14460 X53.578 Y50.835
N14465 X53.03 Y51.62
N14470 X52.432 Y52.368
N14475 X51.793 Y53.082
N14480 X51.119 Y53.762
N14485 X50.413 Y54.409
N14490 X50.072 Y54.695
N14495 X49.873 Y54.835
N14500 X49.651 Y54.938
N14505 X49.416 Y55.001
N14510 X49.172 Y55.022
N14515 X45.287
N14520 G3 X44.708 Y54.402 Z-6.8 I0.021 J-0.6
N14525 X44.92 Y53.965 I0.6 J0.02
N14530 G1 X54.035 Y46.245
N14535 G3 X54.402 Y46.103 I0.388 J0.458
N14540 X55.022 Y46.682 Z-7. I0.02 J0.6
N14545 G1 Y50.38
N14550 X55.007 Y50.693
N14555 X54.961 Y51.044
N14560 X54.874 Y51.45
N14565 X54.74 Y51.898
N14570 X54.537 Y52.418
N14575 X54.251 Y53.008
N14580 X53.866 Y53.662
N14585 X53.341 Y54.409
N14590 X53.252 Y54.517
N14595 X53.031 Y54.73
N14600 X52.77 Y54.89
N14605 X52.479 Y54.989
N14610 X52.175 Y55.022
N14615 G3 X51.596 Y54.402 Z-6.8 I0.021 J-0.6
N14620 X51.671 Y54.132 I0.6 J0.02
N14625 G1 X53.898 Y50.11
N14630 G3 X54.402 Y49.801 I0.525 J0.291
N14635 X55.022 Y50.38 Z-7. I0.02 J0.6
N14640 G1 Y52.773
N14645 X55.02 Y52.991
N14650 X54.984 Y53.643
N14655 X54.958 Y53.861
N14660 X54.948 Y53.926
N14665 X54.929 Y54.002
N14670 X54.899 Y54.078
N14675 X54.805 Y54.296
N14680 X54.731 Y54.405
N14685 X54.648 Y54.513
N14690 X54.581 Y54.59
N14695 X54.513 Y54.648
N14700 X54.405 Y54.731
N14705 X54.296 Y54.805
N14710 X54.078 Y54.899
N14715 X54.001 Y54.929
N14720 X53.924 Y54.948
N14725 X53.861 Y54.958
N14730 X53.643 Y54.984
N14735 X52.991 Y55.02
N14740 X52.773 Y55.022
N14745 X49.172
N14750 G3 X48.609 Y54.558 I0.021 J-0.6
N14755 G1 X48.588 Y54.466 Z-6.993
N14760 X48.567 Y54.377 Z-6.971
N14765 X48.547 Y54.292 Z-6.935
N14770 X48.529 Y54.214 Z-6.885
N14775 X48.513 Y54.144 Z-6.824
N14780 X48.5 Y54.085 Z-6.753
N14785 X48.489 Y54.037 Z-6.672
N14790 X48.48 Y54.002 Z-6.585
N14795 X48.475 Y53.98 Z-6.494
N14800 X48.474 Y53.973 Z-6.4
N14805 G0 Z5.
N14810 X38.234 Y14.505
N14815 Z-5.8
N14820 G1 Z-6.4 F1400.
N14825 X38.24 Y14.502 Z-6.494
N14830 X38.259 Y14.49 Z-6.585
N14835 X38.29 Y14.472 Z-6.672
N14840 X38.333 Y14.447 Z-6.753
N14845 X38.385 Y14.416 Z-6.824
N14850 X38.447 Y14.379 Z-6.885
N14855 X38.516 Y14.338 Z-6.935
N14860 X38.59 Y14.294 Z-6.971
N14865 X38.669 Y14.247 Z-6.993
N14870 X38.75 Y14.199 Z-7.
N14875 G3 X39.503 Y13.978 I0.809 J1.36
N14880 G1 X44.724
N14885 X45.139 Y13.998
N14890 X45.607 Y14.06
N14895 X46.121 Y14.17
N14900 X46.739 Y14.355
N14905 X47.456 Y14.634
N14910 X48.268 Y15.028
N14915 X49.093 Y15.514
N14920 X49.882 Y16.056
N14925 X50.638 Y16.644
N14930 X51.362 Y17.271
N14935 X52.056 Y17.932
N14940 X52.719 Y18.622
N14945 X53.353 Y19.34
N14950 X53.957 Y20.083
N14955 X54.531 Y20.85
N14960 X54.775 Y21.205
N14965 X54.911 Y21.451
N14970 X54.994 Y21.72
N14975 X55.022 Y21.999
N14980 Y26.617
N14985 G3 X54.402 Y27.196 Z-6.8 I-0.6 J-0.021
N14990 X53.956 Y26.973 I0.02 J-0.6
N14995 G1 X44.278 Y14.953
N15000 G3 X44.146 Y14.598 I0.467 J-0.376
N15005 X44.724 Y13.978 Z-7. I0.6 J-0.02
N15010 G1 X48.422
N15015 X48.858 Y13.999
N15020 X49.221 Y14.047
N15025 X49.649 Y14.139
N15030 X50.119 Y14.279
N15035 X50.67 Y14.494
N15040 X51.304 Y14.801
N15045 X52.009 Y15.216
N15050 X52.792 Y15.767
N15055 X53.531 Y16.376
N15060 X54.23 Y17.031
N15065 X54.633 Y17.451
N15070 X54.799 Y17.661
N15075 X54.922 Y17.898
N15080 X54.997 Y18.154
N15085 X55.022 Y18.42
N15090 G3 X54.407 Y18.74 Z-6.821 I-0.398 J-0.014
N15095 G1 X54.323 Y18.685 Z-6.8
N15100 X48.219 Y14.709
N15105 X48.168 Y14.669
N15110 G3 X48.422 Y13.978 Z-7. I0.269 J-0.294
N15115 G1 X51.685
N15120 X52.114 Y13.999
N15125 X52.452 Y14.043
N15130 X52.81 Y14.12
N15135 X53.231 Y14.246
N15140 X53.697 Y14.427
N15145 X54.188 Y14.666
N15150 X54.325 Y14.747
N15155 X54.547 Y14.908
N15160 X54.733 Y15.11
N15165 X54.876 Y15.345
N15170 X54.97 Y15.603
N15175 X55.013 Y15.874
N15180 G3 X54.426 Y16.487 Z-6.8 I-0.6 J0.013
N15185 X54.152 Y16.427 I-0.013 J-0.6
N15190 G1 X51.445 Y15.117
N15195 G3 X51.107 Y14.598 I0.261 J-0.54
N15200 X51.685 Y13.978 Z-7. I0.6 J-0.02
N15205 G1 X52.773
N15210 X52.991 Y13.98
N15215 X53.643 Y14.016
N15220 X53.861 Y14.042
N15225 X53.924 Y14.052
N15230 X54.001 Y14.071
N15235 X54.078 Y14.101
N15240 X54.296 Y14.195
N15245 X54.405 Y14.269
N15250 X54.513 Y14.352
N15255 X54.581 Y14.41
N15260 X54.648 Y14.487
N15265 X54.731 Y14.595
N15270 X54.805 Y14.704
N15275 X54.899 Y14.922
N15280 X54.929 Y14.998
N15285 X54.948 Y15.074
N15290 X54.958 Y15.139
N15295 X54.984 Y15.357
N15300 X55.02 Y16.009
N15305 X55.022 Y16.227
N15310 Y21.999
N15315 G3 X54.558 Y22.563 I-0.6 J-0.021
N15320 G1 X54.466 Y22.584 Z-6.993
N15325 X54.377 Y22.605 Z-6.971
N15330 X54.292 Y22.624 Z-6.935
N15335 X54.214 Y22.642 Z-6.885
N15340 X54.144 Y22.658 Z-6.824
N15345 X54.085 Y22.672 Z-6.753
N15350 X54.037 Y22.683 Z-6.672
N15355 X54.002 Y22.691 Z-6.585
N15360 X53.98 Y22.696 Z-6.494
N15365 X53.973 Y22.698 Z-6.4
N15370 G0 Z5.
N15375 X31.636 Y54.495
N15380 Z-5.8
N15385 G1 Z-6.4 F1400.
N15390 X31.63 Y54.498 Z-6.494
N15395 X31.611 Y54.51 Z-6.585
N15400 X31.58 Y54.528 Z-6.672
N15405 X31.538 Y54.553 Z-6.753
N15410 X31.485 Y54.584 Z-6.824
N15415 X31.424 Y54.621 Z-6.885
N15420 X31.354 Y54.662 Z-6.935
N15425 X31.28 Y54.706 Z-6.971
N15430 X31.201 Y54.753 Z-6.993
N15435 X31.12 Y54.801 Z-7.
N15440 G3 X30.367 Y55.022 I-0.809 J-1.36
N15445 G1 X24.711
N15450 X24.253 Y55.
N15455 X23.768 Y54.936
N15460 X23.237 Y54.822
N15465 X22.601 Y54.632
N15470 X21.859 Y54.343
N15475 X21.016 Y53.934
N15480 X20.191 Y53.448
N15485 X19.401 Y52.907
N15490 X18.645 Y52.32
N15495 X17.92 Y51.693
N15500 X17.228 Y51.032
N15505 X16.566 Y50.339
N15510 X15.936 Y49.618
N15515 X15.337 Y48.871
N15520 X14.769 Y48.099
N15525 X14.234 Y47.305
N15530 X14.186 Y47.226
N15535 X14.071 Y46.996
N15540 X14.001 Y46.748
N15545 X13.978 Y46.492
N15550 Y41.394
N15555 G3 X14.598 Y40.815 Z-6.8 I0.6 J0.021
N15560 X15.051 Y41.047 I-0.02 J0.6
N15565 G1 X25.164 Y54.055
N15570 G3 X25.29 Y54.402 I-0.474 J0.368
N15575 X24.711 Y55.022 Z-7. I-0.6 J0.02
N15580 G1 X20.795
N15585 X20.48 Y55.007
N15590 X20.116 Y54.959
N15595 X19.68 Y54.866
N15600 X19.209 Y54.725
N15605 X18.652 Y54.508
N15610 X18.02 Y54.201
N15615 X17.314 Y53.786
N15620 X16.531 Y53.235
N15625 X15.792 Y52.626
N15630 X15.094 Y51.97
N15635 X14.433 Y51.277
N15640 X14.318 Y51.143
N15645 X14.173 Y50.941
N15650 X14.065 Y50.716
N15655 X14. Y50.476
N15660 X13.978 Y50.228
N15665 G3 X14.577 Y49.628 Z-6.8 I0.6 J0.
N15670 X14.89 Y49.716 I0. J0.6
N15675 G1 X21.554 Y53.773
N15680 G3 X21.666 Y54.71 I-0.312 J0.512
N15685 G1 X21.61 Y54.759 Z-6.816
N15690 X21.549 Y54.801 Z-6.831
N15695 G3 X20.795 Y55.022 Z-7. I-0.809 J-1.36
N15700 G1 X17.532
N15705 X17.214 Y55.007
N15710 X16.876 Y54.962
N15715 X16.518 Y54.886
N15720 X16.099 Y54.76
N15725 X15.635 Y54.579
N15730 X15.097 Y54.318
N15735 X14.668 Y54.066
N15740 X14.437 Y53.895
N15745 X14.245 Y53.681
N15750 X14.101 Y53.432
N15755 X14.011 Y53.159
N15760 X13.978 Y52.873
N15765 G3 X14.593 Y52.288 Z-6.8 I0.6 J0.015
N15770 X14.856 Y52.356 I-0.015 J0.6
N15775 G1 X17.789 Y53.891
N15780 G3 X18.111 Y54.402 I-0.278 J0.532
N15785 X17.532 Y55.022 Z-7. I-0.6 J0.02
N15790 G1 X16.227
N15795 X16.009 Y55.02
N15800 X15.357 Y54.984
N15805 X15.139 Y54.958
N15810 X15.074 Y54.948
N15815 X14.998 Y54.929
N15820 X14.922 Y54.899
N15825 X14.704 Y54.805
N15830 X14.595 Y54.731
N15835 X14.487 Y54.648
N15840 X14.41 Y54.581
N15845 X14.352 Y54.513
N15850 X14.269 Y54.405
N15855 X14.195 Y54.296
N15860 X14.101 Y54.078
N15865 X14.071 Y54.001
N15870 X14.052 Y53.924
N15875 X14.042 Y53.861
N15880 X14.016 Y53.643
N15885 X13.98 Y52.991
N15890 X13.978 Y52.773
N15895 Y46.492
N15900 G3 X14.442 Y45.928 I0.6 J0.021
N15905 G1 X14.534 Y45.907 Z-6.993
N15910 X14.623 Y45.886 Z-6.971
N15915 X14.708 Y45.867 Z-6.935
N15920 X14.786 Y45.849 Z-6.885
N15925 X14.856 Y45.833 Z-6.824
N15930 X14.915 Y45.819 Z-6.753
N15935 X14.963 Y45.808 Z-6.672
N15940 X14.998 Y45.8 Z-6.585
N15945 X15.02 Y45.795 Z-6.494
N15950 X15.027 Y45.793 Z-6.4
N15955 G0 Z5.
N15960 X14.505 Y30.766
N15965 Z-5.8
N15970 G1 Z-6.4 F1400.
N15975 X14.502 Y30.76 Z-6.494
N15980 X14.49 Y30.741 Z-6.585
N15985 X14.472 Y30.71 Z-6.672
N15990 X14.447 Y30.667 Z-6.753
N15995 X14.416 Y30.615 Z-6.824
N16000 X14.379 Y30.553 Z-6.885
N16005 X14.338 Y30.484 Z-6.935
N16010 X14.294 Y30.41 Z-6.971
N16015 X14.247 Y30.331 Z-6.993
N16020 X14.199 Y30.25 Z-7.
N16025 G3 X13.978 Y29.497 I1.36 J-0.809
N16030 G1 Y24.493
N16035 X14.006 Y23.924
N16040 X14.064 Y23.479
N16045 X14.177 Y22.953
N16050 X14.357 Y22.35
N16055 X14.623 Y21.667
N16060 X15.009 Y20.872
N16065 X15.495 Y20.047
N16070 X16.039 Y19.259
N16075 X16.631 Y18.506
N16080 X17.262 Y17.786
N16085 X17.928 Y17.097
N16090 X18.625 Y16.44
N16095 X19.35 Y15.815
N16100 X20.101 Y15.221
N16105 X20.877 Y14.66
N16110 X21.557 Y14.21
N16115 X21.798 Y14.082
N16120 X22.058 Y14.004
N16125 X22.329 Y13.978
N16130 X27.426
N16135 G3 X28.004 Y14.598 Z-6.8 I-0.021 J0.6
N16140 X27.771 Y15.052 I-0.6 J-0.02
N16145 G1 X14.944 Y24.947
N16150 G3 X14.598 Y25.072 I-0.366 J-0.475
N16155 X13.978 Y24.493 Z-7. I-0.02 J-0.6
N16160 G1 Y20.578
N16165 X13.993 Y20.271
N16170 X14.04 Y19.912
N16175 X14.13 Y19.489
N16180 X14.269 Y19.027
N16185 X14.48 Y18.485
N16190 X14.779 Y17.868
N16195 X15.183 Y17.182
N16200 X15.734 Y16.398
N16205 X16.345 Y15.661
N16210 X17.003 Y14.965
N16215 X17.645 Y14.359
N16220 X17.853 Y14.197
N16225 X18.089 Y14.077
N16230 X18.343 Y14.002
N16235 X18.606 Y13.978
N16240 G3 X18.905 Y14.567 Z-6.829 I-0.013 J0.377
N16245 G1 X18.828 Y14.68 Z-6.8
N16250 X14.666 Y20.777
N16255 X14.664 Y20.781
N16260 G3 X13.978 Y20.578 Z-7. I-0.309 J-0.216
N16265 G1 Y17.315
N16270 X13.991 Y17.049
N16275 X14.035 Y16.713
N16280 X14.11 Y16.362
N16285 X14.234 Y15.947
N16290 X14.412 Y15.491
N16295 X14.668 Y14.964
N16300 X14.841 Y14.669
N16305 X15.003 Y14.448
N16310 X15.205 Y14.262
N16315 X15.439 Y14.119
N16320 X15.697 Y14.024
N16325 X15.968 Y13.982
N16330 G3 X16.581 Y14.568 Z-6.8 I0.013 J0.6
N16335 X16.514 Y14.858 I-0.6 J0.013
N16340 G1 X15.11 Y17.57
N16345 G3 X14.598 Y17.893 I-0.533 J-0.276
N16350 X13.978 Y17.315 Z-7. I-0.02 J-0.6
N16355 G1 Y16.227
N16360 X13.98 Y16.009
N16365 X14.016 Y15.357
N16370 X14.042 Y15.139
N16375 X14.052 Y15.074
N16380 X14.071 Y14.998
N16385 X14.101 Y14.922
N16390 X14.195 Y14.704
N16395 X14.269 Y14.595
N16400 X14.352 Y14.487
N16405 X14.419 Y14.41
N16410 X14.487 Y14.352
N16415 X14.595 Y14.269
N16420 X14.704 Y14.195
N16425 X14.922 Y14.101
N16430 X14.999 Y14.071
N16435 X15.076 Y14.052
N16440 X15.139 Y14.042
N16445 X15.357 Y14.016
N16450 X16.009 Y13.98
N16455 X16.227 Y13.978
N16460 X22.329
N16465 X22.422 Y13.988
N16470 X22.511 Y14.012
N16475 X22.575 Y14.049 Z-6.995
N16480 X22.638 Y14.086 Z-6.982
N16485 X22.699 Y14.121 Z-6.959
N16490 X22.748 Y14.183 Z-6.921
N16495 X22.794 Y14.239 Z-6.871
N16500 X22.835 Y14.29 Z-6.812
N16505 X22.855 Y14.343 Z-6.741
N16510 X22.872 Y14.386 Z-6.663
N16515 X22.884 Y14.417 Z-6.579
N16520 X22.891 Y14.436 Z-6.491
N16525 X22.893 Y14.442 Z-6.4
N16530 G0 Z5.
N16535 X17.865 Y33.881
N16540 Z-2.8
N16545 G1 Z-3.4 F1400.
N16550 X17.858 Y33.883 Z-3.494
N16555 X17.837 Y33.889 Z-3.585
N16560 X17.802 Y33.898 Z-3.672
N16565 X17.754 Y33.91 Z-3.753
N16570 X17.695 Y33.925 Z-3.824
N16575 X17.626 Y33.943 Z-3.885
N16580 X17.548 Y33.963 Z-3.935
N16585 X17.463 Y33.984 Z-3.971
N16590 X17.375 Y34.007 Z-3.993
N16595 X17.284 Y34.03 Z-4.
N16600 G3 X14.017 Y34.5 I-3.801 J-14.839
N16605 G1 X13.867
N16610 X13.695 Y34.379
N16615 X13.562 Y34.216
N16620 X13.477 Y34.024
N16625 X13.449 Y33.815
N16630 Y15.357
N16635 X13.459 Y15.139
N16640 X13.473 Y14.922
N16645 X13.501 Y14.704
N16650 X13.537 Y14.487
N16655 X13.622 Y14.269
N16660 X13.674 Y14.16
N16665 X13.752 Y14.052
N16670 X13.834 Y13.944
N16675 X13.882 Y13.889
N16680 X13.944 Y13.834
N16685 X14.052 Y13.752
N16690 X14.16 Y13.674
N16695 X14.269 Y13.622
N16700 X14.487 Y13.537
N16705 X14.704 Y13.501
N16710 X14.922 Y13.473
N16715 X15.139 Y13.459
N16720 X15.357 Y13.449
N16725 X53.643
N16730 X53.861 Y13.459
N16735 X54.078 Y13.473
N16740 X54.296 Y13.501
N16745 X54.513 Y13.537
N16750 X54.731 Y13.622
N16755 X54.84 Y13.674
N16760 X54.948 Y13.752
N16765 X55.056 Y13.834
N16770 X55.118 Y13.889
N16775 X55.166 Y13.944
N16780 X55.248 Y14.052
N16785 X55.326 Y14.16
N16790 X55.378 Y14.269
N16795 X55.463 Y14.487
N16800 X55.499 Y14.704
N16805 X55.527 Y14.922
N16810 X55.541 Y15.139
N16815 X55.551 Y15.357
N16820 Y53.643
N16825 X55.541 Y53.861
N16830 X55.527 Y54.078
N16835 X55.499 Y54.296
N16840 X55.463 Y54.513
N16845 X55.378 Y54.731
N16850 X55.326 Y54.84
N16855 X55.248 Y54.948
N16860 X55.166 Y55.056
N16865 X55.118 Y55.111
N16870 X55.056 Y55.166
N16875 X54.948 Y55.248
N16880 X54.84 Y55.326
N16885 X54.731 Y55.378
N16890 X54.513 Y55.463
N16895 X54.296 Y55.499
N16900 X54.078 Y55.527
N16905 X53.861 Y55.541
N16910 X53.643 Y55.551
N16915 X15.357
N16920 X15.139 Y55.541
N16925 X14.922 Y55.527
N16930 X14.704 Y55.499
N16935 X14.487 Y55.463
N16940 X14.269 Y55.378
N16945 X14.16 Y55.326
N16950 X14.052 Y55.248
N16955 X13.944 Y55.166
N16960 X13.889 Y55.118
N16965 X13.834 Y55.056
N16970 X13.752 Y54.948
N16975 X13.674 Y54.84
N16980 X13.622 Y54.731
N16985 X13.537 Y54.513
N16990 X13.501 Y54.296
N16995 X13.473 Y54.078
N17000 X13.459 Y53.861
N17005 X13.449 Y53.643
N17010 Y33.815
N17015 X13.459 Y33.723
N17020 X13.483 Y33.634
N17025 X13.52 Y33.57 Z-3.995
N17030 X13.557 Y33.507 Z-3.982
N17035 X13.592 Y33.446 Z-3.959
N17040 X13.654 Y33.396 Z-3.921
N17045 X13.71 Y33.35 Z-3.871
N17050 X13.761 Y33.309 Z-3.812
N17055 X13.814 Y33.289 Z-3.741
N17060 X13.857 Y33.273 Z-3.663
N17065 X13.888 Y33.261 Z-3.579
N17070 X13.907 Y33.254 Z-3.491
N17075 X13.913 Y33.251 Z-3.4
N17080 G0 Z5.
N17085 X35.934 Y31.876
N17090 Z-4.5
N17095 G3 X36.72 Y36.504 Z-4.972 I-1.434 J2.624 F466.67
N17100 X32.049 Y36.196 Z-5.444 I-2.214 J-1.998
N17105 X33.428 Y31.736 Z-5.917 I2.45 J-1.686
N17110 X37.435 Y34.105 Z-6.389 I1.068 J2.767
N17115 X34.211 Y37.444 Z-6.861 I-2.931 J0.397
N17120 X31.717 Y33.544 Z-7.333 I0.293 J-2.935
N17125 X36.077 Y32.027 Z-7.806 I2.779 J0.963
N17130 X36.541 Y36.607 Z-8.278 I-1.577 J2.473
N17135 X31.99 Y35.998 Z-8.75 I-2.034 J-2.101
N17140 X33.634 Y31.725 Z-9.222 I2.509 J-1.488
N17145 X37.398 Y34.307 Z-9.694 I0.863 J2.777
N17150 X34.023 Y37.361 Z-10.167 I-2.893 J0.195
N17155 X31.841 Y33.382 Z-10.639 I0.48 J-2.852
N17160 X36.206 Y32.185 Z-11.111 I2.655 J1.125
N17165 X36.357 Y36.695 Z-11.583 I-1.705 J2.315
N17170 X31.947 Y35.8 Z-12.056 I-1.851 J-2.189
N17175 X33.836 Y31.729 Z-12.528 I2.551 J-1.29
N17180 X37.347 Y34.502 Z-13. I0.661 J2.773
N17185 X31.646 I-2.851 J0.
N17190 X37.347 I2.851 J0.
N17195 G1 X37.351 Y34.741 F1400.
N17200 X37.527 Y35.683
N17205 X37.568 Y35.827
N17210 X37.593 Y35.975
N17215 X37.603 Y36.124
N17220 X37.601 Y36.274
N17225 X37.584 Y36.433
N17230 X37.554 Y36.602
N17235 X37.507 Y36.777
N17240 X37.442 Y36.959
N17245 X37.359 Y37.145
N17250 X37.255 Y37.333
N17255 X37.132 Y37.521
N17260 X36.987 Y37.706
N17265 X36.821 Y37.887
N17270 X36.634 Y38.06
N17275 X36.426 Y38.223
N17280 X36.199 Y38.374
N17285 X35.953 Y38.511
N17290 X35.689 Y38.63
N17295 X35.41 Y38.731
N17300 X35.117 Y38.81
N17305 X34.812 Y38.867
N17310 X34.498 Y38.9
N17315 X34.177 Y38.908
N17320 X33.851 Y38.889
N17325 X33.524 Y38.844
N17330 X33.197 Y38.772
N17335 X32.874 Y38.673
N17340 X32.556 Y38.547
N17345 X32.247 Y38.395
N17350 X31.949 Y38.217
N17355 X31.664 Y38.014
N17360 X31.395 Y37.788
N17365 X31.144 Y37.539
N17370 X30.912 Y37.27
N17375 X30.702 Y36.982
N17380 X30.515 Y36.677
N17385 X30.352 Y36.358
N17390 X30.216 Y36.025
N17395 X30.106 Y35.681
N17400 X30.024 Y35.329
N17405 X29.97 Y34.971
N17410 X29.946 Y34.609
N17415 X29.95 Y34.246
N17420 X29.984 Y33.884
N17425 X30.046 Y33.526
N17430 X30.137 Y33.173
N17435 X30.257 Y32.829
N17440 X30.403 Y32.495
N17445 X30.576 Y32.173
N17450 X30.775 Y31.867
N17455 X30.998 Y31.577
N17460 X31.243 Y31.306
N17465 X31.509 Y31.055
N17470 X31.795 Y30.826
N17475 X32.098 Y30.621
N17480 X32.416 Y30.441
N17485 X32.749 Y30.287
N17490 X33.092 Y30.16
N17495 X33.445 Y30.062
N17500 X33.804 Y29.991
N17505 X34.168 Y29.95
N17510 X34.534 Y29.938
N17515 X34.9 Y29.956
N17520 X35.264 Y30.003
N17525 X35.622 Y30.079
N17530 X35.973 Y30.183
N17535 X36.315 Y30.316
N17540 X36.645 Y30.475
N17545 X36.961 Y30.661
N17550 X37.262 Y30.871
N17555 X37.544 Y31.104
N17560 X37.807 Y31.36
N17565 X38.049 Y31.636
N17570 X38.267 Y31.93
N17575 X38.497 Y32.298
N17580 X38.859 Y32.996
N17585 X39.115 Y33.604
N17590 X39.284 Y34.118
N17595 X39.396 Y34.583
N17600 X39.466 Y35.024
N17605 X39.498 Y35.451
N17610 X39.497 Y35.864
N17615 X39.463 Y36.266
N17620 X39.398 Y36.658
N17625 X39.302 Y37.042
N17630 X39.176 Y37.416
N17635 X39.019 Y37.78
N17640 X38.834 Y38.132
N17645 X38.618 Y38.47
N17650 X38.375 Y38.793
N17655 X38.103 Y39.098
N17660 X37.804 Y39.384
N17665 X37.48 Y39.649
N17670 X37.13 Y39.889
N17675 X36.757 Y40.104
N17680 X36.362 Y40.291
N17685 X35.948 Y40.448
N17690 X35.518 Y40.572
N17695 X35.073 Y40.663
N17700 X34.617 Y40.718
N17705 X34.153 Y40.737
N17710 X33.684 Y40.718
N17715 X33.214 Y40.661
N17720 X32.745 Y40.566
N17725 X32.283 Y40.433
N17730 X31.829 Y40.261
N17735 X31.387 Y40.052
N17740 X30.961 Y39.807
N17745 X30.554 Y39.527
N17750 X30.168 Y39.214
N17755 X29.807 Y38.869
N17760 X29.474 Y38.494
N17765 X29.17 Y38.092
N17770 X28.899 Y37.665
N17775 X28.661 Y37.217
N17780 X28.46 Y36.75
N17785 X28.297 Y36.266
N17790 X28.173 Y35.77
N17795 X28.089 Y35.265
N17800 X28.045 Y34.753
N17805 X28.043 Y34.239
N17810 X28.082 Y33.726
N17815 X28.162 Y33.216
N17820 X28.283 Y32.715
N17825 X28.444 Y32.224
N17830 X28.645 Y31.747
N17835 X28.883 Y31.287
N17840 X29.157 Y30.848
N17845 X29.466 Y30.432
N17850 X29.807 Y30.042
N17855 X30.179 Y29.68
N17860 X30.578 Y29.349
N17865 X31.004 Y29.051
N17870 X31.451 Y28.788
N17875 X31.919 Y28.562
N17880 X32.403 Y28.374
N17885 X32.901 Y28.226
N17890 X33.409 Y28.118
N17895 X33.925 Y28.051
N17900 X34.444 Y28.026
N17905 X34.964 Y28.042
N17910 X35.48 Y28.1
N17915 X35.991 Y28.2
N17920 X36.492 Y28.34
N17925 X36.98 Y28.52
N17930 X37.452 Y28.738
N17935 X37.905 Y28.994
N17940 X38.336 Y29.285
N17945 X38.752 Y29.618
N17950 X39.199 Y30.039
N17955 X39.627 Y30.511
N17960 X40.029 Y31.034
N17965 X40.393 Y31.596
N17970 X40.707 Y32.177
N17975 X40.966 Y32.767
N17980 X41.172 Y33.361
N17985 X41.326 Y33.955
N17990 X41.43 Y34.547
N17995 X41.485 Y35.136
N18000 X41.492 Y35.721
N18005 X41.453 Y36.298
N18010 X41.368 Y36.865
N18015 X41.239 Y37.421
N18020 X41.066 Y37.963
N18025 X40.85 Y38.489
N18030 X40.593 Y38.997
N18035 X40.295 Y39.483
N18040 X39.958 Y39.945
N18045 X39.583 Y40.381
N18050 X39.171 Y40.789
N18055 X38.725 Y41.164
N18060 X38.246 Y41.506
N18065 X37.737 Y41.81
N18070 X37.201 Y42.074
N18075 X36.641 Y42.297
N18080 X36.06 Y42.476
N18085 X35.461 Y42.608
N18090 X34.849 Y42.692
N18095 X34.228 Y42.728
N18100 X33.602 Y42.713
N18105 X32.975 Y42.648
N18110 X32.351 Y42.531
N18115 X31.734 Y42.364
N18120 X31.129 Y42.147
N18125 X30.541 Y41.881
N18130 X29.972 Y41.566
N18135 X29.428 Y41.205
N18140 X28.912 Y40.8
N18145 X28.429 Y40.352
N18150 X27.981 Y39.866
N18155 X27.572 Y39.343
N18160 X27.206 Y38.787
N18165 X26.884 Y38.202
N18170 X26.609 Y37.591
N18175 X26.384 Y36.958
N18180 X26.209 Y36.308
N18185 X26.088 Y35.645
N18190 X26.02 Y34.973
N18195 X26.005 Y34.297
N18200 X26.046 Y33.621
N18205 X26.14 Y32.949
N18210 X26.289 Y32.287
N18215 X26.49 Y31.638
N18220 X26.743 Y31.006
N18225 X27.045 Y30.397
N18230 X27.397 Y29.813
N18235 X27.794 Y29.259
N18240 X28.234 Y28.739
N18245 X28.715 Y28.255
N18250 X29.233 Y27.811
N18255 X29.786 Y27.411
N18260 X30.369 Y27.055
N18265 X30.979 Y26.748
N18270 X31.612 Y26.491
N18275 X32.263 Y26.285
N18280 X32.929 Y26.132
N18285 X33.605 Y26.033
N18290 X34.288 Y25.988
N18295 X34.971 Y25.998
N18300 X35.652 Y26.064
N18305 X36.325 Y26.183
N18310 X36.986 Y26.357
N18315 X37.632 Y26.583
N18320 X38.26 Y26.861
N18325 X38.883 Y27.199
N18330 X39.497 Y27.599
N18335 X40.093 Y28.06
N18340 X40.666 Y28.581
N18345 X41.204 Y29.156
N18350 X41.698 Y29.777
N18355 X42.141 Y30.437
N18360 X42.528 Y31.127
N18365 X42.856 Y31.841
N18370 X43.124 Y32.574
N18375 X43.33 Y33.319
N18380 X43.475 Y34.072
N18385 X43.558 Y34.828
N18390 X43.58 Y35.583
N18395 X43.541 Y36.332
N18400 X43.443 Y37.072
N18405 X43.287 Y37.8
N18410 X43.073 Y38.51
N18415 X42.803 Y39.201
N18420 X42.478 Y39.868
N18425 X42.101 Y40.507
N18430 X41.672 Y41.116
N18435 X41.195 Y41.69
N18440 X40.67 Y42.226
N18445 X40.102 Y42.72
N18450 X39.493 Y43.17
N18455 X38.846 Y43.571
N18460 X38.164 Y43.922
N18465 X37.453 Y44.218
N18470 X36.716 Y44.458
N18475 X35.957 Y44.639
N18480 X35.182 Y44.759
N18485 X34.395 Y44.817
N18490 X33.601 Y44.811
N18495 X32.807 Y44.741
N18500 X32.016 Y44.608
N18505 X31.235 Y44.41
N18510 X30.468 Y44.148
N18515 X29.722 Y43.825
N18520 X29. Y43.441
N18525 X28.309 Y42.999
N18530 X27.653 Y42.501
N18535 X27.038 Y41.949
N18540 X26.466 Y41.348
N18545 X25.943 Y40.702
N18550 X25.472 Y40.013
N18555 X25.057 Y39.287
N18560 X24.701 Y38.528
N18565 X24.406 Y37.741
N18570 X24.175 Y36.932
N18575 X24.009 Y36.105
N18580 X23.91 Y35.266
N18585 X23.878 Y34.421
N18590 X23.915 Y33.575
N18595 X24.019 Y32.733
N18600 X24.191 Y31.902
N18605 X24.429 Y31.086
N18610 X24.732 Y30.292
N18615 X25.098 Y29.523
N18620 X25.525 Y28.787
N18625 X26.01 Y28.086
N18630 X26.55 Y27.427
N18635 X27.141 Y26.812
N18640 X27.78 Y26.247
N18645 X28.462 Y25.734
N18650 X29.184 Y25.278
N18655 X29.94 Y24.882
N18660 X30.726 Y24.547
N18665 X31.536 Y24.276
N18670 X32.365 Y24.071
N18675 X33.208 Y23.933
N18680 X34.06 Y23.864
N18685 X34.915 Y23.863
N18690 X35.767 Y23.93
N18695 X36.612 Y24.066
N18700 X37.446 Y24.27
N18705 X38.27 Y24.543
N18710 X39.078 Y24.885
N18715 X39.868 Y25.297
N18720 X40.635 Y25.78
N18725 X41.375 Y26.332
N18730 X42.078 Y26.951
N18735 X42.737 Y27.632
N18740 X43.342 Y28.368
N18745 X43.887 Y29.152
N18750 X44.367 Y29.976
N18755 X44.779 Y30.835
N18760 X45.119 Y31.72
N18765 X45.386 Y32.625
N18770 X45.578 Y33.545
N18775 X45.696 Y34.471
N18780 X45.738 Y35.4
N18785 X45.706 Y36.326
N18790 X45.6 Y37.242
N18795 X45.421 Y38.144
N18800 X45.171 Y39.028
N18805 X44.851 Y39.888
N18810 X44.463 Y40.719
N18815 X44.009 Y41.517
N18820 X43.492 Y42.277
N18825 X42.914 Y42.995
N18830 X42.279 Y43.667
N18835 X41.589 Y44.287
N18840 X40.849 Y44.852
N18845 X40.063 Y45.358
N18850 X39.235 Y45.802
N18855 X38.369 Y46.179
N18860 X37.473 Y46.487
N18865 X36.549 Y46.723
N18870 X35.606 Y46.885
N18875 X34.652 Y46.971
N18880 X33.695 Y46.98
N18885 X32.739 Y46.914
N18890 X31.792 Y46.772
N18895 X30.859 Y46.555
N18900 X29.946 Y46.267
N18905 X29.058 Y45.907
N18910 X28.201 Y45.48
N18915 X27.38 Y44.988
N18920 X26.598 Y44.434
N18925 X25.862 Y43.821
N18930 X25.175 Y43.154
N18935 X24.541 Y42.436
N18940 X23.964 Y41.672
N18945 X23.446 Y40.866
N18950 X22.991 Y40.024
N18955 X22.601 Y39.149
N18960 X22.279 Y38.247
N18965 X22.026 Y37.323
N18970 X21.845 Y36.383
N18975 X21.736 Y35.432
N18980 X21.699 Y34.475
N18985 X21.734 Y33.518
N18990 X21.841 Y32.566
N18995 X22.019 Y31.625
N19000 X22.267 Y30.7
N19005 X22.583 Y29.796
N19010 X22.966 Y28.918
N19015 X23.414 Y28.071
N19020 X23.923 Y27.26
N19025 X24.491 Y26.489
N19030 X25.115 Y25.763
N19035 X25.792 Y25.085
N19040 X26.518 Y24.46
N19045 X27.289 Y23.893
N19050 X28.101 Y23.384
N19055 X28.948 Y22.938
N19060 X29.827 Y22.557
N19065 X30.731 Y22.242
N19070 X31.657 Y21.996
N19075 X32.598 Y21.819
N19080 X33.55 Y21.712
N19085 X34.507 Y21.677
N19090 X35.464 Y21.713
N19095 X36.415 Y21.819
N19100 X37.357 Y21.995
N19105 X38.282 Y22.241
N19110 X39.187 Y22.555
N19115 X40.066 Y22.935
N19120 X40.915 Y23.378
N19125 X41.73 Y23.881
N19130 X42.508 Y24.439
N19135 X43.246 Y25.05
N19140 X43.941 Y25.709
N19145 X44.589 Y26.415
N19150 X45.185 Y27.164
N19155 X45.727 Y27.953
N19160 X46.215 Y28.778
N19165 X46.646 Y29.633
N19170 X47.019 Y30.515
N19175 X47.331 Y31.42
N19180 X47.58 Y32.345
N19185 X47.762 Y33.285
N19190 X47.878 Y34.236
N19195 X47.928 Y35.192
N19200 X47.913 Y36.15
N19205 X47.831 Y37.104
N19210 X47.684 Y38.051
N19215 X47.471 Y38.984
N19220 X47.192 Y39.901
N19225 X46.849 Y40.794
N19230 X46.442 Y41.662
N19235 X45.977 Y42.498
N19240 X45.454 Y43.301
N19245 X44.877 Y44.065
N19250 X44.249 Y44.788
N19255 X43.572 Y45.466
N19260 X42.848 Y46.093
N19265 X42.082 Y46.667
N19270 X41.278 Y47.187
N19275 X40.44 Y47.651
N19280 X39.572 Y48.057
N19285 X38.68 Y48.404
N19290 X37.765 Y48.689
N19295 X36.833 Y48.909
N19300 X35.888 Y49.064
N19305 X34.935 Y49.155
N19310 X33.977 Y49.182
N19315 X33.02 Y49.146
N19320 X32.068 Y49.048
N19325 X31.124 Y48.884
N19330 X30.194 Y48.656
N19335 X29.281 Y48.366
N19340 X28.389 Y48.017
N19345 X27.522 Y47.611
N19350 X26.683 Y47.15
N19355 X25.875 Y46.635
N19360 X25.105 Y46.066
N19365 X24.374 Y45.448
N19370 X23.684 Y44.783
N19375 X23.039 Y44.075
N19380 X22.44 Y43.328
N19385 X21.89 Y42.544
N19390 X21.392 Y41.726
N19395 X20.95 Y40.876
N19400 X20.565 Y39.999
N19405 X20.237 Y39.1
N19410 X19.967 Y38.181
N19415 X19.756 Y37.246
N19420 X19.605 Y36.301
N19425 X19.516 Y35.347
N19430 X19.49 Y34.39
N19435 X19.527 Y33.433
N19440 X19.624 Y32.48
N19445 X19.781 Y31.535
N19450 X19.997 Y30.602
N19455 X20.272 Y29.685
N19460 X20.606 Y28.787
N19465 X20.997 Y27.913
N19470 X21.444 Y27.066
N19475 X21.943 Y26.249
N19480 X22.493 Y25.464
N19485 X23.09 Y24.716
N19490 X23.733 Y24.007
N19495 X24.423 Y23.342
N19500 X25.154 Y22.723
N19505 X25.923 Y22.153
N19510 X26.727 Y21.632
N19515 X27.562 Y21.163
N19520 X28.425 Y20.747
N19525 X29.312 Y20.388
N19530 X30.222 Y20.087
N19535 X31.148 Y19.845
N19540 X32.088 Y19.663
N19545 X33.038 Y19.54
N19550 X33.994 Y19.476
N19555 X34.952 Y19.472
N19560 X35.908 Y19.529
N19565 X36.858 Y19.649
N19570 X37.798 Y19.829
N19575 X38.726 Y20.068
N19580 X39.636 Y20.364
N19585 X40.527 Y20.716
N19590 X41.394 Y21.122
N19595 X42.235 Y21.581
N19600 X43.045 Y22.092
N19605 X43.823 Y22.651
N19610 X44.566 Y23.255
N19615 X45.272 Y23.903
N19620 X45.938 Y24.591
N19625 X46.563 Y25.316
N19630 X47.143 Y26.078
N19635 X47.676 Y26.874
N19640 X48.16 Y27.7
N19645 X48.595 Y28.553
N19650 X48.98 Y29.43
N19655 X49.313 Y30.328
N19660 X49.593 Y31.244
N19665 X49.817 Y32.175
N19670 X49.984 Y33.118
N19675 X50.094 Y34.07
N19680 X50.146 Y35.026
N19685 X50.142 Y35.984
N19690 X50.081 Y36.939
N19695 X49.965 Y37.89
N19700 X49.792 Y38.832
N19705 X49.561 Y39.761
N19710 X49.272 Y40.675
N19715 X48.929 Y41.569
N19720 X48.532 Y42.44
N19725 X48.085 Y43.287
N19730 X47.588 Y44.106
N19735 X47.044 Y44.894
N19740 X46.453 Y45.648
N19745 X45.817 Y46.363
N19750 X45.138 Y47.039
N19755 X44.419 Y47.672
N19760 X43.665 Y48.262
N19765 X42.877 Y48.806
N19770 X42.059 Y49.304
N19775 X41.212 Y49.752
N19780 X40.34 Y50.148
N19785 X39.446 Y50.491
N19790 X38.533 Y50.78
N19795 X37.605 Y51.015
N19800 X36.664 Y51.196
N19805 X35.715 Y51.322
N19810 X34.76 Y51.394
N19815 X33.802 Y51.409
N19820 X32.845 Y51.367
N19825 X31.893 Y51.269
N19830 X30.947 Y51.115
N19835 X30.012 Y50.908
N19840 X29.091 Y50.649
N19845 X28.185 Y50.337
N19850 X27.299 Y49.974
N19855 X26.435 Y49.56
N19860 X25.597 Y49.097
N19865 X24.787 Y48.586
N19870 X24.007 Y48.031
N19875 X23.259 Y47.432
N19880 X22.546 Y46.793
N19885 X21.87 Y46.115
N19890 X21.234 Y45.399
N19895 X20.64 Y44.648
N19900 X20.089 Y43.864
N19905 X19.584 Y43.05
N19910 X19.125 Y42.21
N19915 X18.713 Y41.345
N19920 X18.35 Y40.459
N19925 X18.037 Y39.554
N19930 X17.777 Y38.632
N19935 X17.569 Y37.697
N19940 X17.415 Y36.752
N19945 X17.313 Y35.8
N19950 X17.265 Y34.843
N19955 X17.27 Y33.886
N19960 X17.327 Y32.93
N19965 X17.438 Y31.978
N19970 X17.602 Y31.035
N19975 X17.819 Y30.102
N19980 X18.088 Y29.183
N19985 X18.408 Y28.28
N19990 X18.776 Y27.396
N19995 X19.192 Y26.534
N20000 X19.655 Y25.695
N20005 X20.165 Y24.884
N20010 X20.719 Y24.103
N20015 X21.316 Y23.355
N20020 X21.954 Y22.64
N20025 X22.631 Y21.962
N20030 X23.344 Y21.323
N20035 X24.09 Y20.724
N20040 X24.87 Y20.167
N20045 X25.679 Y19.655
N20050 X26.516 Y19.189
N20055 X27.377 Y18.77
N20060 X28.26 Y18.4
N20065 X29.163 Y18.08
N20070 X30.082 Y17.809
N20075 X31.014 Y17.589
N20080 X31.956 Y17.421
N20085 X32.907 Y17.306
N20090 X33.863 Y17.244
N20095 X34.821 Y17.236
N20100 X35.777 Y17.28
N20105 X36.73 Y17.376
N20110 X37.676 Y17.525
N20115 X38.613 Y17.724
N20120 X39.537 Y17.976
N20125 X40.446 Y18.278
N20130 X41.336 Y18.63
N20135 X42.207 Y19.029
N20140 X43.055 Y19.475
N20145 X43.877 Y19.965
N20150 X44.674 Y20.497
N20155 X45.441 Y21.07
N20160 X46.176 Y21.684
N20165 X46.878 Y22.336
N20170 X47.544 Y23.024
N20175 X48.173 Y23.746
N20180 X48.764 Y24.499
N20185 X49.315 Y25.283
N20190 X49.825 Y26.094
N20195 X50.293 Y26.929
N20200 X50.716 Y27.788
N20205 X51.094 Y28.668
N20210 X51.425 Y29.567
N20215 X51.708 Y30.482
N20220 X51.943 Y31.41
N20225 X52.13 Y32.349
N20230 X52.267 Y33.297
N20235 X52.356 Y34.251
N20240 X52.394 Y35.208
N20245 X52.381 Y36.165
N20250 X52.318 Y37.121
N20255 X52.204 Y38.072
N20260 X52.041 Y39.016
N20265 X51.828 Y39.949
N20270 X51.566 Y40.87
N20275 X51.256 Y41.777
N20280 X50.899 Y42.665
N20285 X50.494 Y43.533
N20290 X50.044 Y44.379
N20295 X49.55 Y45.199
N20300 X49.014 Y45.993
N20305 X48.437 Y46.757
N20310 X47.821 Y47.49
N20315 X47.167 Y48.19
N20320 X46.477 Y48.854
N20325 X45.753 Y49.48
N20330 X44.996 Y50.068
N20335 X44.21 Y50.615
N20340 X43.396 Y51.12
N20345 X42.558 Y51.583
N20350 X41.696 Y52.001
N20355 X40.815 Y52.375
N20360 X39.915 Y52.702
N20365 X38.998 Y52.981
N20370 X38.069 Y53.212
N20375 X37.129 Y53.395
N20380 X36.181 Y53.529
N20385 X35.227 Y53.615
N20390 X34.27 Y53.652
N20395 X33.312 Y53.64
N20400 X32.356 Y53.58
N20405 X31.405 Y53.47
N20410 X30.461 Y53.311
N20415 X29.526 Y53.103
N20420 X28.602 Y52.849
N20425 X27.693 Y52.549
N20430 X26.8 Y52.204
N20435 X25.925 Y51.814
N20440 X25.071 Y51.381
N20445 X24.239 Y50.905
N20450 X23.434 Y50.387
N20455 X22.655 Y49.829
N20460 X21.906 Y49.233
N20465 X21.187 Y48.601
N20470 X20.5 Y47.933
N20475 X19.847 Y47.232
N20480 X19.23 Y46.5
N20485 X18.65 Y45.738
N20490 X18.109 Y44.948
N20495 X17.608 Y44.131
N20500 X17.149 Y43.291
N20505 X16.733 Y42.429
N20510 X16.359 Y41.547
N20515 X16.029 Y40.648
N20520 X15.744 Y39.733
N20525 X15.505 Y38.806
N20530 X15.311 Y37.868
N20535 X15.166 Y36.922
N20540 X15.068 Y35.969
N20545 X15.036 Y35.364
N20550 X15.035 Y35.315
N20555 Y34.718
N20560 X15.083 Y33.761
N20565 X15.12 Y32.804
N20570 X15.212 Y31.851
N20575 X15.355 Y30.904
N20580 X15.548 Y29.966
N20585 X15.788 Y29.039
N20590 X16.074 Y28.125
N20595 X16.405 Y27.226
N20600 X16.78 Y26.345
N20605 X17.2 Y25.484
N20610 X17.662 Y24.645
N20615 X18.165 Y23.83
N20620 X18.708 Y23.041
N20625 X19.288 Y22.279
N20630 X19.905 Y21.547
N20635 X20.556 Y20.845
N20640 X21.242 Y20.176
N20645 X21.96 Y19.542
N20650 X22.709 Y18.945
N20655 X23.486 Y18.386
N20660 X24.29 Y17.865
N20665 X25.118 Y17.385
N20670 X25.969 Y16.945
N20675 X26.841 Y16.548
N20680 X27.73 Y16.193
N20685 X28.636 Y15.882
N20690 X29.556 Y15.617
N20695 X30.488 Y15.398
N20700 X31.43 Y15.225
N20705 X32.38 Y15.098
N20710 X33.058 Y15.04
N20715 X33.097 Y15.038
