%
(WOOD_BOX_100X40_S2_V1)
(T1  D=6. CR=0. TAPER=45DEG - ZMIN=23.7 - CHAMFER MILL)
(T10  D=6. CR=0. - ZMIN=25. - FLAT END MILL)
N10 G90 G94 G17 G91.1
N15 G21
N20 G53 G0 Z0.
(FACE2)
N25 T10 M6
N30 T1
N35 S18000 M3
N40 G54
N45 G64 P0.01 Q0.01
N50 G0 X108.818 Y5.847
N55 G43 Z43.5 H10
N60 G0 Z33.5
N65 G1 Z25.6 F720.
N70 G19 G2 Y5.247 Z25. J-0.6 K0. F2160.
N75 G1 Y-45.247
N80 Y-49.242
N85 G17 G2 X104.678 I-2.07 J0.
N90 G1 Y9.242
N95 Y11.533
N100 G3 X100.537 I-2.07 J0.
N105 G1 Y-51.533
N110 Y-52.718
N115 G2 X96.397 I-2.07 J0.
N120 G1 Y12.718
N125 Y13.01
N130 G3 X92.257 I-2.07 J0.
N135 G1 Y-53.01
N140 G2 X88.117 I-2.07 J0.
N145 G1 Y13.01
N150 G3 X83.977 I-2.07 J0.
N155 G1 Y-53.01
N160 G2 X79.836 I-2.07 J0.
N165 G1 Y13.01
N170 G3 X75.696 I-2.07 J0.
N175 G1 Y-53.01
N180 G2 X71.556 I-2.07 J0.
N185 G1 Y13.01
N190 G3 X67.416 I-2.07 J0.
N195 G1 Y-53.01
N200 G2 X63.276 I-2.07 J0.
N205 G1 Y13.01
N210 G3 X59.135 I-2.07 J0.
N215 G1 Y-53.01
N220 G2 X54.995 I-2.07 J0.
N225 G1 Y13.01
N230 G3 X50.855 I-2.07 J0.
N235 G1 Y-53.01
N240 G2 X46.715 I-2.07 J0.
N245 G1 Y13.01
N250 G3 X42.574 I-2.07 J0.
N255 G1 Y-53.01
N260 G2 X38.434 I-2.07 J0.
N265 G1 Y13.01
N270 G3 X34.294 I-2.07 J0.
N275 G1 Y-53.01
N280 G2 X30.154 I-2.07 J0.
N285 G1 Y13.01
N290 G3 X26.014 I-2.07 J0.
N295 G1 Y-53.01
N300 G2 X21.873 I-2.07 J0.
N305 G1 Y13.01
N310 G3 X17.733 I-2.07 J0.
N315 G1 Y-53.01
N320 G2 X13.593 I-2.07 J0.
N325 G1 Y13.01
N330 G3 X9.453 I-2.07 J0.
N335 G1 Y-53.01
N340 G2 X5.313 I-2.07 J0.
N345 G1 Y-52.938
N350 Y12.938
N355 G3 X1.172 I-2.07 J0.
N360 G1 Y12.139
N365 Y-52.139
N370 G2 X-2.968 I-2.07 J0.
N375 G1 Y-50.348
N380 Y10.348
N385 G3 X-7.108 I-2.07 J0.
N390 G1 Y7.185
N395 Y-47.185
N400 G19 G2 Y-47.785 Z25.6 J0. K0.6
N405 G0 Z43.5
N410 G17
N415 M5
N420 G53 G0 Z0.
(2D CHAMFER2)
N425 T1 M6
N430 T10
N435 S18000 M3
N440 G54
N445 G0 X10. Y1.65
N450 G43 Z43.5 H1
N455 G0 Z33.5
N460 G1 Z30.5 F960.
N465 Z23.7
N470 Y1.05 F2880.
N475 X90.
N480 G2 X101.05 Y-10. I0. J-11.05
N485 G1 Y-30.
N490 G2 X90. Y-41.05 I-11.05 J0.
N495 G1 X10.
N500 G2 X-1.05 Y-30. I0. J11.05
N505 G1 Y-10.
N510 G2 X10. Y1.05 I11.05 J0.
N515 G1 Y1.65
N520 G0 Z43.5
N525 G53 Z0.
N530 M30
%
