%
(1001)
(T1  D=6. CR=0. TAPER=45DEG - ZMIN=23.5 - CHAMFER MILL)
(T10  D=6. CR=0. - ZMIN=25. - FLAT END MILL)
N10 G90 G94 G17 G91.1
N15 G21
N20 G53 G0 Z0.
(FACE3)
N25 T10 M6
N30 T1
N35 S18000 M3
N40 G54
N45 M8
N50 G0 X65.666 Y-68.955
N55 G43 Z43.5 H10
N60 G0 Z33.5
N65 G1 Z25.6 F1400.
N70 G18 G3 X65.066 Z25. I-0.6 K0.
N75 G1 X-5.066
N80 X-9.041
N85 G17 G2 Y-64.951 I0. J2.002
N90 G1 X69.041
N95 X71.358
N100 G3 Y-60.948 I0. J2.002
N105 G1 X-11.358
N110 X-12.612
N115 G2 Y-56.945 I0. J2.002
N120 G1 X72.612
N125 X73.01
N130 G3 Y-52.942 I0. J2.002
N135 G1 X-13.01
N140 G2 Y-48.938 I0. J2.002
N145 G1 X73.01
N150 G3 Y-44.935 I0. J2.002
N155 G1 X-13.01
N160 G2 Y-40.932 I0. J2.002
N165 G1 X73.01
N170 G3 Y-36.928 I0. J2.002
N175 G1 X-13.01
N180 G2 Y-32.925 I0. J2.002
N185 G1 X73.01
N190 G3 Y-28.922 I0. J2.002
N195 G1 X-13.01
N200 G2 Y-24.918 I0. J2.002
N205 G1 X73.01
N210 G3 Y-20.915 I0. J2.002
N215 G1 X-13.01
N220 G2 Y-16.912 I0. J2.002
N225 G1 X73.01
N230 G3 Y-12.908 I0. J2.002
N235 G1 X-13.01
N240 G2 Y-8.905 I0. J2.002
N245 G1 X73.01
N250 G3 Y-4.902 I0. J2.002
N255 G1 X72.895
N260 X-12.895
N265 G2 Y-0.899 I0. J2.002
N270 G1 X-12.055
N275 X72.055
N280 G3 Y3.105 I0. J2.002
N285 G1 X70.267
N290 X-10.267
N295 G2 Y7.108 I0. J2.002
N300 G1 X-7.185
N305 X67.185
N310 G18 G2 X67.785 Z25.6 I0. K0.6
N315 G0 Z43.5
N320 G17
N325 M5
N330 G53 G0 Z0.
(2D CHAMFER2)
N335 M9
N340 M1
N345 T1 M6
N350 T10
N355 S18000 M3
N360 G54
N365 M8
N370 G0 X61.65 Y-30.
N375 G43 Z43.5 H1
N380 G0 Z33.5
N385 G1 Z30.5 F466.67
N390 Z23.5
N395 X61.05 F1400.
N400 Y-50.
N405 G2 X50. Y-61.05 I-11.05 J0.
N410 G1 X10.
N415 G2 X-1.05 Y-50. I0. J11.05
N420 G1 Y-10.
N425 G2 X10. Y1.05 I11.05 J0.
N430 G1 X50.
N435 G2 X61.05 Y-10. I0. J-11.05
N440 G1 Y-30.
N445 X61.65
N450 G0 Z43.5
N455 M9
N460 G53 Z0.
N465 M30
%
