%
(WOOD_BOX_S2_V1)
(T10  D=6. CR=0. - ZMIN=25. - FLAT END MILL)
N10 G90 G94 G17 G91.1
N15 G21
N20 G53 G0 Z0.
(FACE3)
N25 T10 M6
N30 S18 M3
N35 G54
N40 M8
N45 G0 X65.666 Y-68.955
N50 G43 Z43.5 H10
N55 G0 Z33.5
N60 G1 Z25.6 F1400.
N65 G18 G3 X65.066 Z25. I-0.6 K0.
N70 G1 X-5.066
N75 X-9.041
N80 G17 G2 Y-64.951 I0. J2.002
N85 G1 X69.041
N90 X71.358
N95 G3 Y-60.948 I0. J2.002
N100 G1 X-11.358
N105 X-12.612
N110 G2 Y-56.945 I0. J2.002
N115 G1 X72.612
N120 X73.01
N125 G3 Y-52.942 I0. J2.002
N130 G1 X-13.01
N135 G2 Y-48.938 I0. J2.002
N140 G1 X73.01
N145 G3 Y-44.935 I0. J2.002
N150 G1 X-13.01
N155 G2 Y-40.932 I0. J2.002
N160 G1 X73.01
N165 G3 Y-36.928 I0. J2.002
N170 G1 X-13.01
N175 G2 Y-32.925 I0. J2.002
N180 G1 X73.01
N185 G3 Y-28.922 I0. J2.002
N190 G1 X-13.01
N195 G2 Y-24.918 I0. J2.002
N200 G1 X73.01
N205 G3 Y-20.915 I0. J2.002
N210 G1 X-13.01
N215 G2 Y-16.912 I0. J2.002
N220 G1 X73.01
N225 G3 Y-12.908 I0. J2.002
N230 G1 X-13.01
N235 G2 Y-8.905 I0. J2.002
N240 G1 X73.01
N245 G3 Y-4.902 I0. J2.002
N250 G1 X72.895
N255 X-12.895
N260 G2 Y-0.899 I0. J2.002
N265 G1 X-12.055
N270 X72.055
N275 G3 Y3.105 I0. J2.002
N280 G1 X70.267
N285 X-10.267
N290 G2 Y7.108 I0. J2.002
N295 G1 X-7.185
N300 X67.185
N305 G18 G2 X67.785 Z25.6 I0. K0.6
N310 G0 Z43.5
N315 G17
N320 M9
N325 G53 G0 Z0.
N330 M30
%
