%
(WOODBOX_BALLFINISH_NEW_COORD)
(T1  D=6. CR=0. TAPER=45DEG - ZMIN=-1.3 - CHAMFER MILL)
(T8  D=6. CR=3. - ZMIN=-21.6 - BALL END MILL)
N10 G90 G94 G17 G91.1
N15 G21
N20 G53 G0 Z0.
(PARALLEL1)
N25 T8 M6
N30 T1
N35 S18000 M3
N40 G54
N45 G64 P0.05 Q0.05
N50 G0 X96.266 Y-31.724
N55 G43 Z16.5 H8
N60 G0 Z2.
N65 G1 Z0.6 F960.
N70 X96.261 Y-31.729 Z0.508 F2880.
N75 X96.247 Y-31.744 Z0.418
N80 X96.222 Y-31.769 Z0.333
N85 X96.189 Y-31.802 Z0.254
N90 X96.147 Y-31.844 Z0.183
N95 X96.099 Y-31.892 Z0.122
N100 X96.044 Y-31.947 Z0.072
N105 X95.984 Y-32.006 Z0.034
N110 X95.922 Y-32.069 Z0.01
N115 X95.857 Y-32.134 Z0.
N120 X93.889 Y-34.102 Z-0.097
N125 X92.126 Y-35.865 Z0.
N130 X92.082 Y-35.909 Z0.009
N135 X92.041 Y-35.95 Z0.03
N140 X91.995 Y-35.995 Z0.053
N145 X91.948 Y-36.043 Z0.061
N150 X91.271 Y-36.72
N155 G2 X90.725 Y-36.175 I-0.273 J0.273
N160 G1 X90.773 Y-36.127 Z0.053
N165 X90.819 Y-36.082 Z0.03
N170 X90.859 Y-36.042 Z0.009
N175 X90.901 Y-36. Z0.
N180 X91.457 Y-35.444 Z-0.044
N185 X92.815 Y-34.085 Z-0.351
N190 X93.45 Y-33.451 Z-0.424
N195 X93.895 Y-33.006 Z-0.389
N200 X95.388 Y-31.513 Z-0.053
N205 X96. Y-30.901 Z0.
N210 X96.041 Y-30.859 Z0.009
N215 X96.08 Y-30.82 Z0.03
N220 X96.126 Y-30.775 Z0.053
N225 X96.174 Y-30.727 Z0.061
N230 X96.717 Y-30.184
N235 G3 Y-29.639 I-0.273 J0.273
N240 X96.172 I-0.273 J-0.273
N245 G1 X96.124 Y-29.687 Z0.053
N250 X96.078 Y-29.732 Z0.03
N255 X96.04 Y-29.77 Z0.01
N260 X96. Y-29.81 Z0.
N265 X95.387 Y-30.424 Z-0.063
N270 X94.655 Y-31.155 Z-0.309
N275 X93.562 Y-32.248 Z-0.894
N280 X93.194 Y-32.617 Z-1.033
N285 X92.866 Y-32.945 Z-1.074
N290 X92.493 Y-33.317 Z-1.002
N295 X92.038 Y-33.772 Z-0.789
N300 X91.039 Y-34.771 Z-0.26
N305 X90.436 Y-35.374 Z-0.066
N310 X89.81 Y-36. Z0.
N315 X89.539 Y-36.271 Z0.03
N320 X89.503 Y-36.318 Z0.035
N325 X89.478 Y-36.372 Z0.041
N330 X89.451 Y-36.43 Z0.047
N335 X89.411 Y-36.479 Z0.052
N340 X89.359 Y-36.517 Z0.056
N345 X89.3 Y-36.54 Z0.059
N350 X89.236 Y-36.547 Z0.06
N355 X89.173 Y-36.538 Z0.059
N360 X89.114 Y-36.513 Z0.056
N365 X89.063 Y-36.475 Z0.052
N370 X89.024 Y-36.425 Z0.046
N375 X88.999 Y-36.366 Z0.04
N380 X88.989 Y-36.303 Z0.033
N385 X88.996 Y-36.24 Z0.026
N390 X89.019 Y-36.181 Z0.02
N395 X89.056 Y-36.129 Z0.014
N400 X89.106 Y-36.088 Z0.01
N405 X89.164 Y-36.062 Z0.007
N410 X89.218 Y-36.037 Z0.004
N415 X89.265 Y-36. Z0.
N420 X89.911 Y-35.354 Z-0.07
N425 X90.51 Y-34.755 Z-0.27
N430 X91.053 Y-34.213 Z-0.582
N435 X91.893 Y-33.372 Z-1.273
N440 X92.288 Y-32.977 Z-1.565
N445 X92.598 Y-32.667 Z-1.661
N450 X92.946 Y-32.32 Z-1.586
N455 X93.221 Y-32.044 Z-1.394
N460 X93.799 Y-31.466 Z-0.904
N465 X94.306 Y-30.96 Z-0.523
N470 X94.835 Y-30.43 Z-0.235
N475 X95.387 Y-29.879 Z-0.063
N480 X96. Y-29.265 Z0.
N485 X96.136 Y-29.13 Z0.014
N490 X96.189 Y-29.089 Z0.019
N495 X96.25 Y-29.064 Z0.026
N500 X96.316 Y-29.057 Z0.033
N505 X96.381 Y-29.05 Z0.039
N510 X96.442 Y-29.026 Z0.046
N515 X96.495 Y-28.987 Z0.051
N520 X96.536 Y-28.935 Z0.055
N525 X96.561 Y-28.874 Z0.058
N530 X96.571 Y-28.809 Z0.059
N535 X96.563 Y-28.744 Z0.058
N540 X96.538 Y-28.683 Z0.056
N545 X96.498 Y-28.631 Z0.051
N550 X96.446 Y-28.591 Z0.046
N555 X96.386 Y-28.565 Z0.04
N560 X96.321 Y-28.557 Z0.033
N565 X96.256 Y-28.566 Z0.026
N570 X96.196 Y-28.592 Z0.02
N575 X96.144 Y-28.632 Z0.015
N580 X96.105 Y-28.685 Z0.011
N585 X96.081 Y-28.746 Z0.008
N590 X96.073 Y-28.811
N595 X96.065 Y-28.878 Z0.007
N600 X96.04 Y-28.94 Z0.004
N605 X96. Y-28.993 Z0.
N610 X95.387 Y-29.606 Z-0.063
N615 X94.835 Y-30.158 Z-0.235
N620 X94.306 Y-30.687 Z-0.524
N625 X93.808 Y-31.184 Z-0.923
N630 X93.032 Y-31.96 Z-1.778
N635 X92.777 Y-32.216 Z-2.039
N640 X92.482 Y-32.511 Z-2.156
N645 X92.193 Y-32.8 Z-2.02
N650 X91.817 Y-33.175 Z-1.619
N655 X91.078 Y-33.915 Z-0.828
N660 X90.567 Y-34.425 Z-0.446
N665 X89.988 Y-35.005 Z-0.17
N670 X89.382 Y-35.611 Z-0.025
N675 X88.993 Y-36. Z0.
N680 X88.95 Y-36.043 Z0.009
N685 X88.909 Y-36.084 Z0.03
N690 Z0.031
N695 X88.863 Y-36.129 Z0.053
N700 X88.815 Y-36.177 Z0.061
N705 X88.674 Y-36.318
N710 X88.643 Y-36.339
N715 X88.606 Y-36.346
N720 X88.569 Y-36.339
N725 X88.538 Y-36.318
N730 X88.517 Y-36.287
N735 X88.51 Y-36.25
N740 X88.517 Y-36.213
N745 X88.538 Y-36.182
N750 X88.586 Y-36.134 Z0.053
N755 X88.632 Y-36.089 Z0.031
N760 X88.675 Y-36.045 Z0.008
N765 X88.72 Y-36. Z0.
N770 X88.912 Y-35.808 Z-0.006
N775 X89.509 Y-35.211 Z-0.105
N780 X90.096 Y-34.624 Z-0.334
N785 X90.644 Y-34.076 Z-0.698
N790 X91.116 Y-33.604 Z-1.167
N795 X91.638 Y-33.082 Z-1.934
N800 X91.928 Y-32.792 Z-2.557
N805 X92.069 Y-32.651 Z-3.034
N810 X92.359 Y-32.361 Z-3.406
N815 X92.622 Y-32.098 Z-3.111
N820 X92.756 Y-31.964 Z-2.671
N825 X93.087 Y-31.634 Z-1.926
N830 X93.373 Y-31.347 Z-1.473
N835 X93.771 Y-30.949 Z-0.988
N840 X94.306 Y-30.414 Z-0.524
N845 X94.835 Y-29.885 Z-0.235
N850 X95.387 Y-29.334 Z-0.063
N855 X96. Y-28.72 Z0.
N860 X96.136 Y-28.585 Z0.014
N865 X96.189 Y-28.544 Z0.019
N870 X96.25 Y-28.519 Z0.026
N875 X96.316 Y-28.512 Z0.033
N880 X96.381 Y-28.505 Z0.039
N885 X96.442 Y-28.481 Z0.046
N890 X96.495 Y-28.441 Z0.051
N895 X96.536 Y-28.39 Z0.055
N900 X96.561 Y-28.329 Z0.058
N905 X96.571 Y-28.264 Z0.059
N910 X96.563 Y-28.199 Z0.058
N915 X96.538 Y-28.138 Z0.056
N920 X96.498 Y-28.086 Z0.051
N925 X96.446 Y-28.045 Z0.046
N930 X96.386 Y-28.02 Z0.04
N935 X96.321 Y-28.012 Z0.033
N940 X96.256 Y-28.021 Z0.026
N945 X96.196 Y-28.046 Z0.02
N950 X96.144 Y-28.087 Z0.015
N955 X96.105 Y-28.14 Z0.011
N960 X96.081 Y-28.201 Z0.008
N965 X96.073 Y-28.266
N970 X96.065 Y-28.333 Z0.007
N975 X96.04 Y-28.394 Z0.004
N980 X96. Y-28.448 Z0.
N985 X95.387 Y-29.061 Z-0.063
N990 X94.835 Y-29.612 Z-0.235
N995 X94.306 Y-30.142 Z-0.524
N1000 X93.808 Y-30.639 Z-0.951
N1005 X93.375 Y-31.072 Z-1.516
N1010 X93.162 Y-31.285 Z-1.918
N1015 X92.934 Y-31.513 Z-2.671
N1020 X92.704 Y-31.743 Z-3.934
N1025 X92.548 Y-31.9 Z-4.478
N1030 X92.391 Y-32.056 Z-4.775
N1035 X92.222 Y-32.225 Z-4.963
N1040 X91.932 Y-32.515 Z-4.591
N1045 X91.714 Y-32.734 Z-3.831
N1050 X91.458 Y-32.99 Z-2.427
N1055 X91.3 Y-33.148 Z-1.952
N1060 X91.111 Y-33.337 Z-1.578
N1065 X90.706 Y-33.741 Z-1.026
N1070 X90.231 Y-34.216 Z-0.588
N1075 X89.669 Y-34.778 Z-0.26
N1080 X89.073 Y-35.375 Z-0.066
N1085 X88.448 Y-36. Z0.
N1090 X88.312 Y-36.136 Z0.014
N1095 X88.272 Y-36.189 Z0.02
N1100 X88.247 Y-36.25 Z0.026
N1105 X88.239 Y-36.316 Z0.033
N1110 X88.232 Y-36.381 Z0.04
N1115 X88.208 Y-36.442 Z0.047
N1120 X88.169 Y-36.495 Z0.052
N1125 X88.117 Y-36.535 Z0.056
N1130 X88.057 Y-36.561 Z0.059
N1135 X87.992 Y-36.57 Z0.06
N1140 X87.926 Y-36.562 Z0.059
N1145 X87.865 Y-36.538 Z0.057
N1150 X87.813 Y-36.498 Z0.053
N1155 X87.773 Y-36.446 Z0.047
N1160 X87.748 Y-36.386 Z0.041
N1165 X87.739 Y-36.321 Z0.034
N1170 X87.748 Y-36.256 Z0.027
N1175 X87.774 Y-36.196 Z0.021
N1180 X87.814 Y-36.144 Z0.015
N1185 X87.867 Y-36.105 Z0.011
N1190 X87.928 Y-36.081 Z0.009
N1195 X87.994 Y-36.073 Z0.008
N1200 X88.06 Y-36.065 Z0.007
N1205 X88.122 Y-36.04 Z0.004
N1210 X88.175 Y-36. Z0.
N1215 X88.731 Y-35.444 Z-0.052
N1220 X89.334 Y-34.841 Z-0.233
N1225 X89.896 Y-34.279 Z-0.543
N1230 X90.402 Y-33.773 Z-0.99
N1235 X90.782 Y-33.393 Z-1.515
N1240 X91.076 Y-33.099 Z-2.165
N1245 X91.171 Y-33.004 Z-2.556
N1250 X91.288 Y-32.886 Z-3.613
N1255 X91.544 Y-32.631 Z-5.251
N1260 X91.763 Y-32.412 Z-6.034
N1265 X91.903 Y-32.272 Z-6.314
N1270 X92.087 Y-32.087 Z-6.522
N1275 X92.384 Y-31.791 Z-6.131
N1280 X92.634 Y-31.541 Z-5.231
N1285 X92.821 Y-31.354 Z-4.087
N1290 X93.016 Y-31.159 Z-2.488
N1295 X93.17 Y-31.005 Z-1.97
N1300 X93.511 Y-30.664 Z-1.325
N1305 X93.808 Y-30.367 Z-0.951
N1310 X94.306 Y-29.869 Z-0.524
N1315 X94.835 Y-29.34 Z-0.235
N1320 X95.387 Y-28.788 Z-0.063
N1325 X96. Y-28.175 Z0.
N1330 X96.136 Y-28.039 Z0.014
N1335 X96.189 Y-27.999 Z0.019
N1340 X96.25 Y-27.974 Z0.026
N1345 X96.316 Y-27.967 Z0.033
N1350 X96.381 Y-27.96 Z0.039
N1355 X96.442 Y-27.935 Z0.046
N1360 X96.495 Y-27.896 Z0.051
N1365 X96.536 Y-27.845 Z0.055
N1370 X96.561 Y-27.784 Z0.058
N1375 X96.571 Y-27.719 Z0.059
N1380 X96.563 Y-27.654 Z0.058
N1385 X96.538 Y-27.593 Z0.056
N1390 X96.498 Y-27.54 Z0.051
N1395 X96.446 Y-27.5 Z0.046
N1400 X96.386 Y-27.475 Z0.04
N1405 X96.321 Y-27.467 Z0.033
N1410 X96.256 Y-27.476 Z0.026
N1415 X96.196 Y-27.501 Z0.02
N1420 X96.144 Y-27.542 Z0.015
N1425 X96.105 Y-27.594 Z0.011
N1430 X96.081 Y-27.656 Z0.008
N1435 X96.073 Y-27.721
N1440 X96.065 Y-27.787 Z0.007
N1445 X96.04 Y-27.849 Z0.004
N1450 X96. Y-27.902 Z0.
N1455 X95.387 Y-28.516 Z-0.063
N1460 X94.835 Y-29.067 Z-0.235
N1465 X94.306 Y-29.597 Z-0.524
N1470 X93.808 Y-30.094 Z-0.951
N1475 X93.511 Y-30.391 Z-1.325
N1480 X93.254 Y-30.648 Z-1.792
N1485 X93.121 Y-30.781 Z-2.156
N1490 X93.008 Y-30.895 Z-2.753
N1495 X92.669 Y-31.233 Z-5.741
N1500 X92.482 Y-31.42 Z-6.875
N1505 X92.326 Y-31.577 Z-7.419
N1510 X92.169 Y-31.733 Z-7.834
N1515 X91.95 Y-31.952 Z-8.079
N1520 X91.66 Y-32.243 Z-7.707
N1525 X91.441 Y-32.461 Z-6.946
N1530 X91.139 Y-32.764 Z-5.043
N1535 X90.866 Y-33.036 Z-2.535
N1540 X90.755 Y-33.148 Z-2.071
N1545 X90.581 Y-33.321 Z-1.649
N1550 X90.34 Y-33.562 Z-1.251
N1555 X89.876 Y-34.027 Z-0.74
N1560 X89.341 Y-34.561 Z-0.367
N1565 X88.753 Y-35.15 Z-0.123
N1570 X88.142 Y-35.761 Z-0.01
N1575 X87.902 Y-36. Z0.
N1580 X87.858 Y-36.045 Z0.009
N1585 X87.815 Y-36.087 Z0.03
N1590 Z0.031
N1595 X87.77 Y-36.133 Z0.053
N1600 X87.722 Y-36.181 Z0.061
N1605 X87.583 Y-36.32
N1610 X87.552 Y-36.34
N1615 X87.515 Y-36.348
N1620 X87.478 Y-36.34
N1625 X87.447 Y-36.32
N1630 X87.426 Y-36.288
N1635 X87.418 Y-36.251
N1640 X87.426 Y-36.215
N1645 X87.447 Y-36.183
N1650 X87.494 Y-36.135 Z0.053
N1655 X87.54 Y-36.09 Z0.031
N1660 X87.584 Y-36.046 Z0.008
N1665 X87.63 Y-36. Z0.
N1670 X87.767 Y-35.863 Z-0.003
N1675 X88.381 Y-35.249 Z-0.095
N1680 X88.974 Y-34.656 Z-0.318
N1685 X89.519 Y-34.111 Z-0.67
N1690 X89.999 Y-33.631 Z-1.159
N1695 X90.255 Y-33.375 Z-1.547
N1700 X90.446 Y-33.184 Z-1.966
N1705 X90.565 Y-33.065 Z-2.38
N1710 X90.618 Y-33.012 Z-2.73
N1715 X91.002 Y-32.628 Z-6.601
N1720 X91.305 Y-32.325 Z-8.504
N1725 X91.523 Y-32.106 Z-9.265
N1730 X91.813 Y-31.817 Z-9.636
N1735 X91.979 Y-31.651 Z-9.453
N1740 X92.135 Y-31.495 Z-9.164
N1745 X92.385 Y-31.245 Z-8.201
N1750 X92.634 Y-30.996 Z-6.54
N1755 X93.01 Y-30.62 Z-2.752
N1760 X93.121 Y-30.509 Z-2.156
N1765 X93.254 Y-30.376 Z-1.792
N1770 X93.511 Y-30.119 Z-1.325
N1775 X93.808 Y-29.821 Z-0.951
N1780 X94.306 Y-29.324 Z-0.524
N1785 X94.835 Y-28.795 Z-0.235
N1790 X95.387 Y-28.243 Z-0.063
N1795 X96. Y-27.63 Z0.
N1800 X96.136 Y-27.494 Z0.014
N1805 X96.189 Y-27.454 Z0.019
N1810 X96.25 Y-27.429 Z0.026
N1815 X96.316 Y-27.422 Z0.033
N1820 X96.381 Y-27.414 Z0.039
N1825 X96.442 Y-27.39 Z0.046
N1830 X96.495 Y-27.351 Z0.051
N1835 X96.536 Y-27.3 Z0.055
N1840 X96.561 Y-27.239 Z0.058
N1845 X96.571 Y-27.174 Z0.059
N1850 X96.563 Y-27.109 Z0.058
N1855 X96.538 Y-27.048 Z0.056
N1860 X96.498 Y-26.995 Z0.051
N1865 X96.446 Y-26.955 Z0.046
N1870 X96.386 Y-26.93 Z0.04
N1875 X96.321 Y-26.922 Z0.033
N1880 X96.256 Y-26.931 Z0.026
N1885 X96.196 Y-26.956 Z0.02
N1890 X96.144 Y-26.997 Z0.015
N1895 X96.105 Y-27.049 Z0.011
N1900 X96.081 Y-27.11 Z0.008
N1905 X96.073 Y-27.176
N1910 X96.065 Y-27.242 Z0.007
N1915 X96.04 Y-27.304 Z0.004
N1920 X96. Y-27.357 Z0.
N1925 X95.387 Y-27.971 Z-0.063
N1930 X94.835 Y-28.522 Z-0.235
N1935 X94.306 Y-29.052 Z-0.524
N1940 X93.808 Y-29.549 Z-0.951
N1945 X93.511 Y-29.846 Z-1.325
N1950 X93.254 Y-30.103 Z-1.792
N1955 X93.121 Y-30.236 Z-2.156
N1960 X93.01 Y-30.347 Z-2.752
N1965 X92.611 Y-30.746 Z-7.033
N1970 X92.426 Y-30.932 Z-8.678
N1975 X92.239 Y-31.119 Z-9.822
N1980 X91.989 Y-31.369 Z-10.758
N1985 X91.848 Y-31.509 Z-11.004
N1990 X91.677 Y-31.68 Z-11.194
N1995 X91.387 Y-31.97 Z-10.822
N2000 X91.168 Y-32.189 Z-10.062
N2005 X90.866 Y-32.491 Z-8.159
N2010 X90.481 Y-32.876 Z-4.287
N2015 X90.328 Y-33.029 Z-2.585
N2020 X90.248 Y-33.109 Z-2.197
N2025 X90.096 Y-33.261 Z-1.776
N2030 X89.874 Y-33.483 Z-1.368
N2035 X89.594 Y-33.764 Z-1.
N2040 X89.089 Y-34.269 Z-0.55
N2045 X88.527 Y-34.83 Z-0.238
N2050 X87.926 Y-35.432 Z-0.054
N2055 X87.357 Y-36. Z0.
N2060 X87.222 Y-36.136 Z0.013
N2065 X87.181 Y-36.189 Z0.018
N2070 X87.156 Y-36.251 Z0.024
N2075 X87.149 Y-36.317 Z0.03
N2080 X87.142 Y-36.382 Z0.036
N2085 X87.118 Y-36.443 Z0.042
N2090 X87.078 Y-36.495 Z0.047
N2095 X87.027 Y-36.536 Z0.051
N2100 X86.966 Y-36.562 Z0.054
N2105 X86.901 Y-36.571 Z0.055
N2110 X86.836 Y-36.563 Z0.054
N2115 X86.775 Y-36.538 Z0.051
N2120 X86.723 Y-36.498 Z0.048
N2125 X86.682 Y-36.447 Z0.043
N2130 X86.657 Y-36.386 Z0.037
N2135 X86.649 Y-36.321 Z0.031
N2140 X86.658 Y-36.256 Z0.024
N2145 X86.684 Y-36.196 Z0.019
N2150 X86.724 Y-36.144 Z0.014
N2155 X86.777 Y-36.105 Z0.01
N2160 X86.838 Y-36.081 Z0.008
N2165 X86.903 Y-36.073 Z0.007
N2170 X86.97 Y-36.065 Z0.006
N2175 X87.032 Y-36.04 Z0.004
N2180 X87.085 Y-36. Z0.
N2185 X87.37 Y-35.715 Z-0.014
N2190 X87.98 Y-35.105 Z-0.137
N2195 X88.565 Y-34.52 Z-0.391
N2200 X89.095 Y-33.989 Z-0.773
N2205 X89.552 Y-33.533 Z-1.294
N2210 X89.786 Y-33.298 Z-1.696
N2215 X89.952 Y-33.133 Z-2.118
N2220 X90.045 Y-33.039 Z-2.516
N2225 X90.351 Y-32.733 Z-5.917
N2230 X90.73 Y-32.355 Z-9.716
N2235 X91.032 Y-32.053 Z-11.62
N2240 X91.251 Y-31.834 Z-12.38
N2245 X91.541 Y-31.544 Z-12.751
N2250 X91.836 Y-31.249 Z-12.373
N2255 X92.086 Y-30.999 Z-11.482
N2260 X92.273 Y-30.812 Z-10.338
N2265 X92.514 Y-30.571 Z-8.226
N2270 X93.01 Y-30.074 Z-2.752
N2275 X93.121 Y-29.964 Z-2.156
N2280 X93.254 Y-29.831 Z-1.792
N2285 X93.511 Y-29.574 Z-1.325
N2290 X93.808 Y-29.276 Z-0.951
N2295 X94.306 Y-28.779 Z-0.524
N2300 X94.835 Y-28.25 Z-0.235
N2305 X95.387 Y-27.698 Z-0.063
N2310 X96. Y-27.085 Z0.
N2315 X96.136 Y-26.949 Z0.014
N2320 X96.189 Y-26.909 Z0.019
N2325 X96.25 Y-26.884 Z0.026
N2330 X96.316 Y-26.876 Z0.033
N2335 X96.381 Y-26.869 Z0.039
N2340 X96.442 Y-26.845 Z0.046
N2345 X96.495 Y-26.806 Z0.051
N2350 X96.536 Y-26.754 Z0.055
N2355 X96.561 Y-26.694 Z0.058
N2360 X96.571 Y-26.629 Z0.059
N2365 X96.563 Y-26.564 Z0.058
N2370 X96.538 Y-26.503 Z0.056
N2375 X96.498 Y-26.45 Z0.051
N2380 X96.446 Y-26.41 Z0.046
N2385 X96.386 Y-26.385 Z0.04
N2390 X96.321 Y-26.377 Z0.033
N2395 X96.256 Y-26.385 Z0.026
N2400 X96.196 Y-26.411 Z0.02
N2405 X96.144 Y-26.452 Z0.015
N2410 X96.105 Y-26.504 Z0.011
N2415 X96.081 Y-26.565 Z0.008
N2420 X96.073 Y-26.631
N2425 X96.065 Y-26.697 Z0.007
N2430 X96.04 Y-26.759 Z0.004
N2435 X96. Y-26.812 Z0.
N2440 X95.387 Y-27.426 Z-0.063
N2445 X94.835 Y-27.977 Z-0.235
N2450 X94.306 Y-28.507 Z-0.524
N2455 X93.808 Y-29.004 Z-0.951
N2460 X93.511 Y-29.301 Z-1.325
N2465 X93.254 Y-29.558 Z-1.792
N2470 X93.121 Y-29.691 Z-2.156
N2475 X93.01 Y-29.802 Z-2.752
N2480 X92.412 Y-30.4 Z-9.462
N2485 X92.171 Y-30.642 Z-11.686
N2490 X91.89 Y-30.922 Z-13.268
N2495 X91.734 Y-31.078 Z-13.812
N2500 X91.577 Y-31.235 Z-14.118
N2505 X91.405 Y-31.408 Z-14.309
N2510 X91.115 Y-31.698 Z-13.938
N2515 X90.896 Y-31.916 Z-13.177
N2520 X90.593 Y-32.219 Z-11.274
N2525 X90.215 Y-32.597 Z-7.475
N2530 X89.782 Y-33.03 Z-2.574
N2535 X89.645 Y-33.167 Z-2.014
N2540 X89.462 Y-33.35 Z-1.593
N2545 X89.213 Y-33.6 Z-1.201
N2550 X88.74 Y-34.072 Z-0.701
N2555 X88.199 Y-34.613 Z-0.34
N2560 X87.608 Y-35.204 Z-0.108
N2565 X86.996 Y-35.816 Z-0.006
N2570 X86.812 Y-36. Z0.
N2575 X86.767 Y-36.046 Z0.008
N2580 X86.723 Y-36.089 Z0.031
N2585 X86.678 Y-36.134 Z0.053
N2590 X86.63 Y-36.182 Z0.061
N2595 X86.503 Y-36.309
N2600 X86.471 Y-36.33
N2605 X86.435 Y-36.338
N2610 X86.398 Y-36.33
N2615 X86.366 Y-36.309
N2620 X86.346 Y-36.278
N2625 X86.338 Y-36.241
N2630 X86.346 Y-36.204
N2635 X86.366 Y-36.173
N2640 X86.414 Y-36.125 Z0.053
N2645 X86.46 Y-36.08 Z0.031
N2650 X86.461 Y-36.079 Z0.03
N2655 X86.499 Y-36.04 Z0.01
N2660 X86.54 Y-36. Z0.
N2665 X87.116 Y-35.424 Z-0.056
N2670 X87.717 Y-34.822 Z-0.241
N2675 X88.278 Y-34.262 Z-0.555
N2680 X88.782 Y-33.758 Z-1.007
N2685 X89.061 Y-33.478 Z-1.375
N2690 X89.282 Y-33.258 Z-1.784
N2695 X89.432 Y-33.107 Z-2.205
N2700 X89.512 Y-33.028 Z-2.591
N2705 X90.073 Y-32.467 Z-8.961
N2710 X90.457 Y-32.082 Z-12.832
N2715 X90.76 Y-31.78 Z-14.735
N2720 X90.978 Y-31.561 Z-15.495
N2725 X91.268 Y-31.271 Z-15.867
N2730 X91.424 Y-31.115 Z-15.694
N2735 X91.581 Y-30.959 Z-15.428
N2740 X91.831 Y-30.709 Z-14.49
N2745 X92.018 Y-30.522 Z-13.346
N2750 X92.259 Y-30.281 Z-11.176
N2755 X93.01 Y-29.529 Z-2.752
N2760 X93.121 Y-29.419 Z-2.156
N2765 X93.254 Y-29.286 Z-1.792
N2770 X93.511 Y-29.029 Z-1.325
N2775 X93.808 Y-28.731 Z-0.951
N2780 X94.306 Y-28.234 Z-0.524
N2785 X94.835 Y-27.705 Z-0.235
N2790 X95.387 Y-27.153 Z-0.063
N2795 X96. Y-26.54 Z0.
N2800 X96.136 Y-26.404 Z0.014
N2805 X96.189 Y-26.364 Z0.019
N2810 X96.25 Y-26.339 Z0.026
N2815 X96.316 Y-26.331 Z0.033
N2820 X96.381 Y-26.324 Z0.039
N2825 X96.442 Y-26.3 Z0.046
N2830 X96.495 Y-26.261 Z0.051
N2835 X96.536 Y-26.209 Z0.055
N2840 X96.561 Y-26.149 Z0.058
N2845 X96.571 Y-26.084 Z0.059
N2850 X96.563 Y-26.018 Z0.058
N2855 X96.538 Y-25.957 Z0.056
N2860 X96.498 Y-25.905 Z0.051
N2865 X96.446 Y-25.865 Z0.046
N2870 X96.386 Y-25.84 Z0.04
N2875 X96.321 Y-25.831 Z0.033
N2880 X96.256 Y-25.84 Z0.026
N2885 X96.196 Y-25.866 Z0.02
N2890 X96.144 Y-25.906 Z0.015
N2895 X96.105 Y-25.959 Z0.011
N2900 X96.081 Y-26.02 Z0.008
N2905 X96.073 Y-26.086
N2910 X96.065 Y-26.152 Z0.007
N2915 X96.04 Y-26.214 Z0.004
N2920 X96. Y-26.267 Z0.
N2925 X95.387 Y-26.88 Z-0.063
N2930 X94.835 Y-27.432 Z-0.235
N2935 X94.306 Y-27.961 Z-0.524
N2940 X93.808 Y-28.459 Z-0.951
N2945 X93.511 Y-28.756 Z-1.325
N2950 X93.254 Y-29.013 Z-1.792
N2955 X93.121 Y-29.146 Z-2.156
N2960 X93.01 Y-29.257 Z-2.752
N2965 X92.106 Y-30.161 Z-12.891
N2970 X91.858 Y-30.409 Z-15.044
N2975 X91.671 Y-30.596 Z-16.188
N2980 X91.421 Y-30.846 Z-17.065
N2985 X91.132 Y-31.135 Z-17.424
N2990 X90.842 Y-31.425 Z-17.053
N2995 X90.623 Y-31.644 Z-16.293
N3000 X90.321 Y-31.946 Z-14.39
N3005 X89.936 Y-32.331 Z-10.518
N3010 X89.248 Y-33.019 Z-2.662
N3015 X89.123 Y-33.144 Z-2.081
N3020 X88.951 Y-33.316 Z-1.66
N3025 X88.711 Y-33.556 Z-1.261
N3030 X88.249 Y-34.018 Z-0.748
N3035 X87.715 Y-34.552 Z-0.373
N3040 X87.128 Y-35.139 Z-0.126
N3045 X86.517 Y-35.75 Z-0.01
N3050 X86.267 Y-36. Z0.
N3055 X86.131 Y-36.136 Z0.006
N3060 X86.09 Y-36.189 Z0.008
N3065 X86.065 Y-36.251 Z0.01
N3070 X86.058 Y-36.318 Z0.013
N3075 X86.05 Y-36.383 Z0.016
N3080 X86.026 Y-36.444 Z0.019
N3085 X85.987 Y-36.497 Z0.021
N3090 X85.935 Y-36.538 Z0.022
N3095 X85.875 Y-36.564 Z0.024
N3100 X85.81 Y-36.573
N3105 X85.744 Y-36.565
N3110 X85.683 Y-36.54 Z0.023
N3115 X85.631 Y-36.5 Z0.021
N3120 X85.591 Y-36.447 Z0.019
N3125 X85.566 Y-36.387 Z0.016
N3130 X85.558 Y-36.321 Z0.013
N3135 X85.567 Y-36.256 Z0.011
N3140 X85.593 Y-36.196 Z0.008
N3145 X85.633 Y-36.144 Z0.006
N3150 X85.686 Y-36.105 Z0.004
N3155 X85.747 Y-36.081 Z0.003
N3160 X85.813 Y-36.073
N3165 X85.879 Y-36.066
N3170 X85.941 Y-36.041 Z0.002
N3175 X85.994 Y-36. Z0.
N3180 X86.149 Y-35.845 Z-0.004
N3185 X86.763 Y-35.232 Z-0.1
N3190 X87.355 Y-34.639 Z-0.326
N3195 X87.899 Y-34.096 Z-0.682
N3200 X88.376 Y-33.619 Z-1.175
N3205 X88.629 Y-33.365 Z-1.565
N3210 X88.817 Y-33.177 Z-1.984
N3215 X88.959 Y-33.036 Z-2.538
N3220 X89.8 Y-32.194 Z-12.076
N3225 X90.185 Y-31.81 Z-15.947
N3230 X90.487 Y-31.507 Z-17.85
N3235 X90.706 Y-31.289 Z-18.611
N3240 X90.996 Y-30.999 Z-18.982
N3245 X91.163 Y-30.832 Z-18.797
N3250 X91.319 Y-30.675 Z-18.504
N3255 X91.476 Y-30.519 Z-17.96
N3260 X91.756 Y-30.238 Z-16.392
N3265 X92.004 Y-29.991 Z-14.126
N3270 X93.01 Y-28.984 Z-2.752
N3275 X93.121 Y-28.873 Z-2.156
N3280 X93.254 Y-28.74 Z-1.792
N3285 X93.511 Y-28.483 Z-1.325
N3290 X93.808 Y-28.186 Z-0.951
N3295 X94.306 Y-27.689 Z-0.524
N3300 X94.835 Y-27.159 Z-0.235
N3305 X95.387 Y-26.608 Z-0.063
N3310 X96. Y-25.994 Z0.
N3315 X96.136 Y-25.859 Z0.014
N3320 X96.189 Y-25.819 Z0.019
N3325 X96.25 Y-25.794 Z0.026
N3330 X96.316 Y-25.786 Z0.033
N3335 X96.381 Y-25.779 Z0.039
N3340 X96.442 Y-25.755 Z0.046
N3345 X96.495 Y-25.716 Z0.051
N3350 X96.536 Y-25.664 Z0.055
N3355 X96.561 Y-25.604 Z0.058
N3360 X96.571 Y-25.539 Z0.059
N3365 X96.563 Y-25.473 Z0.058
N3370 X96.538 Y-25.412 Z0.056
N3375 X96.498 Y-25.36 Z0.051
N3380 X96.446 Y-25.32 Z0.046
N3385 X96.386 Y-25.295 Z0.04
N3390 X96.321 Y-25.286 Z0.033
N3395 X96.256 Y-25.295 Z0.026
N3400 X96.196 Y-25.321 Z0.02
N3405 X96.144 Y-25.361 Z0.015
N3410 X96.105 Y-25.414 Z0.011
N3415 X96.081 Y-25.475 Z0.008
N3420 X96.073 Y-25.54
N3425 X96.065 Y-25.607 Z0.007
N3430 X96.04 Y-25.669 Z0.004
N3435 X96. Y-25.722 Z0.
N3440 X95.387 Y-26.335 Z-0.063
N3445 X94.835 Y-26.887 Z-0.235
N3450 X94.306 Y-27.416 Z-0.524
N3455 X93.808 Y-27.913 Z-0.951
N3460 X93.511 Y-28.211 Z-1.325
N3465 X93.254 Y-28.468 Z-1.792
N3470 X93.121 Y-28.601 Z-2.156
N3475 X93.01 Y-28.712 Z-2.752
N3480 X91.851 Y-29.871 Z-15.841
N3485 X91.603 Y-30.118 Z-18.052
N3490 X91.416 Y-30.305 Z-19.167
N3495 X91.354 Y-30.368 Z-19.364
N3500 X91.082 Y-30.64 Z-19.73
N3505 X90.793 Y-30.929 Z-19.786
N3510 X90.691 Y-31.031 Z-19.738
N3515 X90.367 Y-31.355 Z-19.405
N3520 X90.106 Y-31.616 Z-17.976
N3525 X89.726 Y-31.996 Z-14.344
N3530 X88.706 Y-33.016 Z-2.692
N3535 X88.646 Y-33.076 Z-2.329
N3540 X88.518 Y-33.204 Z-1.912
N3545 X88.318 Y-33.404 Z-1.496
N3550 X88.054 Y-33.668 Z-1.113
N3555 X87.567 Y-34.155 Z-0.635
N3560 X87.017 Y-34.705 Z-0.294
N3565 X86.421 Y-35.301 Z-0.083
N3570 X85.722 Y-36. Z0.
N3575 X85.683 Y-36.039 Z0.01
N3580 X85.646 Y-36.076 Z0.03
N3585 X85.645 Y-36.077
N3590 X85.6 Y-36.122 Z0.053
N3595 X85.552 Y-36.17 Z0.061
N3600 X85.407 Y-36.315
N3605 X85.375 Y-36.336
N3610 X85.339 Y-36.343
N3615 X85.302 Y-36.336
N3620 X85.27 Y-36.315
N3625 X85.249 Y-36.284
N3630 X85.242 Y-36.247
N3635 X85.249 Y-36.21
N3640 X85.27 Y-36.179
N3645 X85.318 Y-36.131 Z0.053
N3650 X85.364 Y-36.086 Z0.03
N3655 X85.405 Y-36.044 Z0.009
N3660 X85.449 Y-36. Z0.
N3665 X85.758 Y-35.691 Z-0.016
N3670 X86.367 Y-35.082 Z-0.144
N3675 X86.951 Y-34.498 Z-0.403
N3680 X87.479 Y-33.971 Z-0.791
N3685 X87.932 Y-33.518 Z-1.315
N3690 X88.162 Y-33.287 Z-1.719
N3695 X88.324 Y-33.126 Z-2.141
N3700 X88.413 Y-33.036 Z-2.537
N3705 X89.586 Y-31.863 Z-15.863
N3710 X89.962 Y-31.487 Z-19.396
N3715 X90.182 Y-31.267 Z-19.829
N3720 X90.486 Y-30.963 Z-20.079
N3725 X90.814 Y-30.635 Z-20.121
N3730 X91.074 Y-30.375 Z-20.
N3735 X91.218 Y-30.231 Z-19.872
N3740 X91.397 Y-30.052 Z-19.577
N3745 X91.512 Y-29.937 Z-19.188
N3750 X91.698 Y-29.751 Z-17.555
N3755 X93.01 Y-28.439 Z-2.752
N3760 X93.121 Y-28.328 Z-2.156
N3765 X93.254 Y-28.195 Z-1.792
N3770 X93.511 Y-27.938 Z-1.325
N3775 X93.808 Y-27.641 Z-0.951
N3780 X94.306 Y-27.144 Z-0.524
N3785 X94.835 Y-26.614 Z-0.235
N3790 X95.387 Y-26.063 Z-0.063
N3795 X96. Y-25.449 Z0.
N3800 X96.136 Y-25.314 Z0.014
N3805 X96.189 Y-25.273 Z0.019
N3810 X96.25 Y-25.249 Z0.026
N3815 X96.316 Y-25.241 Z0.033
N3820 X96.381 Y-25.234 Z0.039
N3825 X96.442 Y-25.21 Z0.046
N3830 X96.495 Y-25.171 Z0.051
N3835 X96.536 Y-25.119 Z0.055
N3840 X96.561 Y-25.059 Z0.058
N3845 X96.571 Y-24.993 Z0.059
N3850 X96.563 Y-24.928 Z0.058
N3855 X96.538 Y-24.867 Z0.056
N3860 X96.498 Y-24.815 Z0.051
N3865 X96.446 Y-24.775 Z0.046
N3870 X96.386 Y-24.75 Z0.04
N3875 X96.321 Y-24.741 Z0.033
N3880 X96.256 Y-24.75 Z0.026
N3885 X96.196 Y-24.776 Z0.02
N3890 X96.144 Y-24.816 Z0.015
N3895 X96.105 Y-24.869 Z0.011
N3900 X96.081 Y-24.93 Z0.008
N3905 X96.073 Y-24.995
N3910 X96.065 Y-25.062 Z0.007
N3915 X96.04 Y-25.124 Z0.004
N3920 X96. Y-25.177 Z0.
N3925 X95.387 Y-25.79 Z-0.063
N3930 X94.835 Y-26.342 Z-0.235
N3935 X94.306 Y-26.871 Z-0.524
N3940 X93.808 Y-27.368 Z-0.951
N3945 X93.511 Y-27.666 Z-1.325
N3950 X93.254 Y-27.923 Z-1.792
N3955 X93.121 Y-28.056 Z-2.156
N3960 X93.01 Y-28.167 Z-2.752
N3965 X91.565 Y-29.612 Z-19.064
N3970 X91.477 Y-29.7 Z-19.5
N3975 X91.3 Y-29.877 Z-19.905
N3980 X91.01 Y-30.167 Z-20.208
N3985 X90.841 Y-30.336 Z-20.313
N3990 X90.54 Y-30.636 Z-20.363
N3995 X90.17 Y-31.007 Z-20.224
N4000 X89.993 Y-31.184 Z-20.087
N4005 X89.843 Y-31.334 Z-19.878
N4010 X89.683 Y-31.494 Z-19.521
N4015 X89.503 Y-31.674 Z-18.03
N4020 X88.152 Y-33.025 Z-2.613
N4025 X88.077 Y-33.1 Z-2.231
N4030 X87.931 Y-33.246 Z-1.81
N4035 X87.714 Y-33.463 Z-1.4
N4040 X87.438 Y-33.739 Z-1.028
N4045 X86.937 Y-34.24 Z-0.571
N4050 X86.379 Y-34.798 Z-0.251
N4055 X85.778 Y-35.398 Z-0.061
N4060 X85.177 Y-36. Z0.
N4065 X85.041 Y-36.136 Z0.014
N4070 X85.001 Y-36.189 Z0.019
N4075 X84.976 Y-36.25 Z0.025
N4080 X84.968 Y-36.316 Z0.032
N4085 X84.961 Y-36.382 Z0.039
N4090 X84.937 Y-36.442 Z0.045
N4095 X84.898 Y-36.495 Z0.05
N4100 X84.846 Y-36.536 Z0.054
N4105 X84.786 Y-36.561 Z0.057
N4110 X84.721 Y-36.571 Z0.058
N4115 X84.655 Y-36.563 Z0.057
N4120 X84.595 Y-36.538 Z0.054
N4125 X84.542 Y-36.498 Z0.05
N4130 X84.502 Y-36.446 Z0.045
N4135 X84.477 Y-36.386 Z0.039
N4140 X84.469 Y-36.321 Z0.033
N4145 X84.477 Y-36.256 Z0.026
N4150 X84.503 Y-36.196 Z0.02
N4155 X84.544 Y-36.144 Z0.015
N4160 X84.596 Y-36.105 Z0.011
N4165 X84.657 Y-36.081 Z0.008
N4170 X84.723 Y-36.073 Z0.007
N4175 X84.789 Y-36.065
N4180 X84.851 Y-36.04 Z0.004
N4185 X84.904 Y-36. Z0.
N4190 X85.122 Y-35.782 Z-0.008
N4195 X85.734 Y-35.17 Z-0.117
N4200 X86.323 Y-34.581 Z-0.357
N4205 X86.86 Y-34.044 Z-0.725
N4210 X87.328 Y-33.577 Z-1.232
N4215 X87.572 Y-33.332 Z-1.628
N4220 X87.749 Y-33.155 Z-2.049
N4225 X87.88 Y-33.024 Z-2.618
N4230 X89.319 Y-31.585 Z-19.037
N4235 X89.408 Y-31.497 Z-19.524
N4240 X89.567 Y-31.337 Z-19.916
N4245 X89.82 Y-31.085 Z-20.256
N4250 X90.248 Y-30.656 Z-20.512
N4255 X90.535 Y-30.369 Z-20.534
N4260 X90.916 Y-29.988 Z-20.387
N4265 X91.294 Y-29.61 Z-19.961
N4270 X91.452 Y-29.452 Z-19.644
N4275 X91.556 Y-29.348 Z-19.2
N4280 X93.01 Y-27.894 Z-2.752
N4285 X93.121 Y-27.783 Z-2.156
N4290 X93.254 Y-27.65 Z-1.792
N4295 X93.511 Y-27.393 Z-1.325
N4300 X93.808 Y-27.096 Z-0.951
N4305 X94.306 Y-26.599 Z-0.524
N4310 X94.835 Y-26.069 Z-0.235
N4315 X95.387 Y-25.518 Z-0.063
N4320 X96. Y-24.904 Z0.
N4325 X96.04 Y-24.864 Z0.01
N4330 X96.078 Y-24.826 Z0.03
N4335 X96.123 Y-24.781 Z0.053
N4340 X96.171 Y-24.733 Z0.06
N4345 X96.444 Y-24.46
N4350 G3 X96.171 Y-24.188 I-0.136 J0.136
N4355 G1 X96.123 Y-24.236 Z0.053
N4360 X96.078 Y-24.281 Z0.03
N4365 X96.04 Y-24.319 Z0.01
N4370 X96. Y-24.359 Z0.
N4375 X95.387 Y-24.973 Z-0.063
N4380 X94.835 Y-25.524 Z-0.235
N4385 X94.306 Y-26.053 Z-0.524
N4390 X93.808 Y-26.551 Z-0.951
N4395 X93.511 Y-26.848 Z-1.325
N4400 X93.254 Y-27.105 Z-1.792
N4405 X93.121 Y-27.238 Z-2.156
N4410 X93.01 Y-27.349 Z-2.752
N4415 X91.556 Y-28.803 Z-19.2
N4420 X91.452 Y-28.907 Z-19.646
N4425 X91.255 Y-29.104 Z-20.056
N4430 X90.922 Y-29.437 Z-20.466
N4435 X90.556 Y-29.803 Z-20.687
N4440 X90.269 Y-30.09 Z-20.771
N4445 X89.858 Y-30.501 Z-20.715
N4450 X89.629 Y-30.73 Z-20.597
N4455 X89.292 Y-31.067 Z-20.306
N4460 X88.998 Y-31.361 Z-19.882
N4465 X88.866 Y-31.493 Z-19.54
N4470 X88.734 Y-31.625 Z-18.581
N4475 X87.332 Y-33.028 Z-2.594
N4480 X87.198 Y-33.161 Z-2.03
N4485 X87.017 Y-33.342 Z-1.609
N4490 X86.77 Y-33.589 Z-1.215
N4495 X86.3 Y-34.059 Z-0.712
N4500 X85.761 Y-34.598 Z-0.348
N4505 X85.171 Y-35.188 Z-0.112
N4510 X84.559 Y-35.801 Z-0.007
N4515 X84.359 Y-36. Z0.
N4520 X84.223 Y-36.136 Z0.007
N4525 X84.182 Y-36.189 Z0.01
N4530 X84.158 Y-36.251 Z0.013
N4535 X84.15 Y-36.318 Z0.016
N4540 X84.143 Y-36.383 Z0.02
N4545 X84.118 Y-36.444 Z0.023
N4550 X84.079 Y-36.497 Z0.026
N4555 X84.028 Y-36.538 Z0.028
N4560 X83.967 Y-36.563 Z0.029
N4565 X83.902 Y-36.572 Z0.03
N4570 X83.837 Y-36.564 Z0.029
N4575 X83.776 Y-36.539 Z0.028
N4580 X83.723 Y-36.499 Z0.026
N4585 X83.683 Y-36.447 Z0.023
N4590 X83.658 Y-36.387 Z0.02
N4595 X83.65 Y-36.321 Z0.017
N4600 X83.659 Y-36.256 Z0.013
N4605 X83.685 Y-36.196 Z0.01
N4610 X83.725 Y-36.144 Z0.007
N4615 X83.778 Y-36.105 Z0.005
N4620 X83.839 Y-36.081 Z0.004
N4625 X83.905 Y-36.073
N4630 X83.971 Y-36.066 Z0.003
N4635 X84.033 Y-36.041 Z0.002
N4640 X84.087 Y-36. Z0.
N4645 X84.396 Y-35.69 Z-0.016
N4650 X85.005 Y-35.082 Z-0.144
N4655 X85.589 Y-34.498 Z-0.403
N4660 X86.117 Y-33.97 Z-0.791
N4665 X86.569 Y-33.517 Z-1.316
N4670 X86.8 Y-33.287 Z-1.72
N4675 X86.961 Y-33.125 Z-2.142
N4680 X87.051 Y-33.036 Z-2.538
N4685 X88.526 Y-31.561 Z-19.172
N4690 X88.703 Y-31.383 Z-19.826
N4695 X88.796 Y-31.291 Z-19.997
N4700 X89.09 Y-30.997 Z-20.384
N4705 X89.355 Y-30.732 Z-20.61
N4710 X89.713 Y-30.373 Z-20.792
N4715 X90.137 Y-29.95 Z-20.85
N4720 X90.634 Y-29.452 Z-20.683
N4725 X90.982 Y-29.104 Z-20.4
N4730 X91.255 Y-28.832 Z-20.056
N4735 X91.452 Y-28.634 Z-19.646
N4740 X91.556 Y-28.531 Z-19.2
N4745 X93.01 Y-27.076 Z-2.752
N4750 X93.121 Y-26.965 Z-2.156
N4755 X93.254 Y-26.833 Z-1.792
N4760 X93.511 Y-26.575 Z-1.325
N4765 X93.808 Y-26.278 Z-0.951
N4770 X94.306 Y-25.781 Z-0.524
N4775 X94.835 Y-25.251 Z-0.235
N4780 X95.387 Y-24.7 Z-0.063
N4785 X96. Y-24.087 Z0.
N4790 X96.136 Y-23.951 Z0.014
N4795 X96.189 Y-23.911 Z0.019
N4800 X96.25 Y-23.886 Z0.026
N4805 X96.316 Y-23.878 Z0.033
N4810 X96.381 Y-23.871 Z0.039
N4815 X96.442 Y-23.847 Z0.046
N4820 X96.495 Y-23.808 Z0.051
N4825 X96.536 Y-23.756 Z0.055
N4830 X96.561 Y-23.696 Z0.058
N4835 X96.571 Y-23.631 Z0.059
N4840 X96.563 Y-23.565 Z0.058
N4845 X96.538 Y-23.504 Z0.056
N4850 X96.498 Y-23.452 Z0.051
N4855 X96.446 Y-23.412 Z0.046
N4860 X96.386 Y-23.387 Z0.04
N4865 X96.321 Y-23.378 Z0.033
N4870 X96.256 Y-23.387 Z0.026
N4875 X96.196 Y-23.413 Z0.02
N4880 X96.144 Y-23.453 Z0.015
N4885 X96.105 Y-23.506 Z0.011
N4890 X96.081 Y-23.567 Z0.008
N4895 X96.073 Y-23.633
N4900 X96.065 Y-23.699 Z0.007
N4905 X96.04 Y-23.761 Z0.004
N4910 X96. Y-23.814 Z0.
N4915 X95.387 Y-24.427 Z-0.063
N4920 X94.835 Y-24.979 Z-0.235
N4925 X94.306 Y-25.508 Z-0.524
N4930 X93.808 Y-26.006 Z-0.951
N4935 X93.511 Y-26.303 Z-1.325
N4940 X93.254 Y-26.56 Z-1.792
N4945 X93.121 Y-26.693 Z-2.156
N4950 X93.01 Y-26.804 Z-2.752
N4955 X91.556 Y-28.258 Z-19.2
N4960 X91.452 Y-28.362 Z-19.646
N4965 X91.255 Y-28.559 Z-20.056
N4970 X90.982 Y-28.832 Z-20.4
N4975 X90.655 Y-29.159 Z-20.669
N4980 X90.289 Y-29.525 Z-20.848
N4985 X89.923 Y-29.891 Z-20.914
N4990 X89.418 Y-30.396 Z-20.805
N4995 X89.148 Y-30.666 Z-20.66
N5000 X88.819 Y-30.995 Z-20.386
N5005 X88.525 Y-31.289 Z-20.
N5010 X88.431 Y-31.382 Z-19.829
N5015 X88.254 Y-31.56 Z-19.177
N5020 X86.779 Y-33.035 Z-2.543
N5025 X86.691 Y-33.123 Z-2.149
N5030 X86.53 Y-33.284 Z-1.727
N5035 X86.301 Y-33.513 Z-1.322
N5040 X85.849 Y-33.965 Z-0.796
N5045 X85.322 Y-34.492 Z-0.407
N5050 X84.739 Y-35.075 Z-0.146
N5055 X84.13 Y-35.684 Z-0.017
N5060 X83.814 Y-36. Z0.
N5065 X83.77 Y-36.044 Z0.009
N5070 X83.729 Y-36.085 Z0.03
N5075 X83.728 Y-36.086 Z0.031
N5080 X83.683 Y-36.131 Z0.053
N5085 X83.635 Y-36.179 Z0.061
N5090 X83.36 Y-36.454
N5095 G2 X83.087 Y-36.181 I-0.136 J0.136
N5100 G1 X83.135 Y-36.134 Z0.053
N5105 X83.181 Y-36.088 Z0.031
N5110 X83.224 Y-36.045 Z0.009
N5115 X83.269 Y-36. Z0.
N5120 X83.478 Y-35.791 Z-0.007
N5125 X84.09 Y-35.179 Z-0.114
N5130 X84.679 Y-34.589 Z-0.352
N5135 X85.217 Y-34.051 Z-0.719
N5140 X85.686 Y-33.582 Z-1.224
N5145 X85.932 Y-33.337 Z-1.619
N5150 X86.111 Y-33.158 Z-2.04
N5155 X86.243 Y-33.026 Z-2.607
N5160 X87.681 Y-31.588 Z-19.01
N5165 X87.78 Y-31.488 Z-19.552
N5170 X87.926 Y-31.343 Z-19.911
N5175 X88.089 Y-31.18 Z-20.178
N5180 X88.253 Y-31.016 Z-20.363
N5185 X88.582 Y-30.687 Z-20.644
N5190 X89.014 Y-30.255 Z-20.865
N5195 X89.403 Y-29.866 Z-20.961
N5200 X89.826 Y-29.442 Z-20.964
N5205 X90.289 Y-28.98 Z-20.855
N5210 X90.655 Y-28.614 Z-20.669
N5215 X90.982 Y-28.286 Z-20.4
N5220 X91.255 Y-28.014 Z-20.056
N5225 X91.452 Y-27.817 Z-19.646
N5230 X91.556 Y-27.713 Z-19.2
N5235 X93.01 Y-26.259 Z-2.752
N5240 X93.121 Y-26.148 Z-2.156
N5245 X93.254 Y-26.015 Z-1.792
N5250 X93.511 Y-25.758 Z-1.325
N5255 X93.808 Y-25.46 Z-0.951
N5260 X94.306 Y-24.963 Z-0.524
N5265 X94.835 Y-24.434 Z-0.235
N5270 X95.387 Y-23.882 Z-0.063
N5275 X96. Y-23.269 Z0.
N5280 X96.271 Y-22.998 Z0.028
N5285 X96.318 Y-22.961 Z0.033
N5290 X96.373 Y-22.936 Z0.039
N5295 X96.43 Y-22.91 Z0.044
N5300 X96.48 Y-22.869 Z0.05
N5305 X96.517 Y-22.817 Z0.053
N5310 X96.54 Y-22.758 Z0.056
N5315 X96.547 Y-22.694 Z0.057
N5320 X96.538 Y-22.631 Z0.056
N5325 X96.514 Y-22.572 Z0.053
N5330 X96.475 Y-22.521 Z0.049
N5335 X96.425 Y-22.482 Z0.044
N5340 X96.366 Y-22.457 Z0.038
N5345 X96.303 Y-22.448 Z0.031
N5350 X96.24 Y-22.455 Z0.025
N5355 X96.181 Y-22.477 Z0.019
N5360 X96.129 Y-22.515 Z0.013
N5365 X96.088 Y-22.564 Z0.009
N5370 X96.062 Y-22.622 Z0.006
N5375 X96.037 Y-22.677 Z0.004
N5380 X96. Y-22.724 Z0.
N5385 X95.387 Y-23.337 Z-0.063
N5390 X94.835 Y-23.889 Z-0.235
N5395 X94.306 Y-24.418 Z-0.524
N5400 X93.808 Y-24.915 Z-0.951
N5405 X93.511 Y-25.213 Z-1.325
N5410 X93.254 Y-25.47 Z-1.792
N5415 X93.121 Y-25.603 Z-2.156
N5420 X93.01 Y-25.713 Z-2.752
N5425 X91.556 Y-27.168 Z-19.2
N5430 X91.452 Y-27.271 Z-19.646
N5435 X91.255 Y-27.469 Z-20.056
N5440 X90.982 Y-27.741 Z-20.4
N5445 X90.655 Y-28.069 Z-20.669
N5450 X90.289 Y-28.435 Z-20.855
N5455 X89.683 Y-29.041 Z-20.978
N5460 X89.259 Y-29.465 Z-20.998
N5465 X88.726 Y-29.997 Z-20.939
N5470 X88.149 Y-30.575 Z-20.715
N5475 X87.736 Y-30.987 Z-20.395
N5480 X87.573 Y-31.151 Z-20.214
N5485 X87.329 Y-31.394 Z-19.798
N5490 X87.247 Y-31.477 Z-19.582
N5495 X87.152 Y-31.572 Z-19.112
N5500 X85.702 Y-33.021 Z-2.644
N5505 X85.575 Y-33.148 Z-2.068
N5510 X85.401 Y-33.323 Z-1.647
N5515 X85.16 Y-33.564 Z-1.249
N5520 X84.695 Y-34.029 Z-0.739
N5525 X84.16 Y-34.564 Z-0.366
N5530 X83.572 Y-35.152 Z-0.122
N5535 X82.96 Y-35.763 Z-0.009
N5540 X82.724 Y-36. Z0.
N5545 X82.679 Y-36.045 Z0.009
N5550 X82.636 Y-36.087 Z0.03
N5555 X82.591 Y-36.133 Z0.053
N5560 X82.543 Y-36.181 Z0.061
N5565 X82.281 Y-36.443
N5570 G2 X82.008 I-0.136 J0.136
N5575 Y-36.17 I0.136 J0.136
N5580 G1 X82.056 Y-36.122 Z0.053
N5585 X82.102 Y-36.077 Z0.03
N5590 X82.103 Y-36.075
N5595 X82.14 Y-36.039 Z0.01
N5600 X82.179 Y-36. Z0.
N5605 X82.891 Y-35.288 Z-0.086
N5610 X83.486 Y-34.692 Z-0.3
N5615 X84.035 Y-34.144 Z-0.643
N5620 X84.52 Y-33.658 Z-1.125
N5625 X84.782 Y-33.397 Z-1.509
N5630 X84.98 Y-33.199 Z-1.926
N5635 X85.105 Y-33.073 Z-2.342
N5640 X85.164 Y-33.015 Z-2.701
N5645 X86.586 Y-31.592 Z-18.958
N5650 X86.667 Y-31.512 Z-19.44
N5655 X86.764 Y-31.415 Z-19.744
N5660 X86.939 Y-31.24 Z-20.08
N5665 X87.233 Y-30.946 Z-20.441
N5670 X87.657 Y-30.521 Z-20.742
N5675 X88.023 Y-30.156 Z-20.893
N5680 X88.411 Y-29.767 Z-20.97
N5685 X89.471 Y-28.708 Z-20.997
N5690 X90.289 Y-27.89 Z-20.855
N5695 X90.655 Y-27.524 Z-20.669
N5700 X90.982 Y-27.196 Z-20.4
N5705 X91.255 Y-26.924 Z-20.056
N5710 X91.452 Y-26.726 Z-19.646
N5715 X91.556 Y-26.623 Z-19.2
N5720 X93.01 Y-25.168 Z-2.752
N5725 X93.121 Y-25.058 Z-2.156
N5730 X93.254 Y-24.925 Z-1.792
N5735 X93.511 Y-24.668 Z-1.325
N5740 X93.808 Y-24.37 Z-0.951
N5745 X94.306 Y-23.873 Z-0.524
N5750 X94.835 Y-23.343 Z-0.235
N5755 X95.387 Y-22.792 Z-0.063
N5760 X96. Y-22.179 Z0.
N5765 X96.271 Y-21.907 Z0.028
N5770 X96.318 Y-21.871 Z0.033
N5775 X96.373 Y-21.846 Z0.039
N5780 X96.43 Y-21.819 Z0.044
N5785 X96.48 Y-21.779 Z0.05
N5790 X96.517 Y-21.727 Z0.053
N5795 X96.54 Y-21.667 Z0.056
N5800 X96.547 Y-21.604 Z0.057
N5805 X96.538 Y-21.541 Z0.056
N5810 X96.514 Y-21.482 Z0.053
N5815 X96.475 Y-21.431 Z0.049
N5820 X96.425 Y-21.392 Z0.044
N5825 X96.366 Y-21.367 Z0.038
N5830 X96.303 Y-21.357 Z0.031
N5835 X96.24 Y-21.364 Z0.025
N5840 X96.181 Y-21.387 Z0.019
N5845 X96.129 Y-21.424 Z0.013
N5850 X96.088 Y-21.474 Z0.009
N5855 X96.062 Y-21.532 Z0.006
N5860 X96.037 Y-21.586 Z0.004
N5865 X96. Y-21.633 Z0.
N5870 X95.387 Y-22.247 Z-0.063
N5875 X94.835 Y-22.798 Z-0.235
N5880 X94.306 Y-23.328 Z-0.524
N5885 X93.808 Y-23.825 Z-0.951
N5890 X93.511 Y-24.122 Z-1.325
N5895 X93.254 Y-24.379 Z-1.792
N5900 X93.121 Y-24.512 Z-2.156
N5905 X93.01 Y-24.623 Z-2.752
N5910 X91.556 Y-26.078 Z-19.2
N5915 X91.452 Y-26.181 Z-19.646
N5920 X91.255 Y-26.379 Z-20.056
N5925 X90.982 Y-26.651 Z-20.4
N5930 X90.655 Y-26.979 Z-20.669
N5935 X90.289 Y-27.344 Z-20.855
N5940 X89.471 Y-28.163 Z-20.997
N5945 X87.988 Y-29.646 Z-20.981
N5950 X87.599 Y-30.035 Z-20.928
N5955 X87.233 Y-30.4 Z-20.803
N5960 X86.882 Y-30.752 Z-20.595
N5965 X86.465 Y-31.168 Z-20.195
N5970 X86.259 Y-31.374 Z-19.85
N5975 X86.111 Y-31.522 Z-19.385
N5980 X86.019 Y-31.615 Z-18.701
N5985 X84.616 Y-33.017 Z-2.68
N5990 X84.494 Y-33.14 Z-2.095
N5995 X84.324 Y-33.31 Z-1.673
N6000 X84.086 Y-33.547 Z-1.273
N6005 X83.626 Y-34.008 Z-0.757
N6010 X83.093 Y-34.54 Z-0.379
N6015 X82.507 Y-35.127 Z-0.13
N6020 X81.896 Y-35.737 Z-0.012
N6025 X81.633 Y-36. Z0.
N6030 X81.589 Y-36.045 Z0.009
N6035 X81.547 Y-36.087 Z0.03
N6040 X81.501 Y-36.132 Z0.053
N6045 X81.453 Y-36.18 Z0.061
N6050 X81.182 Y-36.451
N6055 G2 X80.91 I-0.136 J0.136
N6060 Y-36.179 I0.136 J0.136
N6065 G1 X80.958 Y-36.131 Z0.053
N6070 X81.003 Y-36.085 Z0.03
N6075 X81.045 Y-36.044 Z0.009
N6080 X81.088 Y-36. Z0.
N6085 X81.416 Y-35.673 Z-0.018
N6090 X82.024 Y-35.064 Z-0.15
N6095 X82.607 Y-34.481 Z-0.413
N6100 X83.132 Y-33.956 Z-0.804
N6105 X83.582 Y-33.506 Z-1.333
N6110 X83.81 Y-33.278 Z-1.738
N6115 X83.968 Y-33.12 Z-2.16
N6120 X84.055 Y-33.033 Z-2.553
N6125 X85.503 Y-31.585 Z-19.04
N6130 X85.634 Y-31.454 Z-19.641
N6135 X85.879 Y-31.21 Z-20.129
N6140 X86.267 Y-30.822 Z-20.542
N6145 X86.658 Y-30.43 Z-20.788
N6150 X87.024 Y-30.065 Z-20.92
N6155 X87.564 Y-29.524 Z-20.992
N6160 X89.471 Y-27.617 Z-20.997
N6165 X90.289 Y-26.799 Z-20.855
N6170 X90.655 Y-26.433 Z-20.669
N6175 X90.982 Y-26.106 Z-20.4
N6180 X91.255 Y-25.834 Z-20.056
N6185 X91.452 Y-25.636 Z-19.646
N6190 X91.556 Y-25.533 Z-19.2
N6195 X93.01 Y-24.078 Z-2.752
N6200 X93.121 Y-23.967 Z-2.156
N6205 X93.254 Y-23.834 Z-1.792
N6210 X93.511 Y-23.577 Z-1.325
N6215 X93.808 Y-23.28 Z-0.951
N6220 X94.306 Y-22.783 Z-0.524
N6225 X94.835 Y-22.253 Z-0.235
N6230 X95.387 Y-21.702 Z-0.063
N6235 X96. Y-21.088 Z0.
N6240 X96.271 Y-20.817 Z0.028
N6245 X96.318 Y-20.78 Z0.033
N6250 X96.373 Y-20.756 Z0.039
N6255 X96.43 Y-20.729 Z0.044
N6260 X96.48 Y-20.689 Z0.05
N6265 X96.517 Y-20.637 Z0.053
N6270 X96.54 Y-20.577 Z0.056
N6275 X96.547 Y-20.514 Z0.057
N6280 X96.538 Y-20.45 Z0.056
N6285 X96.514 Y-20.391 Z0.053
N6290 X96.475 Y-20.341 Z0.049
N6295 X96.425 Y-20.302 Z0.044
N6300 X96.366 Y-20.276 Z0.038
N6305 X96.303 Y-20.267 Z0.031
N6310 X96.24 Y-20.274 Z0.025
N6315 X96.181 Y-20.297 Z0.019
N6320 X96.129 Y-20.334 Z0.013
N6325 X96.088 Y-20.383 Z0.009
N6330 X96.062 Y-20.441 Z0.006
N6335 X96.037 Y-20.496 Z0.004
N6340 X96. Y-20.543 Z0.
N6345 X95.387 Y-21.157 Z-0.063
N6350 X94.835 Y-21.708 Z-0.235
N6355 X94.306 Y-22.238 Z-0.524
N6360 X93.808 Y-22.735 Z-0.951
N6365 X93.511 Y-23.032 Z-1.325
N6370 X93.254 Y-23.289 Z-1.792
N6375 X93.121 Y-23.422 Z-2.156
N6380 X93.01 Y-23.533 Z-2.752
N6385 X91.556 Y-24.987 Z-19.2
N6390 X91.452 Y-25.091 Z-19.646
N6395 X91.255 Y-25.289 Z-20.056
N6400 X90.982 Y-25.561 Z-20.4
N6405 X90.655 Y-25.888 Z-20.669
N6410 X90.289 Y-26.254 Z-20.855
N6415 X89.471 Y-27.072 Z-20.997
N6420 X86.928 Y-29.615 Z-20.984
N6425 X86.328 Y-30.215 Z-20.876
N6430 X85.881 Y-30.663 Z-20.663
N6435 X85.552 Y-30.991 Z-20.39
N6440 X85.388 Y-31.155 Z-20.21
N6445 X85.147 Y-31.396 Z-19.793
N6450 X85.064 Y-31.48 Z-19.575
N6455 X84.97 Y-31.573 Z-19.102
N6460 X83.52 Y-33.023 Z-2.629
N6465 X83.391 Y-33.152 Z-2.057
N6470 X83.215 Y-33.328 Z-1.636
N6475 X82.972 Y-33.571 Z-1.239
N6480 X82.506 Y-34.037 Z-0.731
N6485 X81.969 Y-34.574 Z-0.361
N6490 X81.381 Y-35.163 Z-0.119
N6495 X80.769 Y-35.774 Z-0.009
N6500 X80.543 Y-36. Z0.
N6505 X80.498 Y-36.045 Z0.009
N6510 X80.455 Y-36.088 Z0.031
N6515 X80.41 Y-36.133 Z0.053
N6520 X80.362 Y-36.181 Z0.061
N6525 X80.097 Y-36.446
N6530 G2 X79.824 Y-36.174 I-0.136 J0.136
N6535 G1 X79.872 Y-36.126 Z0.053
N6540 X79.918 Y-36.08 Z0.031
N6545 X79.919 Z0.03
N6550 X79.957 Y-36.041 Z0.009
N6555 X79.998 Y-36. Z0.
N6560 X80.548 Y-35.45 Z-0.051
N6565 X81.15 Y-34.848 Z-0.23
N6570 X81.713 Y-34.285 Z-0.538
N6575 X82.22 Y-33.778 Z-0.985
N6580 X82.503 Y-33.495 Z-1.35
N6585 X82.728 Y-33.27 Z-1.757
N6590 X82.883 Y-33.115 Z-2.178
N6595 X82.967 Y-33.031 Z-2.569
N6600 X84.417 Y-31.581 Z-19.063
N6605 X84.55 Y-31.448 Z-19.657
N6610 X84.795 Y-31.203 Z-20.139
N6615 X85.187 Y-30.811 Z-20.55
N6620 X85.538 Y-30.46 Z-20.773
N6625 X85.904 Y-30.094 Z-20.911
N6630 X86.293 Y-29.705 Z-20.976
N6635 X89.471 Y-26.527 Z-20.997
N6640 X90.289 Y-25.709 Z-20.855
N6645 X90.655 Y-25.343 Z-20.669
N6650 X90.982 Y-25.016 Z-20.4
N6655 X91.255 Y-24.743 Z-20.056
N6660 X91.452 Y-24.546 Z-19.646
N6665 X91.556 Y-24.442 Z-19.2
N6670 X93.01 Y-22.988 Z-2.752
N6675 X93.121 Y-22.877 Z-2.156
N6680 X93.254 Y-22.744 Z-1.792
N6685 X93.511 Y-22.487 Z-1.325
N6690 X93.808 Y-22.19 Z-0.951
N6695 X94.306 Y-21.692 Z-0.524
N6700 X94.835 Y-21.163 Z-0.235
N6705 X95.387 Y-20.612 Z-0.063
N6710 X96. Y-19.998 Z0.
N6715 X96.136 Y-19.862 Z0.014
N6720 X96.189 Y-19.822 Z0.019
N6725 X96.25 Y-19.797 Z0.026
N6730 X96.316 Y-19.79 Z0.033
N6735 X96.381 Y-19.783 Z0.039
N6740 X96.442 Y-19.759 Z0.046
N6745 X96.495 Y-19.719 Z0.051
N6750 X96.536 Y-19.668 Z0.055
N6755 X96.561 Y-19.607 Z0.058
N6760 X96.571 Y-19.542 Z0.059
N6765 X96.563 Y-19.477 Z0.058
N6770 X96.538 Y-19.416 Z0.056
N6775 X96.498 Y-19.364 Z0.051
N6780 X96.446 Y-19.323 Z0.046
N6785 X96.386 Y-19.298 Z0.04
N6790 X96.321 Y-19.29 Z0.033
N6795 X96.256 Y-19.299 Z0.026
N6800 X96.196 Y-19.324 Z0.02
N6805 X96.144 Y-19.365 Z0.015
N6810 X96.105 Y-19.418 Z0.011
N6815 X96.081 Y-19.479 Z0.008
N6820 X96.073 Y-19.544
N6825 X96.065 Y-19.61 Z0.007
N6830 X96.04 Y-19.672 Z0.004
N6835 X96. Y-19.725 Z0.
N6840 X95.387 Y-20.339 Z-0.063
N6845 X94.835 Y-20.89 Z-0.235
N6850 X94.306 Y-21.42 Z-0.524
N6855 X93.808 Y-21.917 Z-0.951
N6860 X93.511 Y-22.214 Z-1.325
N6865 X93.254 Y-22.472 Z-1.792
N6870 X93.121 Y-22.604 Z-2.156
N6875 X93.01 Y-22.715 Z-2.752
N6880 X91.556 Y-24.17 Z-19.2
N6885 X91.452 Y-24.273 Z-19.646
N6890 X91.255 Y-24.471 Z-20.056
N6895 X90.982 Y-24.743 Z-20.4
N6900 X90.655 Y-25.071 Z-20.669
N6905 X90.289 Y-25.436 Z-20.855
N6910 X89.471 Y-26.255 Z-20.997
N6915 X86.081 Y-29.645 Z-20.981
N6920 X85.48 Y-30.245 Z-20.868
N6925 X85.044 Y-30.681 Z-20.649
N6930 X84.716 Y-31.01 Z-20.37
N6935 X84.552 Y-31.173 Z-20.188
N6940 X84.321 Y-31.405 Z-19.771
N6945 X84.232 Y-31.493 Z-19.539
N6950 X84.144 Y-31.582 Z-19.056
N6955 X82.694 Y-33.031 Z-2.567
N6960 X82.557 Y-33.169 Z-2.008
N6965 X82.372 Y-33.353 Z-1.588
N6970 X82.122 Y-33.603 Z-1.196
N6975 X81.649 Y-34.077 Z-0.697
N6980 X81.107 Y-34.618 Z-0.337
N6985 X80.516 Y-35.209 Z-0.106
N6990 X79.903 Y-35.822 Z-0.005
N6995 X79.725 Y-36. Z0.
N7000 X79.589 Y-36.136 Z0.006
N7005 X79.549 Y-36.189 Z0.008
N7010 X79.524 Y-36.251 Z0.01
N7015 X79.516 Y-36.318 Z0.013
N7020 X79.509 Y-36.383 Z0.016
N7025 X79.485 Y-36.444 Z0.018
N7030 X79.445 Y-36.497 Z0.02
N7035 X79.394 Y-36.538 Z0.022
N7040 X79.333 Y-36.564 Z0.023
N7045 X79.268 Y-36.573
N7050 X79.203 Y-36.565
N7055 X79.142 Y-36.54 Z0.022
N7060 X79.09 Y-36.5 Z0.02
N7065 X79.05 Y-36.447 Z0.018
N7070 X79.025 Y-36.387 Z0.016
N7075 X79.016 Y-36.321 Z0.013
N7080 X79.025 Y-36.256 Z0.01
N7085 X79.051 Y-36.196 Z0.008
N7090 X79.092 Y-36.144 Z0.006
N7095 X79.145 Y-36.105 Z0.004
N7100 X79.206 Y-36.081 Z0.003
N7105 X79.271 Y-36.073
N7110 X79.338 Y-36.066
N7115 X79.4 Y-36.041 Z0.002
N7120 X79.453 Y-36. Z0.
N7125 X79.696 Y-35.756 Z-0.01
N7130 X80.307 Y-35.146 Z-0.124
N7135 X80.895 Y-34.558 Z-0.369
N7140 X81.43 Y-34.023 Z-0.743
N7145 X81.893 Y-33.56 Z-1.255
N7150 X82.134 Y-33.319 Z-1.653
N7155 X82.307 Y-33.146 Z-2.075
N7160 X82.433 Y-33.02 Z-2.653
N7165 X83.882 Y-31.571 Z-19.118
N7170 X83.978 Y-31.475 Z-19.587
N7175 X84.141 Y-31.312 Z-19.962
N7180 X84.435 Y-31.018 Z-20.36
N7185 X84.763 Y-30.69 Z-20.642
N7190 X85.115 Y-30.338 Z-20.833
N7195 X85.48 Y-29.973 Z-20.946
N7200 X85.869 Y-29.584 Z-20.987
N7205 X89.471 Y-25.982 Z-20.997
N7210 X90.289 Y-25.164 Z-20.855
N7215 X90.655 Y-24.798 Z-20.669
N7220 X90.982 Y-24.471 Z-20.4
N7225 X91.255 Y-24.198 Z-20.056
N7230 X91.452 Y-24.001 Z-19.646
N7235 X91.556 Y-23.897 Z-19.2
N7240 X93.01 Y-22.443 Z-2.752
N7245 X93.121 Y-22.332 Z-2.156
N7250 X93.254 Y-22.199 Z-1.792
N7255 X93.511 Y-21.942 Z-1.325
N7260 X93.808 Y-21.644 Z-0.951
N7265 X94.306 Y-21.147 Z-0.524
N7270 X94.835 Y-20.618 Z-0.235
N7275 X95.387 Y-20.066 Z-0.063
N7280 X96. Y-19.453 Z0.
N7285 X96.04 Y-19.413 Z0.01
N7290 X96.078 Y-19.375 Z0.03
N7295 X96.123 Y-19.33 Z0.053
N7300 X96.171 Y-19.282 Z0.06
N7305 X96.444 Y-19.009
N7310 G3 X96.171 Y-18.737 I-0.136 J0.136
N7315 G1 X96.123 Y-18.784 Z0.053
N7320 X96.078 Y-18.83 Z0.03
N7325 X96.04 Y-18.868 Z0.01
N7330 X96. Y-18.908 Z0.
N7335 X95.387 Y-19.521 Z-0.063
N7340 X94.835 Y-20.073 Z-0.235
N7345 X94.306 Y-20.602 Z-0.524
N7350 X93.808 Y-21.099 Z-0.951
N7355 X93.511 Y-21.397 Z-1.325
N7360 X93.254 Y-21.654 Z-1.792
N7365 X93.121 Y-21.787 Z-2.156
N7370 X93.01 Y-21.898 Z-2.752
N7375 X91.556 Y-23.352 Z-19.2
N7380 X91.452 Y-23.455 Z-19.646
N7385 X91.255 Y-23.653 Z-20.056
N7390 X90.982 Y-23.925 Z-20.4
N7395 X90.655 Y-24.253 Z-20.669
N7400 X90.289 Y-24.619 Z-20.855
N7405 X89.471 Y-25.437 Z-20.997
N7410 X85.445 Y-29.462 Z-20.998
N7415 X84.845 Y-30.063 Z-20.92
N7420 X84.539 Y-30.368 Z-20.818
N7425 X84.188 Y-30.72 Z-20.619
N7430 X83.822 Y-31.086 Z-20.286
N7435 X83.528 Y-31.38 Z-19.835
N7440 X83.404 Y-31.504 Z-19.485
N7445 X83.311 Y-31.597 Z-18.908
N7450 X81.889 Y-33.019 Z-2.661
N7455 X81.823 Y-33.085 Z-2.29
N7460 X81.687 Y-33.221 Z-1.871
N7465 X81.48 Y-33.427 Z-1.457
N7470 X81.212 Y-33.696 Z-1.079
N7475 X80.719 Y-34.189 Z-0.608
N7480 X80.166 Y-34.742 Z-0.276
N7485 X79.568 Y-35.34 Z-0.073
N7490 X78.908 Y-36. Z0.
N7495 X78.637 Y-36.271 Z0.033
N7500 X78.6 Y-36.317 Z0.038
N7505 X78.576 Y-36.372 Z0.045
N7510 X78.549 Y-36.429 Z0.052
N7515 X78.509 Y-36.479 Z0.058
N7520 X78.457 Y-36.516 Z0.062
N7525 X78.398 Y-36.539 Z0.065
N7530 X78.334 Y-36.546 Z0.066
N7535 X78.271 Y-36.537 Z0.065
N7540 X78.212 Y-36.513 Z0.062
N7545 X78.161 Y-36.474 Z0.057
N7550 X78.122 Y-36.424 Z0.051
N7555 X78.097 Y-36.366 Z0.044
N7560 X78.087 Y-36.303 Z0.037
N7565 X78.094 Y-36.24 Z0.029
N7570 X78.117 Y-36.181 Z0.022
N7575 X78.154 Y-36.129 Z0.016
N7580 X78.203 Y-36.088 Z0.011
N7585 X78.261 Y-36.062 Z0.007
N7590 X78.316 Y-36.037 Z0.004
N7595 X78.363 Y-36. Z0.
N7600 X79.079 Y-35.284 Z-0.087
N7605 X79.674 Y-34.689 Z-0.302
N7610 X80.222 Y-34.14 Z-0.646
N7615 X80.707 Y-33.655 Z-1.128
N7620 X80.968 Y-33.395 Z-1.513
N7625 X81.165 Y-33.197 Z-1.93
N7630 X81.29 Y-33.072 Z-2.346
N7635 X81.348 Y-33.015 Z-2.704
N7640 X82.771 Y-31.592 Z-18.962
N7645 X82.852 Y-31.511 Z-19.448
N7650 X82.948 Y-31.415 Z-19.744
N7655 X83.124 Y-31.238 Z-20.082
N7660 X83.418 Y-30.944 Z-20.442
N7665 X83.844 Y-30.519 Z-20.743
N7670 X84.209 Y-30.154 Z-20.894
N7675 X84.81 Y-29.553 Z-20.99
N7680 X89.471 Y-24.892 Z-20.997
N7685 X90.289 Y-24.074 Z-20.855
N7690 X90.655 Y-23.708 Z-20.669
N7695 X90.982 Y-23.38 Z-20.4
N7700 X91.255 Y-23.108 Z-20.056
N7705 X91.452 Y-22.91 Z-19.646
N7710 X91.556 Y-22.807 Z-19.2
N7715 X93.01 Y-21.352 Z-2.752
N7720 X93.121 Y-21.242 Z-2.156
N7725 X93.254 Y-21.109 Z-1.792
N7730 X93.511 Y-20.852 Z-1.325
N7735 X93.808 Y-20.554 Z-0.951
N7740 X94.306 Y-20.057 Z-0.524
N7745 X94.835 Y-19.528 Z-0.235
N7750 X95.387 Y-18.976 Z-0.063
N7755 X96. Y-18.363 Z0.
N7760 X96.04 Y-18.323 Z0.01
N7765 X96.078 Y-18.285 Z0.03
N7770 X96.123 Y-18.239 Z0.053
N7775 X96.171 Y-18.191 Z0.06
N7780 X96.444 Y-17.919
N7785 G3 X96.171 Y-17.646 I-0.136 J0.136
N7790 G1 X96.123 Y-17.694 Z0.053
N7795 X96.078 Y-17.74 Z0.03
N7800 X96.04 Y-17.778 Z0.01
N7805 X96. Y-17.818 Z0.
N7810 X95.387 Y-18.431 Z-0.063
N7815 X94.835 Y-18.982 Z-0.235
N7820 X94.306 Y-19.512 Z-0.524
N7825 X93.808 Y-20.009 Z-0.951
N7830 X93.511 Y-20.306 Z-1.325
N7835 X93.254 Y-20.564 Z-1.792
N7840 X93.121 Y-20.696 Z-2.156
N7845 X93.01 Y-20.807 Z-2.752
N7850 X91.556 Y-22.262 Z-19.2
N7855 X91.452 Y-22.365 Z-19.646
N7860 X91.255 Y-22.563 Z-20.056
N7865 X90.982 Y-22.835 Z-20.4
N7870 X90.655 Y-23.163 Z-20.669
N7875 X90.289 Y-23.529 Z-20.855
N7880 X89.471 Y-24.347 Z-20.997
N7885 X84.174 Y-29.643 Z-20.981
N7890 X83.785 Y-30.032 Z-20.929
N7895 X83.42 Y-30.398 Z-20.804
N7900 X83.068 Y-30.749 Z-20.597
N7905 X82.651 Y-31.167 Z-20.197
N7910 X82.446 Y-31.372 Z-19.856
N7915 X82.296 Y-31.522 Z-19.387
N7920 X82.203 Y-31.615 Z-18.705
N7925 X80.801 Y-33.017 Z-2.683
N7930 X80.678 Y-33.139 Z-2.097
N7935 X80.509 Y-33.309 Z-1.675
N7940 X80.272 Y-33.546 Z-1.275
N7945 X79.812 Y-34.006 Z-0.759
N7950 X79.279 Y-34.538 Z-0.38
N7955 X78.693 Y-35.125 Z-0.13
N7960 X78.082 Y-35.735 Z-0.012
N7965 X77.818 Y-36. Z0.
N7970 X77.545 Y-36.272 Z0.015
N7975 X77.508 Y-36.319 Z0.018
N7980 X77.484 Y-36.374 Z0.021
N7985 X77.457 Y-36.432 Z0.024
N7990 X77.416 Y-36.482 Z0.026
N7995 X77.365 Y-36.519 Z0.029
N8000 X77.305 Y-36.542 Z0.03
N8005 X77.241 Y-36.55
N8010 X77.178 Y-36.541
N8015 X77.119 Y-36.516 Z0.028
N8020 X77.068 Y-36.477 Z0.026
N8025 X77.029 Y-36.426 Z0.023
N8030 X77.004 Y-36.367 Z0.02
N8035 X76.995 Y-36.304 Z0.017
N8040 X77.002 Y-36.241 Z0.013
N8045 X77.025 Y-36.181 Z0.01
N8050 X77.063 Y-36.129 Z0.007
N8055 X77.112 Y-36.089 Z0.005
N8060 X77.17 Y-36.062 Z0.003
N8065 X77.225 Y-36.037 Z0.002
N8070 X77.272 Y-36. Z0.
N8075 X77.601 Y-35.671 Z-0.018
N8080 X78.209 Y-35.063 Z-0.15
N8085 X78.792 Y-34.48 Z-0.413
N8090 X79.318 Y-33.955 Z-0.805
N8095 X79.767 Y-33.505 Z-1.334
N8100 X79.995 Y-33.278 Z-1.739
N8105 X80.153 Y-33.12 Z-2.161
N8110 X80.239 Y-33.033 Z-2.554
N8115 X81.688 Y-31.585 Z-19.041
N8120 X81.819 Y-31.454 Z-19.642
N8125 X82.063 Y-31.209 Z-20.13
N8130 X82.451 Y-30.821 Z-20.543
N8135 X82.843 Y-30.429 Z-20.788
N8140 X83.209 Y-30.064 Z-20.92
N8145 X83.75 Y-29.522 Z-20.993
N8150 X89.471 Y-23.802 Z-20.997
N8155 X90.289 Y-22.983 Z-20.855
N8160 X90.655 Y-22.617 Z-20.669
N8165 X90.982 Y-22.29 Z-20.4
N8170 X91.255 Y-22.018 Z-20.056
N8175 X91.452 Y-21.82 Z-19.646
N8180 X91.556 Y-21.717 Z-19.2
N8185 X93.01 Y-20.262 Z-2.752
N8190 X93.121 Y-20.151 Z-2.156
N8195 X93.254 Y-20.018 Z-1.792
N8200 X93.511 Y-19.761 Z-1.325
N8205 X93.808 Y-19.464 Z-0.951
N8210 X94.306 Y-18.967 Z-0.524
N8215 X94.835 Y-18.437 Z-0.235
N8220 X95.387 Y-17.886 Z-0.063
N8225 X96. Y-17.272 Z0.
N8230 X96.04 Y-17.232 Z0.01
N8235 X96.078 Y-17.195 Z0.03
N8240 X96.123 Y-17.149 Z0.053
N8245 X96.171 Y-17.101 Z0.06
N8250 X96.444 Y-16.829
N8255 G3 X96.171 Y-16.556 I-0.136 J0.136
N8260 G1 X96.123 Y-16.604 Z0.053
N8265 X96.078 Y-16.649 Z0.03
N8270 X96.04 Y-16.687 Z0.01
N8275 X96. Y-16.727 Z0.
N8280 X95.387 Y-17.341 Z-0.063
N8285 X94.835 Y-17.892 Z-0.235
N8290 X94.306 Y-18.422 Z-0.524
N8295 X93.808 Y-18.919 Z-0.951
N8300 X93.511 Y-19.216 Z-1.325
N8305 X93.254 Y-19.473 Z-1.792
N8310 X93.121 Y-19.606 Z-2.156
N8315 X93.01 Y-19.717 Z-2.752
N8320 X91.556 Y-21.171 Z-19.2
N8325 X91.452 Y-21.275 Z-19.646
N8330 X91.255 Y-21.473 Z-20.056
N8335 X90.982 Y-21.745 Z-20.4
N8340 X90.655 Y-22.072 Z-20.669
N8345 X90.289 Y-22.438 Z-20.855
N8350 X89.471 Y-23.256 Z-20.997
N8355 X83.115 Y-29.612 Z-20.984
N8360 X82.514 Y-30.213 Z-20.877
N8365 X82.066 Y-30.661 Z-20.664
N8370 X81.738 Y-30.99 Z-20.392
N8375 X81.574 Y-31.153 Z-20.211
N8380 X81.332 Y-31.395 Z-19.795
N8385 X81.249 Y-31.479 Z-19.577
N8390 X81.154 Y-31.573 Z-19.106
N8395 X79.705 Y-33.022 Z-2.635
N8400 X79.577 Y-33.151 Z-2.061
N8405 X79.401 Y-33.326 Z-1.64
N8410 X79.159 Y-33.569 Z-1.243
N8415 X78.693 Y-34.034 Z-0.734
N8420 X78.157 Y-34.57 Z-0.363
N8425 X77.569 Y-35.159 Z-0.12
N8430 X76.957 Y-35.77 Z-0.009
N8435 X76.727 Y-36. Z0.
N8440 X76.456 Y-36.271 Z0.025
N8445 X76.419 Y-36.319 Z0.03
N8450 X76.394 Y-36.373 Z0.035
N8455 X76.368 Y-36.431 Z0.04
N8460 X76.327 Y-36.48 Z0.045
N8465 X76.275 Y-36.518 Z0.048
N8470 X76.216 Y-36.541 Z0.05
N8475 X76.152 Y-36.548 Z0.051
N8480 X76.089 Y-36.539 Z0.05
N8485 X76.03 Y-36.514 Z0.048
N8490 X75.979 Y-36.475 Z0.044
N8495 X75.94 Y-36.425 Z0.04
N8500 X75.915 Y-36.367 Z0.034
N8505 X75.906 Y-36.304 Z0.028
N8510 X75.913 Y-36.24 Z0.022
N8515 X75.936 Y-36.181 Z0.017
N8520 X75.973 Y-36.129 Z0.012
N8525 X76.022 Y-36.089 Z0.008
N8530 X76.08 Y-36.062 Z0.006
N8535 X76.135 Y-36.037 Z0.003
N8540 X76.182 Y-36. Z0.
N8545 X76.736 Y-35.446 Z-0.052
N8550 X77.338 Y-34.844 Z-0.232
N8555 X77.901 Y-34.282 Z-0.541
N8560 X78.408 Y-33.775 Z-0.988
N8565 X78.69 Y-33.492 Z-1.354
N8570 X78.914 Y-33.268 Z-1.761
N8575 X79.069 Y-33.114 Z-2.183
N8580 X79.152 Y-33.031 Z-2.572
N8585 X80.602 Y-31.58 Z-19.068
N8590 X80.736 Y-31.447 Z-19.661
N8595 X80.98 Y-31.202 Z-20.141
N8600 X81.373 Y-30.809 Z-20.552
N8605 X81.725 Y-30.457 Z-20.774
N8610 X82.09 Y-30.092 Z-20.912
N8615 X82.479 Y-29.703 Z-20.976
N8620 X89.471 Y-22.711 Z-20.997
N8625 X90.289 Y-21.893 Z-20.855
N8630 X90.655 Y-21.527 Z-20.669
N8635 X90.982 Y-21.2 Z-20.4
N8640 X91.255 Y-20.927 Z-20.056
N8645 X91.452 Y-20.73 Z-19.646
N8650 X91.556 Y-20.626 Z-19.2
N8655 X93.01 Y-19.172 Z-2.752
N8660 X93.121 Y-19.061 Z-2.156
N8665 X93.254 Y-18.928 Z-1.792
N8670 X93.511 Y-18.671 Z-1.325
N8675 X93.808 Y-18.374 Z-0.951
N8680 X94.306 Y-17.877 Z-0.524
N8685 X94.835 Y-17.347 Z-0.235
N8690 X95.387 Y-16.796 Z-0.063
N8695 X96. Y-16.182 Z0.
N8700 X96.04 Y-16.142 Z0.01
N8705 X96.078 Y-16.104 Z0.03
N8710 X96.123 Y-16.059 Z0.053
N8715 X96.171 Y-16.011 Z0.06
N8720 X96.444 Y-15.738
N8725 G3 Y-15.466 I-0.136 J0.136
N8730 X96.171 I-0.136 J-0.136
N8735 G1 X96.123 Y-15.514 Z0.053
N8740 X96.078 Y-15.559 Z0.03
N8745 X96.04 Y-15.597 Z0.01
N8750 X96. Y-15.637 Z0.
N8755 X95.387 Y-16.25 Z-0.063
N8760 X94.835 Y-16.802 Z-0.235
N8765 X94.306 Y-17.331 Z-0.524
N8770 X93.808 Y-17.829 Z-0.951
N8775 X93.511 Y-18.126 Z-1.325
N8780 X93.254 Y-18.383 Z-1.792
N8785 X93.121 Y-18.516 Z-2.156
N8790 X93.01 Y-18.627 Z-2.752
N8795 X91.556 Y-20.081 Z-19.2
N8800 X91.452 Y-20.185 Z-19.646
N8805 X91.255 Y-20.382 Z-20.056
N8810 X90.982 Y-20.655 Z-20.4
N8815 X90.655 Y-20.982 Z-20.669
N8820 X90.289 Y-21.348 Z-20.855
N8825 X89.471 Y-22.166 Z-20.997
N8830 X82.055 Y-29.582 Z-20.987
N8835 X81.667 Y-29.97 Z-20.946
N8840 X81.301 Y-30.336 Z-20.835
N8845 X80.95 Y-30.687 Z-20.644
N8850 X80.621 Y-31.016 Z-20.363
N8855 X80.327 Y-31.31 Z-19.965
N8860 X80.164 Y-31.473 Z-19.591
N8865 X80.067 Y-31.57 Z-19.124
N8870 X78.618 Y-33.019 Z-2.662
N8875 X78.493 Y-33.144 Z-2.082
N8880 X78.321 Y-33.316 Z-1.66
N8885 X78.082 Y-33.555 Z-1.261
N8890 X77.619 Y-34.018 Z-0.748
N8895 X77.085 Y-34.552 Z-0.373
N8900 X76.498 Y-35.139 Z-0.126
N8905 X75.887 Y-35.75 Z-0.01
N8910 X75.637 Y-36. Z0.
N8915 X75.366 Y-36.271 Z0.03
N8920 X75.329 Y-36.318 Z0.036
N8925 X75.305 Y-36.372 Z0.042
N8930 X75.278 Y-36.43 Z0.048
N8935 X75.238 Y-36.479 Z0.054
N8940 X75.186 Y-36.516 Z0.058
N8945 X75.126 Y-36.54 Z0.06
N8950 X75.063 Y-36.547 Z0.061
N8955 X74.999 Y-36.538 Z0.06
N8960 X74.941 Y-36.513 Z0.057
N8965 X74.89 Y-36.475 Z0.053
N8970 X74.851 Y-36.424 Z0.047
N8975 X74.825 Y-36.366 Z0.041
N8980 X74.816 Y-36.303 Z0.034
N8985 X74.823 Y-36.24 Z0.027
N8990 X74.846 Y-36.181 Z0.02
N8995 X74.883 Y-36.129 Z0.014
N9000 X74.932 Y-36.088 Z0.01
N9005 X74.99 Y-36.062 Z0.007
N9010 X75.045 Y-36.037 Z0.004
N9015 X75.092 Y-36. Z0.
N9020 X75.755 Y-35.337 Z-0.074
N9025 X76.353 Y-34.739 Z-0.278
N9030 X76.906 Y-34.186 Z-0.61
N9035 X77.398 Y-33.694 Z-1.081
N9040 X77.666 Y-33.426 Z-1.46
N9045 X77.873 Y-33.219 Z-1.874
N9050 X78.007 Y-33.085 Z-2.293
N9055 X78.073 Y-33.019 Z-2.663
N9060 X79.495 Y-31.596 Z-18.912
N9065 X79.588 Y-31.504 Z-19.487
N9070 X79.713 Y-31.379 Z-19.838
N9075 X80.007 Y-31.085 Z-20.287
N9080 X80.373 Y-30.719 Z-20.62
N9085 X80.725 Y-30.367 Z-20.819
N9090 X81.031 Y-30.061 Z-20.921
N9095 X81.632 Y-29.46 Z-20.998
N9100 X89.471 Y-21.621 Z-20.997
N9105 X90.289 Y-20.803 Z-20.855
N9110 X90.655 Y-20.437 Z-20.669
N9115 X90.982 Y-20.11 Z-20.4
N9120 X91.255 Y-19.837 Z-20.056
N9125 X91.452 Y-19.64 Z-19.646
N9130 X91.556 Y-19.536 Z-19.2
N9135 X93.01 Y-18.082 Z-2.752
N9140 X93.121 Y-17.971 Z-2.156
N9145 X93.254 Y-17.838 Z-1.792
N9150 X93.511 Y-17.581 Z-1.325
N9155 X93.808 Y-17.283 Z-0.951
N9160 X94.306 Y-16.786 Z-0.524
N9165 X94.835 Y-16.257 Z-0.235
N9170 X95.387 Y-15.705 Z-0.063
N9175 X96. Y-15.092 Z0.
N9180 X96.04 Y-15.052 Z0.01
N9185 X96.078 Y-15.014 Z0.03
N9190 X96.123 Y-14.969 Z0.053
N9195 X96.171 Y-14.921 Z0.06
N9200 X96.444 Y-14.648
N9205 G3 X96.171 Y-14.376 I-0.136 J0.136
N9210 G1 X96.123 Y-14.423 Z0.053
N9215 X96.078 Y-14.469 Z0.03
N9220 X96.04 Y-14.507 Z0.01
N9225 X96. Y-14.547 Z0.
N9230 X95.387 Y-15.16 Z-0.063
N9235 X94.835 Y-15.712 Z-0.235
N9240 X94.306 Y-16.241 Z-0.524
N9245 X93.808 Y-16.738 Z-0.951
N9250 X93.511 Y-17.036 Z-1.325
N9255 X93.254 Y-17.293 Z-1.792
N9260 X93.121 Y-17.426 Z-2.156
N9265 X93.01 Y-17.536 Z-2.752
N9270 X91.556 Y-18.991 Z-19.2
N9275 X91.452 Y-19.094 Z-19.646
N9280 X91.255 Y-19.292 Z-20.056
N9285 X90.982 Y-19.564 Z-20.4
N9290 X90.655 Y-19.892 Z-20.669
N9295 X90.289 Y-20.258 Z-20.855
N9300 X89.471 Y-21.076 Z-20.997
N9305 X80.996 Y-29.551 Z-20.99
N9310 X80.395 Y-30.151 Z-20.895
N9315 X80.03 Y-30.517 Z-20.744
N9320 X79.604 Y-30.943 Z-20.444
N9325 X79.31 Y-31.237 Z-20.085
N9330 X79.132 Y-31.414 Z-19.745
N9335 X79.038 Y-31.509 Z-19.456
N9340 X78.955 Y-31.592 Z-18.965
N9345 X77.532 Y-33.014 Z-2.707
N9350 X77.475 Y-33.071 Z-2.35
N9355 X77.351 Y-33.196 Z-1.934
N9360 X77.154 Y-33.392 Z-1.517
N9365 X76.894 Y-33.653 Z-1.132
N9370 X76.41 Y-34.137 Z-0.649
N9375 X75.862 Y-34.685 Z-0.304
N9380 X75.267 Y-35.28 Z-0.088
N9385 X74.653 Y-35.894 Z-0.002
N9390 X74.547 Y-36. Z0.
N9395 X74.274 Y-36.272 Z0.012
N9400 X74.237 Y-36.32 Z0.014
N9405 X74.213 Y-36.375 Z0.017
N9410 X74.186 Y-36.433 Z0.019
N9415 X74.145 Y-36.482 Z0.021
N9420 X74.094 Y-36.52 Z0.023
N9425 X74.034 Y-36.543 Z0.024
N9430 X73.97 Y-36.55 Z0.025
N9435 X73.907 Y-36.541 Z0.024
N9440 X73.848 Y-36.516 Z0.023
N9445 X73.797 Y-36.477 Z0.021
N9450 X73.758 Y-36.426 Z0.019
N9455 X73.733 Y-36.367 Z0.016
N9460 X73.724 Y-36.304 Z0.014
N9465 X73.731 Y-36.241 Z0.011
N9470 X73.754 Y-36.181 Z0.008
N9475 X73.792 Y-36.129 Z0.006
N9480 X73.841 Y-36.089 Z0.004
N9485 X73.899 Y-36.062 Z0.003
N9490 X73.954 Y-36.037 Z0.002
N9495 X74.002 Y-36. Z0.
N9500 X74.269 Y-35.733 Z-0.012
N9505 X74.879 Y-35.123 Z-0.131
N9510 X75.465 Y-34.536 Z-0.381
N9515 X75.997 Y-34.004 Z-0.76
N9520 X76.457 Y-33.545 Z-1.276
N9525 X76.694 Y-33.308 Z-1.677
N9530 X76.863 Y-33.139 Z-2.099
N9535 X76.96 Y-33.042 Z-2.5
N9540 X76.985 Y-33.016 Z-2.686
N9545 X78.387 Y-31.614 Z-18.708
N9550 X78.48 Y-31.521 Z-19.389
N9555 X78.632 Y-31.37 Z-19.862
N9560 X78.836 Y-31.165 Z-20.198
N9565 X79.255 Y-30.747 Z-20.599
N9570 X79.606 Y-30.395 Z-20.805
N9575 X79.972 Y-30.03 Z-20.929
N9580 X80.361 Y-29.641 Z-20.981
N9585 X89.471 Y-20.531 Z-20.997
N9590 X90.289 Y-19.713 Z-20.855
N9595 X90.655 Y-19.347 Z-20.669
N9600 X90.982 Y-19.019 Z-20.4
N9605 X91.255 Y-18.747 Z-20.056
N9610 X91.452 Y-18.549 Z-19.646
N9615 X91.556 Y-18.446 Z-19.2
N9620 X93.01 Y-16.991 Z-2.752
N9625 X93.121 Y-16.881 Z-2.156
N9630 X93.254 Y-16.748 Z-1.792
N9635 X93.511 Y-16.491 Z-1.325
N9640 X93.808 Y-16.193 Z-0.951
N9645 X94.306 Y-15.696 Z-0.524
N9650 X94.835 Y-15.167 Z-0.235
N9655 X95.387 Y-14.615 Z-0.063
N9660 X96. Y-14.002 Z0.
N9665 X96.04 Y-13.962 Z0.01
N9670 X96.078 Y-13.924 Z0.03
N9675 X96.123 Y-13.878 Z0.053
N9680 X96.171 Y-13.83 Z0.06
N9685 X96.444 Y-13.558
N9690 G3 Y-13.285 I-0.136 J0.136
N9695 X96.171 I-0.136 J-0.136
N9700 G1 X96.123 Y-13.333 Z0.053
N9705 X96.078 Y-13.379 Z0.03
N9710 X96.04 Y-13.417 Z0.01
N9715 X96. Y-13.457 Z0.
N9720 X95.387 Y-14.07 Z-0.063
N9725 X94.835 Y-14.621 Z-0.235
N9730 X94.306 Y-15.151 Z-0.524
N9735 X93.808 Y-15.648 Z-0.951
N9740 X93.511 Y-15.945 Z-1.325
N9745 X93.254 Y-16.203 Z-1.792
N9750 X93.121 Y-16.335 Z-2.156
N9755 X93.01 Y-16.446 Z-2.752
N9760 X91.556 Y-17.901 Z-19.2
N9765 X91.452 Y-18.004 Z-19.646
N9770 X91.255 Y-18.202 Z-20.056
N9775 X90.982 Y-18.474 Z-20.4
N9780 X90.655 Y-18.802 Z-20.669
N9785 X90.289 Y-19.167 Z-20.855
N9790 X89.471 Y-19.986 Z-20.997
N9795 X79.937 Y-29.52 Z-20.993
N9800 X79.393 Y-30.063 Z-20.92
N9805 X79.028 Y-30.429 Z-20.788
N9810 X78.636 Y-30.82 Z-20.543
N9815 X78.248 Y-31.209 Z-20.13
N9820 X78.003 Y-31.453 Z-19.643
N9825 X77.872 Y-31.584 Z-19.043
N9830 X76.423 Y-33.033 Z-2.555
N9835 X76.337 Y-33.119 Z-2.163
N9840 X76.179 Y-33.277 Z-1.741
N9845 X75.952 Y-33.504 Z-1.335
N9850 X75.667 Y-33.789 Z-0.972
N9855 X75.158 Y-34.299 Z-0.529
N9860 X74.594 Y-34.863 Z-0.224
N9865 X73.991 Y-35.466 Z-0.048
N9870 X73.457 Y-36. Z0.
N9875 X73.185 Y-36.271 Z0.024
N9880 X73.148 Y-36.319 Z0.029
N9885 X73.123 Y-36.373 Z0.033
N9890 X73.097 Y-36.431 Z0.039
N9895 X73.056 Y-36.48 Z0.043
N9900 X73.004 Y-36.518 Z0.046
N9905 X72.945 Y-36.541 Z0.049
N9910 X72.881 Y-36.548
N9915 X72.818 Y-36.539 Z0.048
N9920 X72.759 Y-36.514 Z0.046
N9925 X72.708 Y-36.476 Z0.043
N9930 X72.669 Y-36.425 Z0.038
N9935 X72.644 Y-36.367 Z0.033
N9940 X72.635 Y-36.304 Z0.027
N9945 X72.642 Y-36.24 Z0.022
N9950 X72.665 Y-36.181 Z0.016
N9955 X72.702 Y-36.129 Z0.012
N9960 X72.751 Y-36.089 Z0.008
N9965 X72.81 Y-36.062 Z0.006
N9970 X72.864 Y-36.037 Z0.003
N9975 X72.911 Y-36. Z0.
N9980 X73.145 Y-35.766 Z-0.009
N9985 X73.757 Y-35.155 Z-0.122
N9990 X74.345 Y-34.566 Z-0.365
N9995 X74.88 Y-34.031 Z-0.737
N10000 X75.345 Y-33.566 Z-1.246
N10005 X75.587 Y-33.324 Z-1.644
N10010 X75.762 Y-33.149 Z-2.065
N10015 X75.89 Y-33.022 Z-2.64
N10020 X77.339 Y-31.572 Z-19.11
N10025 X77.434 Y-31.477 Z-19.58
N10030 X77.517 Y-31.395 Z-19.797
N10035 X77.759 Y-31.152 Z-20.213
N10040 X77.923 Y-30.988 Z-20.394
N10045 X78.252 Y-30.66 Z-20.665
N10050 X78.701 Y-30.211 Z-20.878
N10055 X79.301 Y-29.61 Z-20.984
N10060 X89.471 Y-19.441 Z-20.997
N10065 X90.289 Y-18.622 Z-20.855
N10070 X90.655 Y-18.256 Z-20.669
N10075 X90.982 Y-17.929 Z-20.4
N10080 X91.255 Y-17.657 Z-20.056
N10085 X91.452 Y-17.459 Z-19.646
N10090 X91.556 Y-17.356 Z-19.2
N10095 X93.01 Y-15.901 Z-2.752
N10100 X93.121 Y-15.79 Z-2.156
N10105 X93.254 Y-15.657 Z-1.792
N10110 X93.511 Y-15.4 Z-1.325
N10115 X93.808 Y-15.103 Z-0.951
N10120 X94.306 Y-14.606 Z-0.524
N10125 X94.835 Y-14.076 Z-0.235
N10130 X95.387 Y-13.525 Z-0.063
N10135 X96. Y-12.911 Z0.
N10140 X96.04 Y-12.871 Z0.01
N10145 X96.078 Y-12.833 Z0.03
N10150 X96.123 Y-12.788 Z0.053
N10155 X96.171 Y-12.74 Z0.06
N10160 X96.444 Y-12.468
N10165 G3 X96.171 Y-12.195 I-0.136 J0.136
N10170 G1 X96.123 Y-12.243 Z0.053
N10175 X96.078 Y-12.288 Z0.03
N10180 X96.04 Y-12.326 Z0.01
N10185 X96. Y-12.366 Z0.
N10190 X95.387 Y-12.98 Z-0.063
N10195 X94.835 Y-13.531 Z-0.235
N10200 X94.306 Y-14.061 Z-0.524
N10205 X93.808 Y-14.558 Z-0.951
N10210 X93.511 Y-14.855 Z-1.325
N10215 X93.254 Y-15.112 Z-1.792
N10220 X93.121 Y-15.245 Z-2.156
N10225 X93.01 Y-15.356 Z-2.752
N10230 X91.556 Y-16.81 Z-19.2
N10235 X91.452 Y-16.914 Z-19.646
N10240 X91.255 Y-17.112 Z-20.056
N10245 X90.982 Y-17.384 Z-20.4
N10250 X90.655 Y-17.711 Z-20.669
N10255 X90.289 Y-18.077 Z-20.855
N10260 X89.471 Y-18.895 Z-20.997
N10265 X78.666 Y-29.701 Z-20.976
N10270 X78.277 Y-30.089 Z-20.912
N10275 X77.911 Y-30.455 Z-20.775
N10280 X77.56 Y-30.807 Z-20.554
N10285 X77.166 Y-31.201 Z-20.144
N10290 X76.921 Y-31.445 Z-19.665
N10295 X76.788 Y-31.579 Z-19.073
N10300 X75.336 Y-33.03 Z-2.576
N10305 X75.254 Y-33.112 Z-2.187
N10310 X75.1 Y-33.266 Z-1.765
N10315 X74.877 Y-33.49 Z-1.358
N10320 X74.595 Y-33.772 Z-0.992
N10325 X74.088 Y-34.278 Z-0.544
N10330 X73.526 Y-34.84 Z-0.233
N10335 X72.924 Y-35.442 Z-0.052
N10340 X72.366 Y-36. Z0.
N10345 X72.231 Y-36.136 Z0.013
N10350 X72.19 Y-36.189 Z0.018
N10355 X72.165 Y-36.251 Z0.024
N10360 X72.158 Y-36.317 Z0.03
N10365 X72.151 Y-36.382 Z0.036
N10370 X72.126 Y-36.443 Z0.042
N10375 X72.087 Y-36.495 Z0.046
N10380 X72.036 Y-36.536 Z0.05
N10385 X71.975 Y-36.562 Z0.053
N10390 X71.91 Y-36.571 Z0.054
N10395 X71.845 Y-36.563 Z0.053
N10400 X71.784 Y-36.538 Z0.05
N10405 X71.731 Y-36.499 Z0.047
N10410 X71.691 Y-36.447 Z0.042
N10415 X71.666 Y-36.386 Z0.036
N10420 X71.658 Y-36.321 Z0.03
N10425 X71.667 Y-36.256 Z0.024
N10430 X71.692 Y-36.196 Z0.018
N10435 X71.733 Y-36.144 Z0.014
N10440 X71.786 Y-36.105 Z0.01
N10445 X71.847 Y-36.081 Z0.008
N10450 X71.912 Y-36.073 Z0.007
N10455 X71.979 Y-36.065 Z0.006
N10460 X72.041 Y-36.04 Z0.004
N10465 X72.094 Y-36. Z0.
N10470 X72.279 Y-35.815 Z-0.006
N10475 X72.891 Y-35.202 Z-0.108
N10480 X73.482 Y-34.611 Z-0.341
N10485 X74.023 Y-34.071 Z-0.702
N10490 X74.495 Y-33.599 Z-1.202
N10495 X74.744 Y-33.349 Z-1.595
N10500 X74.927 Y-33.166 Z-2.015
N10505 X75.064 Y-33.03 Z-2.576
N10510 X76.513 Y-31.581 Z-19.063
N10515 X76.603 Y-31.491 Z-19.545
N10520 X76.69 Y-31.403 Z-19.774
N10525 X76.923 Y-31.171 Z-20.192
N10530 X77.087 Y-31.007 Z-20.373
N10535 X77.415 Y-30.678 Z-20.651
N10540 X77.853 Y-30.241 Z-20.869
N10545 X78.454 Y-29.64 Z-20.982
N10550 X89.471 Y-18.623 Z-20.997
N10555 X90.289 Y-17.805 Z-20.855
N10560 X90.655 Y-17.439 Z-20.669
N10565 X90.982 Y-17.111 Z-20.4
N10570 X91.255 Y-16.839 Z-20.056
N10575 X91.452 Y-16.641 Z-19.646
N10580 X91.556 Y-16.538 Z-19.2
N10585 X93.01 Y-15.083 Z-2.752
N10590 X93.121 Y-14.973 Z-2.156
N10595 X93.254 Y-14.84 Z-1.792
N10600 X93.511 Y-14.583 Z-1.325
N10605 X93.808 Y-14.285 Z-0.951
N10610 X94.306 Y-13.788 Z-0.524
N10615 X94.835 Y-13.259 Z-0.235
N10620 X95.387 Y-12.707 Z-0.063
N10625 X96. Y-12.094 Z0.
N10630 X96.136 Y-11.958 Z0.014
N10635 X96.189 Y-11.918 Z0.019
N10640 X96.25 Y-11.893 Z0.026
N10645 X96.316 Y-11.885 Z0.033
N10650 X96.381 Y-11.878 Z0.039
N10655 X96.442 Y-11.854 Z0.046
N10660 X96.495 Y-11.815 Z0.051
N10665 X96.536 Y-11.763 Z0.055
N10670 X96.561 Y-11.703 Z0.058
N10675 X96.571 Y-11.638 Z0.059
N10680 X96.563 Y-11.572 Z0.058
N10685 X96.538 Y-11.512 Z0.056
N10690 X96.498 Y-11.459 Z0.051
N10695 X96.446 Y-11.419 Z0.046
N10700 X96.386 Y-11.394 Z0.04
N10705 X96.321 Y-11.385 Z0.033
N10710 X96.256 Y-11.394 Z0.026
N10715 X96.196 Y-11.42 Z0.02
N10720 X96.144 Y-11.461 Z0.015
N10725 X96.105 Y-11.513 Z0.011
N10730 X96.081 Y-11.574 Z0.008
N10735 X96.073 Y-11.64
N10740 X96.065 Y-11.706 Z0.007
N10745 X96.04 Y-11.768 Z0.004
N10750 X96. Y-11.821 Z0.
N10755 X95.387 Y-12.435 Z-0.063
N10760 X94.835 Y-12.986 Z-0.235
N10765 X94.306 Y-13.515 Z-0.524
N10770 X93.808 Y-14.013 Z-0.951
N10775 X93.511 Y-14.31 Z-1.325
N10780 X93.254 Y-14.567 Z-1.792
N10785 X93.121 Y-14.7 Z-2.156
N10790 X93.01 Y-14.811 Z-2.752
N10795 X91.556 Y-16.265 Z-19.2
N10800 X91.452 Y-16.369 Z-19.646
N10805 X91.255 Y-16.566 Z-20.056
N10810 X90.982 Y-16.839 Z-20.4
N10815 X90.655 Y-17.166 Z-20.669
N10820 X90.289 Y-17.532 Z-20.855
N10825 X89.471 Y-18.35 Z-20.997
N10830 X78.242 Y-29.579 Z-20.987
N10835 X77.853 Y-29.968 Z-20.947
N10840 X77.488 Y-30.334 Z-20.836
N10845 X77.136 Y-30.685 Z-20.646
N10850 X76.807 Y-31.014 Z-20.365
N10855 X76.513 Y-31.308 Z-19.969
N10860 X76.349 Y-31.472 Z-19.595
N10865 X76.253 Y-31.569 Z-19.13
N10870 X74.803 Y-33.018 Z-2.672
N10875 X74.679 Y-33.142 Z-2.089
N10880 X74.509 Y-33.313 Z-1.667
N10885 X74.27 Y-33.551 Z-1.267
N10890 X73.809 Y-34.012 Z-0.753
N10895 X73.276 Y-34.546 Z-0.376
N10900 X72.688 Y-35.133 Z-0.128
N10905 X72.078 Y-35.743 Z-0.011
N10910 X71.821 Y-36. Z0.
N10915 X71.777 Y-36.045 Z0.009
N10920 X71.734 Y-36.087 Z0.03
N10925 X71.689 Y-36.132 Z0.053
N10930 X71.641 Y-36.18 Z0.061
N10935 X71.368 Y-36.453
N10940 G2 X71.096 Y-36.18 I-0.136 J0.136
N10945 G1 X71.144 Y-36.132 Z0.053
N10950 X71.189 Y-36.087 Z0.03
N10955 X71.231 Y-36.045 Z0.009
N10960 X71.276 Y-36. Z0.
N10965 X71.536 Y-35.74 Z-0.011
N10970 X72.147 Y-35.129 Z-0.129
N10975 X72.733 Y-34.543 Z-0.378
N10980 X73.266 Y-34.01 Z-0.755
N10985 X73.727 Y-33.549 Z-1.27
N10990 X73.965 Y-33.311 Z-1.67
N10995 X74.135 Y-33.141 Z-2.092
N11000 X74.258 Y-33.018 Z-2.676
N11005 X75.661 Y-31.615 Z-18.696
N11010 X75.754 Y-31.522 Z-19.383
N11015 X75.899 Y-31.377 Z-19.842
N11020 X76.193 Y-31.083 Z-20.289
N11025 X76.558 Y-30.718 Z-20.621
N11030 X76.91 Y-30.366 Z-20.82
N11035 X77.217 Y-30.059 Z-20.921
N11040 X77.818 Y-29.458 Z-20.999
N11045 X89.471 Y-17.805 Z-20.997
N11050 X90.289 Y-16.987 Z-20.855
N11055 X90.655 Y-16.621 Z-20.669
N11060 X90.982 Y-16.294 Z-20.4
N11065 X91.255 Y-16.021 Z-20.056
N11070 X91.452 Y-15.824 Z-19.646
N11075 X91.556 Y-15.72 Z-19.2
N11080 X93.01 Y-14.266 Z-2.752
N11085 X93.121 Y-14.155 Z-2.156
N11090 X93.254 Y-14.022 Z-1.792
N11095 X93.511 Y-13.765 Z-1.325
N11100 X93.808 Y-13.468 Z-0.951
N11105 X94.306 Y-12.97 Z-0.524
N11110 X94.835 Y-12.441 Z-0.235
N11115 X95.387 Y-11.889 Z-0.063
N11120 X96. Y-11.276 Z0.
N11125 X96.271 Y-11.005 Z0.028
N11130 X96.318 Y-10.968 Z0.033
N11135 X96.373 Y-10.943 Z0.039
N11140 X96.43 Y-10.917 Z0.044
N11145 X96.48 Y-10.876 Z0.05
N11150 X96.517 Y-10.824 Z0.053
N11155 X96.54 Y-10.765 Z0.056
N11160 X96.547 Y-10.701 Z0.057
N11165 X96.538 Y-10.638 Z0.056
N11170 X96.514 Y-10.579 Z0.053
N11175 X96.475 Y-10.528 Z0.049
N11180 X96.425 Y-10.489 Z0.044
N11185 X96.366 Y-10.464 Z0.038
N11190 X96.303 Y-10.455 Z0.031
N11195 X96.24 Y-10.462 Z0.025
N11200 X96.181 Y-10.485 Z0.019
N11205 X96.129 Y-10.522 Z0.013
N11210 X96.088 Y-10.571 Z0.009
N11215 X96.062 Y-10.629 Z0.006
N11220 X96.037 Y-10.684 Z0.004
N11225 X96. Y-10.731 Z0.
N11230 X95.387 Y-11.344 Z-0.063
N11235 X94.835 Y-11.896 Z-0.235
N11240 X94.306 Y-12.425 Z-0.524
N11245 X93.808 Y-12.922 Z-0.951
N11250 X93.511 Y-13.22 Z-1.325
N11255 X93.254 Y-13.477 Z-1.792
N11260 X93.121 Y-13.61 Z-2.156
N11265 X93.01 Y-13.721 Z-2.752
N11270 X91.556 Y-15.175 Z-19.2
N11275 X91.452 Y-15.279 Z-19.646
N11280 X91.255 Y-15.476 Z-20.056
N11285 X90.982 Y-15.749 Z-20.4
N11290 X90.655 Y-16.076 Z-20.669
N11295 X90.289 Y-16.442 Z-20.855
N11300 X89.471 Y-17.26 Z-20.997
N11305 X77.183 Y-29.548 Z-20.99
N11310 X76.582 Y-30.149 Z-20.895
N11315 X76.216 Y-30.515 Z-20.745
N11320 X75.79 Y-30.941 Z-20.445
N11325 X75.496 Y-31.235 Z-20.087
N11330 X75.317 Y-31.414 Z-19.746
N11335 X75.223 Y-31.508 Z-19.464
N11340 X75.139 Y-31.591 Z-18.969
N11345 X73.717 Y-33.014 Z-2.711
N11350 X73.66 Y-33.07 Z-2.354
N11355 X73.537 Y-33.194 Z-1.939
N11360 X73.341 Y-33.39 Z-1.521
N11365 X73.081 Y-33.65 Z-1.136
N11370 X72.598 Y-34.133 Z-0.652
N11375 X72.05 Y-34.681 Z-0.306
N11380 X71.455 Y-35.275 Z-0.089
N11385 X70.841 Y-35.89 Z-0.002
N11390 X70.731 Y-36. Z0.
N11395 X70.684 Y-36.047 Z0.008
N11400 X70.64 Y-36.091 Z0.031
N11405 X70.595 Y-36.136 Z0.053
N11410 X70.547 Y-36.184 Z0.061
N11415 X70.278 Y-36.453
N11420 G2 X70.006 Y-36.18 I-0.136 J0.136
N11425 G1 X70.053 Y-36.132 Z0.053
N11430 X70.099 Y-36.087 Z0.031
N11435 Z0.03
N11440 X70.141 Y-36.044 Z0.009
N11445 X70.186 Y-36. Z0.
N11450 X70.455 Y-35.731 Z-0.012
N11455 X71.065 Y-35.121 Z-0.132
N11460 X71.651 Y-34.535 Z-0.382
N11465 X72.183 Y-34.003 Z-0.762
N11470 X72.642 Y-33.543 Z-1.278
N11475 X72.879 Y-33.307 Z-1.679
N11480 X73.048 Y-33.138 Z-2.101
N11485 X73.144 Y-33.042 Z-2.502
N11490 X73.17 Y-33.016 Z-2.689
N11495 X74.572 Y-31.614 Z-18.711
N11500 X74.665 Y-31.521 Z-19.39
N11505 X74.818 Y-31.367 Z-19.868
N11510 X75.022 Y-31.164 Z-20.2
N11515 X75.441 Y-30.745 Z-20.601
N11520 X75.793 Y-30.393 Z-20.806
N11525 X76.158 Y-30.028 Z-20.93
N11530 X76.547 Y-29.639 Z-20.982
N11535 X89.471 Y-16.715 Z-20.997
N11540 X90.289 Y-15.897 Z-20.855
N11545 X90.655 Y-15.531 Z-20.669
N11550 X90.982 Y-15.203 Z-20.4
N11555 X91.255 Y-14.931 Z-20.056
N11560 X91.452 Y-14.733 Z-19.646
N11565 X91.556 Y-14.63 Z-19.2
N11570 X93.01 Y-13.175 Z-2.752
N11575 X93.121 Y-13.065 Z-2.156
N11580 X93.254 Y-12.932 Z-1.792
N11585 X93.511 Y-12.675 Z-1.325
N11590 X93.808 Y-12.377 Z-0.951
N11595 X94.306 Y-11.88 Z-0.524
N11600 X94.835 Y-11.351 Z-0.235
N11605 X95.387 Y-10.799 Z-0.063
N11610 X96. Y-10.186 Z0.
N11615 X96.271 Y-9.915 Z0.028
N11620 X96.318 Y-9.878 Z0.033
N11625 X96.373 Y-9.853 Z0.039
N11630 X96.43 Y-9.826 Z0.044
N11635 X96.48 Y-9.786 Z0.05
N11640 X96.517 Y-9.734 Z0.053
N11645 X96.54 Y-9.675 Z0.056
N11650 X96.547 Y-9.611 Z0.057
N11655 X96.538 Y-9.548 Z0.056
N11660 X96.514 Y-9.489 Z0.053
N11665 X96.475 Y-9.438 Z0.049
N11670 X96.425 Y-9.399 Z0.044
N11675 X96.366 Y-9.374 Z0.038
N11680 X96.303 Y-9.364 Z0.031
N11685 X96.24 Y-9.371 Z0.025
N11690 X96.181 Y-9.394 Z0.019
N11695 X96.129 Y-9.432 Z0.013
N11700 X96.088 Y-9.481 Z0.009
N11705 X96.062 Y-9.539 Z0.006
N11710 X96.037 Y-9.593 Z0.004
N11715 X96. Y-9.641 Z0.
N11720 X95.387 Y-10.254 Z-0.063
N11725 X94.835 Y-10.806 Z-0.235
N11730 X94.306 Y-11.335 Z-0.524
N11735 X93.808 Y-11.832 Z-0.951
N11740 X93.511 Y-12.13 Z-1.325
N11745 X93.254 Y-12.387 Z-1.792
N11750 X93.121 Y-12.52 Z-2.156
N11755 X93.01 Y-12.63 Z-2.752
N11760 X91.556 Y-14.085 Z-19.2
N11765 X91.452 Y-14.188 Z-19.646
N11770 X91.255 Y-14.386 Z-20.056
N11775 X90.982 Y-14.658 Z-20.4
N11780 X90.655 Y-14.986 Z-20.669
N11785 X90.289 Y-15.352 Z-20.855
N11790 X89.471 Y-16.17 Z-20.997
N11795 X76.123 Y-29.517 Z-20.993
N11800 X75.578 Y-30.062 Z-20.92
N11805 X75.213 Y-30.428 Z-20.789
N11810 X74.821 Y-30.819 Z-20.544
N11815 X74.432 Y-31.208 Z-20.131
N11820 X74.188 Y-31.453 Z-19.645
N11825 X74.057 Y-31.584 Z-19.044
N11830 X72.608 Y-33.033 Z-2.556
N11835 X72.522 Y-33.119 Z-2.164
N11840 X72.364 Y-33.277 Z-1.742
N11845 X72.137 Y-33.504 Z-1.336
N11850 X71.852 Y-33.789 Z-0.973
N11855 X71.343 Y-34.298 Z-0.53
N11860 X70.779 Y-34.861 Z-0.224
N11865 X70.176 Y-35.465 Z-0.048
N11870 X69.641 Y-36. Z0.
N11875 X69.6 Y-36.041 Z0.009
N11880 X69.561 Y-36.08 Z0.03
N11885 X69.56 Y-36.081
N11890 X69.515 Y-36.126 Z0.053
N11895 X69.467 Y-36.174 Z0.061
N11900 X69.187 Y-36.453
N11905 G2 X68.915 Y-36.181 I-0.136 J0.136
N11910 G1 X68.963 Y-36.133 Z0.053
N11915 X69.008 Y-36.087 Z0.03
N11920 X69.051 Y-36.045 Z0.009
N11925 X69.095 Y-36. Z0.
N11930 X69.334 Y-35.762 Z-0.009
N11935 X69.945 Y-35.151 Z-0.123
N11940 X70.533 Y-34.563 Z-0.367
N11945 X71.068 Y-34.028 Z-0.739
N11950 X71.532 Y-33.563 Z-1.25
N11955 X71.773 Y-33.322 Z-1.648
N11960 X71.947 Y-33.148 Z-2.069
N11965 X72.074 Y-33.021 Z-2.645
N11970 X73.524 Y-31.572 Z-19.113
N11975 X73.619 Y-31.476 Z-19.583
N11980 X73.701 Y-31.394 Z-19.798
N11985 X73.945 Y-31.151 Z-20.215
N11990 X74.109 Y-30.987 Z-20.395
N11995 X74.437 Y-30.658 Z-20.666
N12000 X74.887 Y-30.209 Z-20.878
N12005 X75.488 Y-29.608 Z-20.985
N12010 X89.471 Y-15.625 Z-20.997
N12015 X90.289 Y-14.806 Z-20.855
N12020 X90.655 Y-14.441 Z-20.669
N12025 X90.982 Y-14.113 Z-20.4
N12030 X91.255 Y-13.841 Z-20.056
N12035 X91.452 Y-13.643 Z-19.646
N12040 X91.556 Y-13.54 Z-19.2
N12045 X93.01 Y-12.085 Z-2.752
N12050 X93.121 Y-11.974 Z-2.156
N12055 X93.254 Y-11.841 Z-1.792
N12060 X93.511 Y-11.584 Z-1.325
N12065 X93.808 Y-11.287 Z-0.951
N12070 X94.306 Y-10.79 Z-0.524
N12075 X94.835 Y-10.26 Z-0.235
N12080 X95.387 Y-9.709 Z-0.063
N12085 X96. Y-9.095 Z0.
N12090 X96.232 Y-8.863 Z0.027
N12095 X96.279 Y-8.826 Z0.032
N12100 X96.334 Y-8.802 Z0.038
N12105 X96.391 Y-8.775 Z0.045
N12110 X96.441 Y-8.735 Z0.051
N12115 X96.478 Y-8.683 Z0.055
N12120 X96.501 Y-8.624 Z0.058
N12125 X96.508 Y-8.56 Z0.059
N12130 X96.499 Y-8.497
N12135 X96.475 Y-8.438 Z0.057
N12140 X96.436 Y-8.387 Z0.053
N12145 X96.386 Y-8.348 Z0.048
N12150 X96.327 Y-8.323 Z0.042
N12155 X96.264 Y-8.313 Z0.035
N12160 X96.201 Y-8.32 Z0.028
N12165 X96.142 Y-8.343 Z0.022
N12170 X96.09 Y-8.38 Z0.016
N12175 X96.05 Y-8.43 Z0.011
N12180 X96.023 Y-8.488 Z0.007
N12185 X95.998 Y-8.542 Z0.004
N12190 X95.961 Y-8.589 Z0.
N12195 X95.352 Y-9.198 Z-0.071
N12200 X94.801 Y-9.749 Z-0.25
N12205 X94.274 Y-10.277 Z-0.546
N12210 X93.779 Y-10.771 Z-0.983
N12215 X93.485 Y-11.065 Z-1.364
N12220 X93.233 Y-11.318 Z-1.841
N12225 X93.1 Y-11.45 Z-2.23
N12230 X93.006 Y-11.544 Z-2.8
N12235 X91.598 Y-12.953 Z-18.896
N12240 X91.547 Y-13.004 Z-19.249
N12245 X91.443 Y-13.107 Z-19.669
N12250 X91.246 Y-13.305 Z-20.07
N12255 X90.973 Y-13.577 Z-20.41
N12260 X90.646 Y-13.904 Z-20.676
N12265 X90.28 Y-14.27 Z-20.858
N12270 X89.471 Y-15.08 Z-20.997
N12275 X74.852 Y-29.698 Z-20.976
N12280 X74.463 Y-30.087 Z-20.913
N12285 X74.098 Y-30.453 Z-20.776
N12290 X73.746 Y-30.804 Z-20.556
N12295 X73.351 Y-31.199 Z-20.146
N12300 X73.107 Y-31.444 Z-19.668
N12305 X72.973 Y-31.578 Z-19.079
N12310 X71.521 Y-33.03 Z-2.579
N12315 X71.439 Y-33.111 Z-2.191
N12320 X71.286 Y-33.264 Z-1.769
N12325 X71.063 Y-33.487 Z-1.362
N12330 X70.782 Y-33.768 Z-0.995
N12335 X70.276 Y-34.274 Z-0.546
N12340 X69.714 Y-34.836 Z-0.235
N12345 X69.112 Y-35.438 Z-0.053
N12350 X68.55 Y-36. Z0.
N12355 X68.51 Y-36.041 Z0.01
N12360 X68.471 Y-36.079 Z0.03
N12365 X68.47 Y-36.08
N12370 X68.425 Y-36.125 Z0.053
N12375 X68.377 Y-36.173 Z0.061
N12380 X68.098 Y-36.453
N12385 G2 X67.825 I-0.136 J0.136
N12390 Y-36.18 I0.136 J0.136
N12395 G1 X67.873 Y-36.132 Z0.053
N12400 X67.918 Y-36.087 Z0.03
N12405 X67.961 Y-36.045 Z0.009
N12410 X68.005 Y-36. Z0.
N12415 X68.269 Y-35.736 Z-0.012
N12420 X68.879 Y-35.126 Z-0.13
N12425 X69.466 Y-34.539 Z-0.38
N12430 X69.998 Y-34.007 Z-0.758
N12435 X70.459 Y-33.547 Z-1.273
N12440 X70.696 Y-33.309 Z-1.674
N12445 X70.866 Y-33.14 Z-2.095
N12450 X70.988 Y-33.017 Z-2.681
N12455 X72.438 Y-31.567 Z-19.135
N12460 X72.535 Y-31.47 Z-19.6
N12465 X72.7 Y-31.305 Z-19.973
N12470 X72.994 Y-31.011 Z-20.368
N12475 X73.322 Y-30.683 Z-20.648
N12480 X73.674 Y-30.331 Z-20.837
N12485 X74.039 Y-29.966 Z-20.948
N12490 X74.428 Y-29.577 Z-20.987
N12495 X89.259 Y-14.746 Z-21.
N12500 X90.09 Y-13.915 Z-20.912
N12505 X90.636 Y-13.369 Z-20.683
N12510 X90.964 Y-13.042 Z-20.421
N12515 X91.236 Y-12.769 Z-20.086
N12520 X91.434 Y-12.572 Z-19.695
N12525 X91.588 Y-12.417 Z-19.008
N12530 X92.992 Y-11.013 Z-2.961
N12535 X93.071 Y-10.934 Z-2.351
N12540 X93.204 Y-10.801 Z-1.912
N12545 X93.45 Y-10.555 Z-1.42
N12550 X93.74 Y-10.266 Z-1.028
N12555 X94.23 Y-9.776 Z-0.578
N12560 X94.755 Y-9.25 Z-0.271
N12565 X95.303 Y-8.702 Z-0.075
N12570 X95.912 Y-8.093 Z0.
N12575 X96.07 Y-7.935 Z0.024
N12580 X96.117 Y-7.898 Z0.031
N12585 X96.172 Y-7.874 Z0.038
N12590 X96.229 Y-7.847 Z0.046
N12595 X96.279 Y-7.807 Z0.053
N12600 X96.316 Y-7.755 Z0.059
N12605 X96.339 Y-7.696 Z0.063
N12610 X96.346 Y-7.632 Z0.066
N12615 X96.337 Y-7.569 Z0.067
N12620 X96.312 Y-7.51 Z0.066
N12625 X96.274 Y-7.459 Z0.063
N12630 X96.223 Y-7.42 Z0.058
N12635 X96.165 Y-7.395 Z0.052
N12640 X96.102 Y-7.385 Z0.045
N12645 X96.039 Y-7.392 Z0.037
N12650 X95.98 Y-7.415 Z0.029
N12655 X95.928 Y-7.452 Z0.022
N12660 X95.888 Y-7.501 Z0.015
N12665 X95.861 Y-7.559 Z0.01
N12670 X95.836 Y-7.614 Z0.006
N12675 X95.8 Y-7.661 Z0.
N12680 X95.192 Y-8.268 Z-0.091
N12685 X94.646 Y-8.814 Z-0.312
N12690 X94.13 Y-9.33 Z-0.654
N12695 X93.651 Y-9.81 Z-1.135
N12700 X93.372 Y-10.088 Z-1.553
N12705 X93.143 Y-10.317 Z-2.085
N12710 X93.015 Y-10.445 Z-2.702
N12715 X91.589 Y-11.871 Z-19.001
N12720 X91.434 Y-12.026 Z-19.693
N12725 X91.237 Y-12.224 Z-20.085
N12730 X90.964 Y-12.496 Z-20.42
N12735 X90.637 Y-12.823 Z-20.683
N12740 X90.09 Y-13.37 Z-20.912
N12745 X89.259 Y-14.201 Z-21.
N12750 X74.005 Y-29.456 Z-20.999
N12755 X73.404 Y-30.056 Z-20.922
N12760 X73.095 Y-30.365 Z-20.82
N12765 X72.744 Y-30.716 Z-20.622
N12770 X72.378 Y-31.082 Z-20.29
N12775 X72.084 Y-31.376 Z-19.845
N12780 X71.938 Y-31.522 Z-19.384
N12785 X71.845 Y-31.615 Z-18.698
N12790 X70.443 Y-33.017 Z-2.678
N12795 X70.32 Y-33.14 Z-2.093
N12800 X70.15 Y-33.31 Z-1.671
N12805 X69.912 Y-33.548 Z-1.271
N12810 X69.451 Y-34.009 Z-0.756
N12815 X68.919 Y-34.542 Z-0.378
N12820 X68.332 Y-35.128 Z-0.129
N12825 X67.721 Y-35.739 Z-0.011
N12830 X67.46 Y-36. Z0.
N12835 X67.416 Y-36.045 Z0.009
N12840 X67.373 Y-36.087 Z0.03
N12845 X67.328 Y-36.132 Z0.053
N12850 X67.28 Y-36.18 Z0.061
N12855 X67.014 Y-36.446
N12860 G2 X66.741 Y-36.174 I-0.136 J0.136
N12865 G1 X66.789 Y-36.126 Z0.053
N12870 X66.834 Y-36.081 Z0.03
N12875 X66.835 Y-36.08
N12880 X66.874 Y-36.041 Z0.009
N12885 X66.915 Y-36. Z0.
N12890 X67.45 Y-35.465 Z-0.048
N12895 X68.053 Y-34.862 Z-0.224
N12900 X68.617 Y-34.298 Z-0.529
N12905 X69.126 Y-33.789 Z-0.973
N12910 X69.411 Y-33.504 Z-1.336
N12915 X69.638 Y-33.277 Z-1.741
N12920 X69.796 Y-33.119 Z-2.163
N12925 X69.882 Y-33.033 Z-2.556
N12930 X71.331 Y-31.584 Z-19.044
N12935 X71.462 Y-31.453 Z-19.644
N12940 X71.707 Y-31.208 Z-20.131
N12945 X72.095 Y-30.82 Z-20.544
N12950 X72.447 Y-30.468 Z-20.769
N12955 X72.812 Y-30.103 Z-20.909
N12960 X73.201 Y-29.714 Z-20.975
N12965 X82.311 Y-20.603 Z-21.
N12970 X89.727 Y-13.188 Z-20.974
N12975 X90.31 Y-12.605 Z-20.848
N12980 X90.676 Y-12.239 Z-20.653
N12985 X91.003 Y-11.912 Z-20.377
N12990 X91.275 Y-11.639 Z-20.022
N12995 X91.473 Y-11.442 Z-19.592
N13000 X91.577 Y-11.338 Z-19.085
N13005 X92.749 Y-10.166 Z-5.734
N13010 X93.043 Y-9.872 Z-2.494
N13015 X93.162 Y-9.753 Z-2.029
N13020 X93.297 Y-9.618 Z-1.699
N13025 X93.43 Y-9.485 Z-1.453
N13030 X93.709 Y-9.206 Z-1.063
N13035 X94.179 Y-8.736 Z-0.592
N13040 X94.679 Y-8.236 Z-0.268
N13045 X95.248 Y-7.667 Z-0.047
N13050 X95.672 Y-7.243 Z0.
N13055 X95.741 Y-7.174 Z0.008
N13060 X95.794 Y-7.133 Z0.014
N13065 X95.856 Y-7.109 Z0.02
N13070 X95.922 Y-7.101 Z0.025
N13075 X95.987 Y-7.094 Z0.031
N13080 X96.048 Y-7.07 Z0.037
N13085 X96.101 Y-7.031 Z0.043
N13090 X96.142 Y-6.979 Z0.048
N13095 X96.167 Y-6.919 Z0.051
N13100 X96.176 Y-6.854 Z0.054
N13105 X96.168 Y-6.788 Z0.055
N13110 X96.143 Y-6.727
N13115 X96.104 Y-6.675 Z0.053
N13120 X96.051 Y-6.635 Z0.049
N13125 X95.991 Y-6.61 Z0.045
N13130 X95.926 Y-6.601 Z0.04
N13135 X95.861 Y-6.61 Z0.034
N13140 X95.8 Y-6.636 Z0.028
N13145 X95.749 Y-6.677 Z0.022
N13150 X95.71 Y-6.729 Z0.017
N13155 X95.686 Y-6.79 Z0.014
N13160 X95.678 Y-6.856 Z0.011
N13165 X95.671 Y-6.922 Z0.009
N13170 X95.646 Y-6.984 Z0.005
N13175 X95.605 Y-7.037 Z0.
N13180 X95.18 Y-7.462 Z-0.048
N13185 X94.634 Y-8.009 Z-0.258
N13190 X94.12 Y-8.523 Z-0.62
N13195 X93.654 Y-8.988 Z-1.116
N13200 X93.382 Y-9.261 Z-1.536
N13205 X93.253 Y-9.389 Z-1.794
N13210 X93.12 Y-9.522 Z-2.159
N13215 X93.01 Y-9.633 Z-2.757
N13220 X91.555 Y-11.087 Z-19.202
N13225 X91.452 Y-11.19 Z-19.647
N13230 X91.254 Y-11.388 Z-20.056
N13235 X90.982 Y-11.66 Z-20.401
N13240 X90.655 Y-11.988 Z-20.669
N13245 X90.289 Y-12.354 Z-20.856
N13250 X89.471 Y-13.172 Z-20.997
N13255 X73.157 Y-29.485 Z-20.996
N13260 X72.556 Y-30.086 Z-20.913
N13265 X72.261 Y-30.381 Z-20.812
N13270 X71.91 Y-30.733 Z-20.61
N13275 X71.727 Y-30.915 Z-20.471
N13280 X71.464 Y-31.179 Z-20.179
N13285 X71.219 Y-31.423 Z-19.722
N13290 X71.136 Y-31.507 Z-19.47
N13295 X71.043 Y-31.6 Z-18.877
N13300 X69.62 Y-33.022 Z-2.637
N13305 X69.55 Y-33.093 Z-2.261
N13310 X69.409 Y-33.233 Z-1.841
N13315 X69.198 Y-33.445 Z-1.428
N13320 X68.925 Y-33.717 Z-1.053
N13325 X68.428 Y-34.214 Z-0.589
N13330 X67.872 Y-34.77 Z-0.264
N13335 X67.273 Y-35.369 Z-0.067
N13340 X66.642 Y-36. Z0.
N13345 X66.507 Y-36.136 Z0.014
N13350 X66.466 Y-36.189 Z0.02
N13355 X66.442 Y-36.25 Z0.027
N13360 X66.434 Y-36.316 Z0.034
N13365 X66.427 Y-36.381 Z0.041
N13370 X66.403 Y-36.442 Z0.047
N13375 X66.364 Y-36.495 Z0.053
N13380 X66.312 Y-36.535 Z0.057
N13385 X66.252 Y-36.561 Z0.06
N13390 X66.187 Y-36.57 Z0.061
N13395 X66.121 Y-36.562 Z0.06
N13400 X66.06 Y-36.538 Z0.057
N13405 X66.008 Y-36.498 Z0.053
N13410 X65.968 Y-36.446 Z0.047
N13415 X65.943 Y-36.386 Z0.041
N13420 X65.934 Y-36.321 Z0.034
N13425 X65.943 Y-36.256 Z0.027
N13430 X65.969 Y-36.196 Z0.021
N13435 X66.009 Y-36.144 Z0.015
N13440 X66.062 Y-36.105 Z0.011
N13445 X66.123 Y-36.081 Z0.009
N13450 X66.188 Y-36.073 Z0.008
N13455 X66.255 Y-36.065 Z0.007
N13460 X66.317 Y-36.04 Z0.004
N13465 X66.37 Y-36. Z0.
N13470 X66.59 Y-35.78 Z-0.008
N13475 X67.201 Y-35.169 Z-0.118
N13480 X67.79 Y-34.579 Z-0.358
N13485 X68.327 Y-34.043 Z-0.727
N13490 X68.795 Y-33.575 Z-1.233
N13495 X69.039 Y-33.331 Z-1.63
N13500 X69.216 Y-33.154 Z-2.051
N13505 X69.346 Y-33.024 Z-2.621
N13510 X70.795 Y-31.575 Z-19.097
N13515 X70.889 Y-31.481 Z-19.57
N13520 X71.049 Y-31.321 Z-19.948
N13525 X71.343 Y-31.027 Z-20.351
N13530 X71.672 Y-30.698 Z-20.636
N13535 X72.023 Y-30.347 Z-20.829
N13540 X72.389 Y-29.981 Z-20.943
N13545 X72.777 Y-29.592 Z-20.986
N13550 X82.311 Y-20.058 Z-21.
N13555 X89.727 Y-12.643 Z-20.974
N13560 X90.317 Y-12.052 Z-20.844
N13565 X90.683 Y-11.687 Z-20.647
N13570 X91.011 Y-11.359 Z-20.369
N13575 X91.283 Y-11.087 Z-20.009
N13580 X91.481 Y-10.889 Z-19.572
N13585 X91.584 Y-10.786 Z-19.044
N13590 X93.027 Y-9.343 Z-2.601
N13595 X93.17 Y-9.2 Z-2.005
N13600 X93.394 Y-8.976 Z-1.491
N13605 X93.669 Y-8.701 Z-1.065
N13610 X94.194 Y-8.176 Z-0.519
N13615 X94.538 Y-7.832 Z-0.276
N13620 X94.99 Y-7.38 Z-0.081
N13625 X95.51 Y-6.86 Z0.
N13630 X95.546 Y-6.824 Z0.01
N13635 X95.58 Y-6.79 Z0.029
N13640 Y-6.789
N13645 X95.626 Y-6.744 Z0.052
N13650 X95.674 Y-6.696 Z0.06
N13655 X95.758 Y-6.612
N13660 G3 Y-6.339 I-0.136 J0.136
N13665 X95.485 I-0.136 J-0.136
N13670 G1 X95.438 Y-6.387 Z0.052
N13675 X95.392 Y-6.433 Z0.029
N13680 X95.356 Y-6.469 Z0.01
N13685 X95.318 Y-6.506 Z0.
N13690 X94.895 Y-6.93 Z-0.056
N13695 X94.528 Y-7.297 Z-0.198
N13700 X94.076 Y-7.748 Z-0.511
N13705 X93.676 Y-8.149 Z-0.933
N13710 X93.342 Y-8.483 Z-1.486
N13715 X93.184 Y-8.641 Z-1.847
N13720 X93.087 Y-8.738 Z-2.144
N13725 X92.982 Y-8.842 Z-2.749
N13730 X91.536 Y-10.289 Z-19.177
N13735 X91.44 Y-10.384 Z-19.632
N13740 X91.257 Y-10.568 Z-20.052
N13745 X91.087 Y-10.738 Z-20.285
N13750 X90.76 Y-11.065 Z-20.589
N13755 X90.394 Y-11.431 Z-20.806
N13760 X90.002 Y-11.822 Z-20.937
N13765 X89.171 Y-12.653 Z-21.
N13770 X72.222 Y-29.603 Z-20.985
N13775 X71.833 Y-29.991 Z-20.94
N13780 X71.468 Y-30.357 Z-20.824
N13785 X71.116 Y-30.708 Z-20.628
N13790 X70.788 Y-31.037 Z-20.34
N13795 X70.494 Y-31.331 Z-19.931
N13800 X70.336 Y-31.489 Z-19.551
N13805 X70.246 Y-31.579 Z-19.071
N13810 X68.796 Y-33.029 Z-2.586
N13815 X68.661 Y-33.163 Z-2.023
N13820 X68.48 Y-33.345 Z-1.603
N13825 X68.232 Y-33.593 Z-1.209
N13830 X67.76 Y-34.064 Z-0.708
N13835 X67.221 Y-34.604 Z-0.345
N13840 X66.63 Y-35.195 Z-0.11
N13845 X66.018 Y-35.807 Z-0.006
N13850 X65.825 Y-36. Z0.
N13855 X65.689 Y-36.136 Z0.013
N13860 X65.649 Y-36.189 Z0.018
N13865 X65.624 Y-36.251 Z0.024
N13870 X65.616 Y-36.317 Z0.03
N13875 X65.609 Y-36.382 Z0.036
N13880 X65.585 Y-36.443 Z0.042
N13885 X65.546 Y-36.495 Z0.047
N13890 X65.494 Y-36.536 Z0.05
N13895 X65.434 Y-36.562 Z0.053
N13900 X65.368 Y-36.571 Z0.054
N13905 X65.303 Y-36.563 Z0.053
N13910 X65.242 Y-36.538 Z0.051
N13915 X65.19 Y-36.498 Z0.047
N13920 X65.15 Y-36.447 Z0.042
N13925 X65.125 Y-36.386 Z0.036
N13930 X65.116 Y-36.321 Z0.03
N13935 X65.125 Y-36.256 Z0.024
N13940 X65.151 Y-36.196 Z0.018
N13945 X65.191 Y-36.144 Z0.014
N13950 X65.244 Y-36.105 Z0.01
N13955 X65.305 Y-36.081 Z0.008
N13960 X65.371 Y-36.073 Z0.007
N13965 X65.437 Y-36.065 Z0.006
N13970 X65.499 Y-36.04 Z0.004
N13975 X65.552 Y-36. Z0.
N13980 X66.112 Y-35.44 Z-0.053
N13985 X66.715 Y-34.838 Z-0.234
N13990 X67.276 Y-34.276 Z-0.545
N13995 X67.782 Y-33.77 Z-0.994
N14000 X68.064 Y-33.488 Z-1.36
N14005 X68.287 Y-33.265 Z-1.767
N14010 X68.44 Y-33.112 Z-2.189
N14015 X68.522 Y-33.03 Z-2.578
N14020 X69.974 Y-31.578 Z-19.076
N14025 X70.108 Y-31.444 Z-19.667
N14030 X70.352 Y-31.2 Z-20.145
N14035 X70.747 Y-30.805 Z-20.555
N14040 X71.098 Y-30.454 Z-20.776
N14045 X71.464 Y-30.088 Z-20.913
N14050 X71.853 Y-29.699 Z-20.976
N14055 X89.226 Y-12.326 Z-21.
N14060 X90.057 Y-11.495 Z-20.922
N14065 X90.448 Y-11.104 Z-20.778
N14070 X90.814 Y-10.738 Z-20.548
N14075 X90.994 Y-10.558 Z-20.387
N14080 X91.25 Y-10.302 Z-20.018
N14085 X91.434 Y-10.119 Z-19.581
N14090 X91.509 Y-10.043 Z-19.202
N14095 X92.964 Y-8.588 Z-2.681
N14100 X93.051 Y-8.501 Z-2.14
N14105 X93.168 Y-8.384 Z-1.753
N14110 X93.404 Y-8.148 Z-1.247
N14115 X93.674 Y-7.878 Z-0.855
N14120 X94.082 Y-7.47 Z-0.429
N14125 X94.432 Y-7.12 Z-0.198
N14130 X94.799 Y-6.753 Z-0.056
N14135 X95.223 Y-6.329 Z0.
N14140 X95.258 Y-6.294 Z0.005
N14145 X95.311 Y-6.254 Z0.011
N14150 X95.373 Y-6.229 Z0.018
N14155 X95.439 Y-6.222 Z0.024
N14160 X95.504 Y-6.215 Z0.03
N14165 X95.565 Y-6.191 Z0.036
N14170 X95.618 Y-6.152 Z0.043
N14175 X95.658 Y-6.1 Z0.049
N14180 X95.684 Y-6.04 Z0.054
N14185 X95.693 Y-5.975 Z0.058
N14190 X95.685 Y-5.909 Z0.061
N14195 X95.66 Y-5.848 Z0.062
N14200 X95.62 Y-5.796 Z0.061
N14205 X95.568 Y-5.756 Z0.058
N14210 X95.507 Y-5.731 Z0.054
N14215 X95.442 Y-5.722 Z0.049
N14220 X95.377 Y-5.731 Z0.043
N14225 X95.317 Y-5.757 Z0.037
N14230 X95.265 Y-5.797 Z0.03
N14235 X95.226 Y-5.85 Z0.024
N14240 X95.202 Y-5.911 Z0.019
N14245 X95.195 Y-5.976 Z0.015
N14250 X95.187 Y-6.043 Z0.011
N14255 X95.162 Y-6.105 Z0.006
N14260 X95.122 Y-6.158 Z0.
N14265 X94.696 Y-6.583 Z-0.058
N14270 X94.33 Y-6.95 Z-0.202
N14275 X93.98 Y-7.299 Z-0.435
N14280 X93.658 Y-7.622 Z-0.757
N14285 X93.373 Y-7.906 Z-1.169
N14290 X93.068 Y-8.212 Z-1.858
N14295 X92.934 Y-8.345 Z-2.407
N14300 X92.52 Y-8.759 Z-7.028
N14305 X91.449 Y-9.83 Z-19.207
N14310 X91.366 Y-9.913 Z-19.63
N14315 X91.207 Y-10.072 Z-20.047
N14320 X91.059 Y-10.221 Z-20.269
N14325 X90.659 Y-10.621 Z-20.666
N14330 X90.293 Y-10.987 Z-20.854
N14335 X89.674 Y-11.606 Z-20.978
N14340 X71.665 Y-29.614 Z-20.984
N14345 X71.276 Y-30.003 Z-20.937
N14350 X70.911 Y-30.369 Z-20.818
N14355 X70.559 Y-30.72 Z-20.619
N14360 X70.231 Y-31.049 Z-20.327
N14365 X69.937 Y-31.343 Z-19.912
N14370 X69.791 Y-31.488 Z-19.552
N14375 X69.692 Y-31.587 Z-19.016
N14380 X68.254 Y-33.026 Z-2.607
N14385 X68.122 Y-33.158 Z-2.04
N14390 X67.943 Y-33.337 Z-1.619
N14395 X67.697 Y-33.582 Z-1.224
N14400 X67.228 Y-34.051 Z-0.719
N14405 X66.69 Y-34.589 Z-0.352
N14410 X66.101 Y-35.179 Z-0.115
N14415 X65.489 Y-35.791 Z-0.007
N14420 X65.28 Y-36. Z0.
N14425 X65.234 Y-36.045 Z0.009
N14430 X65.191 Y-36.088 Z0.031
N14435 X65.146 Y-36.134 Z0.053
N14440 X65.098 Y-36.181 Z0.061
N14445 X64.833 Y-36.447
N14450 G2 X64.56 Y-36.174 I-0.136 J0.136
N14455 G1 X64.608 Y-36.126 Z0.053
N14460 X64.654 Y-36.081 Z0.031
N14465 X64.655 Y-36.08 Z0.03
N14470 X64.693 Y-36.041 Z0.009
N14475 X64.734 Y-36. Z0.
N14480 X65.269 Y-35.465 Z-0.048
N14485 X65.872 Y-34.862 Z-0.224
N14490 X66.436 Y-34.298 Z-0.529
N14495 X66.945 Y-33.789 Z-0.972
N14500 X67.23 Y-33.504 Z-1.335
N14505 X67.457 Y-33.277 Z-1.741
N14510 X67.615 Y-33.119 Z-2.163
N14515 X67.701 Y-33.033 Z-2.556
N14520 X69.15 Y-31.584 Z-19.043
N14525 X69.281 Y-31.453 Z-19.644
N14530 X69.526 Y-31.209 Z-20.131
N14535 X69.915 Y-30.82 Z-20.544
N14540 X70.306 Y-30.428 Z-20.788
N14545 X70.672 Y-30.063 Z-20.92
N14550 X71.216 Y-29.519 Z-20.993
N14555 X89.648 Y-11.086 Z-20.981
N14560 X90.261 Y-10.474 Z-20.855
N14565 X90.647 Y-10.087 Z-20.62
N14570 X90.794 Y-9.941 Z-20.465
N14575 X91.048 Y-9.687 Z-20.102
N14580 X91.129 Y-9.605 Z-19.892
N14585 X91.267 Y-9.467 Z-19.377
N14590 X92.735 Y-7.999 Z-2.676
N14595 X92.81 Y-7.924 Z-2.166
N14600 X92.995 Y-7.739 Z-1.559
N14605 X93.149 Y-7.586 Z-1.232
N14610 X93.422 Y-7.312 Z-0.803
N14615 X93.738 Y-6.996 Z-0.461
N14620 X94.085 Y-6.649 Z-0.213
N14625 X94.451 Y-6.284 Z-0.06
N14630 X94.874 Y-5.86 Z0.
N14635 X94.899 Y-5.836 Z0.004
N14640 X94.946 Y-5.799 Z0.01
N14645 X95.001 Y-5.774 Z0.015
N14650 X95.059 Y-5.748 Z0.022
N14655 X95.108 Y-5.707 Z0.028
N14660 X95.145 Y-5.656 Z0.034
N14665 X95.168 Y-5.596 Z0.04
N14670 X95.175 Y-5.533 Z0.045
N14675 X95.166 Y-5.469 Z0.048
N14680 X95.141 Y-5.41 Z0.05
N14685 X95.102 Y-5.36
N14690 X95.051 Y-5.321 Z0.049
N14695 X94.993 Y-5.296 Z0.046
N14700 X94.929 Y-5.286 Z0.042
N14705 X94.866 Y-5.293 Z0.036
N14710 X94.807 Y-5.316 Z0.03
N14715 X94.755 Y-5.354 Z0.024
N14720 X94.715 Y-5.403 Z0.017
N14725 X94.688 Y-5.461 Z0.011
N14730 X94.664 Y-5.516 Z0.006
N14735 X94.627 Y-5.563 Z0.
N14740 X94.203 Y-5.986 Z-0.06
N14745 X93.837 Y-6.352 Z-0.214
N14750 X93.491 Y-6.698 Z-0.463
N14755 X93.175 Y-7.014 Z-0.806
N14760 X92.902 Y-7.288 Z-1.241
N14765 X92.683 Y-7.507 Z-1.776
N14770 X92.588 Y-7.601 Z-2.131
N14775 X92.507 Y-7.682 Z-2.701
N14780 X91.057 Y-9.132 Z-19.267
N14785 X90.946 Y-9.243 Z-19.786
N14790 X90.772 Y-9.417 Z-20.205
N14795 X90.52 Y-9.67 Z-20.563
N14800 X90.21 Y-9.979 Z-20.808
N14805 X89.826 Y-10.363 Z-20.946
N14810 X89.203 Y-10.987 Z-21.
N14815 X70.558 Y-29.631 Z-20.982
N14820 X69.958 Y-30.232 Z-20.872
N14825 X69.517 Y-30.673 Z-20.655
N14830 X69.188 Y-31.001 Z-20.379
N14835 X69.024 Y-31.165 Z-20.199
N14840 X68.789 Y-31.401 Z-19.781
N14845 X68.702 Y-31.487 Z-19.556
N14850 X68.611 Y-31.578 Z-19.077
N14855 X67.162 Y-33.028 Z-2.594
N14860 X67.028 Y-33.161 Z-2.03
N14865 X66.847 Y-33.342 Z-1.609
N14870 X66.6 Y-33.589 Z-1.215
N14875 X66.13 Y-34.059 Z-0.712
N14880 X65.591 Y-34.598 Z-0.348
N14885 X65.001 Y-35.188 Z-0.112
N14890 X64.389 Y-35.801 Z-0.007
N14895 X64.189 Y-36. Z0.
N14900 X64.144 Y-36.045 Z0.008
N14905 X64.101 Y-36.088 Z0.031
N14910 X64.056 Y-36.134 Z0.053
N14915 X64.008 Y-36.182 Z0.061
N14920 X63.737 Y-36.452
N14925 G2 X63.464 Y-36.18 I-0.136 J0.136
N14930 G1 X63.512 Y-36.132 Z0.053
N14935 X63.558 Y-36.086 Z0.031
N14940 Z0.03
N14945 X63.6 Y-36.044 Z0.009
N14950 X63.644 Y-36. Z0.
N14955 X63.923 Y-35.721 Z-0.013
N14960 X64.533 Y-35.111 Z-0.135
N14965 X65.119 Y-34.525 Z-0.388
N14970 X65.65 Y-33.994 Z-0.769
N14975 X66.108 Y-33.537 Z-1.288
N14980 X66.343 Y-33.302 Z-1.689
N14985 X66.509 Y-33.135 Z-2.111
N14990 X66.604 Y-33.04 Z-2.511
N14995 X66.63 Y-33.015 Z-2.704
N15000 X68.079 Y-31.565 Z-19.148
N15005 X68.256 Y-31.388 Z-19.815
N15010 X68.344 Y-31.3 Z-19.981
N15015 X68.638 Y-31.006 Z-20.374
N15020 X68.966 Y-30.678 Z-20.651
N15025 X69.318 Y-30.326 Z-20.839
N15030 X69.683 Y-29.961 Z-20.949
N15035 X70.072 Y-29.572 Z-20.988
N15040 X88.717 Y-10.928 Z-21.
N15045 X89.552 Y-10.092 Z-20.946
N15050 X89.91 Y-9.734 Z-20.819
N15055 X90.243 Y-9.401 Z-20.552
N15060 X90.569 Y-9.075 Z-20.066
N15065 X90.756 Y-8.888 Z-19.41
N15070 X92.226 Y-7.418 Z-2.703
N15075 X92.307 Y-7.337 Z-2.132
N15080 X92.401 Y-7.243 Z-1.777
N15085 X92.621 Y-7.024 Z-1.242
N15090 X92.894 Y-6.75 Z-0.806
N15095 X93.21 Y-6.435 Z-0.464
N15100 X93.556 Y-6.088 Z-0.215
N15105 X93.921 Y-5.723 Z-0.061
N15110 X94.349 Y-5.295 Z0.
N15115 X94.402 Y-5.255 Z0.007
N15120 X94.464 Y-5.23 Z0.012
N15125 X94.531 Y-5.222 Z0.017
N15130 X94.596 Y-5.215 Z0.022
N15135 X94.657 Y-5.191 Z0.028
N15140 X94.709 Y-5.152 Z0.034
N15145 X94.75 Y-5.101 Z0.041
N15150 X94.775 Y-5.04 Z0.047
N15155 X94.784 Y-4.975 Z0.053
N15160 X94.776 Y-4.91 Z0.058
N15165 X94.751 Y-4.849 Z0.061
N15170 X94.711 Y-4.797 Z0.062
N15175 X94.658 Y-4.757
N15180 X94.598 Y-4.732 Z0.06
N15185 X94.532 Y-4.724 Z0.057
N15190 X94.467 Y-4.733 Z0.052
N15195 X94.407 Y-4.758 Z0.046
N15200 X94.355 Y-4.799 Z0.04
N15205 X94.316 Y-4.851 Z0.033
N15210 X94.293 Y-4.912 Z0.027
N15215 X94.285 Y-4.978 Z0.021
N15220 X94.278 Y-5.044 Z0.015
N15225 X94.253 Y-5.106 Z0.009
N15230 X94.213 Y-5.159 Z0.002
N15235 X94.198 Y-5.173 Z0.
N15240 X93.77 Y-5.601 Z-0.061
N15245 X93.405 Y-5.967 Z-0.215
N15250 X93.059 Y-6.313 Z-0.465
N15255 X92.743 Y-6.629 Z-0.808
N15260 X92.47 Y-6.902 Z-1.244
N15265 X92.251 Y-7.121 Z-1.774
N15270 X92.095 Y-7.276 Z-2.448
N15275 X90.605 Y-8.766 Z-19.342
N15280 X90.525 Y-8.847 Z-19.743
N15285 X90.315 Y-9.056 Z-20.229
N15290 X89.96 Y-9.412 Z-20.649
N15295 X89.599 Y-9.773 Z-20.859
N15300 X89.197 Y-10.174 Z-20.964
N15305 X87.683 Y-11.689 Z-21.
N15310 X69.886 Y-29.486 Z-20.996
N15315 X69.285 Y-30.087 Z-20.913
N15320 X68.99 Y-30.381 Z-20.812
N15325 X68.639 Y-30.733 Z-20.61
N15330 X68.456 Y-30.916 Z-20.471
N15335 X68.193 Y-31.179 Z-20.179
N15340 X67.948 Y-31.424 Z-19.721
N15345 X67.865 Y-31.507 Z-19.47
N15350 X67.772 Y-31.6 Z-18.876
N15355 X66.35 Y-33.022 Z-2.637
N15360 X66.279 Y-33.093 Z-2.26
N15365 X66.138 Y-33.233 Z-1.84
N15370 X65.926 Y-33.445 Z-1.427
N15375 X65.654 Y-33.718 Z-1.053
N15380 X65.157 Y-34.215 Z-0.589
N15385 X64.601 Y-34.771 Z-0.263
N15390 X64.002 Y-35.37 Z-0.067
N15395 X63.372 Y-36. Z0.
N15400 X63.236 Y-36.136 Z0.014
N15405 X63.196 Y-36.189 Z0.02
N15410 X63.171 Y-36.25 Z0.027
N15415 X63.163 Y-36.316 Z0.034
N15420 X63.156 Y-36.381 Z0.041
N15425 X63.132 Y-36.442 Z0.047
N15430 X63.093 Y-36.495 Z0.053
N15435 X63.041 Y-36.535 Z0.057
N15440 X62.981 Y-36.561 Z0.06
N15445 X62.916 Y-36.57 Z0.061
N15450 X62.851 Y-36.562 Z0.06
N15455 X62.79 Y-36.538 Z0.057
N15460 X62.737 Y-36.498 Z0.053
N15465 X62.697 Y-36.446 Z0.047
N15470 X62.672 Y-36.386 Z0.041
N15475 X62.663 Y-36.321 Z0.034
N15480 X62.672 Y-36.256 Z0.027
N15485 X62.698 Y-36.196 Z0.021
N15490 X62.739 Y-36.144 Z0.015
N15495 X62.791 Y-36.105 Z0.011
N15500 X62.852 Y-36.081 Z0.009
N15505 X62.918 Y-36.073 Z0.008
N15510 X62.984 Y-36.065 Z0.007
N15515 X63.046 Y-36.04 Z0.004
N15520 X63.099 Y-36. Z0.
N15525 X63.4 Y-35.699 Z-0.015
N15530 X64.009 Y-35.09 Z-0.141
N15535 X64.594 Y-34.505 Z-0.399
N15540 X65.122 Y-33.977 Z-0.785
N15545 X65.576 Y-33.523 Z-1.308
N15550 X65.808 Y-33.291 Z-1.711
N15555 X65.971 Y-33.128 Z-2.133
N15560 X66.062 Y-33.037 Z-2.53
N15565 X67.537 Y-31.562 Z-19.165
N15570 X67.715 Y-31.385 Z-19.823
N15575 X67.806 Y-31.293 Z-19.992
N15580 X68.1 Y-30.999 Z-20.381
N15585 X68.428 Y-30.671 Z-20.657
N15590 X68.78 Y-30.319 Z-20.843
N15595 X69.145 Y-29.954 Z-20.951
N15600 X69.746 Y-29.353 Z-21.
N15605 X88.814 Y-10.285 Z-20.975
N15610 X89.254 Y-9.845 Z-20.894
N15615 X89.637 Y-9.462 Z-20.717
N15620 X89.968 Y-9.131 Z-20.439
N15625 X90.283 Y-8.816 Z-19.921
N15630 X90.432 Y-8.667 Z-19.342
N15635 X91.855 Y-7.244 Z-3.108
N15640 X91.955 Y-7.144 Z-2.222
N15645 X92.048 Y-7.051 Z-1.854
N15650 X92.264 Y-6.835 Z-1.312
N15655 X92.534 Y-6.565 Z-0.871
N15660 X92.823 Y-6.276 Z-0.545
N15665 X93.258 Y-5.841 Z-0.214
N15670 X93.623 Y-5.476 Z-0.06
N15675 X94.047 Y-5.052 Z0.
N15680 X94.084 Y-5.015 Z0.01
N15685 X94.119 Y-4.98 Z0.029
N15690 X94.12 Y-4.979
N15695 X94.165 Y-4.934 Z0.052
N15700 X94.213 Y-4.886 Z0.06
N15705 G3 X93.941 Y-4.613 I-0.136 J0.136
N15710 G1 X93.912 Y-4.642
N15715 X93.864 Y-4.689 Z0.052
N15720 X93.819 Y-4.735 Z0.029
N15725 X93.783 Y-4.771 Z0.01
N15730 X93.745 Y-4.809 Z0.
N15735 X93.317 Y-5.237 Z-0.055
N15740 X92.95 Y-5.603 Z-0.197
N15745 X92.6 Y-5.954 Z-0.428
N15750 X92.277 Y-6.277 Z-0.748
N15755 X91.89 Y-6.664 Z-1.325
N15760 X91.663 Y-6.891 Z-1.851
N15765 X91.546 Y-7.008 Z-2.301
N15770 X91.398 Y-7.156 Z-3.767
N15775 X90.027 Y-8.527 Z-19.381
N15780 X89.913 Y-8.641 Z-19.812
N15785 X89.746 Y-8.808 Z-20.136
N15790 X89.482 Y-9.072 Z-20.46
N15795 X88.986 Y-9.568 Z-20.787
N15800 X88.594 Y-9.96 Z-20.926
N15805 X87.764 Y-10.79 Z-21.
N15810 X68.907 Y-29.647 Z-20.981
N15815 X68.307 Y-30.247 Z-20.867
N15820 X67.872 Y-30.682 Z-20.648
N15825 X67.543 Y-31.011 Z-20.368
N15830 X67.379 Y-31.175 Z-20.186
N15835 X67.149 Y-31.405 Z-19.769
N15840 X67.06 Y-31.494 Z-19.537
N15845 X66.971 Y-31.583 Z-19.053
N15850 X65.532 Y-33.021 Z-2.642
N15855 X65.405 Y-33.149 Z-2.066
N15860 X65.23 Y-33.323 Z-1.645
N15865 X64.989 Y-33.565 Z-1.247
N15870 X64.524 Y-34.03 Z-0.737
N15875 X63.989 Y-34.565 Z-0.365
N15880 X63.4 Y-35.154 Z-0.122
N15885 X62.789 Y-35.765 Z-0.009
N15890 X62.554 Y-36. Z0.
N15895 X62.283 Y-36.271 Z0.028
N15900 X62.246 Y-36.318 Z0.032
N15905 X62.221 Y-36.373 Z0.038
N15910 X62.195 Y-36.431 Z0.044
N15915 X62.154 Y-36.48 Z0.049
N15920 X62.102 Y-36.517 Z0.053
N15925 X62.043 Y-36.54 Z0.055
N15930 X61.979 Y-36.547 Z0.056
N15935 X61.916 Y-36.538 Z0.055
N15940 X61.857 Y-36.514 Z0.052
N15945 X61.806 Y-36.475 Z0.048
N15950 X61.767 Y-36.425 Z0.043
N15955 X61.742 Y-36.366 Z0.037
N15960 X61.733 Y-36.303 Z0.031
N15965 X61.74 Y-36.24 Z0.024
N15970 X61.763 Y-36.181 Z0.018
N15975 X61.8 Y-36.129 Z0.013
N15980 X61.849 Y-36.088 Z0.009
N15985 X61.907 Y-36.062 Z0.006
