%
(X2_CLAMP_V1)
(T2  D=6. CR=0. TAPER=90DEG - ZMIN=-1.5 - SPOT DRILL)
(T3  D=6. CR=0. - ZMIN=-11. - FLAT END MILL)
(T20  D=2.5 CR=0. TAPER=118DEG - ZMIN=-10. - DRILL)
N10 G90 G94 G17 G91.1
N15 G21
N20 G53 G0 Z0.
(2D ADAPTIVE1)
N25 T3 M6
N30 T2
N35 S18000 M3
N40 G54
N45 M8
N50 G0 X55.163 Y-6.303
N55 G43 Z15. H3
N60 G0 Z5.
N65 Z-8.4
N70 G1 Z-9. F750.
N75 Z-11.
N80 G3 X55.095 Y-3.003 I-15.26 J1.332
N85 G1 X55.084 Y-2.939
N90 X55.077 Y-2.906
N95 X54.952 Y-2.822
N100 X54.82 Y-2.751
N105 X54.684 Y-2.688
N110 X54.533 Y-2.628
N115 X54.347 Y-2.563
N120 X54.115 Y-2.492
N125 X53.822 Y-2.417
N130 X53.444 Y-2.338
N135 X52.936 Y-2.254
N140 X52.206 Y-2.166
N145 X51.294 Y-2.095
N150 X50.379 Y-2.056
N155 X49.464 Y-2.033
N160 X48.549 Y-2.019
N165 X47.633 Y-2.011
N170 X46.718 Y-2.007
N175 X45.802 Y-2.004
N180 X43.972 Y-2.001
N185 X38.479 Y-2.
N190 X19.047
N195 X18.64 Y-2.036
N200 X18.245 Y-2.143
N205 X17.874 Y-2.317
N210 X17.54 Y-2.553
N215 X17.253 Y-2.844
N220 X17.021 Y-3.181
N225 X16.851 Y-3.553
N230 X16.749 Y-3.95
N235 G3 X17.116 Y-4.582 I0.595 J-0.077
N240 G1 X17.203 Y-4.617 Z-10.993
N245 X17.287 Y-4.652 Z-10.971
N250 X17.368 Y-4.685 Z-10.935
N255 X17.442 Y-4.716 Z-10.885
N260 X17.508 Y-4.743 Z-10.824
N265 X17.565 Y-4.766 Z-10.753
N270 X17.61 Y-4.785 Z-10.672
N275 X17.643 Y-4.799 Z-10.585
N280 X17.664 Y-4.807 Z-10.494
N285 X17.671 Y-4.81 Z-10.4
N290 G0 Z5.
N295 X54.77 Y-4.277
N300 Z-9.8
N305 G1 Z-10.4 F750.
N310 X54.772 Y-4.271 Z-10.494
N315 X54.781 Y-4.25 Z-10.585
N320 X54.794 Y-4.217 Z-10.672
N325 X54.812 Y-4.171 Z-10.753
N330 X54.834 Y-4.114 Z-10.824
N335 X54.86 Y-4.047 Z-10.885
N340 X54.889 Y-3.972 Z-10.935
N345 X54.921 Y-3.891 Z-10.971
N350 X54.954 Y-3.806 Z-10.993
N355 X54.988 Y-3.719 Z-11.
N360 G3 X55.084 Y-2.939 I-1.474 J0.576
N365 G1 X55.045 Y-2.702
N370 X55.029 Y-2.628
N375 X54.928 Y-2.517
N380 X54.818 Y-2.416
N385 X54.701 Y-2.322
N390 X54.578 Y-2.235
N395 X54.452 Y-2.155
N400 X54.308 Y-2.072
N405 X54.147 Y-1.989
N410 X53.947 Y-1.896
N415 X53.724 Y-1.805
N420 X53.467 Y-1.712
N425 X53.138 Y-1.609
N430 X52.781 Y-1.514
N435 X52.311 Y-1.411
N440 X51.738 Y-1.311
N445 X50.945 Y-1.208
N450 X50.033 Y-1.13
N455 X49.119 Y-1.081
N460 X48.204 Y-1.051
N465 X47.289 Y-1.032
N470 X46.373 Y-1.02
N475 X45.458 Y-1.012
N480 X44.543 Y-1.008
N485 X43.627 Y-1.005
N490 X41.796 Y-1.002
N495 X37.219 Y-1.
N500 X20.742
N505 X20.175 Y-1.01
N510 X19.789 Y-1.033
N515 X19.503 Y-1.063
N520 X19.26 Y-1.099
N525 X19.006 Y-1.149
N530 X18.817 Y-1.194
N535 X18.545 Y-1.272
N540 X18.193 Y-1.404
N545 X17.867 Y-1.59
N550 X17.575 Y-1.827
N555 X17.325 Y-2.108
N560 X17.123 Y-2.425
N565 X16.975 Y-2.77
N570 X16.884 Y-3.135
N575 G3 X17.25 Y-3.767 I0.595 J-0.077
N580 G1 X17.337 Y-3.803 Z-10.993
N585 X17.422 Y-3.837 Z-10.971
N590 X17.502 Y-3.871 Z-10.935
N595 X17.576 Y-3.901 Z-10.885
N600 X17.643 Y-3.928 Z-10.824
N605 X17.699 Y-3.952 Z-10.753
N610 X17.745 Y-3.97 Z-10.672
N615 X17.778 Y-3.984 Z-10.585
N620 X17.798 Y-3.992 Z-10.494
N625 X17.805 Y-3.995 Z-10.4
N630 G0 Z5.
N635 X54.731 Y-4.04
N640 Z-9.8
N645 G1 Z-10.4 F750.
N650 X54.733 Y-4.033 Z-10.494
N655 X54.741 Y-4.013 Z-10.585
N660 X54.754 Y-3.979 Z-10.672
N665 X54.772 Y-3.933 Z-10.753
N670 X54.795 Y-3.876 Z-10.824
N675 X54.821 Y-3.81 Z-10.885
N680 X54.85 Y-3.735 Z-10.935
N685 X54.882 Y-3.654 Z-10.971
N690 X54.915 Y-3.569 Z-10.993
N695 X54.949 Y-3.481 Z-11.
N700 G3 X55.045 Y-2.702 I-1.474 J0.576
N705 G1 X54.983 Y-2.328
N710 X54.951 Y-2.181
N715 X54.863 Y-2.06
N720 X54.766 Y-1.946
N725 X54.662 Y-1.838
N730 X54.551 Y-1.736
N735 X54.436 Y-1.64
N740 X54.31 Y-1.545
N745 X54.169 Y-1.448
N750 X54.007 Y-1.346
N755 X53.822 Y-1.241
N760 X53.613 Y-1.134
N765 X53.369 Y-1.022
N770 X53.099 Y-0.912
N775 X52.76 Y-0.791
N780 X52.405 Y-0.681
N785 X51.942 Y-0.56
N790 X51.423 Y-0.448
N795 X50.748 Y-0.333
N800 X49.84 Y-0.218
N805 X48.928 Y-0.143
N810 X48.014 Y-0.093
N815 X47.099 Y-0.061
N820 X46.184 Y-0.04
N825 X45.268 Y-0.026
N830 X44.353 Y-0.017
N835 X43.438 Y-0.011
N840 X42.522 Y-0.007
N845 X40.691 Y-0.003
N850 X37.03 Y0.
N855 X22.383
N860 X21.468 Y-0.004
N865 X20.8 Y-0.027
N870 X20.307 Y-0.066
N875 X19.9 Y-0.115
N880 X19.53 Y-0.177
N885 X19.278 Y-0.23
N890 X19.016 Y-0.298
N895 X18.801 Y-0.363
N900 X18.617 Y-0.428
N905 X18.414 Y-0.51
N910 X18.363 Y-0.533
N915 X18.03 Y-0.718
N920 X17.732 Y-0.955
N925 X17.476 Y-1.238
N930 X17.27 Y-1.558
N935 X17.118 Y-1.908
N940 X17.025 Y-2.277
N945 G3 X17.392 Y-2.909 I0.595 J-0.077
N950 G1 X17.479 Y-2.945 Z-10.993
N955 X17.563 Y-2.98 Z-10.971
N960 X17.644 Y-3.013 Z-10.935
N965 X17.718 Y-3.044 Z-10.885
N970 X17.784 Y-3.071 Z-10.824
N975 X17.841 Y-3.094 Z-10.753
N980 X17.886 Y-3.113 Z-10.672
N985 X17.92 Y-3.126 Z-10.585
N990 X17.94 Y-3.135 Z-10.494
N995 X17.947 Y-3.138 Z-10.4
N1000 G0 Z5.
N1005 X54.669 Y-3.666
N1010 Z-9.8
N1015 G1 Z-10.4 F750.
N1020 X54.672 Y-3.659 Z-10.494
N1025 X54.68 Y-3.639 Z-10.585
N1030 X54.693 Y-3.605 Z-10.672
N1035 X54.711 Y-3.56 Z-10.753
N1040 X54.733 Y-3.503 Z-10.824
N1045 X54.759 Y-3.436 Z-10.885
N1050 X54.788 Y-3.361 Z-10.935
N1055 X54.82 Y-3.28 Z-10.971
N1060 X54.853 Y-3.195 Z-10.993
N1065 X54.887 Y-3.108 Z-11.
N1070 G3 X54.983 Y-2.328 I-1.474 J0.576
N1075 G1 X54.907 Y-1.87
N1080 X54.876 Y-1.723
N1085 X54.806 Y-1.59
N1090 X54.726 Y-1.463
N1095 X54.637 Y-1.343
N1100 X54.54 Y-1.228
N1105 X54.438 Y-1.119
N1110 X54.33 Y-1.015
N1115 X54.206 Y-0.907
N1120 X54.075 Y-0.801
N1125 X53.919 Y-0.687
N1130 X53.752 Y-0.575
N1135 X53.552 Y-0.453
N1140 X53.335 Y-0.334
N1145 X53.082 Y-0.209
N1150 X52.799 Y-0.084
N1155 X52.468 Y0.045
N1160 X52.093 Y0.173
N1165 X51.638 Y0.307
N1170 X51.122 Y0.434
N1175 X50.499 Y0.559
N1180 X49.697 Y0.684
N1185 X48.787 Y0.786
N1190 X47.874 Y0.855
N1195 X46.96 Y0.902
N1200 X46.045 Y0.934
N1205 X45.13 Y0.956
N1210 X44.215 Y0.971
N1215 X43.299 Y0.98
N1220 X42.384 Y0.987
N1225 X41.468 Y0.991
N1230 X39.638 Y0.996
N1235 X36.891 Y0.999
N1240 X26.822 Y1.
N1245 X24.075
N1250 X23.16 Y0.999
N1255 X22.245 Y0.991
N1260 X21.416 Y0.962
N1265 X20.811 Y0.914
N1270 X20.319 Y0.854
N1275 X19.913 Y0.787
N1280 X19.581 Y0.716
N1285 X19.296 Y0.643
N1290 X19.038 Y0.564
N1295 X18.839 Y0.494
N1300 X18.619 Y0.406
N1305 X18.443 Y0.326
N1310 X18.419 Y0.313
N1315 X18.108 Y0.124
N1320 X17.83 Y-0.112
N1325 X17.593 Y-0.388
N1330 X17.401 Y-0.698
N1335 X17.26 Y-1.034
N1340 X17.172 Y-1.387
N1345 G3 X17.539 Y-2.019 I0.595 J-0.077
N1350 G1 X17.626 Y-2.055 Z-10.993
N1355 X17.71 Y-2.09 Z-10.971
N1360 X17.791 Y-2.123 Z-10.935
N1365 X17.865 Y-2.153 Z-10.885
N1370 X17.931 Y-2.181 Z-10.824
N1375 X17.988 Y-2.204 Z-10.753
N1380 X18.033 Y-2.223 Z-10.672
N1385 X18.067 Y-2.236 Z-10.585
N1390 X18.087 Y-2.245 Z-10.494
N1395 X18.094 Y-2.247 Z-10.4
N1400 G0 Z5.
N1405 X54.593 Y-3.208
N1410 Z-9.8
N1415 G1 Z-10.4 F750.
N1420 X54.596 Y-3.201 Z-10.494
N1425 X54.604 Y-3.181 Z-10.585
N1430 X54.617 Y-3.147 Z-10.672
N1435 X54.635 Y-3.102 Z-10.753
N1440 X54.657 Y-3.045 Z-10.824
N1445 X54.683 Y-2.978 Z-10.885
N1450 X54.713 Y-2.903 Z-10.935
N1455 X54.744 Y-2.822 Z-10.971
N1460 X54.778 Y-2.737 Z-10.993
N1465 X54.812 Y-2.649 Z-11.
N1470 G3 X54.907 Y-1.87 I-1.474 J0.576
N1475 G1 X54.82 Y-1.34
N1480 X54.788 Y-1.193
N1485 X54.735 Y-1.053
N1490 X54.668 Y-0.918
N1495 X54.592 Y-0.789
N1500 X54.507 Y-0.665
N1505 X54.415 Y-0.547
N1510 X54.317 Y-0.433
N1515 X54.212 Y-0.322
N1520 X54.098 Y-0.213
N1525 X53.962 Y-0.092
N1530 X53.817 Y0.025
N1535 X53.645 Y0.152
N1540 X53.457 Y0.279
N1545 X53.241 Y0.411
N1550 X52.995 Y0.547
N1555 X52.727 Y0.681
N1560 X52.402 Y0.826
N1565 X52.064 Y0.959
N1570 X51.631 Y1.108
N1575 X51.182 Y1.242
N1580 X50.614 Y1.384
N1585 X49.935 Y1.523
N1590 X49.104 Y1.655
N1595 X48.195 Y1.76
N1600 X47.282 Y1.834
N1605 X46.368 Y1.885
N1610 X45.453 Y1.921
N1615 X44.538 Y1.946
N1620 X43.623 Y1.963
N1625 X42.708 Y1.975
N1630 X41.792 Y1.983
N1635 X40.877 Y1.988
N1640 X39.961 Y1.992
N1645 X38.131 Y1.997
N1650 X35.384 Y1.999
N1655 X25.315 Y2.
N1660 X24.399 Y1.999
N1665 X23.484 Y1.995
N1670 X22.569 Y1.979
N1675 X21.699 Y1.936
N1680 X21.061 Y1.877
N1685 X20.543 Y1.806
N1690 X20.106 Y1.727
N1695 X19.732 Y1.642
N1700 X19.455 Y1.566
N1705 X19.172 Y1.475
N1710 X18.963 Y1.398
N1715 X18.753 Y1.31
N1720 X18.56 Y1.219
N1725 X18.539 Y1.208
N1730 X18.235 Y1.017
N1735 X17.965 Y0.782
N1740 X17.733 Y0.509
N1745 X17.546 Y0.202
N1750 X17.408 Y-0.129
N1755 X17.323 Y-0.477
N1760 G3 X17.689 Y-1.109 I0.595 J-0.077
N1765 G1 X17.776 Y-1.145 Z-10.993
N1770 X17.861 Y-1.179 Z-10.971
N1775 X17.941 Y-1.212 Z-10.935
N1780 X18.015 Y-1.243 Z-10.885
N1785 X18.082 Y-1.27 Z-10.824
N1790 X18.138 Y-1.294 Z-10.753
N1795 X18.184 Y-1.312 Z-10.672
N1800 X18.217 Y-1.326 Z-10.585
N1805 X18.237 Y-1.334 Z-10.494
N1810 X18.244 Y-1.337 Z-10.4
N1815 G0 Z5.
N1820 X54.506 Y-2.678
N1825 Z-9.8
N1830 G1 Z-10.4 F750.
N1835 X54.508 Y-2.671 Z-10.494
N1840 X54.516 Y-2.651 Z-10.585
N1845 X54.529 Y-2.617 Z-10.672
N1850 X54.547 Y-2.571 Z-10.753
N1855 X54.57 Y-2.514 Z-10.824
N1860 X54.596 Y-2.448 Z-10.885
N1865 X54.625 Y-2.373 Z-10.935
N1870 X54.657 Y-2.292 Z-10.971
N1875 X54.69 Y-2.207 Z-10.993
N1880 X54.724 Y-2.119 Z-11.
N1885 G3 X54.82 Y-1.34 I-1.474 J0.576
N1890 G1 X54.717 Y-0.716
N1895 X54.685 Y-0.569
N1900 X54.642 Y-0.425
N1905 X54.585 Y-0.286
N1910 X54.518 Y-0.153
N1915 X54.441 Y-0.024
N1920 X54.357 Y0.101
N1925 X54.266 Y0.22
N1930 X54.17 Y0.335
N1935 X54.062 Y0.452
N1940 X53.938 Y0.575
N1945 X53.802 Y0.7
N1950 X53.642 Y0.834
N1955 X53.472 Y0.964
N1960 X53.269 Y1.106
N1965 X53.047 Y1.247
N1970 X52.8 Y1.389
N1975 X52.507 Y1.541
N1980 X52.199 Y1.685
N1985 X51.819 Y1.842
N1990 X51.416 Y1.989
N1995 X50.925 Y2.144
N2000 X50.362 Y2.295
N2005 X49.718 Y2.438
N2010 X48.909 Y2.581
N2015 X48.002 Y2.701
N2020 X47.09 Y2.787
N2025 X46.177 Y2.849
N2030 X45.263 Y2.894
N2035 X44.348 Y2.925
N2040 X43.433 Y2.948
N2045 X42.517 Y2.964
N2050 X41.602 Y2.975
N2055 X40.687 Y2.983
N2060 X39.771 Y2.988
N2065 X38.856 Y2.992
N2070 X37.025 Y2.996
N2075 X34.279 Y2.999
N2080 X26.955 Y3.
N2085 X26.04
N2090 X25.124 Y2.998
N2095 X24.209 Y2.993
N2100 X23.294 Y2.976
N2105 X22.379 Y2.938
N2110 X21.632 Y2.879
N2115 X21.023 Y2.804
N2120 X20.52 Y2.719
N2125 X20.103 Y2.631
N2130 X19.746 Y2.538
N2135 X19.472 Y2.454
N2140 X19.206 Y2.36
N2145 X19.007 Y2.28
N2150 X18.79 Y2.181
N2155 X18.719 Y2.145
N2160 X18.409 Y1.955
N2165 X18.132 Y1.72
N2170 X17.894 Y1.444
N2175 X17.703 Y1.134
N2180 X17.562 Y0.799
N2185 X17.475 Y0.446
N2190 X17.323 Y-0.477
N2195 G3 X17.689 Y-1.109 I0.595 J-0.077
N2200 G1 X17.776 Y-1.145 Z-10.993
N2205 X17.861 Y-1.179 Z-10.971
N2210 X17.941 Y-1.212 Z-10.935
N2215 X18.015 Y-1.243 Z-10.885
N2220 X18.082 Y-1.27 Z-10.824
N2225 X18.138 Y-1.294 Z-10.753
N2230 X18.184 Y-1.312 Z-10.672
N2235 X18.217 Y-1.326 Z-10.585
N2240 X18.237 Y-1.334 Z-10.494
N2245 X18.244 Y-1.337 Z-10.4
N2250 G0 Z5.
N2255 X54.403 Y-2.054
N2260 Z-9.8
N2265 G1 Z-10.4 F750.
N2270 X54.405 Y-2.047 Z-10.494
N2275 X54.413 Y-2.027 Z-10.585
N2280 X54.426 Y-1.993 Z-10.672
N2285 X54.444 Y-1.947 Z-10.753
N2290 X54.467 Y-1.89 Z-10.824
N2295 X54.493 Y-1.824 Z-10.885
N2300 X54.522 Y-1.749 Z-10.935
N2305 X54.554 Y-1.668 Z-10.971
N2310 X54.587 Y-1.583 Z-10.993
N2315 X54.621 Y-1.495 Z-11.
N2320 G3 X54.717 Y-0.716 I-1.474 J0.576
N2325 G1 X54.588 Y0.065
N2330 X54.556 Y0.211
N2335 X54.511 Y0.354
N2340 X54.454 Y0.493
N2345 X54.386 Y0.627
N2350 X54.311 Y0.757
N2355 X54.228 Y0.882
N2360 X54.138 Y1.002
N2365 X54.044 Y1.119
N2370 X53.93 Y1.246
N2375 X53.808 Y1.372
N2380 X53.667 Y1.506
N2385 X53.506 Y1.645
N2390 X53.329 Y1.786
N2395 X53.12 Y1.937
N2400 X52.9 Y2.082
N2405 X52.64 Y2.238
N2410 X52.35 Y2.395
N2415 X52.029 Y2.551
N2420 X51.645 Y2.718
N2425 X51.244 Y2.872
N2430 X50.753 Y3.036
N2435 X50.193 Y3.196
N2440 X49.559 Y3.348
N2445 X48.776 Y3.501
N2450 X47.87 Y3.636
N2455 X46.96 Y3.736
N2460 X46.048 Y3.809
N2465 X45.134 Y3.863
N2470 X44.219 Y3.902
N2475 X43.304 Y3.93
N2480 X42.389 Y3.95
N2485 X41.474 Y3.965
N2490 X40.559 Y3.975
N2495 X39.643 Y3.983
N2500 X38.728 Y3.988
N2505 X37.812 Y3.992
N2510 X35.981 Y3.996
N2515 X33.235 Y3.999
N2520 X27.743 Y4.
N2525 X26.827
N2530 X25.912 Y3.998
N2535 X24.996 Y3.992
N2540 X24.081 Y3.977
N2545 X23.166 Y3.946
N2550 X22.259 Y3.888
N2555 X21.55 Y3.812
N2560 X20.978 Y3.725
N2565 X20.494 Y3.63
N2570 X20.092 Y3.533
N2575 X19.784 Y3.444
N2580 X19.481 Y3.342
N2585 X19.263 Y3.258
N2590 X19.041 Y3.161
N2595 X18.847 Y3.066
N2600 X18.816 Y3.049
N2605 X18.52 Y2.858
N2610 X18.256 Y2.623
N2615 X18.03 Y2.352
N2620 X17.848 Y2.05
N2625 X17.713 Y1.723
N2630 X17.629 Y1.38
N2635 X17.475 Y0.446
N2640 G3 X17.842 Y-0.186 I0.595 J-0.077
N2645 G1 X17.928 Y-0.222 Z-10.993
N2650 X18.013 Y-0.257 Z-10.971
N2655 X18.094 Y-0.29 Z-10.935
N2660 X18.168 Y-0.321 Z-10.885
N2665 X18.234 Y-0.348 Z-10.824
N2670 X18.291 Y-0.371 Z-10.753
N2675 X18.336 Y-0.39 Z-10.672
N2680 X18.369 Y-0.404 Z-10.585
N2685 X18.39 Y-0.412 Z-10.494
N2690 X18.397 Y-0.415 Z-10.4
N2695 G0 Z5.
N2700 X54.274 Y-1.274
N2705 Z-9.8
N2710 G1 Z-10.4 F750.
N2715 X54.276 Y-1.267 Z-10.494
N2720 X54.284 Y-1.246 Z-10.585
N2725 X54.298 Y-1.213 Z-10.672
N2730 X54.315 Y-1.167 Z-10.753
N2735 X54.338 Y-1.11 Z-10.824
N2740 X54.364 Y-1.043 Z-10.885
N2745 X54.393 Y-0.968 Z-10.935
N2750 X54.425 Y-0.887 Z-10.971
N2755 X54.458 Y-0.802 Z-10.993
N2760 X54.492 Y-0.715 Z-11.
N2765 G3 X54.588 Y0.065 I-1.474 J0.576
N2770 G1 X54.461 Y0.834
N2775 X54.429 Y0.98
N2780 X54.387 Y1.124
N2785 X54.334 Y1.264
N2790 X54.269 Y1.4
N2795 X54.197 Y1.531
N2800 X54.117 Y1.658
N2805 X54.031 Y1.781
N2810 X53.937 Y1.903
N2815 X53.828 Y2.032
N2820 X53.708 Y2.162
N2825 X53.565 Y2.304
N2830 X53.413 Y2.442
N2835 X53.233 Y2.593
N2840 X53.032 Y2.746
N2845 X52.813 Y2.898
N2850 X52.552 Y3.064
N2855 X52.277 Y3.221
N2860 X51.953 Y3.389
N2865 X51.583 Y3.56
N2870 X51.189 Y3.723
N2875 X50.704 Y3.898
N2880 X50.18 Y4.062
N2885 X49.562 Y4.227
N2890 X48.823 Y4.39
N2895 X47.927 Y4.546
N2900 X47.019 Y4.665
N2905 X46.108 Y4.753
N2910 X45.195 Y4.819
N2915 X44.281 Y4.868
N2920 X43.366 Y4.904
N2925 X42.451 Y4.931
N2930 X41.536 Y4.95
N2935 X40.621 Y4.964
N2940 X39.705 Y4.975
N2945 X38.79 Y4.982
N2950 X37.875 Y4.987
N2955 X36.959 Y4.991
N2960 X35.128 Y4.996
N2965 X32.382 Y4.999
N2970 X28.72 Y5.
N2975 X27.805 Y4.999
N2980 X26.89 Y4.998
N2985 X25.974 Y4.993
N2990 X25.059 Y4.982
N2995 X24.144 Y4.96
N3000 X23.229 Y4.919
N3005 X22.327 Y4.849
N3010 X21.643 Y4.765
N3015 X21.062 Y4.669
N3020 X20.595 Y4.57
N3025 X20.182 Y4.464
N3030 X19.877 Y4.371
N3035 X19.583 Y4.268
N3040 X19.364 Y4.179
N3045 X19.149 Y4.082
N3050 X18.955 Y3.983
N3055 X18.943 Y3.977
N3060 X18.599 Y3.741
N3065 X18.303 Y3.447
N3070 X18.064 Y3.106
N3075 X17.89 Y2.727
N3080 X17.785 Y2.324
N3085 X17.629 Y1.38
N3090 G3 X17.996 Y0.748 I0.595 J-0.077
N3095 G1 X18.083 Y0.713 Z-10.993
N3100 X18.167 Y0.678 Z-10.971
N3105 X18.248 Y0.645 Z-10.935
N3110 X18.322 Y0.614 Z-10.885
N3115 X18.388 Y0.587 Z-10.824
N3120 X18.445 Y0.563 Z-10.753
N3125 X18.49 Y0.545 Z-10.672
N3130 X18.524 Y0.531 Z-10.585
N3135 X18.544 Y0.523 Z-10.494
N3140 X18.551 Y0.52 Z-10.4
N3145 G0 Z5.
N3150 X54.147 Y-0.505
N3155 Z-9.8
N3160 G1 Z-10.4 F750.
N3165 X54.149 Y-0.498 Z-10.494
N3170 X54.157 Y-0.477 Z-10.585
N3175 X54.171 Y-0.444 Z-10.672
N3180 X54.188 Y-0.398 Z-10.753
N3185 X54.211 Y-0.341 Z-10.824
N3190 X54.237 Y-0.274 Z-10.885
N3195 X54.266 Y-0.199 Z-10.935
N3200 X54.298 Y-0.118 Z-10.971
N3205 X54.331 Y-0.033 Z-10.993
N3210 X54.365 Y0.054 Z-11.
N3215 G3 X54.461 Y0.834 I-1.474 J0.576
N3220 G1 X54.323 Y1.666
N3225 X54.292 Y1.812
N3230 X54.25 Y1.956
N3235 X54.196 Y2.096
N3240 X54.133 Y2.232
N3245 X54.061 Y2.364
N3250 X53.983 Y2.492
N3255 X53.898 Y2.615
N3260 X53.805 Y2.738
N3265 X53.694 Y2.872
N3270 X53.574 Y3.006
N3275 X53.433 Y3.149
N3280 X53.273 Y3.298
N3285 X53.097 Y3.448
N3290 X52.89 Y3.61
N3295 X52.67 Y3.767
N3300 X52.411 Y3.934
N3305 X52.118 Y4.107
N3310 X51.805 Y4.274
N3315 X51.43 Y4.453
N3320 X51.021 Y4.627
N3325 X50.554 Y4.802
N3330 X49.982 Y4.988
N3335 X49.393 Y5.152
N3340 X48.668 Y5.32
N3345 X47.785 Y5.485
N3350 X46.879 Y5.614
N3355 X45.969 Y5.712
N3360 X45.056 Y5.785
N3365 X44.143 Y5.841
N3370 X43.228 Y5.883
N3375 X42.313 Y5.914
N3380 X41.398 Y5.937
N3385 X40.483 Y5.954
N3390 X39.568 Y5.967
N3395 X38.652 Y5.976
N3400 X37.737 Y5.983
N3405 X36.821 Y5.988
N3410 X34.991 Y5.994
N3415 X32.244 Y5.998
N3420 X29.498 Y5.999
N3425 X28.583
N3430 X27.667 Y5.997
N3435 X26.752 Y5.993
N3440 X25.836 Y5.983
N3445 X24.921 Y5.964
N3450 X24.006 Y5.931
N3455 X23.093 Y5.874
N3460 X22.273 Y5.793
N3465 X21.605 Y5.698
N3470 X21.06 Y5.596
N3475 X20.602 Y5.489
N3480 X20.21 Y5.38
N3485 X19.933 Y5.289
N3490 X19.647 Y5.182
N3495 X19.425 Y5.087
N3500 X19.242 Y5.
N3505 X19.183 Y4.969
N3510 X18.85 Y4.753
N3515 X18.559 Y4.484
N3520 X18.317 Y4.17
N3525 X18.132 Y3.82
N3530 X18.009 Y3.443
N3535 X17.982 Y3.329
N3540 X17.891 Y2.914
N3545 X17.848 Y2.706
N3550 X17.785 Y2.324
N3555 G3 X18.152 Y1.692 I0.595 J-0.077
N3560 G1 X18.239 Y1.656 Z-10.993
N3565 X18.323 Y1.621 Z-10.971
N3570 X18.404 Y1.588 Z-10.935
N3575 X18.478 Y1.558 Z-10.885
N3580 X18.544 Y1.53 Z-10.824
N3585 X18.601 Y1.507 Z-10.753
N3590 X18.646 Y1.488 Z-10.672
N3595 X18.68 Y1.475 Z-10.585
N3600 X18.7 Y1.466 Z-10.494
N3605 X18.707 Y1.463 Z-10.4
N3610 G0 Z5.
N3615 X54.009 Y0.327
N3620 Z-9.8
N3625 G1 Z-10.4 F750.
N3630 X54.012 Y0.334 Z-10.494
N3635 X54.02 Y0.355 Z-10.585
N3640 X54.033 Y0.388 Z-10.672
N3645 X54.051 Y0.434 Z-10.753
N3650 X54.073 Y0.491 Z-10.824
N3655 X54.099 Y0.558 Z-10.885
N3660 X54.129 Y0.632 Z-10.935
N3665 X54.16 Y0.713 Z-10.971
N3670 X54.194 Y0.799 Z-10.993
N3675 X54.228 Y0.886 Z-11.
N3680 G3 X54.323 Y1.666 I-1.474 J0.576
N3685 G1 X54.186 Y2.498
N3690 X54.146 Y2.664
N3695 X54.105 Y2.808
N3700 X54.053 Y2.949
N3705 X53.99 Y3.085
N3710 X53.92 Y3.218
N3715 X53.842 Y3.346
N3720 X53.758 Y3.47
N3725 X53.666 Y3.595
N3730 X53.554 Y3.732
N3735 X53.434 Y3.869
N3740 X53.292 Y4.015
N3745 X53.133 Y4.167
N3750 X52.955 Y4.321
N3755 X52.745 Y4.488
N3760 X52.524 Y4.649
N3765 X52.265 Y4.821
N3770 X51.97 Y4.998
N3775 X51.647 Y5.174
N3780 X51.269 Y5.359
N3785 X50.857 Y5.539
N3790 X50.39 Y5.719
N3795 X49.818 Y5.911
N3800 X49.224 Y6.083
N3805 X48.503 Y6.257
N3810 X47.63 Y6.429
N3815 X46.725 Y6.566
N3820 X45.815 Y6.672
N3825 X44.904 Y6.753
N3830 X43.99 Y6.814
N3835 X43.076 Y6.861
N3840 X42.161 Y6.897
N3845 X41.246 Y6.924
N3850 X40.331 Y6.944
N3855 X39.416 Y6.959
N3860 X38.5 Y6.97
N3865 X37.585 Y6.978
N3870 X36.67 Y6.984
N3875 X35.754 Y6.989
N3880 X33.923 Y6.994
N3885 X31.177 Y6.998
N3890 X29.346
N3895 X28.431 Y6.997
N3900 X27.515 Y6.993
N3905 X26.6 Y6.984
N3910 X25.685 Y6.968
N3915 X24.77 Y6.94
N3920 X23.856 Y6.893
N3925 X22.943 Y6.82
N3930 X22.194 Y6.731
N3935 X21.552 Y6.625
N3940 X21.044 Y6.519
N3945 X20.602 Y6.406
N3950 X20.279 Y6.309
N3955 X19.977 Y6.203
N3960 X19.735 Y6.106
N3965 X19.538 Y6.017
N3970 X19.461 Y5.979
N3975 X19.115 Y5.765
N3980 X18.812 Y5.494
N3985 X18.56 Y5.174
N3990 X18.368 Y4.815
N3995 X18.241 Y4.429
N4000 X18.009 Y3.443
N4005 G3 X18.332 Y2.788 I0.589 J-0.117
N4010 G1 X18.417 Y2.746 Z-10.993
N4015 X18.499 Y2.706 Z-10.971
N4020 X18.577 Y2.667 Z-10.935
N4025 X18.649 Y2.632 Z-10.885
N4030 X18.713 Y2.6 Z-10.824
N4035 X18.768 Y2.573 Z-10.753
N4040 X18.812 Y2.552 Z-10.672
N4045 X18.844 Y2.536 Z-10.585
N4050 X18.864 Y2.526 Z-10.494
N4055 X18.871 Y2.523 Z-10.4
N4060 G0 Z5.
N4065 X53.872 Y1.159
N4070 Z-9.8
N4075 G1 Z-10.4 F750.
N4080 X53.875 Y1.166 Z-10.494
N4085 X53.883 Y1.187 Z-10.585
N4090 X53.896 Y1.22 Z-10.672
N4095 X53.914 Y1.266 Z-10.753
N4100 X53.936 Y1.323 Z-10.824
N4105 X53.962 Y1.39 Z-10.885
N4110 X53.991 Y1.464 Z-10.935
N4115 X54.023 Y1.545 Z-10.971
N4120 X54.056 Y1.631 Z-10.993
N4125 X54.09 Y1.718 Z-11.
N4130 G3 X54.186 Y2.498 I-1.474 J0.576
N4135 G1 X54.147 Y2.706
N4140 X54.018 Y3.329
N4145 X53.969 Y3.537
N4150 X53.927 Y3.682
N4155 X53.878 Y3.823
N4160 X53.818 Y3.961
N4165 X53.749 Y4.094
N4170 X53.674 Y4.224
N4175 X53.591 Y4.349
N4180 X53.502 Y4.472
N4185 X53.394 Y4.61
N4190 X53.277 Y4.745
N4195 X53.138 Y4.893
N4200 X52.982 Y5.045
N4205 X52.807 Y5.201
N4210 X52.6 Y5.37
N4215 X52.383 Y5.532
N4220 X52.125 Y5.708
N4225 X51.837 Y5.886
N4230 X51.515 Y6.067
N4235 X51.138 Y6.257
N4240 X50.736 Y6.438
N4245 X50.27 Y6.625
N4250 X49.706 Y6.823
N4255 X49.123 Y6.999
N4260 X48.412 Y7.181
N4265 X47.562 Y7.359
N4270 X46.659 Y7.507
N4275 X45.751 Y7.623
N4280 X44.84 Y7.713
N4285 X43.927 Y7.782
N4290 X43.013 Y7.835
N4295 X42.098 Y7.876
N4300 X41.184 Y7.907
N4305 X40.268 Y7.931
N4310 X39.353 Y7.949
N4315 X38.438 Y7.962
N4320 X37.522 Y7.972
N4325 X36.607 Y7.979
N4330 X35.692 Y7.985
N4335 X34.776 Y7.989
N4340 X32.945 Y7.994
N4345 X31.115 Y7.997
N4350 X30.199
N4355 X29.284 Y7.996
N4360 X28.368 Y7.993
N4365 X27.453 Y7.986
N4370 X26.538 Y7.973
N4375 X25.622 Y7.951
N4380 X24.708 Y7.914
N4385 X23.794 Y7.857
N4390 X22.883 Y7.771
N4395 X22.166 Y7.672
N4400 X21.562 Y7.562
N4405 X21.077 Y7.452
N4410 X20.683 Y7.345
N4415 X20.382 Y7.248
N4420 X20.094 Y7.142
N4425 X19.891 Y7.057
N4430 X19.78 Y7.004
N4435 X19.47 Y6.828
N4440 X19.191 Y6.606
N4445 X18.948 Y6.345
N4450 X18.748 Y6.049
N4455 X18.596 Y5.726
N4460 X18.554 Y5.617
N4465 X18.478 Y5.409
N4470 X18.325 Y4.785
N4475 X18.241 Y4.429
N4480 G3 X18.564 Y3.774 I0.589 J-0.117
N4485 G1 X18.648 Y3.732 Z-10.993
N4490 X18.73 Y3.692 Z-10.971
N4495 X18.808 Y3.654 Z-10.935
N4500 X18.88 Y3.618 Z-10.885
N4505 X18.945 Y3.586 Z-10.824
N4510 X19. Y3.559 Z-10.753
N4515 X19.044 Y3.538 Z-10.672
N4520 X19.076 Y3.522 Z-10.585
N4525 X19.096 Y3.512 Z-10.494
N4530 X19.102 Y3.509 Z-10.4
N4535 G0 Z5.
N4540 X53.745 Y2.181
N4545 Z-9.8
N4550 G1 Z-10.4 F750.
N4555 X53.747 Y2.188 Z-10.494
N4560 X53.754 Y2.209 Z-10.585
N4565 X53.765 Y2.243 Z-10.672
N4570 X53.779 Y2.29 Z-10.753
N4575 X53.798 Y2.349 Z-10.824
N4580 X53.819 Y2.417 Z-10.885
N4585 X53.844 Y2.493 Z-10.935
N4590 X53.87 Y2.576 Z-10.971
N4595 X53.897 Y2.664 Z-10.993
N4600 X53.926 Y2.753 Z-11.
N4605 G3 X53.969 Y3.537 I-1.509 J0.476
N4610 G1 X53.747 Y4.484
N4615 X53.705 Y4.628
N4620 X53.655 Y4.769
N4625 X53.595 Y4.907
N4630 X53.526 Y5.04
N4635 X53.45 Y5.169
N4640 X53.367 Y5.294
N4645 X53.275 Y5.422
N4650 X53.169 Y5.554
N4655 X53.044 Y5.698
N4660 X52.909 Y5.841
N4665 X52.745 Y6.
N4670 X52.569 Y6.155
N4675 X52.365 Y6.321
N4680 X52.131 Y6.495
N4685 X51.878 Y6.666
N4690 X51.571 Y6.855
N4695 X51.247 Y7.035
N4700 X50.874 Y7.222
N4705 X50.431 Y7.42
N4710 X49.972 Y7.602
N4715 X49.41 Y7.797
N4720 X48.755 Y7.993
N4725 X48.041 Y8.173
N4730 X47.161 Y8.354
N4735 X46.258 Y8.5
N4740 X45.349 Y8.614
N4745 X44.438 Y8.703
N4750 X43.526 Y8.773
N4755 X42.612 Y8.827
N4760 X41.697 Y8.868
N4765 X40.782 Y8.9
N4770 X39.867 Y8.925
N4775 X38.952 Y8.944
N4780 X38.037 Y8.958
N4785 X37.121 Y8.969
N4790 X36.206 Y8.977
N4795 X35.291 Y8.983
N4800 X34.375 Y8.988
N4805 X32.544 Y8.993
N4810 X30.713 Y8.995
N4815 X29.798
N4820 X28.883 Y8.992
N4825 X27.967 Y8.985
N4830 X27.052 Y8.972
N4835 X26.137 Y8.95
N4840 X25.222 Y8.916
N4845 X24.308 Y8.863
N4850 X23.396 Y8.785
N4855 X22.619 Y8.689
N4860 X21.964 Y8.579
N4865 X21.446 Y8.468
N4870 X21.034 Y8.362
N4875 X20.696 Y8.258
N4880 X20.432 Y8.165
N4885 X20.305 Y8.113
N4890 X19.963 Y7.941
N4895 X19.653 Y7.715
N4900 X19.385 Y7.441
N4905 X19.165 Y7.128
N4910 X18.999 Y6.782
N4915 X18.596 Y5.726
N4920 G3 X18.829 Y5.034 I0.568 J-0.194
N4925 G1 X18.907 Y4.982 Z-10.993
N4930 X18.983 Y4.931 Z-10.971
N4935 X19.055 Y4.882 Z-10.935
N4940 X19.122 Y4.837 Z-10.885
N4945 X19.181 Y4.797 Z-10.824
N4950 X19.232 Y4.763 Z-10.753
N4955 X19.273 Y4.736 Z-10.672
N4960 X19.303 Y4.716 Z-10.585
N4965 X19.321 Y4.703 Z-10.494
N4970 X19.327 Y4.699 Z-10.4
N4975 G0 Z5.
N4980 X53.523 Y3.127
N4985 Z-9.8
N4990 G1 Z-10.4 F750.
N4995 X53.525 Y3.134 Z-10.494
N5000 X53.532 Y3.155 Z-10.585
N5005 X53.542 Y3.19 Z-10.672
N5010 X53.557 Y3.237 Z-10.753
N5015 X53.576 Y3.295 Z-10.824
N5020 X53.597 Y3.363 Z-10.885
N5025 X53.621 Y3.44 Z-10.935
N5030 X53.648 Y3.523 Z-10.971
N5035 X53.675 Y3.61 Z-10.993
N5040 X53.703 Y3.7 Z-11.
N5045 G3 X53.747 Y4.484 I-1.509 J0.476
N5050 G1 X53.627 Y4.993
N5055 X53.575 Y5.201
N5060 X53.522 Y5.409
N5065 X53.498 Y5.479
N5070 X53.422 Y5.68
N5075 X53.352 Y5.837
N5080 X53.286 Y5.972
N5085 X53.212 Y6.102
N5090 X53.131 Y6.228
N5095 X53.044 Y6.351
N5100 X52.94 Y6.484
N5105 X52.824 Y6.621
N5110 X52.69 Y6.765
N5115 X52.535 Y6.919
N5120 X52.365 Y7.073
N5125 X52.16 Y7.243
N5130 X51.943 Y7.408
N5135 X51.688 Y7.585
N5140 X51.399 Y7.767
N5145 X51.081 Y7.948
N5150 X50.696 Y8.146
N5155 X50.292 Y8.332
N5160 X49.819 Y8.526
N5165 X49.248 Y8.731
N5170 X48.659 Y8.914
N5175 X47.94 Y9.103
N5180 X47.082 Y9.29
N5185 X46.18 Y9.446
N5190 X45.272 Y9.568
N5195 X44.362 Y9.665
N5200 X43.45 Y9.741
N5205 X42.536 Y9.801
N5210 X41.622 Y9.847
N5215 X40.707 Y9.883
N5220 X39.792 Y9.911
N5225 X38.877 Y9.933
N5230 X37.962 Y9.949
N5235 X37.047 Y9.962
N5240 X36.131 Y9.972
N5245 X35.216 Y9.979
N5250 X34.3 Y9.984
N5255 X33.385 Y9.988
N5260 X32.47 Y9.991
N5265 X31.554 Y9.993
N5270 X30.639
N5275 X29.723 Y9.991
N5280 X28.808 Y9.986
N5285 X27.893 Y9.976
N5290 X26.977 Y9.958
N5295 X26.062 Y9.931
N5300 X25.148 Y9.888
N5305 X24.235 Y9.826
N5310 X23.324 Y9.736
N5315 X22.594 Y9.633
N5320 X21.99 Y9.521
N5325 X21.568 Y9.424
N5330 X21.196 Y9.321
N5335 X20.941 Y9.238
N5340 X20.822 Y9.193
N5345 X20.511 Y9.051
N5350 X20.225 Y8.864
N5355 X19.969 Y8.638
N5360 X19.748 Y8.376
N5365 X19.569 Y8.085
N5370 X19.366 Y7.697
N5375 X19.269 Y7.489
N5380 X18.999 Y6.782
N5385 G3 X19.232 Y6.09 I0.568 J-0.194
N5390 G1 X19.31 Y6.037 Z-10.993
N5395 X19.386 Y5.986 Z-10.971
N5400 X19.458 Y5.938 Z-10.935
N5405 X19.525 Y5.893 Z-10.885
N5410 X19.584 Y5.853 Z-10.824
N5415 X19.635 Y5.819 Z-10.753
N5420 X19.676 Y5.792 Z-10.672
N5425 X19.706 Y5.771 Z-10.585
N5430 X19.724 Y5.759 Z-10.494
N5435 X19.73 Y5.755 Z-10.4
N5440 G0 Z5.
N5445 X53.381 Y4.306
N5450 Z-9.8
N5455 G1 Z-10.4 F750.
N5460 X53.382 Y4.313 Z-10.494
N5465 X53.386 Y4.335 Z-10.585
N5470 X53.392 Y4.37 Z-10.672
N5475 X53.401 Y4.419 Z-10.753
N5480 X53.411 Y4.479 Z-10.824
N5485 X53.423 Y4.55 Z-10.885
N5490 X53.437 Y4.629 Z-10.935
N5495 X53.452 Y4.714 Z-10.971
N5500 X53.468 Y4.805 Z-10.993
N5505 X53.484 Y4.897 Z-11.
N5510 G3 X53.422 Y5.68 I-1.559 J0.27
N5515 G1 X53.005 Y6.771
N5520 X52.942 Y6.915
N5525 X52.875 Y7.05
N5530 X52.8 Y7.18
N5535 X52.718 Y7.305
N5540 X52.63 Y7.426
N5545 X52.528 Y7.555
N5550 X52.415 Y7.684
N5555 X52.277 Y7.829
N5560 X52.129 Y7.972
N5565 X51.948 Y8.131
N5570 X51.757 Y8.286
N5575 X51.526 Y8.457
N5580 X51.272 Y8.628
N5585 X50.978 Y8.808
N5590 X50.635 Y8.998
N5595 X50.275 Y9.177
N5600 X49.835 Y9.373
N5605 X49.347 Y9.566
N5610 X48.791 Y9.758
N5615 X48.127 Y9.955
N5620 X47.359 Y10.147
N5625 X46.462 Y10.33
N5630 X45.558 Y10.475
N5635 X44.65 Y10.589
N5640 X43.739 Y10.68
N5645 X42.826 Y10.751
N5650 X41.913 Y10.807
N5655 X40.998 Y10.851
N5660 X40.084 Y10.886
N5665 X39.168 Y10.913
N5670 X38.253 Y10.933
N5675 X37.338 Y10.949
N5680 X36.423 Y10.962
N5685 X35.507 Y10.971
N5690 X34.592 Y10.978
N5695 X33.676 Y10.984
N5700 X32.761 Y10.987
N5705 X31.846 Y10.99
N5710 X30.93
N5715 X30.015 Y10.988
N5720 X29.099 Y10.982
N5725 X28.184 Y10.971
N5730 X27.269 Y10.953
N5735 X26.354 Y10.925
N5740 X25.439 Y10.882
N5745 X24.526 Y10.82
N5750 X23.615 Y10.731
N5755 X22.863 Y10.625
N5760 X22.31 Y10.522
N5765 X21.914 Y10.431
N5770 X21.609 Y10.346
N5775 X21.504 Y10.312
N5780 X21.177 Y10.178
N5785 X20.874 Y9.996
N5790 X20.602 Y9.77
N5795 X20.368 Y9.506
N5800 X20.176 Y9.209
N5805 X19.692 Y8.321
N5810 X19.569 Y8.085
N5815 G3 X19.72 Y7.371 I0.541 J-0.258
N5820 G1 X19.792 Y7.31 Z-10.993
N5825 X19.861 Y7.25 Z-10.971
N5830 X19.927 Y7.194 Z-10.935
N5835 X19.988 Y7.142 Z-10.885
N5840 X20.043 Y7.095 Z-10.824
N5845 X20.089 Y7.055 Z-10.753
N5850 X20.127 Y7.023 Z-10.672
N5855 X20.154 Y7. Z-10.585
N5860 X20.171 Y6.986 Z-10.494
N5865 X20.176 Y6.981 Z-10.4
N5870 G0 Z5.
N5875 X52.964 Y5.397
N5880 Z-9.8
N5885 G1 Z-10.4 F750.
N5890 X52.966 Y5.405 Z-10.494
N5895 X52.969 Y5.426 Z-10.585
N5900 X52.976 Y5.462 Z-10.672
N5905 X52.984 Y5.51 Z-10.753
N5910 X52.994 Y5.57 Z-10.824
N5915 X53.007 Y5.641 Z-10.885
N5920 X53.02 Y5.72 Z-10.935
N5925 X53.035 Y5.806 Z-10.971
N5930 X53.051 Y5.896 Z-10.993
N5935 X53.067 Y5.989 Z-11.
N5940 G3 X53.005 Y6.771 I-1.559 J0.27
N5945 G1 X52.731 Y7.489
N5950 X52.667 Y7.633
N5955 X52.417 Y8.113
N5960 X52.338 Y8.247
N5965 X52.256 Y8.373
N5970 X52.168 Y8.494
N5975 X52.07 Y8.617
N5980 X51.96 Y8.742
N5985 X51.828 Y8.88
N5990 X51.685 Y9.016
N5995 X51.51 Y9.17
N6000 X51.324 Y9.32
N6005 X51.095 Y9.488
N6010 X50.853 Y9.65
N6015 X50.562 Y9.827
N6020 X50.237 Y10.005
N6025 X49.867 Y10.189
N6030 X49.419 Y10.386
N6035 X48.953 Y10.568
N6040 X48.369 Y10.768
N6045 X47.704 Y10.963
N6050 X46.956 Y11.147
N6055 X46.059 Y11.328
N6060 X45.155 Y11.471
N6065 X44.246 Y11.584
N6070 X43.335 Y11.674
N6075 X42.423 Y11.745
N6080 X41.509 Y11.802
N6085 X40.595 Y11.846
N6090 X39.68 Y11.881
N6095 X38.765 Y11.908
N6100 X37.85 Y11.93
N6105 X36.934 Y11.946
N6110 X36.019 Y11.959
N6115 X35.104 Y11.969
N6120 X34.188 Y11.976
N6125 X33.273 Y11.982
N6130 X32.358 Y11.985
N6135 X31.442 Y11.986
N6140 X30.527 Y11.985
N6145 X29.611 Y11.98
N6150 X28.696 Y11.97
N6155 X27.781 Y11.953
N6160 X26.866 Y11.927
N6165 X25.951 Y11.887
N6170 X25.037 Y11.83
N6175 X24.126 Y11.748
N6180 X23.383 Y11.654
N6185 X22.877 Y11.567
N6190 X22.476 Y11.48
N6195 X22.343 Y11.445
N6200 X21.969 Y11.312
N6205 X21.624 Y11.117
N6210 X21.316 Y10.867
N6215 X21.055 Y10.568
N6220 X20.779 Y10.193
N6225 X20.634 Y9.985
N6230 X20.494 Y9.777
N6235 X20.444 Y9.701
N6240 X20.176 Y9.209
N6245 G3 X20.314 Y8.492 I0.537 J-0.268
N6250 G1 X20.384 Y8.43 Z-10.993
N6255 X20.453 Y8.369 Z-10.971
N6260 X20.518 Y8.311 Z-10.935
N6265 X20.578 Y8.258 Z-10.885
N6270 X20.631 Y8.21 Z-10.824
N6275 X20.677 Y8.17 Z-10.753
N6280 X20.714 Y8.137 Z-10.672
N6285 X20.741 Y8.113 Z-10.585
N6290 X20.757 Y8.099 Z-10.494
N6295 X20.763 Y8.094 Z-10.4
N6300 G0 Z5.
N6305 X52.535 Y6.743
N6310 Z-9.8
N6315 G1 Z-10.4 F750.
N6320 X52.536 Y6.751 Z-10.494
N6325 X52.537 Y6.773 Z-10.585
N6330 X52.539 Y6.809 Z-10.672
N6335 X52.542 Y6.858 Z-10.753
N6340 X52.545 Y6.919 Z-10.824
N6345 X52.549 Y6.99 Z-10.885
N6350 X52.554 Y7.07 Z-10.935
N6355 X52.559 Y7.157 Z-10.971
N6360 X52.564 Y7.249 Z-10.993
N6365 X52.569 Y7.342 Z-11.
N6370 G3 X52.417 Y8.113 I-1.58 J0.089
N6375 G1 X52.308 Y8.321
N6380 X51.784 Y9.283
N6385 X51.697 Y9.426
N6390 X51.613 Y9.55
N6395 X51.522 Y9.67
N6400 X51.426 Y9.785
N6405 X51.311 Y9.91
N6410 X51.187 Y10.033
N6415 X51.033 Y10.174
N6420 X50.868 Y10.312
N6425 X50.666 Y10.467
N6430 X50.452 Y10.617
N6435 X50.184 Y10.787
N6440 X49.902 Y10.949
N6445 X49.554 Y11.131
N6450 X49.174 Y11.308
N6455 X48.731 Y11.491
N6460 X48.197 Y11.685
N6465 X47.626 Y11.865
N6470 X46.924 Y12.054
N6475 X46.08 Y12.242
N6480 X45.178 Y12.401
N6485 X44.272 Y12.527
N6490 X43.362 Y12.628
N6495 X42.45 Y12.707
N6500 X41.537 Y12.771
N6505 X40.623 Y12.821
N6510 X39.708 Y12.861
N6515 X38.793 Y12.892
N6520 X37.878 Y12.916
N6525 X36.963 Y12.936
N6530 X36.048 Y12.951
N6535 X35.132 Y12.962
N6540 X34.217 Y12.971
N6545 X33.301 Y12.977
N6550 X32.386 Y12.98
N6555 X31.471 Y12.981
N6560 X30.555 Y12.979
N6565 X29.64 Y12.973
N6570 X28.724 Y12.96
N6575 X27.809 Y12.941
N6580 X26.894 Y12.91
N6585 X25.98 Y12.866
N6590 X25.067 Y12.803
N6595 X24.191 Y12.715
N6600 X23.685 Y12.642
N6605 X23.276 Y12.565
N6610 X23.193 Y12.546
N6615 X22.871 Y12.445
N6620 X22.567 Y12.299
N6625 X22.287 Y12.111
N6630 X22.037 Y11.884
N6635 X22.01 Y11.856
N6640 X21.899 Y11.71
N6645 X21.483 Y11.152
N6650 X21.055 Y10.568
N6655 G3 X21.096 Y9.839 I0.496 J-0.338
N6660 G1 X21.157 Y9.768 Z-10.993
N6665 X21.217 Y9.698 Z-10.971
N6670 X21.274 Y9.632 Z-10.935
N6675 X21.326 Y9.572 Z-10.885
N6680 X21.373 Y9.517 Z-10.824
N6685 X21.413 Y9.471 Z-10.753
N6690 X21.445 Y9.434 Z-10.672
N6695 X21.468 Y9.406 Z-10.585
N6700 X21.483 Y9.39 Z-10.494
N6705 X21.488 Y9.384 Z-10.4
N6710 G0 Z5.
N6715 X51.927 Y7.916
N6720 Z-9.8
N6725 G1 Z-10.4 F750.
N6730 X51.928 Y7.924 Z-10.494
N6735 Y7.946 Z-10.585
N6740 X51.93 Y7.982 Z-10.672
N6745 X51.932 Y8.031 Z-10.753
N6750 X51.934 Y8.092 Z-10.824
N6755 X51.937 Y8.163 Z-10.885
N6760 X51.94 Y8.244 Z-10.935
N6765 X51.943 Y8.331 Z-10.971
N6770 X51.946 Y8.422 Z-10.993
N6775 X51.95 Y8.516 Z-11.
N6780 G3 X51.784 Y9.283 I-1.581 J0.06
N6785 G1 X51.627 Y9.571
N6790 X51.512 Y9.777
N6795 X51.42 Y9.921
N6800 X50.796 Y10.772
N6805 X50.685 Y10.908
N6810 X50.585 Y11.021
N6815 X50.478 Y11.131
N6820 X50.35 Y11.252
N6825 X50.202 Y11.38
N6830 X50.034 Y11.513
N6835 X49.832 Y11.658
N6840 X49.611 Y11.803
N6845 X49.348 Y11.961
N6850 X49.055 Y12.119
N6855 X48.707 Y12.288
N6860 X48.31 Y12.459
N6865 X47.847 Y12.636
N6870 X47.288 Y12.822
N6875 X46.678 Y12.995
N6880 X45.915 Y13.177
N6885 X45.016 Y13.351
N6890 X44.111 Y13.487
N6895 X43.202 Y13.595
N6900 X42.291 Y13.681
N6905 X41.378 Y13.749
N6910 X40.464 Y13.803
N6915 X39.55 Y13.846
N6920 X38.635 Y13.88
N6925 X37.72 Y13.907
N6930 X36.805 Y13.928
N6935 X35.889 Y13.944
N6940 X34.974 Y13.956
N6945 X34.059 Y13.966
N6950 X33.143 Y13.972
N6955 X32.228 Y13.975
N6960 X31.312
N6965 X30.397 Y13.971
N6970 X29.482 Y13.962
N6975 X28.566 Y13.946
N6980 X27.651 Y13.921
N6985 X26.737 Y13.884
N6990 X25.823 Y13.83
N6995 X24.936 Y13.756
N7000 X24.443 Y13.693
N7005 X24.399 Y13.685
N7010 X24.042 Y13.594
N7015 X23.703 Y13.447
N7020 X23.392 Y13.249
N7025 X23.115 Y13.005
N7030 X22.037 Y11.884
N7035 G3 X22.086 Y11.038 Z-10.8 I0.448 J-0.399
N7040 X22.47 Y10.886 I0.399 J0.448
N7045 G1 X51.165 Y10.143
N7050 X51.203 Y10.135
N7055 X51.234 Y10.113
N7060 X51.255 Y10.08
N7065 X51.263 Y10.042
N7070 X51.255 Y10.004
N7075 X51.233 Y9.972
N7080 X51.201 Y9.951
N7085 X51.163 Y9.943
N7090 X51.127 Y9.95 Z-10.808
N7095 X51.095 Y9.969 Z-10.816
N7100 X51.073 Y9.998 Z-10.824
N7105 X51.063 Y10.033 Z-10.831
N7110 X51.06 Y10.059 Z-10.837
N7115 G3 X50.796 Y10.772 Z-11. I-1.573 J-0.177
N7120 G1 X50.153 Y11.648
N7125 X49.991 Y11.856
N7130 X49.59 Y12.272
N7135 X49.44 Y12.414
N7140 X49.303 Y12.531
N7145 X49.154 Y12.649
N7150 X48.966 Y12.784
N7155 X48.768 Y12.914
N7160 X48.519 Y13.062
N7165 X48.255 Y13.203
N7170 X47.924 Y13.363
N7175 X47.565 Y13.518
N7180 X47.111 Y13.69
N7185 X46.621 Y13.852
N7190 X46.004 Y14.026
N7195 X45.261 Y14.202
N7200 X44.361 Y14.374
N7205 X43.456 Y14.507
N7210 X42.546 Y14.612
N7215 X41.635 Y14.694
N7220 X40.721 Y14.759
N7225 X39.807 Y14.811
N7230 X38.893 Y14.852
N7235 X37.978 Y14.884
N7240 X37.063 Y14.909
N7245 X36.148 Y14.929
N7250 X35.233 Y14.945
N7255 X34.317 Y14.956
N7260 X33.402 Y14.964
N7265 X32.486 Y14.968
N7270 X31.571 Y14.969
N7275 X30.656 Y14.965
N7280 X29.74 Y14.956
N7285 X28.825 Y14.94
N7290 X27.91 Y14.914
N7295 X26.995 Y14.877
N7300 X26.081 Y14.823
N7305 X25.799 Y14.795
N7310 X25.471 Y14.738
N7315 X25.154 Y14.636
N7320 X24.855 Y14.489
N7325 X24.58 Y14.302
N7330 X24.186 Y13.989
N7335 X23.623 Y13.52
N7340 X23.562 Y13.468
N7345 X23.115 Y13.005
N7350 G3 X23.16 Y12.158 Z-10.8 I0.446 J-0.401
N7355 X23.545 Y12.004 I0.401 J0.446
N7360 G1 X49.126 Y11.272
N7365 G3 X49.545 Y11.425 I0.017 J0.6
N7370 X49.59 Y12.272 Z-11. I-0.401 J0.446
N7375 G1 X48.717 Y13.179
N7380 X48.587 Y13.312
N7385 X48.374 Y13.52
N7390 X48.181 Y13.692
N7395 X48.049 Y13.798
N7400 X47.907 Y13.904
N7405 X47.729 Y14.024
N7410 X47.531 Y14.146
N7415 X47.299 Y14.275
N7420 X47.016 Y14.417
N7425 X46.71 Y14.553
N7430 X46.31 Y14.712
N7435 X45.894 Y14.856
N7440 X45.356 Y15.016
N7445 X44.715 Y15.178
N7450 X43.927 Y15.34
N7455 X43.023 Y15.485
N7460 X42.114 Y15.597
N7465 X41.203 Y15.684
N7470 X40.29 Y15.752
N7475 X39.376 Y15.805
N7480 X38.462 Y15.847
N7485 X37.547 Y15.88
N7490 X36.632 Y15.906
N7495 X35.717 Y15.926
N7500 X34.801 Y15.942
N7505 X33.886 Y15.952
N7510 X32.971 Y15.959
N7515 X32.055 Y15.962
N7520 X31.14 Y15.96
N7525 X30.224 Y15.952
N7530 X29.309 Y15.938
N7535 X28.394 Y15.915
N7540 X27.479 Y15.88
N7545 X27.374 Y15.873
N7550 X27.015 Y15.819
N7555 X26.669 Y15.711
N7560 X26.343 Y15.551
N7565 X25.727 Y15.184
N7570 X25.641 Y15.121
N7575 X25.173 Y14.768
N7580 X25.017 Y14.648
N7585 X24.58 Y14.302
N7590 G3 X24.512 Y13.456 Z-10.8 I0.389 J-0.457
N7595 X24.95 Y13.245 I0.457 J0.388
N7600 G1 X47.921 Y12.507
N7605 G3 X48.354 Y12.672 I0.019 J0.6
N7610 X48.374 Y13.52 Z-11. I-0.414 J0.434
N7615 G1 X48.301 Y13.592
N7620 X48.144 Y13.728
N7625 X46.569 Y14.976
N7630 X46.43 Y15.081
N7635 X46.014 Y15.336
N7640 X45.751 Y15.48
N7645 X45.514 Y15.596
N7650 X45.24 Y15.715
N7655 X44.89 Y15.851
N7660 X44.513 Y15.978
N7665 X44.022 Y16.12
N7670 X43.437 Y16.262
N7675 X42.688 Y16.41
N7680 X41.783 Y16.548
N7685 X40.874 Y16.651
N7690 X39.962 Y16.729
N7695 X39.048 Y16.789
N7700 X38.134 Y16.835
N7705 X37.219 Y16.871
N7710 X36.304 Y16.899
N7715 X35.389 Y16.92
N7720 X34.474 Y16.935
N7725 X33.558 Y16.946
N7730 X32.643 Y16.952
N7735 X31.728 Y16.953
N7740 X30.812 Y16.948
N7745 X29.897 Y16.936
N7750 X29.464 Y16.927
N7755 X29.169 Y16.902
N7760 X28.88 Y16.84
N7765 X28.601 Y16.741
N7770 X27.874 Y16.432
N7775 X27.72 Y16.349
N7780 X27.304 Y16.122
N7785 X26.343 Y15.551
N7790 G3 X26.163 Y14.722 Z-10.8 I0.324 J-0.505
N7795 X26.661 Y14.446 I0.505 J0.324
N7800 G1 X45.677 Y14.235
N7805 G3 X46.184 Y14.505 I0.007 J0.6
N7810 X46.014 Y15.336 Z-11. I-0.501 J0.33
N7815 G1 X45.807 Y15.462
N7820 X44.351 Y16.326
N7825 X44.143 Y16.422
N7830 X43.52 Y16.69
N7835 X43.148 Y16.848
N7840 X42.563 Y17.063
N7845 X42.228 Y17.17
N7850 X41.797 Y17.287
N7855 X41.265 Y17.406
N7860 X40.564 Y17.533
N7865 X39.657 Y17.655
N7870 X38.746 Y17.742
N7875 X37.833 Y17.804
N7880 X36.918 Y17.85
N7885 X36.004 Y17.884
N7890 X35.089 Y17.908
N7895 X34.173 Y17.926
N7900 X33.258 Y17.937
N7905 X32.546 Y17.941
N7910 X32.333 Y17.932
N7915 X32.122 Y17.904
N7920 X31.915 Y17.857
N7925 X30.215 Y17.39
N7930 X30.007 Y17.332
N7935 X29.799 Y17.246
N7940 X29.342 Y17.056
N7945 X28.601 Y16.741
N7950 G3 X28.284 Y15.955 Z-10.8 I0.235 J-0.552
N7955 X28.828 Y15.589 I0.552 J0.234
N7960 G1 X43.263 Y15.395
N7965 G3 X43.827 Y16.22 I0.008 J0.6
N7970 G1 X43.795 Y16.287 Z-10.816
N7975 X43.755 Y16.349 Z-10.831
N7980 X43.74 Y16.37 Z-10.837
N7985 G3 X43.148 Y16.848 Z-11. I-1.261 J-0.956
N7990 G1 X42.272 Y17.22
N7995 X42.168 Y17.264
N8000 X42.064 Y17.296
N8005 X41.441 Y17.485
N8010 X40.193 Y17.828
N8015 X39.986 Y17.882
N8020 X39.362 Y18.009
N8025 X39.154 Y18.042
N8030 X37.491 Y18.266
N8035 X37.283 Y18.288
N8040 X37.075 Y18.302
N8045 X35.204
N8050 X34.996 Y18.3
N8055 X34.58 Y18.271
N8060 X34.373 Y18.248
N8065 X32.917 Y18.052
N8070 X32.709 Y18.017
N8075 X32.294 Y17.946
N8080 X32.086 Y17.904
N8085 X31.915 Y17.857
N8090 X31.829 Y17.823
N8095 X31.749 Y17.776
N8100 X31.697 Y17.723 Z-10.995
N8105 X31.646 Y17.671 Z-10.982
N8110 X31.597 Y17.621 Z-10.959
N8115 X31.565 Y17.548 Z-10.921
N8120 X31.536 Y17.482 Z-10.871
N8125 X31.51 Y17.422 Z-10.812
N8130 X31.503 Y17.365 Z-10.74
N8135 X31.498 Y17.319 Z-10.659
N8140 X31.494 Y17.285 Z-10.573
N8145 Z-10.57
N8150 Y17.266 Z-10.486
N8155 Y17.26 Z-10.4
N8160 G0 Z5.
N8165 X74.318 Y-6.217
N8170 Z-8.4
N8175 G1 Z-9. F750.
N8180 Z-11.
N8185 G3 X73.568 Y-3.003 I-15.205 J-1.855
N8190 G1 X73.543 Y-2.939
N8195 X73.527 Y-2.905
N8200 X73.403 Y-2.822
N8205 X73.271 Y-2.75
N8210 X73.134 Y-2.688
N8215 X72.983 Y-2.627
N8220 X72.797 Y-2.562
N8225 X72.565 Y-2.492
N8230 X72.271 Y-2.417
N8235 X71.892 Y-2.337
N8240 X71.383 Y-2.253
N8245 X70.651 Y-2.165
N8250 X70.538 Y-2.156
N8255 X70.113 Y-2.162
N8260 X69.697 Y-2.245
N8265 X69.303 Y-2.402
N8270 X68.943 Y-2.628
N8275 X68.631 Y-2.916
N8280 X68.375 Y-3.255
N8285 X68.186 Y-3.634
N8290 G3 X68.553 Y-4.399 Z-10.8 I0.566 J-0.199
N8295 X68.849 Y-4.425 I0.199 J0.566
N8300 G1 X73.074 Y-3.73
N8305 X73.125 Y-3.719
N8310 X73.176 Y-3.704
N8315 G3 X73.543 Y-2.939 Z-11. I-0.199 J0.566
N8320 G1 X73.437 Y-2.667
N8325 X73.375 Y-2.53
N8330 X73.266 Y-2.427
N8335 X73.15 Y-2.332
N8340 X73.029 Y-2.244
N8345 X72.903 Y-2.163
N8350 X72.761 Y-2.081
N8355 X72.605 Y-1.999
N8360 X72.411 Y-1.908
N8365 X72.19 Y-1.815
N8370 X71.992 Y-1.742
N8375 X71.791 Y-1.678
N8380 X71.574 Y-1.619
N8385 X71.401 Y-1.58
N8390 X71.237 Y-1.55
N8395 X71.043 Y-1.524
N8400 X70.874 Y-1.509
N8405 X70.724 Y-1.501
N8410 X70.562
N8415 X70.517 Y-1.503
N8420 X70.135 Y-1.55
N8425 X69.765 Y-1.66
N8430 X69.419 Y-1.829
N8435 X69.105 Y-2.053
N8440 X68.832 Y-2.326
N8445 X68.608 Y-2.639
N8450 X68.439 Y-2.986
N8455 G3 X68.806 Y-3.75 Z-10.8 I0.566 J-0.199
N8460 X69.054 Y-3.782 I0.199 J0.566
N8465 G1 X72.92 Y-3.464
N8470 X72.996 Y-3.453
N8475 X73.069 Y-3.432
N8480 G3 X73.437 Y-2.667 Z-11. I-0.199 J0.566
N8485 G1 X73.266 Y-2.23
N8490 X73.204 Y-2.093
N8495 X73.116 Y-1.972
N8500 X73.017 Y-1.859
N8505 X72.911 Y-1.753
N8510 X72.798 Y-1.655
N8515 X72.68 Y-1.562
N8520 X72.557 Y-1.476
N8525 X72.43 Y-1.396
N8530 X72.299 Y-1.322
N8535 X72.166 Y-1.254
N8540 X72.027 Y-1.191
N8545 X71.883 Y-1.133
N8550 X71.741 Y-1.083
N8555 X71.597 Y-1.04
N8560 X71.438 Y-1.
N8565 X71.291 Y-0.969
N8570 X71.143 Y-0.946
N8575 X70.992 Y-0.93
N8580 X70.842 Y-0.92
N8585 X70.448 Y-0.947
N8590 X70.065 Y-1.041
N8595 X69.703 Y-1.201
N8600 X69.375 Y-1.42
N8605 X69.09 Y-1.693
N8610 X68.856 Y-2.012
N8615 X68.681 Y-2.366
N8620 G3 X69.048 Y-3.13 Z-10.8 I0.566 J-0.199
N8625 G1 X69.121 Y-3.151
N8630 X69.195 Y-3.162
N8635 X69.271 Y-3.164
N8640 X72.723 Y-3.028
N8645 X72.812 Y-3.018
N8650 X72.899 Y-2.994
N8655 G3 X73.266 Y-2.23 Z-11. I-0.199 J0.566
N8660 G1 X73.044 Y-1.662
N8665 X72.983 Y-1.525
N8670 X72.904 Y-1.397
N8675 X72.813 Y-1.278
N8680 X72.713 Y-1.166
N8685 X72.605 Y-1.062
N8690 X72.49 Y-0.966
N8695 X72.369 Y-0.877
N8700 X72.244 Y-0.795
N8705 X72.114 Y-0.72
N8710 X71.98 Y-0.652
N8715 X71.843 Y-0.592
N8720 X71.702 Y-0.54
N8725 X71.559 Y-0.495
N8730 X71.414 Y-0.457
N8735 X71.267 Y-0.428
N8740 X71.118 Y-0.407
N8745 X70.722
N8750 X70.332 Y-0.479
N8755 X69.962 Y-0.622
N8760 X69.625 Y-0.83
N8765 X69.332 Y-1.097
N8770 X69.092 Y-1.412
N8775 X68.915 Y-1.767
N8780 G3 X69.282 Y-2.531 Z-10.8 I0.566 J-0.199
N8785 G1 X69.354 Y-2.552
N8790 X69.427 Y-2.563
N8795 X69.502 Y-2.565
N8800 X72.499 Y-2.46
N8805 X72.589 Y-2.45
N8810 X72.677 Y-2.427
N8815 G3 X73.044 Y-1.662 Z-11. I-0.199 J0.566
N8820 G1 X72.815 Y-1.074
N8825 X72.753 Y-0.938
N8830 X72.68 Y-0.807
N8835 X72.592 Y-0.685
N8840 X72.494 Y-0.572
N8845 X72.386 Y-0.468
N8850 X72.27 Y-0.373
N8855 X72.148 Y-0.286
N8860 X72.02 Y-0.207
N8865 X71.886 Y-0.139
N8870 X71.749 Y-0.078
N8875 X71.608 Y-0.027
N8880 X71.464 Y0.015
N8885 X71.107 Y0.063
N8890 X70.747 Y0.047
N8895 X70.396 Y-0.032
N8900 X70.064 Y-0.172
N8905 X69.763 Y-0.369
N8910 X69.5 Y-0.616
N8915 X69.286 Y-0.905
N8920 X69.125 Y-1.227
N8925 G3 X69.493 Y-1.992 Z-10.8 I0.566 J-0.199
N8930 G1 X69.569 Y-2.013
N8935 X69.648 Y-2.024
N8940 X69.727 Y-2.025
N8945 X72.284 Y-1.872
N8950 X72.367 Y-1.861
N8955 X72.448 Y-1.839
N8960 G3 X72.815 Y-1.074 Z-11. I-0.199 J0.566
N8965 G1 X72.571 Y-0.449
N8970 X72.509 Y-0.312
N8975 X72.429 Y-0.185
N8980 X72.335 Y-0.069
N8985 X72.229 Y0.038
N8990 X72.113 Y0.133
N8995 X71.99 Y0.218
N9000 X71.859 Y0.292
N9005 X71.723 Y0.355
N9010 X71.583 Y0.408
N9015 X71.245 Y0.473
N9020 X70.901 Y0.475
N9025 X70.562 Y0.413
N9030 X70.241 Y0.29
N9035 X69.948 Y0.11
N9040 X69.693 Y-0.121
N9045 X69.484 Y-0.395
N9050 X69.33 Y-0.703
N9055 G3 X69.697 Y-1.468 Z-10.8 I0.566 J-0.199
N9060 X69.968 Y-1.497 I0.199 J0.566
N9065 G1 X72.076 Y-1.243
N9070 X72.141 Y-1.232
N9075 X72.204 Y-1.214
N9080 G3 X72.571 Y-0.449 Z-11. I-0.199 J0.566
N9085 G1 X72.416 Y-0.054
N9090 X72.367 Y0.065
N9095 X72.301 Y0.2
N9100 X72.221 Y0.326
N9105 X72.123 Y0.44
N9110 X72.012 Y0.54
N9115 X71.89 Y0.628
N9120 X71.76 Y0.703
N9125 X71.624 Y0.766
N9130 X71.316 Y0.841
N9135 X70.999 Y0.857
N9140 X70.686 Y0.812
N9145 X70.386 Y0.709
N9150 X70.112 Y0.551
N9155 X69.872 Y0.343
N9160 X69.676 Y0.094
N9165 X69.531 Y-0.188
N9170 G3 X69.893 Y-0.955 Z-10.8 I0.565 J-0.203
N9175 X70.18 Y-0.984 I0.203 J0.565
N9180 G1 X71.89 Y-0.744
N9185 X71.957 Y-0.731
N9190 X72.022 Y-0.71
N9195 G3 X72.367 Y0.065 Z-11. I-0.215 J0.56
N9200 G1 X72.305 Y0.21
N9205 X72.209 Y0.419
N9210 X72.094 Y0.626
N9215 X72.071 Y0.667
N9220 X72.053 Y0.7
N9225 X71.96 Y0.818
N9230 X71.853 Y0.923
N9235 X71.731 Y1.01
N9240 X71.6 Y1.083
N9245 X71.461 Y1.141
N9250 X71.318 Y1.185
N9255 X71.171 Y1.214
N9260 X71.022 Y1.231
N9265 X70.872 Y1.234
N9270 X70.854 Y1.233
N9275 X70.75 Y1.222
N9280 X70.647 Y1.205
N9285 X70.545 Y1.18
N9290 G3 X69.96 Y0.478 Z-10.8 I0.492 J-1.006
N9295 X70.305 Y-0.672 I1.078 J-0.303
N9300 X72.105 Y-0.214 I0.741 J0.856
N9305 X72.053 Y0.7 Z-11. I-1.06 J0.397
N9310 G1 X72.001 Y0.774
N9315 X71.947 Y0.834
N9320 X71.793 Y0.986
N9325 X71.714 Y1.042
N9330 X71.585 Y1.118
N9335 X71.481 Y1.171
N9340 X71.377 Y1.203
N9345 X71.199 Y1.25
N9350 X71.169 Y1.255
N9355 X70.961 Y1.26
N9360 X70.882 Y1.259
N9365 X70.803 Y1.25
N9370 X70.753 Y1.239
N9375 X70.545 Y1.18
N9380 X70.442 Y1.133
N9385 X70.286 Y1.042
N9390 X70.208 Y0.987
N9395 X70.13 Y0.913
N9400 X70.053 Y0.834
N9405 X69.977 Y0.744
N9410 X69.922 Y0.654
N9415 X69.791 Y0.418
N9420 X69.698 Y0.21
N9425 X69.607 Y0.002
N9430 X69.506 Y-0.252
N9435 X69.199 Y-1.038
N9440 G3 X69.427 Y-1.732 I0.566 J-0.199
N9445 G1 X69.505 Y-1.785 Z-10.993
N9450 X69.58 Y-1.837 Z-10.971
N9455 X69.652 Y-1.886 Z-10.935
N9460 X69.718 Y-1.931 Z-10.885
N9465 X69.778 Y-1.971 Z-10.824
N9470 X69.828 Y-2.006 Z-10.753
N9475 X69.869 Y-2.034 Z-10.672
N9480 X69.898 Y-2.054 Z-10.585
N9485 X69.917 Y-2.066 Z-10.494
N9490 X69.923 Y-2.07 Z-10.4
N9495 G0 Z15.
(2D CONTOUR1)
N9500 G0 X86.6 Y-4.
N9505 Z15.
N9510 Z5.
N9515 G1 Z1. F250.
N9520 Z-9.4
N9525 G19 G3 Y-3.4 Z-10. J0.6 K0. F750.
N9530 G1 Y-2.8
N9535 G17 G3 X86. Y-2.2 I-0.6 J0.
N9540 G1 X76.124
N9545 G2 X72.211 Y0.473 I0. J4.2
N9550 G3 X69.789 I-1.211 J-0.473
N9555 G2 X65.876 Y-2.2 I-3.912 J1.527
N9560 G1 X60.222
N9565 G2 X54.105 Y2.99 I0. J6.2
N9570 G3 X17.895 I-18.105 J-2.99
N9575 G2 X11.778 Y-2.2 I-6.117 J1.01
N9580 G1 X2.5
N9585 G2 X-2.2 Y2.5 I0. J4.7
N9590 G1 Y45.
N9595 G3 X-2.8 Y45.6 I-0.6 J0.
N9600 G1 X-3.4
N9605 G18 G3 X-4. Z-9.4 I0. K0.6
N9610 G0 Z15.
N9615 G17
(2D CONTOUR1 2)
N9620 G0 X86.6 Y-3.8
N9625 Z15.
N9630 Z5.
N9635 G1 Z1. F250.
N9640 Z-9.4
N9645 G19 G3 Y-3.2 Z-10. J0.6 K0. F750.
N9650 G1 Y-2.6
N9655 G17 G3 X86. Y-2. I-0.6 J0.
N9660 G1 X76.124
N9665 G2 X72.397 Y0.545 I0. J4.
N9670 G3 X69.603 I-1.397 J-0.545
N9675 G2 X65.876 Y-2. I-3.726 J1.455
N9680 G1 X60.222
N9685 G2 X54.302 Y3.022 I0. J6.
N9690 G3 X17.698 I-18.302 J-3.022
N9695 G2 X11.778 Y-2. I-5.92 J0.978
N9700 G1 X2.5
N9705 G2 X-2. Y2.5 I0. J4.5
N9710 G1 Y45.
N9715 G3 X-2.6 Y45.6 I-0.6 J0.
N9720 G1 X-3.2
N9725 G18 G3 X-3.8 Z-9.4 I0. K0.6
N9730 G0 Z15.
N9735 G17
N9740 M5
N9745 G53 G0 Z0.
(DRILL1)
N9750 M9
N9755 M1
N9760 T2 M6
N9765 T20
N9770 S8000 M3
N9775 G54
N9780 M8
N9785 G0 X11. Y40.
N9790 G43 Z15. H2
N9795 G0 Z5.
N9800 G98 G81 X11. Y40. Z-1.5 R5. F173.33
N9805 X76.
N9810 G80
N9815 G0 Z15.
N9820 M5
N9825 G53 Z0.
(DRILL2)
N9830 M9
N9835 M1
N9840 T20 M6
N9845 T3
N9850 S17881 M3
N9855 G54
N9860 M8
N9865 G0 X11. Y40.
N9870 G43 Z15. H20
N9875 G0 Z5.
N9880 G83 X11. Y40. Z-10. R5. Q1.5 F268.22
N9885 X76.
N9890 G80
N9895 G0 Z15.
N9900 M9
N9905 G53 Z0.
N9910 M30
%
