%
(X2_CLAMP_V3)
(T1  D=6. CR=0. TAPER=45DEG - ZMIN=-1.3 - CHAMFER MILL)
(T2  D=6. CR=0. TAPER=90DEG - ZMIN=-1.5 - SPOT DRILL)
(T3  D=6. CR=0. - ZMIN=-11. - FLAT END MILL)
(T20  D=2.5 CR=0. TAPER=118DEG - ZMIN=-10. - DRILL)
N10 G90 G94 G17 G91.1
N15 G21
N20 G53 G0 Z0.
(2D ADAPTIVE1)
N25 T3 M6
N30 T2
N35 S18000 M3
N40 G54
N45 M8
N50 G0 X-67.681 Y-6.22
N55 G43 Z15. H3
N60 G0 Z5.
N65 Z-8.4
N70 G1 Z-9. F750.
N75 Z-11.
N80 G3 X-68.431 Y-3.006 I-15.205 J-1.855
N85 G1 X-68.455 Y-2.944
N90 X-68.471 Y-2.909
N95 X-68.595 Y-2.825
N100 X-68.727 Y-2.754
N105 X-68.863 Y-2.691
N110 X-69.012 Y-2.631
N115 X-69.197 Y-2.565
N120 X-69.426 Y-2.495
N125 X-69.716 Y-2.421
N130 X-70.09 Y-2.341
N135 X-70.591 Y-2.258
N140 X-71.308 Y-2.169
N145 X-71.458 Y-2.158
N150 X-71.883 Y-2.163
N155 X-72.3 Y-2.245
N160 X-72.695 Y-2.402
N165 X-73.055 Y-2.628
N170 X-73.369 Y-2.915
N175 X-73.625 Y-3.255
N180 X-73.815 Y-3.635
N185 G3 X-73.447 Y-4.4 Z-10.8 I0.566 J-0.199
N190 X-73.152 Y-4.426 I0.199 J0.566
N195 G1 X-68.925 Y-3.734
N200 X-68.873 Y-3.724
N205 X-68.823 Y-3.708
N210 G3 X-68.455 Y-2.944 Z-11. I-0.199 J0.566
N215 G1 X-68.563 Y-2.667
N220 X-68.625 Y-2.53
N225 X-68.734 Y-2.427
N230 X-68.85 Y-2.332
N235 X-68.971 Y-2.244
N240 X-69.098 Y-2.163
N245 X-69.237 Y-2.082
N250 X-69.395 Y-1.999
N255 X-69.591 Y-1.907
N260 X-69.807 Y-1.817
N265 X-70.005 Y-1.744
N270 X-70.208 Y-1.679
N275 X-70.425 Y-1.62
N280 X-70.597 Y-1.581
N285 X-70.762 Y-1.551
N290 X-70.957 Y-1.525
N295 X-71.125 Y-1.509
N300 X-71.275 Y-1.502
N305 X-71.438
N310 X-71.483 Y-1.504
N315 X-71.866 Y-1.551
N320 X-72.235 Y-1.661
N325 X-72.581 Y-1.83
N330 X-72.895 Y-2.054
N335 X-73.168 Y-2.327
N340 X-73.392 Y-2.64
N345 X-73.561 Y-2.986
N350 G3 X-73.194 Y-3.751 Z-10.8 I0.566 J-0.199
N355 X-72.946 Y-3.783 I0.199 J0.566
N360 G1 X-69.08 Y-3.464
N365 X-69.004 Y-3.453
N370 X-68.931 Y-3.432
N375 G3 X-68.563 Y-2.667 Z-11. I-0.199 J0.566
N380 G1 X-68.737 Y-2.223
N385 X-68.798 Y-2.086
N390 X-68.888 Y-1.966
N395 X-68.987 Y-1.853
N400 X-69.094 Y-1.748
N405 X-69.207 Y-1.65
N410 X-69.326 Y-1.558
N415 X-69.449 Y-1.472
N420 X-69.576 Y-1.392
N425 X-69.707 Y-1.319
N430 X-69.84 Y-1.251
N435 X-69.979 Y-1.189
N440 X-70.124 Y-1.131
N445 X-70.266 Y-1.081
N450 X-70.41 Y-1.038
N455 X-70.569 Y-0.998
N460 X-70.716 Y-0.968
N465 X-70.864 Y-0.945
N470 X-71.017 Y-0.929
N475 X-71.167 Y-0.92
N480 X-71.559 Y-0.948
N485 X-71.941 Y-1.043
N490 X-72.301 Y-1.202
N495 X-72.628 Y-1.422
N500 X-72.911 Y-1.694
N505 X-73.144 Y-2.012
N510 X-73.318 Y-2.364
N515 G3 X-72.951 Y-3.129 Z-10.8 I0.566 J-0.199
N520 G1 X-72.878 Y-3.15
N525 X-72.803 Y-3.161
N530 X-72.728 Y-3.162
N535 X-69.278 Y-3.021
N540 X-69.19 Y-3.011
N545 X-69.104 Y-2.988
N550 G3 X-68.737 Y-2.223 Z-11. I-0.199 J0.566
N555 G1 X-68.956 Y-1.662
N560 X-69.017 Y-1.525
N565 X-69.096 Y-1.397
N570 X-69.187 Y-1.278
N575 X-69.287 Y-1.166
N580 X-69.395 Y-1.063
N585 X-69.51 Y-0.966
N590 X-69.631 Y-0.877
N595 X-69.756 Y-0.795
N600 X-69.886 Y-0.72
N605 X-70.02 Y-0.652
N610 X-70.157 Y-0.592
N615 X-70.298 Y-0.54
N620 X-70.441 Y-0.495
N625 X-70.586 Y-0.457
N630 X-70.734 Y-0.428
N635 X-70.882 Y-0.407
N640 X-71.278
N645 X-71.668 Y-0.479
N650 X-72.037 Y-0.622
N655 X-72.375 Y-0.83
N660 X-72.668 Y-1.096
N665 X-72.907 Y-1.412
N670 X-73.085 Y-1.766
N675 G3 X-72.718 Y-2.531 Z-10.8 I0.566 J-0.199
N680 G1 X-72.646 Y-2.551
N685 X-72.572 Y-2.562
N690 X-72.498 Y-2.564
N695 X-69.501 Y-2.46
N700 X-69.411 Y-2.45
N705 X-69.323 Y-2.427
N710 G3 X-68.956 Y-1.662 Z-11. I-0.199 J0.566
N715 G1 X-69.183 Y-1.08
N720 X-69.244 Y-0.943
N725 X-69.317 Y-0.812
N730 X-69.404 Y-0.69
N735 X-69.503 Y-0.577
N740 X-69.61 Y-0.472
N745 X-69.726 Y-0.376
N750 X-69.848 Y-0.289
N755 X-69.975 Y-0.21
N760 X-70.108 Y-0.141
N765 X-70.246 Y-0.081
N770 X-70.386 Y-0.029
N775 X-70.53 Y0.013
N780 X-70.677 Y0.046
N785 X-71.064 Y0.073
N790 X-71.448 Y0.024
N795 X-71.816 Y-0.099
N800 X-72.154 Y-0.291
N805 X-72.447 Y-0.544
N810 X-72.686 Y-0.849
N815 X-72.862 Y-1.195
N820 G3 X-72.495 Y-1.96 Z-10.8 I0.566 J-0.199
N825 G1 X-72.421 Y-1.98
N830 X-72.345 Y-1.991
N835 X-72.269 Y-1.993
N840 X-69.722 Y-1.878
N845 X-69.635 Y-1.868
N850 X-69.55 Y-1.845
N855 G3 X-69.183 Y-1.08 Z-11. I-0.199 J0.566
N860 G1 X-69.426 Y-0.456
N865 X-69.488 Y-0.319
N870 X-69.567 Y-0.192
N875 X-69.661 Y-0.075
N880 X-69.766 Y0.032
N885 X-69.88 Y0.13
N890 X-70.003 Y0.215
N895 X-70.133 Y0.291
N900 X-70.268 Y0.356
N905 X-70.408 Y0.41
N910 X-70.744 Y0.48
N915 X-71.087 Y0.486
N920 X-71.425 Y0.429
N925 X-71.747 Y0.309
N930 X-72.041 Y0.132
N935 X-72.297 Y-0.097
N940 X-72.505 Y-0.37
N945 X-72.66 Y-0.676
N950 G3 X-72.292 Y-1.441 Z-10.8 I0.566 J-0.199
N955 X-72.031 Y-1.472 I0.199 J0.566
N960 G1 X-69.93 Y-1.251
N965 X-69.861 Y-1.24
N970 X-69.794 Y-1.221
N975 G3 X-69.426 Y-0.456 Z-11. I-0.199 J0.566
N980 G1 X-69.524 Y-0.206
N985 X-69.607 Y0.002
N990 X-69.654 Y0.109
N995 X-69.721 Y0.243
N1000 X-69.807 Y0.366
N1005 X-69.909 Y0.475
N1010 X-70.023 Y0.573
N1015 X-70.148 Y0.656
N1020 X-70.279 Y0.729
N1025 X-70.594 Y0.829
N1030 X-70.922 Y0.864
N1035 X-71.251 Y0.833
N1040 X-71.567 Y0.737
N1045 X-71.857 Y0.581
N1050 X-72.111 Y0.369
N1055 X-72.317 Y0.111
N1060 X-72.467 Y-0.183
N1065 G3 X-72.1 Y-0.948 Z-10.8 I0.566 J-0.199
N1070 X-71.806 Y-0.974 I0.199 J0.566
N1075 G1 X-70.117 Y-0.705
N1080 X-70.052 Y-0.691
N1085 X-69.99 Y-0.67
N1090 G3 X-69.654 Y0.109 Z-11. I-0.222 J0.557
N1095 G1 X-69.714 Y0.246
N1100 X-69.791 Y0.418
N1105 X-69.906 Y0.626
N1110 X-69.922 Y0.654
N1115 X-70.007 Y0.778
N1120 X-70.108 Y0.888
N1125 X-70.225 Y0.982
N1130 X-70.353 Y1.061
N1135 X-70.489 Y1.125
N1140 X-70.63 Y1.175
N1145 X-70.776 Y1.209
N1150 X-70.924 Y1.232
N1155 X-71.074 Y1.239
N1160 X-71.211 Y1.229
N1165 X-71.347 Y1.206
N1170 X-71.48 Y1.171
N1175 G3 X-71.471 Y0.678 I0.086 J-0.245
N1180 G1 X-71.342 Y0.637
N1185 X-70.399 Y0.341
N1190 X-70.231 Y0.288
N1195 G3 X-69.922 Y0.654 I0.078 J0.248
N1200 G1 X-69.977 Y0.744
N1205 X-70.053 Y0.834
N1210 X-70.13 Y0.913
N1215 X-70.208 Y0.987
N1220 X-70.286 Y1.042
N1225 X-70.442 Y1.133
N1230 X-70.545 Y1.18
N1235 X-70.753 Y1.239
N1240 X-70.803 Y1.25
N1245 X-70.882 Y1.259
N1250 X-70.961 Y1.26
N1255 X-71.169 Y1.255
N1260 X-71.199 Y1.25
N1265 X-71.377 Y1.203
N1270 X-71.481 Y1.171
N1275 X-71.585 Y1.118
N1280 X-71.714 Y1.042
N1285 X-71.793 Y0.986
N1290 X-71.947 Y0.834
N1295 X-72.001 Y0.774
N1300 X-72.053 Y0.7
N1305 X-72.209 Y0.418
N1310 X-72.305 Y0.21
N1315 X-72.416 Y-0.054
N1320 X-72.801 Y-1.038
N1325 X-72.825 Y-1.127
N1330 X-72.834 Y-1.22
N1335 Y-1.237
N1340 X-72.821 Y-1.309 Z-10.993
N1345 X-72.808 Y-1.381 Z-10.977
N1350 X-72.795 Y-1.45 Z-10.952
N1355 X-72.754 Y-1.518 Z-10.91
N1360 X-72.716 Y-1.581 Z-10.857
N1365 X-72.683 Y-1.635 Z-10.793
N1370 X-72.644 Y-1.669 Z-10.725
N1375 X-72.613 Y-1.696 Z-10.649
N1380 X-72.591 Y-1.716 Z-10.569
N1385 X-72.577 Y-1.728 Z-10.486
N1390 X-72.573 Y-1.732 Z-10.4
N1395 G0 Z5.
N1400 X-16.836 Y-6.305
N1405 Z-8.4
N1410 G1 Z-9. F750.
N1415 Z-11.
N1420 G3 X-16.905 Y-3.006 I-15.26 J1.332
N1425 G1 X-16.916 Y-2.94
N1430 X-16.923 Y-2.907
N1435 X-17.048 Y-2.823
N1440 X-17.18 Y-2.752
N1445 X-17.316 Y-2.689
N1450 X-17.466 Y-2.629
N1455 X-17.652 Y-2.563
N1460 X-17.883 Y-2.493
N1465 X-18.175 Y-2.418
N1470 X-18.552 Y-2.339
N1475 X-19.058 Y-2.255
N1480 X-19.785 Y-2.167
N1485 X-20.697 Y-2.096
N1490 X-21.612 Y-2.056
N1495 X-22.527 Y-2.033
N1500 X-23.442 Y-2.019
N1505 X-24.358 Y-2.011
N1510 X-25.273 Y-2.007
N1515 X-26.189 Y-2.004
N1520 X-28.02 Y-2.001
N1525 X-33.512 Y-2.
N1530 X-52.953
N1535 X-53.36 Y-2.036
N1540 X-53.755 Y-2.143
N1545 X-54.126 Y-2.317
N1550 X-54.46 Y-2.553
N1555 X-54.747 Y-2.844
N1560 X-54.979 Y-3.181
N1565 X-55.149 Y-3.553
N1570 X-55.251 Y-3.95
N1575 G3 X-54.884 Y-4.582 I0.595 J-0.077
N1580 G1 X-54.797 Y-4.617 Z-10.993
N1585 X-54.713 Y-4.652 Z-10.971
N1590 X-54.632 Y-4.685 Z-10.935
N1595 X-54.558 Y-4.716 Z-10.885
N1600 X-54.492 Y-4.743 Z-10.824
N1605 X-54.435 Y-4.766 Z-10.753
N1610 X-54.39 Y-4.785 Z-10.672
N1615 X-54.357 Y-4.799 Z-10.585
N1620 X-54.336 Y-4.807 Z-10.494
N1625 X-54.329 Y-4.81 Z-10.4
N1630 G0 Z5.
N1635 X-17.23 Y-4.279
N1640 Z-9.8
N1645 G1 Z-10.4 F750.
N1650 X-17.227 Y-4.272 Z-10.494
N1655 X-17.219 Y-4.251 Z-10.585
N1660 X-17.206 Y-4.218 Z-10.672
N1665 X-17.188 Y-4.172 Z-10.753
N1670 X-17.166 Y-4.115 Z-10.824
N1675 X-17.14 Y-4.048 Z-10.885
N1680 X-17.111 Y-3.974 Z-10.935
N1685 X-17.079 Y-3.893 Z-10.971
N1690 X-17.046 Y-3.807 Z-10.993
N1695 X-17.011 Y-3.72 Z-11.
N1700 G3 X-16.916 Y-2.94 I-1.474 J0.576
N1705 G1 X-16.955 Y-2.702
N1710 X-16.971 Y-2.628
N1715 X-17.072 Y-2.517
N1720 X-17.182 Y-2.416
N1725 X-17.299 Y-2.322
N1730 X-17.422 Y-2.235
N1735 X-17.548 Y-2.155
N1740 X-17.692 Y-2.073
N1745 X-17.853 Y-1.989
N1750 X-18.054 Y-1.896
N1755 X-18.275 Y-1.805
N1760 X-18.533 Y-1.712
N1765 X-18.862 Y-1.609
N1770 X-19.22 Y-1.514
N1775 X-19.688 Y-1.411
N1780 X-20.262 Y-1.311
N1785 X-21.055 Y-1.208
N1790 X-21.967 Y-1.13
N1795 X-22.881 Y-1.081
N1800 X-23.796 Y-1.051
N1805 X-24.711 Y-1.032
N1810 X-25.627 Y-1.02
N1815 X-26.542 Y-1.012
N1820 X-27.458 Y-1.008
N1825 X-28.373 Y-1.005
N1830 X-30.204 Y-1.002
N1835 X-34.781 Y-1.
N1840 X-51.259
N1845 X-51.826 Y-1.01
N1850 X-52.211 Y-1.033
N1855 X-52.497 Y-1.063
N1860 X-52.74 Y-1.099
N1865 X-52.994 Y-1.149
N1870 X-53.183 Y-1.194
N1875 X-53.455 Y-1.272
N1880 X-53.807 Y-1.404
N1885 X-54.133 Y-1.59
N1890 X-54.425 Y-1.827
N1895 X-54.675 Y-2.108
N1900 X-54.877 Y-2.425
N1905 X-55.025 Y-2.77
N1910 X-55.116 Y-3.135
N1915 G3 X-54.75 Y-3.767 I0.595 J-0.077
N1920 G1 X-54.663 Y-3.803 Z-10.993
N1925 X-54.578 Y-3.837 Z-10.971
N1930 X-54.498 Y-3.871 Z-10.935
N1935 X-54.424 Y-3.901 Z-10.885
N1940 X-54.357 Y-3.928 Z-10.824
N1945 X-54.301 Y-3.952 Z-10.753
N1950 X-54.255 Y-3.97 Z-10.672
N1955 X-54.222 Y-3.984 Z-10.585
N1960 X-54.202 Y-3.992 Z-10.494
N1965 X-54.195 Y-3.995 Z-10.4
N1970 G0 Z5.
N1975 X-17.269 Y-4.04
N1980 Z-9.8
N1985 G1 Z-10.4 F750.
N1990 X-17.267 Y-4.033 Z-10.494
N1995 X-17.259 Y-4.013 Z-10.585
N2000 X-17.246 Y-3.979 Z-10.672
N2005 X-17.228 Y-3.933 Z-10.753
N2010 X-17.205 Y-3.876 Z-10.824
N2015 X-17.179 Y-3.81 Z-10.885
N2020 X-17.15 Y-3.735 Z-10.935
N2025 X-17.118 Y-3.654 Z-10.971
N2030 X-17.085 Y-3.569 Z-10.993
N2035 X-17.051 Y-3.481 Z-11.
N2040 G3 X-16.955 Y-2.702 I-1.474 J0.576
N2045 G1 X-17.017 Y-2.328
N2050 X-17.049 Y-2.181
N2055 X-17.137 Y-2.06
N2060 X-17.234 Y-1.946
N2065 X-17.338 Y-1.838
N2070 X-17.449 Y-1.736
N2075 X-17.564 Y-1.641
N2080 X-17.69 Y-1.545
N2085 X-17.831 Y-1.448
N2090 X-17.994 Y-1.346
N2095 X-18.178 Y-1.241
N2100 X-18.387 Y-1.134
N2105 X-18.631 Y-1.022
N2110 X-18.901 Y-0.912
N2115 X-19.24 Y-0.791
N2120 X-19.595 Y-0.681
N2125 X-20.059 Y-0.56
N2130 X-20.578 Y-0.448
N2135 X-21.253 Y-0.332
N2140 X-22.161 Y-0.218
N2145 X-23.073 Y-0.143
N2150 X-23.987 Y-0.093
N2155 X-24.902 Y-0.061
N2160 X-25.817 Y-0.04
N2165 X-26.733 Y-0.026
N2170 X-27.648 Y-0.017
N2175 X-28.564 Y-0.011
N2180 X-29.479 Y-0.007
N2185 X-31.31 Y-0.003
N2190 X-34.971 Y0.
N2195 X-49.618
N2200 X-50.534 Y-0.004
N2205 X-51.201 Y-0.027
N2210 X-51.694 Y-0.066
N2215 X-52.101 Y-0.116
N2220 X-52.47 Y-0.177
N2225 X-52.723 Y-0.231
N2230 X-52.984 Y-0.298
N2235 X-53.199 Y-0.363
N2240 X-53.383 Y-0.428
N2245 X-53.586 Y-0.51
N2250 X-53.637 Y-0.533
N2255 X-53.97 Y-0.718
N2260 X-54.268 Y-0.955
N2265 X-54.524 Y-1.238
N2270 X-54.73 Y-1.558
N2275 X-54.882 Y-1.908
N2280 X-54.975 Y-2.277
N2285 G3 X-54.608 Y-2.909 I0.595 J-0.077
N2290 G1 X-54.521 Y-2.945 Z-10.993
N2295 X-54.437 Y-2.98 Z-10.971
N2300 X-54.356 Y-3.013 Z-10.935
N2305 X-54.282 Y-3.044 Z-10.885
N2310 X-54.216 Y-3.071 Z-10.824
N2315 X-54.159 Y-3.094 Z-10.753
N2320 X-54.114 Y-3.113 Z-10.672
N2325 X-54.08 Y-3.126 Z-10.585
N2330 X-54.06 Y-3.135 Z-10.494
N2335 X-54.053 Y-3.138 Z-10.4
N2340 G0 Z5.
N2345 X-17.331 Y-3.666
N2350 Z-9.8
N2355 G1 Z-10.4 F750.
N2360 X-17.328 Y-3.659 Z-10.494
N2365 X-17.32 Y-3.639 Z-10.585
N2370 X-17.307 Y-3.605 Z-10.672
N2375 X-17.289 Y-3.56 Z-10.753
N2380 X-17.267 Y-3.503 Z-10.824
N2385 X-17.241 Y-3.436 Z-10.885
N2390 X-17.212 Y-3.361 Z-10.935
N2395 X-17.18 Y-3.28 Z-10.971
N2400 X-17.147 Y-3.195 Z-10.993
N2405 X-17.113 Y-3.108 Z-11.
N2410 G3 X-17.017 Y-2.328 I-1.474 J0.576
N2415 G1 X-17.093 Y-1.87
N2420 X-17.124 Y-1.723
N2425 X-17.194 Y-1.59
N2430 X-17.274 Y-1.463
N2435 X-17.363 Y-1.343
N2440 X-17.46 Y-1.228
N2445 X-17.562 Y-1.119
N2450 X-17.67 Y-1.015
N2455 X-17.794 Y-0.907
N2460 X-17.925 Y-0.801
N2465 X-18.081 Y-0.687
N2470 X-18.248 Y-0.575
N2475 X-18.448 Y-0.453
N2480 X-18.665 Y-0.334
N2485 X-18.918 Y-0.209
N2490 X-19.201 Y-0.084
N2495 X-19.532 Y0.045
N2500 X-19.907 Y0.173
N2505 X-20.363 Y0.307
N2510 X-20.879 Y0.434
N2515 X-21.501 Y0.559
N2520 X-22.304 Y0.684
N2525 X-23.214 Y0.786
N2530 X-24.127 Y0.855
N2535 X-25.041 Y0.902
N2540 X-25.956 Y0.934
N2545 X-26.871 Y0.956
N2550 X-27.786 Y0.971
N2555 X-28.702 Y0.98
N2560 X-29.617 Y0.987
N2565 X-30.532 Y0.991
N2570 X-32.363 Y0.996
N2575 X-35.109 Y0.999
N2580 X-45.179 Y1.
N2585 X-47.925
N2590 X-48.841 Y0.999
N2595 X-49.756 Y0.991
N2600 X-50.585 Y0.962
N2605 X-51.189 Y0.914
N2610 X-51.681 Y0.854
N2615 X-52.088 Y0.786
N2620 X-52.419 Y0.716
N2625 X-52.705 Y0.643
N2630 X-52.962 Y0.564
N2635 X-53.161 Y0.494
N2640 X-53.381 Y0.406
N2645 X-53.557 Y0.326
N2650 X-53.581 Y0.313
N2655 X-53.892 Y0.124
N2660 X-54.17 Y-0.112
N2665 X-54.407 Y-0.388
N2670 X-54.599 Y-0.698
N2675 X-54.74 Y-1.034
N2680 X-54.828 Y-1.387
N2685 G3 X-54.461 Y-2.019 I0.595 J-0.077
N2690 G1 X-54.374 Y-2.055 Z-10.993
N2695 X-54.29 Y-2.09 Z-10.971
N2700 X-54.209 Y-2.123 Z-10.935
N2705 X-54.135 Y-2.153 Z-10.885
N2710 X-54.069 Y-2.181 Z-10.824
N2715 X-54.012 Y-2.204 Z-10.753
N2720 X-53.967 Y-2.223 Z-10.672
N2725 X-53.933 Y-2.236 Z-10.585
N2730 X-53.913 Y-2.245 Z-10.494
N2735 X-53.906 Y-2.247 Z-10.4
N2740 G0 Z5.
N2745 X-17.407 Y-3.208
N2750 Z-9.8
N2755 G1 Z-10.4 F750.
N2760 X-17.404 Y-3.201 Z-10.494
N2765 X-17.396 Y-3.181 Z-10.585
N2770 X-17.383 Y-3.147 Z-10.672
N2775 X-17.365 Y-3.102 Z-10.753
N2780 X-17.343 Y-3.045 Z-10.824
N2785 X-17.317 Y-2.978 Z-10.885
N2790 X-17.287 Y-2.903 Z-10.935
N2795 X-17.256 Y-2.822 Z-10.971
N2800 X-17.222 Y-2.737 Z-10.993
N2805 X-17.188 Y-2.649 Z-11.
N2810 G3 X-17.093 Y-1.87 I-1.474 J0.576
N2815 G1 X-17.18 Y-1.34
N2820 X-17.212 Y-1.193
N2825 X-17.265 Y-1.053
N2830 X-17.332 Y-0.918
N2835 X-17.408 Y-0.789
N2840 X-17.493 Y-0.665
N2845 X-17.585 Y-0.547
N2850 X-17.683 Y-0.433
N2855 X-17.788 Y-0.323
N2860 X-17.902 Y-0.213
N2865 X-18.038 Y-0.092
N2870 X-18.183 Y0.025
N2875 X-18.355 Y0.152
N2880 X-18.543 Y0.279
N2885 X-18.759 Y0.411
N2890 X-19.005 Y0.547
N2895 X-19.273 Y0.681
N2900 X-19.598 Y0.826
N2905 X-19.936 Y0.959
N2910 X-20.369 Y1.108
N2915 X-20.818 Y1.242
N2920 X-21.387 Y1.384
N2925 X-22.066 Y1.523
N2930 X-22.897 Y1.655
N2935 X-23.806 Y1.76
N2940 X-24.719 Y1.834
N2945 X-25.633 Y1.885
N2950 X-26.547 Y1.921
N2955 X-27.462 Y1.946
N2960 X-28.378 Y1.963
N2965 X-29.293 Y1.975
N2970 X-30.208 Y1.983
N2975 X-31.124 Y1.988
N2980 X-32.039 Y1.992
N2985 X-33.87 Y1.997
N2990 X-36.616 Y1.999
N2995 X-46.686 Y2.
N3000 X-47.601 Y1.999
N3005 X-48.517 Y1.995
N3010 X-49.432 Y1.979
N3015 X-50.302 Y1.936
N3020 X-50.94 Y1.877
N3025 X-51.458 Y1.806
N3030 X-51.894 Y1.727
N3035 X-52.268 Y1.642
N3040 X-52.545 Y1.566
N3045 X-52.828 Y1.475
N3050 X-53.037 Y1.398
N3055 X-53.247 Y1.31
N3060 X-53.44 Y1.219
N3065 X-53.461 Y1.208
N3070 X-53.765 Y1.017
N3075 X-54.035 Y0.782
N3080 X-54.267 Y0.509
N3085 X-54.454 Y0.202
N3090 X-54.592 Y-0.129
N3095 X-54.677 Y-0.477
N3100 G3 X-54.311 Y-1.109 I0.595 J-0.077
N3105 G1 X-54.224 Y-1.145 Z-10.993
N3110 X-54.139 Y-1.179 Z-10.971
N3115 X-54.059 Y-1.212 Z-10.935
N3120 X-53.985 Y-1.243 Z-10.885
N3125 X-53.918 Y-1.27 Z-10.824
N3130 X-53.862 Y-1.294 Z-10.753
N3135 X-53.816 Y-1.312 Z-10.672
N3140 X-53.783 Y-1.326 Z-10.585
N3145 X-53.763 Y-1.334 Z-10.494
N3150 X-53.756 Y-1.337 Z-10.4
N3155 G0 Z5.
N3160 X-17.494 Y-2.678
N3165 Z-9.8
N3170 G1 Z-10.4 F750.
N3175 X-17.492 Y-2.671 Z-10.494
N3180 X-17.484 Y-2.651 Z-10.585
N3185 X-17.471 Y-2.617 Z-10.672
N3190 X-17.453 Y-2.571 Z-10.753
N3195 X-17.43 Y-2.514 Z-10.824
N3200 X-17.404 Y-2.448 Z-10.885
N3205 X-17.375 Y-2.373 Z-10.935
N3210 X-17.343 Y-2.292 Z-10.971
N3215 X-17.31 Y-2.207 Z-10.993
N3220 X-17.276 Y-2.119 Z-11.
N3225 G3 X-17.18 Y-1.34 I-1.474 J0.576
N3230 G1 X-17.283 Y-0.716
N3235 X-17.315 Y-0.569
N3240 X-17.358 Y-0.425
N3245 X-17.415 Y-0.286
N3250 X-17.482 Y-0.153
N3255 X-17.559 Y-0.024
N3260 X-17.643 Y0.101
N3265 X-17.734 Y0.22
N3270 X-17.831 Y0.335
N3275 X-17.938 Y0.452
N3280 X-18.062 Y0.575
N3285 X-18.198 Y0.7
N3290 X-18.358 Y0.834
N3295 X-18.528 Y0.964
N3300 X-18.731 Y1.106
N3305 X-18.953 Y1.247
N3310 X-19.2 Y1.389
N3315 X-19.493 Y1.541
N3320 X-19.801 Y1.685
N3325 X-20.182 Y1.842
N3330 X-20.584 Y1.989
N3335 X-21.075 Y2.144
N3340 X-21.638 Y2.295
N3345 X-22.282 Y2.438
N3350 X-23.091 Y2.581
N3355 X-23.999 Y2.701
N3360 X-24.91 Y2.787
N3365 X-25.823 Y2.849
N3370 X-26.738 Y2.894
N3375 X-27.653 Y2.925
N3380 X-28.568 Y2.948
N3385 X-29.483 Y2.964
N3390 X-30.398 Y2.975
N3395 X-31.314 Y2.983
N3400 X-32.229 Y2.988
N3405 X-33.145 Y2.992
N3410 X-34.976 Y2.996
N3415 X-37.722 Y2.999
N3420 X-45.045 Y3.
N3425 X-45.961
N3430 X-46.876 Y2.998
N3435 X-47.791 Y2.993
N3440 X-48.707 Y2.976
N3445 X-49.621 Y2.938
N3450 X-50.368 Y2.879
N3455 X-50.977 Y2.804
N3460 X-51.48 Y2.719
N3465 X-51.897 Y2.63
N3470 X-52.254 Y2.538
N3475 X-52.528 Y2.454
N3480 X-52.794 Y2.36
N3485 X-52.994 Y2.28
N3490 X-53.21 Y2.181
N3495 X-53.281 Y2.145
N3500 X-53.591 Y1.955
N3505 X-53.868 Y1.72
N3510 X-54.106 Y1.444
N3515 X-54.297 Y1.134
N3520 X-54.438 Y0.799
N3525 X-54.525 Y0.446
N3530 X-54.677 Y-0.477
N3535 G3 X-54.311 Y-1.109 I0.595 J-0.077
N3540 G1 X-54.224 Y-1.145 Z-10.993
N3545 X-54.139 Y-1.179 Z-10.971
N3550 X-54.059 Y-1.212 Z-10.935
N3555 X-53.985 Y-1.243 Z-10.885
N3560 X-53.918 Y-1.27 Z-10.824
N3565 X-53.862 Y-1.294 Z-10.753
N3570 X-53.816 Y-1.312 Z-10.672
N3575 X-53.783 Y-1.326 Z-10.585
N3580 X-53.763 Y-1.334 Z-10.494
N3585 X-53.756 Y-1.337 Z-10.4
N3590 G0 Z5.
N3595 X-17.597 Y-2.054
N3600 Z-9.8
N3605 G1 Z-10.4 F750.
N3610 X-17.595 Y-2.047 Z-10.494
N3615 X-17.587 Y-2.027 Z-10.585
N3620 X-17.574 Y-1.993 Z-10.672
N3625 X-17.556 Y-1.947 Z-10.753
N3630 X-17.533 Y-1.89 Z-10.824
N3635 X-17.507 Y-1.824 Z-10.885
N3640 X-17.478 Y-1.749 Z-10.935
N3645 X-17.446 Y-1.668 Z-10.971
N3650 X-17.413 Y-1.583 Z-10.993
N3655 X-17.379 Y-1.495 Z-11.
N3660 G3 X-17.283 Y-0.716 I-1.474 J0.576
N3665 G1 X-17.412 Y0.065
N3670 X-17.444 Y0.211
N3675 X-17.489 Y0.354
N3680 X-17.546 Y0.493
N3685 X-17.614 Y0.627
N3690 X-17.689 Y0.757
N3695 X-17.772 Y0.882
N3700 X-17.862 Y1.002
N3705 X-17.956 Y1.119
N3710 X-18.07 Y1.246
N3715 X-18.192 Y1.372
N3720 X-18.333 Y1.506
N3725 X-18.494 Y1.645
N3730 X-18.671 Y1.786
N3735 X-18.88 Y1.937
N3740 X-19.1 Y2.082
N3745 X-19.36 Y2.238
N3750 X-19.65 Y2.395
N3755 X-19.971 Y2.551
N3760 X-20.355 Y2.718
N3765 X-20.756 Y2.872
N3770 X-21.247 Y3.036
N3775 X-21.807 Y3.196
N3780 X-22.441 Y3.348
N3785 X-23.225 Y3.501
N3790 X-24.13 Y3.636
N3795 X-25.04 Y3.736
N3800 X-25.952 Y3.809
N3805 X-26.866 Y3.863
N3810 X-27.781 Y3.902
N3815 X-28.696 Y3.93
N3820 X-29.611 Y3.95
N3825 X-30.526 Y3.965
N3830 X-31.442 Y3.975
N3835 X-32.357 Y3.983
N3840 X-33.273 Y3.988
N3845 X-34.188 Y3.992
N3850 X-36.019 Y3.996
N3855 X-38.765 Y3.999
N3860 X-44.258 Y4.
N3865 X-45.173
N3870 X-46.089 Y3.998
N3875 X-47.004 Y3.992
N3880 X-47.919 Y3.977
N3885 X-48.834 Y3.946
N3890 X-49.742 Y3.888
N3895 X-50.45 Y3.812
N3900 X-51.022 Y3.725
N3905 X-51.506 Y3.63
N3910 X-51.908 Y3.533
N3915 X-52.216 Y3.444
N3920 X-52.519 Y3.342
N3925 X-52.737 Y3.258
N3930 X-52.959 Y3.161
N3935 X-53.153 Y3.066
N3940 X-53.184 Y3.049
N3945 X-53.48 Y2.858
N3950 X-53.744 Y2.623
N3955 X-53.97 Y2.352
N3960 X-54.152 Y2.05
N3965 X-54.287 Y1.723
N3970 X-54.371 Y1.38
N3975 X-54.525 Y0.446
N3980 G3 X-54.158 Y-0.186 I0.595 J-0.077
N3985 G1 X-54.072 Y-0.222 Z-10.993
N3990 X-53.987 Y-0.257 Z-10.971
N3995 X-53.906 Y-0.29 Z-10.935
N4000 X-53.832 Y-0.321 Z-10.885
N4005 X-53.766 Y-0.348 Z-10.824
N4010 X-53.709 Y-0.371 Z-10.753
N4015 X-53.664 Y-0.39 Z-10.672
N4020 X-53.631 Y-0.404 Z-10.585
N4025 X-53.61 Y-0.412 Z-10.494
N4030 X-53.603 Y-0.415 Z-10.4
N4035 G0 Z5.
N4040 X-17.726 Y-1.274
N4045 Z-9.8
N4050 G1 Z-10.4 F750.
N4055 X-17.724 Y-1.267 Z-10.494
N4060 X-17.716 Y-1.246 Z-10.585
N4065 X-17.702 Y-1.213 Z-10.672
N4070 X-17.685 Y-1.167 Z-10.753
N4075 X-17.662 Y-1.11 Z-10.824
N4080 X-17.636 Y-1.043 Z-10.885
N4085 X-17.607 Y-0.968 Z-10.935
N4090 X-17.575 Y-0.887 Z-10.971
N4095 X-17.542 Y-0.802 Z-10.993
N4100 X-17.508 Y-0.715 Z-11.
N4105 G3 X-17.412 Y0.065 I-1.474 J0.576
N4110 G1 X-17.539 Y0.834
N4115 X-17.571 Y0.98
N4120 X-17.613 Y1.124
N4125 X-17.667 Y1.264
N4130 X-17.731 Y1.4
N4135 X-17.803 Y1.531
N4140 X-17.883 Y1.658
N4145 X-17.969 Y1.781
N4150 X-18.063 Y1.903
N4155 X-18.172 Y2.032
N4160 X-18.292 Y2.162
N4165 X-18.435 Y2.304
N4170 X-18.587 Y2.442
N4175 X-18.767 Y2.593
N4180 X-18.968 Y2.746
N4185 X-19.187 Y2.898
N4190 X-19.448 Y3.064
N4195 X-19.723 Y3.221
N4200 X-20.047 Y3.389
N4205 X-20.417 Y3.56
N4210 X-20.811 Y3.723
N4215 X-21.296 Y3.898
N4220 X-21.82 Y4.062
N4225 X-22.438 Y4.227
N4230 X-23.178 Y4.39
N4235 X-24.073 Y4.547
N4240 X-24.981 Y4.665
N4245 X-25.892 Y4.753
N4250 X-26.805 Y4.819
N4255 X-27.719 Y4.868
N4260 X-28.634 Y4.904
N4265 X-29.549 Y4.931
N4270 X-30.464 Y4.95
N4275 X-31.38 Y4.964
N4280 X-32.295 Y4.975
N4285 X-33.21 Y4.982
N4290 X-34.126 Y4.987
N4295 X-35.041 Y4.991
N4300 X-36.872 Y4.996
N4305 X-39.618 Y4.999
N4310 X-43.28 Y5.
N4315 X-44.195 Y4.999
N4320 X-45.111 Y4.998
N4325 X-46.026 Y4.993
N4330 X-46.942 Y4.982
N4335 X-47.857 Y4.96
N4340 X-48.771 Y4.919
N4345 X-49.673 Y4.849
N4350 X-50.358 Y4.765
N4355 X-50.938 Y4.669
N4360 X-51.405 Y4.57
N4365 X-51.818 Y4.464
N4370 X-52.123 Y4.371
N4375 X-52.417 Y4.268
N4380 X-52.636 Y4.179
N4385 X-52.851 Y4.082
N4390 X-53.045 Y3.983
N4395 X-53.057 Y3.977
N4400 X-53.401 Y3.741
N4405 X-53.697 Y3.447
N4410 X-53.936 Y3.106
N4415 X-54.11 Y2.727
N4420 X-54.215 Y2.324
N4425 X-54.371 Y1.38
N4430 G3 X-54.004 Y0.748 I0.595 J-0.077
N4435 G1 X-53.917 Y0.713 Z-10.993
N4440 X-53.833 Y0.678 Z-10.971
N4445 X-53.752 Y0.645 Z-10.935
N4450 X-53.678 Y0.614 Z-10.885
N4455 X-53.612 Y0.587 Z-10.824
N4460 X-53.555 Y0.563 Z-10.753
N4465 X-53.51 Y0.545 Z-10.672
N4470 X-53.476 Y0.531 Z-10.585
N4475 X-53.456 Y0.523 Z-10.494
N4480 X-53.449 Y0.52 Z-10.4
N4485 G0 Z5.
N4490 X-17.853 Y-0.505
N4495 Z-9.8
N4500 G1 Z-10.4 F750.
N4505 X-17.851 Y-0.498 Z-10.494
N4510 X-17.843 Y-0.477 Z-10.585
N4515 X-17.829 Y-0.444 Z-10.672
N4520 X-17.812 Y-0.398 Z-10.753
N4525 X-17.789 Y-0.341 Z-10.824
N4530 X-17.763 Y-0.274 Z-10.885
N4535 X-17.734 Y-0.199 Z-10.935
N4540 X-17.702 Y-0.118 Z-10.971
N4545 X-17.669 Y-0.033 Z-10.993
N4550 X-17.635 Y0.054 Z-11.
N4555 G3 X-17.539 Y0.834 I-1.474 J0.576
N4560 G1 X-17.677 Y1.666
N4565 X-17.708 Y1.812
N4570 X-17.75 Y1.956
N4575 X-17.804 Y2.096
N4580 X-17.867 Y2.232
N4585 X-17.939 Y2.364
N4590 X-18.017 Y2.492
N4595 X-18.102 Y2.615
N4600 X-18.195 Y2.738
N4605 X-18.306 Y2.872
N4610 X-18.426 Y3.006
N4615 X-18.567 Y3.149
N4620 X-18.727 Y3.298
N4625 X-18.903 Y3.448
N4630 X-19.11 Y3.61
N4635 X-19.33 Y3.767
N4640 X-19.589 Y3.934
N4645 X-19.882 Y4.107
N4650 X-20.195 Y4.274
N4655 X-20.571 Y4.453
N4660 X-20.979 Y4.627
N4665 X-21.446 Y4.802
N4670 X-22.018 Y4.988
N4675 X-22.608 Y5.152
N4680 X-23.333 Y5.32
N4685 X-24.215 Y5.485
N4690 X-25.121 Y5.614
N4695 X-26.032 Y5.712
N4700 X-26.944 Y5.785
N4705 X-27.858 Y5.841
N4710 X-28.772 Y5.883
N4715 X-29.687 Y5.914
N4720 X-30.602 Y5.937
N4725 X-31.517 Y5.954
N4730 X-32.433 Y5.967
N4735 X-33.348 Y5.976
N4740 X-34.264 Y5.983
N4745 X-35.179 Y5.988
N4750 X-37.01 Y5.994
N4755 X-39.756 Y5.998
N4760 X-42.502 Y5.999
N4765 X-43.418
N4770 X-44.333 Y5.997
N4775 X-45.249 Y5.993
N4780 X-46.164 Y5.983
N4785 X-47.079 Y5.964
N4790 X-47.994 Y5.931
N4795 X-48.908 Y5.874
N4800 X-49.727 Y5.793
N4805 X-50.395 Y5.698
N4810 X-50.94 Y5.596
N4815 X-51.398 Y5.489
N4820 X-51.79 Y5.38
N4825 X-52.067 Y5.289
N4830 X-52.353 Y5.182
N4835 X-52.575 Y5.087
N4840 X-52.758 Y5.
N4845 X-52.817 Y4.969
N4850 X-53.15 Y4.753
N4855 X-53.441 Y4.484
N4860 X-53.683 Y4.17
N4865 X-53.868 Y3.82
N4870 X-53.991 Y3.443
N4875 X-54.018 Y3.329
N4880 X-54.147 Y2.706
N4885 X-54.186 Y2.498
N4890 X-54.215 Y2.324
N4895 G3 X-53.848 Y1.692 I0.595 J-0.077
N4900 G1 X-53.761 Y1.656 Z-10.993
N4905 X-53.677 Y1.621 Z-10.971
N4910 X-53.596 Y1.588 Z-10.935
N4915 X-53.522 Y1.558 Z-10.885
N4920 X-53.456 Y1.53 Z-10.824
N4925 X-53.399 Y1.507 Z-10.753
N4930 X-53.354 Y1.488 Z-10.672
N4935 X-53.32 Y1.475 Z-10.585
N4940 X-53.3 Y1.466 Z-10.494
N4945 X-53.293 Y1.463 Z-10.4
N4950 G0 Z5.
N4955 X-17.991 Y0.327
N4960 Z-9.8
N4965 G1 Z-10.4 F750.
N4970 X-17.988 Y0.334 Z-10.494
N4975 X-17.98 Y0.355 Z-10.585
N4980 X-17.967 Y0.388 Z-10.672
N4985 X-17.949 Y0.434 Z-10.753
N4990 X-17.927 Y0.491 Z-10.824
N4995 X-17.901 Y0.558 Z-10.885
N5000 X-17.871 Y0.632 Z-10.935
N5005 X-17.84 Y0.713 Z-10.971
N5010 X-17.806 Y0.799 Z-10.993
N5015 X-17.772 Y0.886 Z-11.
N5020 G3 X-17.677 Y1.666 I-1.474 J0.576
N5025 G1 X-17.814 Y2.498
N5030 X-17.846 Y2.644
N5035 X-17.885 Y2.789
N5040 X-17.937 Y2.93
N5045 X-17.998 Y3.067
N5050 X-18.068 Y3.199
N5055 X-18.145 Y3.328
N5060 X-18.228 Y3.453
N5065 X-18.32 Y3.578
N5070 X-18.43 Y3.715
N5075 X-18.548 Y3.851
N5080 X-18.689 Y3.998
N5085 X-18.845 Y4.147
N5090 X-19.022 Y4.303
N5095 X-19.228 Y4.469
N5100 X-19.446 Y4.629
N5105 X-19.705 Y4.802
N5110 X-19.991 Y4.976
N5115 X-20.313 Y5.154
N5120 X-20.69 Y5.34
N5125 X-21.088 Y5.516
N5130 X-21.555 Y5.699
N5135 X-22.116 Y5.891
N5140 X-22.697 Y6.062
N5145 X-23.41 Y6.238
N5150 X-24.265 Y6.41
N5155 X-25.169 Y6.552
N5160 X-26.078 Y6.661
N5165 X-26.99 Y6.744
N5170 X-27.903 Y6.808
N5175 X-28.817 Y6.857
N5180 X-29.732 Y6.893
N5185 X-30.647 Y6.921
N5190 X-31.562 Y6.942
N5195 X-32.477 Y6.957
N5200 X-33.393 Y6.969
N5205 X-34.308 Y6.977
N5210 X-35.223 Y6.984
N5215 X-36.139 Y6.988
N5220 X-37.97 Y6.994
N5225 X-40.716 Y6.998
N5230 X-42.547
N5235 X-43.462 Y6.997
N5240 X-44.378 Y6.993
N5245 X-45.293 Y6.986
N5250 X-46.208 Y6.971
N5255 X-47.123 Y6.944
N5260 X-48.038 Y6.9
N5265 X-48.95 Y6.831
N5270 X-49.739 Y6.74
N5275 X-50.385 Y6.637
N5280 X-50.909 Y6.53
N5285 X-51.355 Y6.418
N5290 X-51.693 Y6.318
N5295 X-51.991 Y6.215
N5300 X-52.244 Y6.115
N5305 X-52.441 Y6.028
N5310 X-52.529 Y5.983
N5315 X-52.878 Y5.769
N5320 X-53.184 Y5.498
N5325 X-53.438 Y5.177
N5330 X-53.631 Y4.817
N5335 X-53.76 Y4.429
N5340 X-53.991 Y3.443
N5345 G3 X-53.668 Y2.788 I0.589 J-0.117
N5350 G1 X-53.583 Y2.746 Z-10.993
N5355 X-53.501 Y2.706 Z-10.971
N5360 X-53.423 Y2.667 Z-10.935
N5365 X-53.351 Y2.632 Z-10.885
N5370 X-53.287 Y2.6 Z-10.824
N5375 X-53.232 Y2.573 Z-10.753
N5380 X-53.188 Y2.552 Z-10.672
N5385 X-53.156 Y2.536 Z-10.585
N5390 X-53.136 Y2.526 Z-10.494
N5395 X-53.129 Y2.523 Z-10.4
N5400 G0 Z5.
N5405 X-18.128 Y1.159
N5410 Z-9.8
N5415 G1 Z-10.4 F750.
N5420 X-18.125 Y1.166 Z-10.494
N5425 X-18.117 Y1.187 Z-10.585
N5430 X-18.104 Y1.22 Z-10.672
N5435 X-18.086 Y1.266 Z-10.753
N5440 X-18.064 Y1.323 Z-10.824
N5445 X-18.038 Y1.39 Z-10.885
N5450 X-18.009 Y1.464 Z-10.935
N5455 X-17.977 Y1.545 Z-10.971
N5460 X-17.944 Y1.631 Z-10.993
N5465 X-17.91 Y1.718 Z-11.
N5470 G3 X-17.814 Y2.498 I-1.474 J0.576
N5475 G1 X-17.848 Y2.706
N5480 X-17.891 Y2.914
N5485 X-17.982 Y3.329
N5490 X-18.031 Y3.537
N5495 X-18.073 Y3.682
N5500 X-18.122 Y3.823
N5505 X-18.182 Y3.961
N5510 X-18.25 Y4.094
N5515 X-18.326 Y4.224
N5520 X-18.408 Y4.349
N5525 X-18.497 Y4.472
N5530 X-18.604 Y4.608
N5535 X-18.723 Y4.745
N5540 X-18.859 Y4.891
N5545 X-19.018 Y5.045
N5550 X-19.191 Y5.2
N5555 X-19.396 Y5.368
N5560 X-19.616 Y5.532
N5565 X-19.87 Y5.705
N5570 X-20.165 Y5.888
N5575 X-20.481 Y6.065
N5580 X-20.852 Y6.253
N5585 X-21.265 Y6.439
N5590 X-21.722 Y6.622
N5595 X-22.281 Y6.818
N5600 X-22.88 Y7.
N5605 X-23.582 Y7.179
N5610 X-24.43 Y7.357
N5615 X-25.333 Y7.506
N5620 X-26.241 Y7.622
N5625 X-27.152 Y7.712
N5630 X-28.065 Y7.781
N5635 X-28.979 Y7.835
N5640 X-29.893 Y7.876
N5645 X-30.808 Y7.907
N5650 X-31.723 Y7.93
N5655 X-32.639 Y7.948
N5660 X-33.554 Y7.962
N5665 X-34.469 Y7.972
N5670 X-35.385 Y7.979
N5675 X-36.3 Y7.985
N5680 X-37.215 Y7.989
N5685 X-39.046 Y7.994
N5690 X-40.877 Y7.997
N5695 X-41.793
N5700 X-42.708 Y7.996
N5705 X-43.623 Y7.993
N5710 X-44.539 Y7.986
N5715 X-45.454 Y7.973
N5720 X-46.369 Y7.951
N5725 X-47.284 Y7.914
N5730 X-48.198 Y7.857
N5735 X-49.109 Y7.771
N5740 X-49.825 Y7.673
N5745 X-50.432 Y7.563
N5750 X-50.919 Y7.453
N5755 X-51.311 Y7.346
N5760 X-51.617 Y7.248
N5765 X-51.902 Y7.143
N5770 X-52.106 Y7.058
N5775 X-52.219 Y7.005
N5780 X-52.529 Y6.828
N5785 X-52.809 Y6.606
N5790 X-53.052 Y6.345
N5795 X-53.252 Y6.049
N5800 X-53.404 Y5.726
N5805 X-53.498 Y5.479
N5810 X-53.522 Y5.409
N5815 X-53.575 Y5.201
N5820 X-53.627 Y4.993
N5825 X-53.76 Y4.429
N5830 G3 X-53.436 Y3.774 I0.589 J-0.117
N5835 G1 X-53.352 Y3.732 Z-10.993
N5840 X-53.27 Y3.692 Z-10.971
N5845 X-53.192 Y3.653 Z-10.935
N5850 X-53.12 Y3.618 Z-10.885
N5855 X-53.055 Y3.586 Z-10.824
N5860 X-53.001 Y3.559 Z-10.753
N5865 X-52.956 Y3.537 Z-10.672
N5870 X-52.924 Y3.522 Z-10.585
N5875 X-52.904 Y3.512 Z-10.494
N5880 X-52.898 Y3.509 Z-10.4
N5885 G0 Z5.
N5890 X-18.255 Y2.181
N5895 Z-9.8
N5900 G1 Z-10.4 F750.
N5905 X-18.253 Y2.188 Z-10.494
N5910 X-18.246 Y2.209 Z-10.585
N5915 X-18.235 Y2.243 Z-10.672
N5920 X-18.221 Y2.29 Z-10.753
N5925 X-18.202 Y2.349 Z-10.824
N5930 X-18.181 Y2.417 Z-10.885
N5935 X-18.156 Y2.493 Z-10.935
N5940 X-18.13 Y2.576 Z-10.971
N5945 X-18.103 Y2.664 Z-10.993
N5950 X-18.074 Y2.753 Z-11.
N5955 G3 X-18.031 Y3.537 I-1.509 J0.476
N5960 G1 X-18.253 Y4.484
N5965 X-18.295 Y4.628
N5970 X-18.345 Y4.769
N5975 X-18.405 Y4.907
N5980 X-18.474 Y5.04
N5985 X-18.55 Y5.169
N5990 X-18.633 Y5.294
N5995 X-18.725 Y5.422
N6000 X-18.831 Y5.555
N6005 X-18.956 Y5.699
N6010 X-19.091 Y5.841
N6015 X-19.255 Y6.
N6020 X-19.43 Y6.155
N6025 X-19.635 Y6.322
N6030 X-19.87 Y6.496
N6035 X-20.121 Y6.666
N6040 X-20.427 Y6.854
N6045 X-20.752 Y7.034
N6050 X-21.126 Y7.222
N6055 X-21.569 Y7.42
N6060 X-22.029 Y7.602
N6065 X-22.59 Y7.797
N6070 X-23.245 Y7.993
N6075 X-23.961 Y8.173
N6080 X-24.84 Y8.354
N6085 X-25.743 Y8.5
N6090 X-26.652 Y8.614
N6095 X-27.563 Y8.703
N6100 X-28.475 Y8.773
N6105 X-29.389 Y8.827
N6110 X-30.304 Y8.868
N6115 X-31.219 Y8.901
N6120 X-32.134 Y8.925
N6125 X-33.049 Y8.944
N6130 X-33.964 Y8.958
N6135 X-34.88 Y8.969
N6140 X-35.795 Y8.977
N6145 X-36.71 Y8.983
N6150 X-37.626 Y8.988
N6155 X-39.457 Y8.993
N6160 X-41.287 Y8.995
N6165 X-42.203
N6170 X-43.118 Y8.992
N6175 X-44.034 Y8.985
N6180 X-44.949 Y8.972
N6185 X-45.864 Y8.951
N6190 X-46.779 Y8.916
N6195 X-47.693 Y8.863
N6200 X-48.605 Y8.785
N6205 X-49.383 Y8.689
N6210 X-50.037 Y8.578
N6215 X-50.556 Y8.468
N6220 X-50.966 Y8.361
N6225 X-51.305 Y8.258
N6230 X-51.568 Y8.164
N6235 X-51.695 Y8.113
N6240 X-52.038 Y7.941
N6245 X-52.347 Y7.715
N6250 X-52.615 Y7.441
N6255 X-52.835 Y7.127
N6260 X-53.001 Y6.782
N6265 X-53.404 Y5.726
N6270 G3 X-53.171 Y5.034 I0.568 J-0.194
N6275 G1 X-53.093 Y4.981 Z-10.993
N6280 X-53.017 Y4.93 Z-10.971
N6285 X-52.945 Y4.882 Z-10.935
N6290 X-52.878 Y4.837 Z-10.885
N6295 X-52.819 Y4.797 Z-10.824
N6300 X-52.768 Y4.763 Z-10.753
N6305 X-52.727 Y4.736 Z-10.672
N6310 X-52.697 Y4.715 Z-10.585
N6315 X-52.679 Y4.703 Z-10.494
N6320 X-52.673 Y4.699 Z-10.4
N6325 G0 Z5.
N6330 X-18.477 Y3.127
N6335 Z-9.8
N6340 G1 Z-10.4 F750.
N6345 X-18.475 Y3.134 Z-10.494
N6350 X-18.468 Y3.155 Z-10.585
N6355 X-18.458 Y3.19 Z-10.672
N6360 X-18.443 Y3.237 Z-10.753
N6365 X-18.424 Y3.295 Z-10.824
N6370 X-18.403 Y3.363 Z-10.885
N6375 X-18.379 Y3.44 Z-10.935
N6380 X-18.352 Y3.523 Z-10.971
N6385 X-18.325 Y3.61 Z-10.993
N6390 X-18.297 Y3.7 Z-11.
N6395 G3 X-18.253 Y4.484 I-1.509 J0.476
N6400 G1 X-18.325 Y4.785
N6405 X-18.478 Y5.409
N6410 X-18.554 Y5.617
N6415 X-18.653 Y5.841
N6420 X-18.72 Y5.976
N6425 X-18.794 Y6.106
N6430 X-18.875 Y6.233
N6435 X-18.962 Y6.355
N6440 X-19.065 Y6.488
N6445 X-19.181 Y6.625
N6450 X-19.315 Y6.768
N6455 X-19.471 Y6.923
N6460 X-19.64 Y7.076
N6465 X-19.845 Y7.246
N6470 X-20.063 Y7.411
N6475 X-20.317 Y7.587
N6480 X-20.607 Y7.769
N6485 X-20.924 Y7.95
N6490 X-21.308 Y8.148
N6495 X-21.714 Y8.334
N6500 X-22.186 Y8.527
N6505 X-22.758 Y8.733
N6510 X-23.348 Y8.916
N6515 X-24.068 Y9.105
N6520 X-24.927 Y9.292
N6525 X-25.83 Y9.447
N6530 X-26.737 Y9.57
N6535 X-27.647 Y9.666
N6540 X-28.559 Y9.742
N6545 X-29.473 Y9.801
N6550 X-30.387 Y9.848
N6555 X-31.302 Y9.884
N6560 X-32.217 Y9.912
N6565 X-33.132 Y9.933
N6570 X-34.047 Y9.95
N6575 X-34.963 Y9.962
N6580 X-35.878 Y9.972
N6585 X-36.793 Y9.979
N6590 X-37.709 Y9.984
N6595 X-38.624 Y9.988
N6600 X-39.54 Y9.991
N6605 X-40.455 Y9.993
N6610 X-41.37
N6615 X-42.286 Y9.991
N6620 X-43.201 Y9.986
N6625 X-44.117 Y9.976
N6630 X-45.032 Y9.958
N6635 X-45.947 Y9.93
N6640 X-46.861 Y9.888
N6645 X-47.775 Y9.825
N6650 X-48.685 Y9.734
N6655 X-49.412 Y9.632
N6660 X-50.015 Y9.52
N6665 X-50.436 Y9.423
N6670 X-50.807 Y9.32
N6675 X-51.061 Y9.237
N6680 X-51.179 Y9.193
N6685 X-51.489 Y9.05
N6690 X-51.776 Y8.864
N6695 X-52.032 Y8.637
N6700 X-52.252 Y8.376
N6705 X-52.432 Y8.085
N6710 X-52.667 Y7.633
N6715 X-52.731 Y7.489
N6720 X-53.001 Y6.782
N6725 G3 X-52.768 Y6.09 I0.568 J-0.194
N6730 G1 X-52.69 Y6.037 Z-10.993
N6735 X-52.614 Y5.986 Z-10.971
N6740 X-52.542 Y5.938 Z-10.935
N6745 X-52.475 Y5.893 Z-10.885
N6750 X-52.416 Y5.853 Z-10.824
N6755 X-52.365 Y5.819 Z-10.753
N6760 X-52.324 Y5.791 Z-10.672
N6765 X-52.294 Y5.771 Z-10.585
N6770 X-52.276 Y5.759 Z-10.494
N6775 X-52.27 Y5.755 Z-10.4
N6780 G0 Z5.
N6785 X-18.614 Y4.244
N6790 Z-9.8
N6795 G1 Z-10.4 F750.
N6800 X-18.613 Y4.251 Z-10.494
N6805 X-18.609 Y4.273 Z-10.585
N6810 X-18.602 Y4.308 Z-10.672
N6815 X-18.593 Y4.356 Z-10.753
N6820 X-18.582 Y4.416 Z-10.824
N6825 X-18.569 Y4.487 Z-10.885
N6830 X-18.554 Y4.566 Z-10.935
N6835 X-18.538 Y4.651 Z-10.971
N6840 X-18.521 Y4.741 Z-10.993
N6845 X-18.503 Y4.833 Z-11.
N6850 G3 X-18.554 Y5.617 I-1.555 J0.292
N6855 G1 X-18.989 Y6.755
N6860 X-19.059 Y6.915
N6865 X-19.126 Y7.049
N6870 X-19.201 Y7.179
N6875 X-19.283 Y7.305
N6880 X-19.371 Y7.426
N6885 X-19.473 Y7.554
N6890 X-19.586 Y7.684
N6895 X-19.723 Y7.828
N6900 X-19.872 Y7.971
N6905 X-20.052 Y8.131
N6910 X-20.243 Y8.286
N6915 X-20.474 Y8.456
N6920 X-20.727 Y8.627
N6925 X-21.022 Y8.808
N6930 X-21.364 Y8.997
N6935 X-21.724 Y9.177
N6940 X-22.165 Y9.373
N6945 X-22.65 Y9.565
N6950 X-23.207 Y9.757
N6955 X-23.871 Y9.954
N6960 X-24.638 Y10.146
N6965 X-25.535 Y10.33
N6970 X-26.439 Y10.474
N6975 X-27.347 Y10.589
N6980 X-28.258 Y10.679
N6985 X-29.171 Y10.751
N6990 X-30.084 Y10.807
N6995 X-30.999 Y10.851
N7000 X-31.914 Y10.886
N7005 X-32.829 Y10.913
N7010 X-33.744 Y10.933
N7015 X-34.659 Y10.949
N7020 X-35.574 Y10.962
N7025 X-36.49 Y10.971
N7030 X-37.405 Y10.978
N7035 X-38.321 Y10.984
N7040 X-39.236 Y10.987
N7045 X-40.151 Y10.99
N7050 X-41.067
N7055 X-41.982 Y10.988
N7060 X-42.898 Y10.982
N7065 X-43.813 Y10.971
N7070 X-44.728 Y10.953
N7075 X-45.643 Y10.925
N7080 X-46.558 Y10.882
N7085 X-47.471 Y10.82
N7090 X-48.382 Y10.731
N7095 X-49.134 Y10.625
N7100 X-49.688 Y10.523
N7105 X-50.084 Y10.431
N7110 X-50.391 Y10.346
N7115 X-50.495 Y10.312
N7120 X-50.822 Y10.178
N7125 X-51.126 Y9.996
N7130 X-51.398 Y9.77
N7135 X-51.632 Y9.506
N7140 X-51.824 Y9.209
N7145 X-52.308 Y8.321
N7150 X-52.432 Y8.085
N7155 G3 X-52.28 Y7.371 I0.541 J-0.258
N7160 G1 X-52.208 Y7.31 Z-10.993
N7165 X-52.139 Y7.25 Z-10.971
N7170 X-52.073 Y7.194 Z-10.935
N7175 X-52.012 Y7.142 Z-10.885
N7180 X-51.957 Y7.095 Z-10.824
N7185 X-51.911 Y7.055 Z-10.753
N7190 X-51.873 Y7.023 Z-10.672
N7195 X-51.846 Y7. Z-10.585
N7200 X-51.829 Y6.986 Z-10.494
N7205 X-51.824 Y6.981 Z-10.4
N7210 G0 Z5.
N7215 X-19.029 Y5.38
N7220 Z-9.8
N7225 G1 Z-10.4 F750.
N7230 X-19.028 Y5.388 Z-10.494
N7235 X-19.024 Y5.409 Z-10.585
N7240 X-19.018 Y5.445 Z-10.672
N7245 X-19.01 Y5.493 Z-10.753
N7250 X-18.999 Y5.554 Z-10.824
N7255 X-18.987 Y5.624 Z-10.885
N7260 X-18.973 Y5.703 Z-10.935
N7265 X-18.958 Y5.789 Z-10.971
N7270 X-18.943 Y5.879 Z-10.993
N7275 X-18.927 Y5.972 Z-11.
N7280 G3 X-18.989 Y6.755 I-1.559 J0.27
N7285 G1 X-19.269 Y7.489
N7290 X-19.366 Y7.697
N7295 X-19.583 Y8.113
N7300 X-19.659 Y8.242
N7305 X-19.74 Y8.368
N7310 X-19.828 Y8.49
N7315 X-19.926 Y8.612
N7320 X-20.036 Y8.737
N7325 X-20.167 Y8.875
N7330 X-20.309 Y9.011
N7335 X-20.484 Y9.165
N7340 X-20.669 Y9.314
N7345 X-20.898 Y9.482
N7350 X-21.139 Y9.644
N7355 X-21.429 Y9.821
N7360 X-21.751 Y9.999
N7365 X-22.122 Y10.183
N7370 X-22.566 Y10.38
N7375 X-23.032 Y10.563
N7380 X-23.614 Y10.762
N7385 X-24.272 Y10.956
N7390 X-25.017 Y11.141
N7395 X-25.914 Y11.323
N7400 X-26.818 Y11.467
N7405 X-27.727 Y11.581
N7410 X-28.637 Y11.672
N7415 X-29.55 Y11.743
N7420 X-30.464 Y11.8
N7425 X-31.378 Y11.845
N7430 X-32.293 Y11.88
N7435 X-33.208 Y11.908
N7440 X-34.123 Y11.929
N7445 X-35.038 Y11.946
N7450 X-35.954 Y11.959
N7455 X-36.869 Y11.969
N7460 X-37.784 Y11.976
N7465 X-38.7 Y11.982
N7470 X-39.615 Y11.985
N7475 X-40.531 Y11.986
N7480 X-41.446 Y11.985
N7485 X-42.361 Y11.98
N7490 X-43.277 Y11.97
N7495 X-44.192 Y11.954
N7500 X-45.107 Y11.928
N7505 X-46.022 Y11.888
N7510 X-46.935 Y11.832
N7515 X-47.847 Y11.751
N7520 X-48.593 Y11.657
N7525 X-49.11 Y11.569
N7530 X-49.513 Y11.482
N7535 X-49.653 Y11.446
N7540 X-50.028 Y11.313
N7545 X-50.375 Y11.118
N7550 X-50.684 Y10.867
N7555 X-50.946 Y10.568
N7560 X-51.42 Y9.921
N7565 X-51.512 Y9.777
N7570 X-51.629 Y9.569
N7575 X-51.824 Y9.209
N7580 G3 X-51.686 Y8.492 I0.537 J-0.268
N7585 G1 X-51.616 Y8.429 Z-10.993
N7590 X-51.547 Y8.369 Z-10.971
N7595 X-51.482 Y8.311 Z-10.935
N7600 X-51.422 Y8.258 Z-10.885
N7605 X-51.369 Y8.21 Z-10.824
N7610 X-51.323 Y8.17 Z-10.753
N7615 X-51.286 Y8.137 Z-10.672
N7620 X-51.259 Y8.113 Z-10.585
N7625 X-51.243 Y8.098 Z-10.494
N7630 X-51.237 Y8.094 Z-10.4
N7635 G0 Z5.
N7640 X-19.465 Y6.743
N7645 Z-9.8
N7650 G1 Z-10.4 F750.
N7655 X-19.464 Y6.751 Z-10.494
N7660 X-19.463 Y6.773 Z-10.585
N7665 X-19.461 Y6.809 Z-10.672
N7670 X-19.458 Y6.858 Z-10.753
N7675 X-19.455 Y6.919 Z-10.824
N7680 X-19.451 Y6.99 Z-10.885
N7685 X-19.446 Y7.07 Z-10.935
N7690 X-19.441 Y7.157 Z-10.971
N7695 X-19.436 Y7.249 Z-10.993
N7700 X-19.431 Y7.342 Z-11.
N7705 G3 X-19.583 Y8.113 I-1.58 J0.089
N7710 G1 X-19.692 Y8.321
N7715 X-20.195 Y9.245
N7720 X-20.307 Y9.428
N7725 X-20.391 Y9.553
N7730 X-20.482 Y9.672
N7735 X-20.578 Y9.787
N7740 X-20.693 Y9.912
N7745 X-20.817 Y10.035
N7750 X-20.971 Y10.177
N7755 X-21.136 Y10.314
N7760 X-21.338 Y10.469
N7765 X-21.552 Y10.618
N7770 X-21.819 Y10.788
N7775 X-22.103 Y10.952
N7780 X-22.449 Y11.131
N7785 X-22.833 Y11.31
N7790 X-23.273 Y11.492
N7795 X-23.813 Y11.689
N7800 X-24.379 Y11.867
N7805 X-25.081 Y12.055
N7810 X-25.926 Y12.243
N7815 X-26.828 Y12.402
N7820 X-27.734 Y12.528
N7825 X-28.644 Y12.628
N7830 X-29.556 Y12.708
N7835 X-30.469 Y12.771
N7840 X-31.383 Y12.821
N7845 X-32.298 Y12.861
N7850 X-33.213 Y12.892
N7855 X-34.128 Y12.917
N7860 X-35.043 Y12.936
N7865 X-35.958 Y12.951
N7870 X-36.874 Y12.962
N7875 X-37.789 Y12.971
N7880 X-38.705 Y12.977
N7885 X-39.62 Y12.98
N7890 X-40.535 Y12.981
N7895 X-41.451 Y12.979
N7900 X-42.366 Y12.973
N7905 X-43.282 Y12.96
N7910 X-44.197 Y12.94
N7915 X-45.112 Y12.91
N7920 X-46.026 Y12.865
N7925 X-46.939 Y12.802
N7930 X-47.812 Y12.714
N7935 X-48.318 Y12.641
N7940 X-48.726 Y12.564
N7945 X-48.808 Y12.545
N7950 X-49.128 Y12.446
N7955 X-49.429 Y12.301
N7960 X-49.708 Y12.116
N7965 X-49.956 Y11.892
N7970 X-49.991 Y11.856
N7975 X-50.153 Y11.648
N7980 X-50.946 Y10.568
N7985 G3 X-50.904 Y9.839 I0.496 J-0.338
N7990 G1 X-50.843 Y9.767 Z-10.993
N7995 X-50.783 Y9.698 Z-10.971
N8000 X-50.726 Y9.632 Z-10.935
N8005 X-50.674 Y9.571 Z-10.885
N8010 X-50.627 Y9.517 Z-10.824
N8015 X-50.587 Y9.471 Z-10.753
N8020 X-50.555 Y9.434 Z-10.672
N8025 X-50.532 Y9.406 Z-10.585
N8030 X-50.517 Y9.39 Z-10.494
N8035 X-50.513 Y9.384 Z-10.4
N8040 G0 Z5.
N8045 X-20.052 Y7.878
N8050 Z-9.8
N8055 G1 Z-10.4 F750.
N8060 X-20.051 Y7.885 Z-10.494
N8065 Y7.907 Z-10.585
N8070 X-20.049 Y7.943 Z-10.672
N8075 X-20.047 Y7.992 Z-10.753
N8080 X-20.045 Y8.053 Z-10.824
N8085 X-20.042 Y8.125 Z-10.885
N8090 X-20.039 Y8.205 Z-10.935
N8095 X-20.036 Y8.292 Z-10.971
N8100 X-20.033 Y8.383 Z-10.993
N8105 X-20.029 Y8.477 Z-11.
N8110 G3 X-20.195 Y9.245 I-1.581 J0.06
N8115 G1 X-20.444 Y9.701
N8120 X-20.494 Y9.777
N8125 X-20.652 Y10.01
N8130 X-20.779 Y10.193
N8135 X-21.168 Y10.723
N8140 X-21.321 Y10.91
N8145 X-21.42 Y11.023
N8150 X-21.528 Y11.134
N8155 X-21.656 Y11.254
N8160 X-21.803 Y11.381
N8165 X-21.971 Y11.514
N8170 X-22.173 Y11.66
N8175 X-22.394 Y11.805
N8180 X-22.657 Y11.962
N8185 X-22.949 Y12.12
N8190 X-23.297 Y12.289
N8195 X-23.693 Y12.46
N8200 X-24.156 Y12.636
N8205 X-24.715 Y12.822
N8210 X-25.324 Y12.996
N8215 X-26.087 Y13.178
N8220 X-26.986 Y13.351
N8225 X-27.892 Y13.487
N8230 X-28.801 Y13.595
N8235 X-29.712 Y13.681
N8240 X-30.625 Y13.749
N8245 X-31.539 Y13.803
N8250 X-32.453 Y13.846
N8255 X-33.368 Y13.88
N8260 X-34.283 Y13.907
N8265 X-35.198 Y13.928
N8270 X-36.113 Y13.944
N8275 X-37.029 Y13.956
N8280 X-37.944 Y13.966
N8285 X-38.86 Y13.972
N8290 X-39.775 Y13.975
N8295 X-40.69
N8300 X-41.606 Y13.971
N8305 X-42.521 Y13.962
N8310 X-43.436 Y13.946
N8315 X-44.352 Y13.92
N8320 X-45.266 Y13.883
N8325 X-46.18 Y13.83
N8330 X-47.066 Y13.755
N8335 X-47.559 Y13.692
N8340 X-47.601 Y13.685
N8345 X-47.959 Y13.593
N8350 X-48.297 Y13.447
N8355 X-48.609 Y13.249
N8360 X-48.885 Y13.004
N8365 X-49.956 Y11.892
N8370 G3 X-50.013 Y11.164 I0.446 J-0.401
N8375 G1 X-49.962 Y11.085 Z-10.993
N8380 X-49.912 Y11.008 Z-10.971
N8385 X-49.864 Y10.935 Z-10.935
N8390 X-49.82 Y10.868 Z-10.885
N8395 X-49.781 Y10.808 Z-10.824
N8400 X-49.748 Y10.757 Z-10.753
N8405 X-49.721 Y10.716 Z-10.672
N8410 X-49.701 Y10.686 Z-10.585
N8415 X-49.689 Y10.667 Z-10.494
N8420 X-49.685 Y10.661 Z-10.4
N8425 G0 Z5.
N8430 X-20.91 Y9.572
N8435 Z-9.8
N8440 G1 Z-10.4 F750.
N8445 X-20.911 Y9.579 Z-10.494
N8450 X-20.913 Y9.601 Z-10.585
N8455 X-20.916 Y9.637 Z-10.672
N8460 X-20.921 Y9.686 Z-10.753
N8465 X-20.927 Y9.747 Z-10.824
N8470 X-20.934 Y9.818 Z-10.885
N8475 X-20.942 Y9.898 Z-10.935
N8480 X-20.95 Y9.985 Z-10.971
N8485 X-20.959 Y10.076 Z-10.993
N8490 X-20.968 Y10.169 Z-11.
N8495 G3 X-21.168 Y10.723 I-1.181 J-0.114
N8500 G1 X-21.483 Y11.152
N8505 X-21.899 Y11.71
N8510 X-22.01 Y11.856
N8515 X-22.315 Y12.174
N8520 X-22.41 Y12.272
N8525 X-22.559 Y12.413
N8530 X-22.696 Y12.53
N8535 X-22.846 Y12.648
N8540 X-23.034 Y12.783
N8545 X-23.232 Y12.913
N8550 X-23.48 Y13.061
N8555 X-23.744 Y13.203
N8560 X-24.075 Y13.363
N8565 X-24.435 Y13.517
N8570 X-24.889 Y13.69
N8575 X-25.38 Y13.852
N8580 X-25.997 Y14.026
N8585 X-26.74 Y14.202
N8590 X-27.64 Y14.374
N8595 X-28.545 Y14.507
N8600 X-29.455 Y14.612
N8605 X-30.366 Y14.694
N8610 X-31.279 Y14.759
N8615 X-32.193 Y14.811
N8620 X-33.108 Y14.852
N8625 X-34.023 Y14.884
N8630 X-34.938 Y14.909
N8635 X-35.853 Y14.929
N8640 X-36.768 Y14.945
N8645 X-37.684 Y14.956
N8650 X-38.599 Y14.964
N8655 X-39.515 Y14.968
N8660 X-40.43 Y14.969
N8665 X-41.345 Y14.965
N8670 X-42.261 Y14.956
N8675 X-43.176 Y14.939
N8680 X-44.091 Y14.914
N8685 X-45.006 Y14.877
N8690 X-45.92 Y14.823
N8695 X-46.202 Y14.795
N8700 X-46.53 Y14.738
N8705 X-46.846 Y14.636
N8710 X-47.145 Y14.489
N8715 X-47.42 Y14.301
N8720 X-48.144 Y13.728
N8725 X-48.301 Y13.592
N8730 X-48.587 Y13.312
N8735 X-48.789 Y13.104
N8740 X-48.885 Y13.004
N8745 G3 X-48.84 Y12.157 Z-10.8 I0.446 J-0.401
N8750 X-48.456 Y12.004 I0.401 J0.446
N8755 G1 X-22.874 Y11.272
N8760 G3 X-22.455 Y11.425 I0.017 J0.6
N8765 X-22.41 Y12.272 Z-11. I-0.401 J0.446
N8770 G1 X-23.562 Y13.468
N8775 X-23.623 Y13.52
N8780 X-23.872 Y13.728
N8785 X-24.093 Y13.894
N8790 X-24.266 Y14.012
N8795 X-24.46 Y14.133
N8800 X-24.685 Y14.26
N8805 X-24.964 Y14.402
N8810 X-25.259 Y14.536
N8815 X-25.647 Y14.692
N8820 X-26.054 Y14.836
N8825 X-26.581 Y14.997
N8830 X-27.189 Y15.154
N8835 X-27.954 Y15.316
N8840 X-28.856 Y15.467
N8845 X-29.765 Y15.583
N8850 X-30.676 Y15.673
N8855 X-31.588 Y15.743
N8860 X-32.502 Y15.798
N8865 X-33.416 Y15.842
N8870 X-34.331 Y15.876
N8875 X-35.246 Y15.903
N8880 X-36.161 Y15.924
N8885 X-37.077 Y15.94
N8890 X-37.992 Y15.951
N8895 X-38.907 Y15.958
N8900 X-39.823 Y15.961
N8905 X-40.738 Y15.96
N8910 X-41.654 Y15.953
N8915 X-42.569 Y15.94
N8920 X-43.484 Y15.918
N8925 X-44.399 Y15.885
N8930 X-44.612 Y15.872
N8935 X-44.977 Y15.82
N8940 X-45.329 Y15.711
N8945 X-45.66 Y15.549
N8950 X-45.922 Y15.392
N8955 X-46.43 Y15.081
N8960 X-46.569 Y14.976
N8965 X-47.42 Y14.301
N8970 G3 X-47.489 Y13.456 Z-10.8 I0.389 J-0.457
N8975 X-47.046 Y13.245 I0.457 J0.388
N8980 G1 X-24.287 Y12.681
N8985 G3 X-23.824 Y12.881 I0.015 J0.6
N8990 X-23.872 Y13.728 Z-11. I-0.448 J0.399
N8995 G1 X-24.186 Y13.989
N9000 X-25.017 Y14.648
N9005 X-25.225 Y14.807
N9010 X-25.555 Y15.056
N9015 X-25.818 Y15.234
N9020 X-25.981 Y15.335
N9025 X-26.187 Y15.45
N9030 X-26.411 Y15.563
N9035 X-26.678 Y15.683
N9040 X-27.016 Y15.818
N9045 X-27.378 Y15.944
N9050 X-27.85 Y16.086
N9055 X-28.403 Y16.226
N9060 X-29.111 Y16.373
N9065 X-30.014 Y16.52
N9070 X-30.923 Y16.63
N9075 X-31.835 Y16.713
N9080 X-32.748 Y16.776
N9085 X-33.662 Y16.825
N9090 X-34.577 Y16.863
N9095 X-35.492 Y16.893
N9100 X-36.407 Y16.915
N9105 X-37.322 Y16.932
N9110 X-38.238 Y16.944
N9115 X-39.153 Y16.951
N9120 X-40.068 Y16.953
N9125 X-40.984 Y16.949
N9130 X-41.899 Y16.939
N9135 X-42.533 Y16.927
N9140 X-42.829 Y16.902
N9145 X-43.119 Y16.84
N9150 X-43.4 Y16.741
N9155 X-44.143 Y16.422
N9160 X-44.351 Y16.326
N9165 X-45.66 Y15.549
N9170 G3 X-45.841 Y14.72 Z-10.8 I0.324 J-0.505
N9175 X-45.35 Y14.444 I0.505 J0.324
N9180 G1 X-25.947 Y13.99
N9185 G3 X-25.466 Y14.212 I0.014 J0.6
N9190 X-25.555 Y15.056 Z-11. I-0.466 J0.378
N9195 G1 X-25.641 Y15.121
N9200 X-25.727 Y15.184
N9205 X-27.304 Y16.122
N9210 X-27.72 Y16.349
N9215 X-27.874 Y16.432
N9220 X-28.852 Y16.848
N9225 X-29.43 Y17.06
N9230 X-29.776 Y17.17
N9235 X-30.196 Y17.285
N9240 X-30.742 Y17.407
N9245 X-31.438 Y17.533
N9250 X-32.345 Y17.656
N9255 X-33.257 Y17.742
N9260 X-34.17 Y17.805
N9265 X-35.084 Y17.85
N9270 X-35.999 Y17.884
N9275 X-36.914 Y17.909
N9280 X-37.829 Y17.926
N9285 X-38.745 Y17.937
N9290 X-39.449 Y17.941
N9295 X-39.61 Y17.936
N9300 X-39.77 Y17.92
N9305 X-39.929 Y17.893
N9310 X-39.986 Y17.882
N9315 X-40.193 Y17.828
N9320 X-41.441 Y17.485
N9325 X-42.064 Y17.296
N9330 X-42.168 Y17.264
N9335 X-42.272 Y17.22
N9340 X-43.4 Y16.741
N9345 G3 X-43.717 Y15.954 Z-10.8 I0.235 J-0.552
N9350 X-43.173 Y15.589 I0.552 J0.234
N9355 G1 X-28.737 Y15.395
N9360 G3 X-28.173 Y16.22 I0.008 J0.6
N9365 G1 X-28.205 Y16.287 Z-10.816
N9370 X-28.245 Y16.349 Z-10.831
N9375 X-28.26 Y16.37 Z-10.837
N9380 G3 X-28.852 Y16.848 Z-11. I-1.261 J-0.956
N9385 G1 X-29.383 Y17.073
N9390 X-29.841 Y17.264
N9395 X-30.007 Y17.332
N9400 X-30.215 Y17.39
N9405 X-32.086 Y17.904
N9410 X-32.294 Y17.946
N9415 X-32.709 Y18.017
N9420 X-32.917 Y18.052
N9425 X-34.373 Y18.248
N9430 X-34.58 Y18.271
N9435 X-34.996 Y18.3
N9440 X-35.204 Y18.302
N9445 X-37.075
N9450 X-37.283 Y18.288
N9455 X-37.491 Y18.266
N9460 X-39.154 Y18.042
N9465 X-39.362 Y18.009
N9470 X-39.929 Y17.893
N9475 G3 X-40.388 Y17.325 I0.141 J-0.583
N9480 G1 X-40.391 Y17.231 Z-10.993
N9485 X-40.393 Y17.14 Z-10.971
N9490 X-40.395 Y17.053 Z-10.935
N9495 X-40.397 Y16.973 Z-10.885
N9500 X-40.399 Y16.901 Z-10.824
N9505 X-40.4 Y16.84 Z-10.753
N9510 X-40.402 Y16.791 Z-10.672
N9515 X-40.403 Y16.755 Z-10.585
N9520 Y16.733 Z-10.494
N9525 Y16.725 Z-10.4
N9530 G0 Z15.
(2D CONTOUR1)
N9535 G0 X4. Y45.6
N9540 Z15.
N9545 Z5.
N9550 G1 Z1. F250.
N9555 Z-9.4
N9560 G18 G3 X3.4 Z-10. I-0.6 K0. F750.
N9565 G1 X2.8
N9570 G17 G3 X2.2 Y45. I0. J-0.6
N9575 G1 Y2.5
N9580 G2 X-2.5 Y-2.2 I-4.7 J0.
N9585 G1 X-11.778
N9590 G2 X-17.895 Y2.99 I0. J6.2
N9595 G3 X-54.105 I-18.105 J-2.99
N9600 G2 X-60.222 Y-2.2 I-6.117 J1.01
N9605 G1 X-65.876
N9610 G2 X-69.789 Y0.473 I0. J4.2
N9615 G3 X-72.211 I-1.211 J-0.473
N9620 G2 X-76.124 Y-2.2 I-3.912 J1.527
N9625 G1 X-86.
N9630 G3 X-86.6 Y-2.8 I0. J-0.6
N9635 G1 Y-3.4
N9640 G19 G2 Y-4. Z-9.4 J0. K0.6
N9645 G0 Z15.
N9650 G17
(2D CONTOUR1 2)
N9655 G0 X3.8 Y45.6
N9660 Z15.
N9665 Z5.
N9670 G1 Z1. F250.
N9675 Z-9.4
N9680 G18 G3 X3.2 Z-10. I-0.6 K0. F750.
N9685 G1 X2.6
N9690 G17 G3 X2. Y45. I0. J-0.6
N9695 G1 Y2.5
N9700 G2 X-2.5 Y-2. I-4.5 J0.
N9705 G1 X-11.778
N9710 G2 X-17.698 Y3.022 I0. J6.
N9715 G3 X-54.302 I-18.302 J-3.022
N9720 G2 X-60.222 Y-2. I-5.92 J0.978
N9725 G1 X-65.876
N9730 G2 X-69.603 Y0.545 I0. J4.
N9735 G3 X-72.397 I-1.397 J-0.545
N9740 G2 X-76.124 Y-2. I-3.726 J1.455
N9745 G1 X-86.
N9750 G3 X-86.6 Y-2.6 I0. J-0.6
N9755 G1 Y-3.2
N9760 G19 G2 Y-3.8 Z-9.4 J0. K0.6
N9765 G0 Z15.
N9770 G17
N9775 M5
N9780 G53 G0 Z0.
(DRILL1)
N9785 M9
N9790 M1
N9795 T2 M6
N9800 T20
N9805 S8000 M3
N9810 G54
N9815 M8
N9820 G0 X-11. Y40.
N9825 G43 Z15. H2
N9830 G0 Z5.
N9835 G98 G81 X-11. Y40. Z-1.5 R5. F173.33
N9840 X-76.
N9845 G80
N9850 G0 Z15.
N9855 M5
N9860 G53 Z0.
(DRILL2)
N9865 M9
N9870 M1
N9875 T20 M6
N9880 T1
N9885 S17881 M3
N9890 G54
N9895 M8
N9900 G0 X-11. Y40.
N9905 G43 Z15. H20
N9910 G0 Z5.
N9915 G83 X-11. Y40. Z-10. R5. Q1.5 F268.22
N9920 X-76.
N9925 G80
N9930 G0 Z15.
N9935 M5
N9940 G53 Z0.
(2D CHAMFER1)
N9945 M9
N9950 M1
N9955 T1 M6
N9960 T3
N9965 S14000 M3
N9970 G54
N9975 M8
N9980 G0 X0.65 Y45.
N9985 G43 Z15. H1
N9990 G0 Z5.
N9995 G1 Z2. F266.67
N10000 Z-1.3
N10005 X0.05 F800.
N10010 Y2.5
N10015 G2 X-2.5 Y-0.05 I-2.55 J0.
N10020 G1 X-11.778
N10025 G2 X-15.774 Y3.34 I0. J4.05
N10030 G3 X-56.226 I-20.226 J-3.34
N10035 G2 X-60.222 Y-0.05 I-3.996 J0.66
N10040 G1 X-65.876
N10045 G2 X-67.786 Y1.255 I0. J2.05
N10050 G3 X-74.214 I-3.214 J-1.255
N10055 G2 X-76.124 Y-0.05 I-1.91 J0.745
N10060 G1 X-86.
N10065 Y-0.65
N10070 G0 Z15.
N10075 M9
N10080 G53 Z0.
N10085 M30
%
