%
(X2_CLAMP_CHAMFER_V1)
(T1  D=6. CR=0. TAPER=45DEG - ZMIN=-1.3 - CHAMFER MILL)
N10 G90 G94 G17 G91.1
N15 G21
N20 G53 G0 Z0.
(2D CHAMFER2)
N25 T1 M6
N30 S14000 M3
N35 G54
N40 M8
N45 G0 X-85. Y1.65
N50 G43 Z15. H1
N55 G0 Z5.
N60 G1 Z2. F266.67
N65 Z-1.3
N70 Y1.05 F800.
N75 X-75.124
N80 G2 X-73.214 Y-0.255 I0. J-2.05
N85 G3 X-66.786 I3.214 J1.255
N90 G2 X-64.876 Y1.05 I1.91 J-0.745
N95 G1 X-59.222
N100 G2 X-55.226 Y-2.34 I0. J-4.05
N105 G3 X-14.774 I20.226 J3.34
N110 G2 X-10.778 Y1.05 I3.996 J-0.66
N115 G1 X-1.5
N120 G2 X1.05 Y-1.5 I0. J-2.55
N125 G1 Y-44.
N130 X1.65
N135 G0 Z15.
N140 M9
N145 G53 Z0.
N150 M30
%
