%
(Z-PLATE-LATEST)
(T1  D=6. CR=0. TAPER=118DEG - ZMIN=-12.103 - DRILL)
(T2  D=3.4 CR=0. TAPER=118DEG - ZMIN=-11.321 - DRILL)
(T17  D=6. CR=0. - ZMIN=-9.3 - BULLNOSE END MILL)
(T23  D=3. CR=0. - ZMIN=-10.387 - THREAD MILL)
N10 G90 G94 G17 G91.1
N15 G21
N20 G53 G0 Z0.
(FACE1)
N25 T17 M6
N30 S15000 M3
N35 G54
N40 M8
N45 G0 X59.327 Y-3.9
N50 G43 Z15. H17
N55 G0 Z5.
N60 G1 Z0.3 F400.
N65 G18 G3 X58.727 Z-0.3 I-0.6 K0. F900.
N70 G1 X-7.927
N75 G3 X-8.527 Z0.3 I0. K0.6
N80 G0 Z5.
N85 X59.7 Y0.157
N90 G1 Z0.3 F400.
N95 G3 X59.1 Z-0.3 I-0.6 K0. F900.
N100 G1 X58.81
N105 X-8.01
N110 G3 X-8.61 Z0.3 I0. K0.6
N115 G0 Z5.
N120 X59.7 Y4.215
N125 G1 Z0.3 F400.
N130 G3 X59.1 Z-0.3 I-0.6 K0. F900.
N135 G1 X58.81
N140 X-8.01
N145 G3 X-8.61 Z0.3 I0. K0.6
N150 G0 Z5.
N155 X59.7 Y8.273
N160 G1 Z0.3 F400.
N165 G3 X59.1 Z-0.3 I-0.6 K0. F900.
N170 G1 X58.81
N175 X-8.01
N180 G3 X-8.61 Z0.3 I0. K0.6
N185 G0 Z5.
N190 X59.7 Y12.331
N195 G1 Z0.3 F400.
N200 G3 X59.1 Z-0.3 I-0.6 K0. F900.
N205 G1 X58.81
N210 X-8.01
N215 G3 X-8.61 Z0.3 I0. K0.6
N220 G0 Z5.
N225 X59.7 Y16.388
N230 G1 Z0.3 F400.
N235 G3 X59.1 Z-0.3 I-0.6 K0. F900.
N240 G1 X58.81
N245 X-8.01
N250 G3 X-8.61 Z0.3 I0. K0.6
N255 G0 Z5.
N260 X59.7 Y20.446
N265 G1 Z0.3 F400.
N270 G3 X59.1 Z-0.3 I-0.6 K0. F900.
N275 G1 X58.81
N280 X-8.01
N285 G3 X-8.61 Z0.3 I0. K0.6
N290 G0 Z5.
N295 X59.7 Y24.504
N300 G1 Z0.3 F400.
N305 G3 X59.1 Z-0.3 I-0.6 K0. F900.
N310 G1 X58.81
N315 X-8.01
N320 G3 X-8.61 Z0.3 I0. K0.6
N325 G0 Z5.
N330 X59.7 Y28.562
N335 G1 Z0.3 F400.
N340 G3 X59.1 Z-0.3 I-0.6 K0. F900.
N345 G1 X58.81
N350 X-8.01
N355 G3 X-8.61 Z0.3 I0. K0.6
N360 G0 Z5.
N365 X59.7 Y32.619
N370 G1 Z0.3 F400.
N375 G3 X59.1 Z-0.3 I-0.6 K0. F900.
N380 G1 X58.81
N385 X-8.01
N390 G3 X-8.61 Z0.3 I0. K0.6
N395 G0 Z5.
N400 X59.7 Y36.677
N405 G1 Z0.3 F400.
N410 G3 X59.1 Z-0.3 I-0.6 K0. F900.
N415 G1 X58.81
N420 X-8.01
N425 G3 X-8.61 Z0.3 I0. K0.6
N430 G0 Z5.
N435 X59.7 Y40.735
N440 G1 Z0.3 F400.
N445 G3 X59.1 Z-0.3 I-0.6 K0. F900.
N450 G1 X58.81
N455 X-8.01
N460 G3 X-8.61 Z0.3 I0. K0.6
N465 G0 Z5.
N470 X59.7 Y44.793
N475 G1 Z0.3 F400.
N480 G3 X59.1 Z-0.3 I-0.6 K0. F900.
N485 G1 X58.81
N490 X-8.01
N495 G3 X-8.61 Z0.3 I0. K0.6
N500 G0 Z5.
N505 X59.7 Y48.85
N510 G1 Z0.3 F400.
N515 G3 X59.1 Z-0.3 I-0.6 K0. F900.
N520 G1 X58.81
N525 X-8.01
N530 G3 X-8.61 Z0.3 I0. K0.6
N535 G0 Z5.
N540 X59.424 Y52.908
N545 G1 Z0.3 F400.
N550 G3 X58.824 Z-0.3 I-0.6 K0. F900.
N555 G1 X58.81
N560 X-8.01
N565 G3 X-8.61 Z0.3 I0. K0.6
N570 G0 Z15.
N575 G17
(2D ADAPTIVE1)
N580 G0 X-4.382 Y56.231
N585 Z15.
N590 Z5.
N595 Z-8.1
N600 G1 Z-8.7 F900.
N605 X-4.379 Y56.224 Z-8.794
N610 X-4.367 Y56.205 Z-8.885
N615 X-4.349 Y56.174 Z-8.972
N620 X-4.324 Y56.132 Z-9.053
N625 X-4.293 Y56.079 Z-9.124
N630 X-4.256 Y56.018 Z-9.185
N635 X-4.215 Y55.949 Z-9.235
N640 X-4.171 Y55.874 Z-9.271
N645 X-4.124 Y55.795 Z-9.293
N650 X-4.077 Y55.714 Z-9.3
N655 G3 X-2.099 Y53.073 I13.18 J7.805
N660 G1 X-2.018 Y52.992
N665 X-1.442 Y52.889
N670 X-0.601 Y52.782
N675 X0.311 Y52.711
N680 X1.226 Y52.668
N685 X2.141 Y52.642
N690 X3.056 Y52.626
N695 X3.971 Y52.616
N700 X4.887 Y52.61
N705 X5.802 Y52.606
N710 X7.633 Y52.602
N715 X9.078 Y52.601
N720 X9.295 Y52.611
N725 X9.51 Y52.639
N730 X9.722 Y52.687
N735 X10.345 Y52.856
N740 X12.006 Y53.254
N745 X12.322 Y53.33
N750 X12.422 Y53.347
N755 X12.837 Y53.4
N760 X13.045 Y53.424
N765 X14.913 Y53.572
N770 X15.121 Y53.584
N775 X15.744 Y53.6
N780 X35.056
N785 X35.679 Y53.584
N790 X35.887 Y53.572
N795 X37.755 Y53.424
N800 X37.963 Y53.4
N805 X38.378 Y53.347
N810 X38.478 Y53.33
N815 X39.417 Y53.105
N820 X40.316 Y52.936
N825 X40.769 Y52.868
N830 X41.678 Y52.761
N835 X42.591 Y52.698
N840 X43.506 Y52.66
N845 X44.421 Y52.637
N850 X45.337 Y52.623
N855 X46.252 Y52.614
N860 X47.167 Y52.609
N865 X48.083 Y52.605
N870 X48.998 Y52.603
N875 X49.877 Y52.348
N880 X50.625 Y51.82
N885 X51.216 Y51.121
N890 X51.658 Y50.319
N895 X51.975 Y49.46
N900 X52.194 Y48.571
N905 X52.34 Y47.668
N910 X52.435 Y46.757
N915 X52.497 Y45.844
N920 X52.535 Y44.929
N925 X52.56 Y44.014
N930 X52.575 Y43.099
N935 X52.585 Y42.184
N940 X52.587 Y41.809
N945 X52.599 Y41.563
N950 X52.633 Y41.318
N955 X52.687 Y41.078
N960 X52.856 Y40.455
N965 X53.254 Y38.794
N970 X53.33 Y38.478
N975 X53.347 Y38.378
N980 X53.4 Y37.963
N985 X53.424 Y37.755
N990 X53.572 Y35.887
N995 X53.584 Y35.679
N1000 X53.6 Y35.056
N1005 Y15.744
N1010 X53.584 Y15.121
N1015 X53.572 Y14.913
N1020 X53.424 Y13.045
N1025 X53.4 Y12.837
N1030 X53.347 Y12.422
N1035 X53.33 Y12.322
N1040 X53.105 Y11.383
N1045 X52.936 Y10.484
N1050 X52.868 Y10.031
N1055 X52.761 Y9.122
N1060 X52.698 Y8.209
N1065 X52.66 Y7.294
N1070 X52.637 Y6.379
N1075 X52.623 Y5.463
N1080 X52.614 Y4.548
N1085 X52.609 Y3.633
N1090 X52.605 Y2.717
N1095 X52.603 Y1.802
N1100 X52.348 Y0.923
N1105 X51.82 Y0.175
N1110 X51.121 Y-0.416
N1115 X50.319 Y-0.858
N1120 X49.46 Y-1.175
N1125 X48.571 Y-1.394
N1130 X47.668 Y-1.54
N1135 X46.757 Y-1.635
N1140 X45.844 Y-1.697
N1145 X44.929 Y-1.735
N1150 X44.014 Y-1.76
N1155 X43.099 Y-1.775
N1160 X42.184 Y-1.785
N1165 X41.809 Y-1.787
N1170 X41.563 Y-1.799
N1175 X41.319 Y-1.833
N1180 X41.078 Y-1.887
N1185 X40.455 Y-2.056
N1190 X38.794 Y-2.454
N1195 X38.478 Y-2.53
N1200 X38.378 Y-2.547
N1205 X37.963 Y-2.6
N1210 X37.755 Y-2.625
N1215 X35.887 Y-2.772
N1220 X35.679 Y-2.784
N1225 X35.056 Y-2.8
N1230 X15.744
N1235 X15.121 Y-2.784
N1240 X14.913 Y-2.772
N1245 X13.045 Y-2.625
N1250 X12.837 Y-2.6
N1255 X12.422 Y-2.547
N1260 X12.322 Y-2.53
N1265 X11.383 Y-2.305
N1270 X10.484 Y-2.136
N1275 X10.031 Y-2.068
N1280 X9.122 Y-1.961
N1285 X8.209 Y-1.898
N1290 X7.294 Y-1.86
N1295 X6.379 Y-1.837
N1300 X5.463 Y-1.823
N1305 X4.548 Y-1.814
N1310 X3.633 Y-1.809
N1315 X2.717 Y-1.805
N1320 X1.802 Y-1.803
N1325 X0.923 Y-1.548
N1330 X0.175 Y-1.02
N1335 X-0.416 Y-0.321
N1340 X-0.858 Y0.481
N1345 X-1.175 Y1.34
N1350 X-1.394 Y2.229
N1355 X-1.54 Y3.132
N1360 X-1.635 Y4.043
N1365 X-1.697 Y4.956
N1370 X-1.735 Y5.871
N1375 X-1.76 Y6.786
N1380 X-1.775 Y7.701
N1385 X-1.785 Y8.616
N1390 X-1.787 Y8.991
N1395 X-1.799 Y9.237
N1400 X-1.833 Y9.481
N1405 X-1.887 Y9.722
N1410 X-2.056 Y10.345
N1415 X-2.454 Y12.006
N1420 X-2.53 Y12.322
N1425 X-2.547 Y12.422
N1430 X-2.6 Y12.837
N1435 X-2.625 Y13.045
N1440 X-2.772 Y14.913
N1445 X-2.784 Y15.121
N1450 X-2.8 Y15.744
N1455 Y35.056
N1460 X-2.784 Y35.679
N1465 X-2.772 Y35.887
N1470 X-2.625 Y37.755
N1475 X-2.6 Y37.963
N1480 X-2.547 Y38.378
N1485 X-2.53 Y38.478
N1490 X-2.305 Y39.417
N1495 X-2.136 Y40.316
N1500 X-2.068 Y40.769
N1505 X-1.961 Y41.678
N1510 X-1.898 Y42.591
N1515 X-1.86 Y43.506
N1520 X-1.837 Y44.421
N1525 X-1.823 Y45.337
N1530 X-1.814 Y46.252
N1535 X-1.809 Y47.167
N1540 X-1.807 Y47.625
N1545 X-1.734 Y48.077
N1550 X-1.41 Y48.933
N1555 X-0.832 Y49.643
N1560 X-0.099 Y50.192
N1565 X0.723 Y50.594
N1570 X1.594 Y50.876
N1575 X2.49 Y51.066
N1580 X3.397 Y51.19
N1585 X4.309 Y51.27
N1590 X5.223 Y51.32
N1595 X6.148 Y51.351
N1600 X6.448 Y51.378
N1605 X6.741 Y51.445
N1610 X7.023 Y51.552
N1615 X7.438 Y51.743
N1620 X7.645 Y51.837
N1625 X9.307 Y52.525
N1630 X9.514 Y52.609
N1635 X9.722 Y52.687
N1640 G3 X10.086 Y53.321 I-0.231 J0.554
N1645 G1 X10.073 Y53.414 Z-9.293
N1650 X10.061 Y53.504 Z-9.271
N1655 X10.049 Y53.591 Z-9.235
N1660 X10.039 Y53.67 Z-9.185
N1665 X10.029 Y53.741 Z-9.124
N1670 X10.021 Y53.802 Z-9.053
N1675 X10.014 Y53.85 Z-8.972
N1680 X10.01 Y53.886 Z-8.885
N1685 X10.007 Y53.908 Z-8.794
N1690 X10.006 Y53.915 Z-8.7
N1695 G0 Z5.
N1700 X-3.115 Y38.306
N1705 Z-8.1
N1710 G1 Z-8.7 F900.
N1715 X-3.11 Y38.311 Z-8.794
N1720 X-3.094 Y38.327 Z-8.885
N1725 X-3.069 Y38.353 Z-8.972
N1730 X-3.035 Y38.388 Z-9.053
N1735 X-2.992 Y38.432 Z-9.124
N1740 X-2.942 Y38.483 Z-9.185
N1745 X-2.886 Y38.54 Z-9.235
N1750 X-2.826 Y38.603 Z-9.271
N1755 X-2.762 Y38.668 Z-9.293
N1760 X-2.696 Y38.736 Z-9.3
N1765 G3 X-2.305 Y39.417 I-1.134 J1.104
N1770 G1 X-2.056 Y40.455
N1775 X-1.887 Y41.078
N1780 X-1.809 Y41.286
N1785 X-1.699 Y41.557
N1790 X-1.382 Y42.324
N1795 X-1.254 Y42.681
N1800 X-1.158 Y42.997
N1805 X-1.056 Y43.406
N1810 X-0.95 Y43.938
N1815 X-0.839 Y44.682
N1820 X-0.749 Y45.592
N1825 X-0.578 Y46.492
N1830 X-0.183 Y47.318
N1835 X0.393 Y48.029
N1840 X1.101 Y48.61
N1845 X1.895 Y49.064
N1850 X2.744 Y49.406
N1855 X3.625 Y49.656
N1860 X3.796 Y49.69
N1865 X4.11 Y49.777
N1870 X4.408 Y49.909
N1875 X4.683 Y50.084
N1880 X4.946 Y50.28
N1885 X5.17 Y50.422
N1890 X6.527 Y51.253
N1895 X6.868 Y51.461
N1900 X7.023 Y51.552
N1905 G0 Z5.
N1910 X-2.355 Y41.353
N1915 Z-8.1
N1920 G1 Z-8.7 F900.
N1925 X-2.349 Y41.358 Z-8.794
N1930 X-2.332 Y41.371 Z-8.885
N1935 X-2.303 Y41.392 Z-8.972
N1940 X-2.263 Y41.422 Z-9.053
N1945 X-2.214 Y41.458 Z-9.124
N1950 X-2.157 Y41.501 Z-9.185
N1955 X-2.093 Y41.549 Z-9.235
N1960 X-2.023 Y41.601 Z-9.271
N1965 X-1.95 Y41.656 Z-9.293
N1970 X-1.874 Y41.712 Z-9.3
N1975 G3 X-1.382 Y42.324 I-0.947 J1.268
N1980 G1 X-1.037 Y43.155
N1985 X-0.868 Y43.525
N1990 X-0.752 Y43.777
N1995 X-0.661 Y43.932
N2000 X-0.502 Y44.193
N2005 X-0.066 Y44.998
N2010 X0.421 Y45.773
N2015 X0.653 Y46.042
N2020 X0.687 Y46.082
N2025 X0.719 Y46.122
N2030 X0.75 Y46.163
N2035 G3 X0.599 Y46.998 Z-9.1 I-0.493 J0.341
N2040 X-0.249 Y46.827 I-0.342 J-0.493
N2045 G1 X-1.51 Y44.844
N2050 G3 X-1.333 Y44.021 I0.506 J-0.322
N2055 X-0.502 Y44.193 Z-9.3 I0.329 J0.502
N2060 G1 X-0.245 Y44.613
N2065 X0.388 Y45.646
N2070 X0.52 Y45.854
N2075 X0.83 Y46.269
N2080 X0.987 Y46.477
N2085 X2.246 Y47.952
N2090 X2.42 Y48.138
N2095 X2.662 Y48.38
N2100 X2.848 Y48.554
N2105 X4.323 Y49.813
N2110 X4.58 Y50.007
N2115 X4.683 Y50.084
N2120 G3 X4.857 Y50.793 I-0.375 J0.468
N2125 G1 X4.82 Y50.879 Z-9.293
N2130 X4.783 Y50.963 Z-9.271
N2135 X4.748 Y51.043 Z-9.235
N2140 X4.716 Y51.116 Z-9.185
N2145 X4.687 Y51.182 Z-9.124
N2150 X4.662 Y51.238 Z-9.053
N2155 X4.642 Y51.283 Z-8.972
N2160 X4.628 Y51.316 Z-8.885
N2165 X4.619 Y51.336 Z-8.794
N2170 X4.616 Y51.343 Z-8.7
N2175 G0 Z5.
N2180 X38.306 Y53.915
N2185 Z-8.1
N2190 G1 Z-8.7 F900.
N2195 X38.311 Y53.91 Z-8.794
N2200 X38.327 Y53.894 Z-8.885
N2205 X38.353 Y53.869 Z-8.972
N2210 X38.388 Y53.835 Z-9.053
N2215 X38.432 Y53.792 Z-9.124
N2220 X38.483 Y53.742 Z-9.185
N2225 X38.54 Y53.686 Z-9.235
N2230 X38.603 Y53.626 Z-9.271
N2235 X38.668 Y53.562 Z-9.293
N2240 X38.736 Y53.496 Z-9.3
N2245 G3 X39.417 Y53.105 I1.104 J1.134
N2250 G1 X40.455 Y52.856
N2255 X41.078 Y52.687
N2260 X41.286 Y52.609
N2265 X41.557 Y52.499
N2270 X42.324 Y52.182
N2275 X42.681 Y52.054
N2280 X42.998 Y51.958
N2285 X43.406 Y51.856
N2290 X43.939 Y51.75
N2295 X44.682 Y51.639
N2300 X45.593 Y51.549
N2305 X46.507 Y51.493
N2310 X47.417 Y51.396
N2315 X48.27 Y51.064
N2320 X49.018 Y50.537
N2325 X49.638 Y49.863
N2330 X50.129 Y49.091
N2335 X50.504 Y48.255
N2340 X50.78 Y47.383
N2345 X50.978 Y46.489
N2350 X51.117 Y45.584
N2355 X51.203 Y44.762
N2360 X51.258 Y44.451
N2365 X51.357 Y44.152
N2370 X51.498 Y43.87
N2375 X51.552 Y43.777
N2380 X51.743 Y43.362
N2385 X51.837 Y43.155
N2390 X52.525 Y41.493
N2395 X52.609 Y41.286
N2400 X52.687 Y41.078
N2405 G3 X53.321 Y40.714 I0.554 J0.231
N2410 G1 X53.414 Y40.727 Z-9.293
N2415 X53.504 Y40.739 Z-9.271
N2420 X53.591 Y40.751 Z-9.235
N2425 X53.67 Y40.761 Z-9.185
N2430 X53.741 Y40.771 Z-9.124
N2435 X53.802 Y40.779 Z-9.053
N2440 X53.85 Y40.786 Z-8.972
N2445 X53.886 Y40.79 Z-8.885
N2450 X53.908 Y40.793 Z-8.794
N2455 X53.915 Y40.794 Z-8.7
N2460 G0 Z5.
N2465 X41.353 Y53.155
N2470 Z-8.1
N2475 G1 Z-8.7 F900.
N2480 X41.358 Y53.149 Z-8.794
N2485 X41.371 Y53.131 Z-8.885
N2490 X41.392 Y53.103 Z-8.972
N2495 X41.422 Y53.063 Z-9.053
N2500 X41.458 Y53.014 Z-9.124
N2505 X41.501 Y52.957 Z-9.185
N2510 X41.549 Y52.893 Z-9.235
N2515 X41.601 Y52.823 Z-9.271
N2520 X41.656 Y52.75 Z-9.293
N2525 X41.712 Y52.674 Z-9.3
N2530 G3 X42.324 Y52.182 I1.268 J0.947
N2535 G1 X43.155 Y51.837
N2540 X43.525 Y51.668
N2545 X43.777 Y51.552
N2550 X43.932 Y51.461
N2555 X44.193 Y51.302
N2560 X44.394 Y51.193
N2565 X44.58 Y51.104
N2570 X44.842 Y50.993
N2575 X45.702 Y50.679
N2580 X46.544 Y50.319
N2585 X47.308 Y49.815
N2590 X47.97 Y49.183
N2595 X48.52 Y48.451
N2600 X48.961 Y47.649
N2605 X49.059 Y47.437
N2610 X49.181 Y47.237
N2615 X49.323 Y47.051
N2620 G3 X50.17 Y47.014 Z-9.1 I0.442 J0.405
N2625 X50.148 Y47.918 I-0.405 J0.443
N2630 G1 X44.905 Y52.265
N2635 G3 X44.021 Y52.133 I-0.383 J-0.462
N2640 X44.193 Y51.302 Z-9.3 I0.502 J-0.329
N2645 G1 X44.613 Y51.045
N2650 X45.646 Y50.412
N2655 X45.854 Y50.28
N2660 X46.269 Y49.97
N2665 X46.477 Y49.813
N2670 X47.952 Y48.554
N2675 X48.138 Y48.38
N2680 X48.38 Y48.138
N2685 X48.554 Y47.952
N2690 X49.813 Y46.477
N2695 X50.007 Y46.22
N2700 X50.28 Y45.854
N2705 X50.422 Y45.63
N2710 X51.253 Y44.273
N2715 X51.481 Y43.898
N2720 X51.498 Y43.87
N2725 G0 Z5.
N2730 X53.915 Y12.494
N2735 Z-8.1
N2740 G1 Z-8.7 F900.
N2745 X53.91 Y12.489 Z-8.794
N2750 X53.894 Y12.473 Z-8.885
N2755 X53.869 Y12.447 Z-8.972
N2760 X53.835 Y12.412 Z-9.053
N2765 X53.792 Y12.368 Z-9.124
N2770 X53.742 Y12.317 Z-9.185
N2775 X53.686 Y12.26 Z-9.235
N2780 X53.626 Y12.197 Z-9.271
N2785 X53.562 Y12.132 Z-9.293
N2790 X53.496 Y12.064 Z-9.3
N2795 G3 X53.105 Y11.383 I1.134 J-1.104
N2800 G1 X52.856 Y10.345
N2805 X52.687 Y9.722
N2810 X52.609 Y9.514
N2815 X52.499 Y9.243
N2820 X52.182 Y8.476
N2825 X52.054 Y8.119
N2830 X51.958 Y7.803
N2835 X51.856 Y7.394
N2840 X51.75 Y6.861
N2845 X51.639 Y6.118
N2850 X51.549 Y5.207
N2855 X51.493 Y4.294
N2860 X51.396 Y3.383
N2865 X51.065 Y2.53
N2870 X50.537 Y1.782
N2875 X49.863 Y1.162
N2880 X49.091 Y0.671
N2885 X48.256 Y0.296
N2890 X47.383 Y0.02
N2895 X46.489 Y-0.178
N2900 X45.584 Y-0.317
N2905 X44.762 Y-0.403
N2910 X44.451 Y-0.458
N2915 X44.152 Y-0.557
N2920 X43.87 Y-0.698
N2925 X43.777 Y-0.752
N2930 X43.362 Y-0.943
N2935 X43.155 Y-1.037
N2940 X41.493 Y-1.725
N2945 X41.286 Y-1.809
N2950 X41.078 Y-1.887
N2955 G3 X40.714 Y-2.521 I0.231 J-0.554
N2960 G1 X40.727 Y-2.614 Z-9.293
N2965 X40.739 Y-2.704 Z-9.271
N2970 X40.751 Y-2.791 Z-9.235
N2975 X40.761 Y-2.87 Z-9.185
N2980 X40.771 Y-2.941 Z-9.124
N2985 X40.779 Y-3.002 Z-9.053
N2990 X40.786 Y-3.051 Z-8.972
N2995 X40.79 Y-3.086 Z-8.885
N3000 X40.793 Y-3.108 Z-8.794
N3005 X40.794 Y-3.115 Z-8.7
N3010 G0 Z5.
N3015 X53.155 Y9.447
N3020 Z-8.1
N3025 G1 Z-8.7 F900.
N3030 X53.149 Y9.442 Z-8.794
N3035 X53.131 Y9.429 Z-8.885
N3040 X53.103 Y9.408 Z-8.972
N3045 X53.063 Y9.378 Z-9.053
N3050 X53.014 Y9.342 Z-9.124
N3055 X52.957 Y9.299 Z-9.185
N3060 X52.893 Y9.251 Z-9.235
N3065 X52.823 Y9.199 Z-9.271
N3070 X52.75 Y9.144 Z-9.293
N3075 X52.674 Y9.088 Z-9.3
N3080 G3 X52.182 Y8.476 I0.947 J-1.268
N3085 G1 X51.837 Y7.645
N3090 X51.668 Y7.275
N3095 X51.552 Y7.023
N3100 X51.461 Y6.868
N3105 X51.302 Y6.607
N3110 X51.193 Y6.406
N3115 X51.104 Y6.22
N3120 X50.993 Y5.958
N3125 X50.679 Y5.098
N3130 X50.319 Y4.256
N3135 X49.816 Y3.492
N3140 X49.183 Y2.83
N3145 X48.451 Y2.28
N3150 X47.649 Y1.84
N3155 X47.437 Y1.74
N3160 X47.237 Y1.619
N3165 X47.051 Y1.477
N3170 G3 X47.014 Y0.63 Z-9.1 I0.405 J-0.442
N3175 X47.918 Y0.652 I0.443 J0.405
N3180 G1 X52.265 Y5.895
N3185 G3 X52.133 Y6.779 I-0.462 J0.383
N3190 X51.302 Y6.607 Z-9.3 I-0.329 J-0.502
N3195 G1 X51.045 Y6.187
N3200 X50.412 Y5.154
N3205 X50.28 Y4.946
N3210 X49.97 Y4.531
N3215 X49.813 Y4.323
N3220 X48.554 Y2.848
N3225 X48.38 Y2.662
N3230 X48.138 Y2.42
N3235 X47.952 Y2.246
N3240 X46.477 Y0.987
N3245 X46.22 Y0.793
N3250 X45.854 Y0.52
N3255 X45.63 Y0.378
N3260 X44.273 Y-0.453
N3265 X43.898 Y-0.681
N3270 X43.87 Y-0.698
N3275 G0 Z5.
N3280 X12.494 Y-3.115
N3285 Z-8.1
N3290 G1 Z-8.7 F900.
N3295 X12.489 Y-3.11 Z-8.794
N3300 X12.473 Y-3.094 Z-8.885
N3305 X12.447 Y-3.069 Z-8.972
N3310 X12.412 Y-3.035 Z-9.053
N3315 X12.368 Y-2.992 Z-9.124
N3320 X12.317 Y-2.942 Z-9.185
N3325 X12.26 Y-2.886 Z-9.235
N3330 X12.197 Y-2.826 Z-9.271
N3335 X12.132 Y-2.762 Z-9.293
N3340 X12.064 Y-2.696 Z-9.3
N3345 G3 X11.383 Y-2.305 I-1.104 J-1.134
N3350 G1 X10.345 Y-2.056
N3355 X9.722 Y-1.887
N3360 X9.514 Y-1.809
N3365 X9.243 Y-1.699
N3370 X8.476 Y-1.382
N3375 X8.12 Y-1.254
N3380 X7.803 Y-1.158
N3385 X7.395 Y-1.056
N3390 X6.862 Y-0.95
N3395 X6.119 Y-0.839
N3400 X5.208 Y-0.749
N3405 X4.294 Y-0.693
N3410 X3.384 Y-0.596
N3415 X2.53 Y-0.265
N3420 X1.782 Y0.263
N3425 X1.162 Y0.936
N3430 X0.671 Y1.709
N3435 X0.296 Y2.544
N3440 X0.02 Y3.417
N3445 X-0.178 Y4.311
N3450 X-0.317 Y5.216
N3455 X-0.403 Y6.038
N3460 X-0.458 Y6.349
N3465 X-0.557 Y6.648
N3470 X-0.698 Y6.93
N3475 X-0.752 Y7.023
N3480 X-0.943 Y7.438
N3485 X-1.037 Y7.645
N3490 X-1.725 Y9.307
N3495 X-1.809 Y9.514
N3500 X-1.887 Y9.722
N3505 G3 X-2.521 Y10.086 I-0.554 J-0.231
N3510 G1 X-2.614 Y10.073 Z-9.293
N3515 X-2.704 Y10.061 Z-9.271
N3520 X-2.791 Y10.049 Z-9.235
N3525 X-2.87 Y10.039 Z-9.185
N3530 X-2.941 Y10.029 Z-9.124
N3535 X-3.002 Y10.021 Z-9.053
N3540 X-3.051 Y10.014 Z-8.972
N3545 X-3.086 Y10.01 Z-8.885
N3550 X-3.108 Y10.007 Z-8.794
N3555 X-3.115 Y10.006 Z-8.7
N3560 G0 Z5.
N3565 X9.447 Y-2.355
N3570 Z-8.1
N3575 G1 Z-8.7 F900.
N3580 X9.442 Y-2.349 Z-8.794
N3585 X9.429 Y-2.332 Z-8.885
N3590 X9.408 Y-2.303 Z-8.972
N3595 X9.378 Y-2.263 Z-9.053
N3600 X9.342 Y-2.214 Z-9.124
N3605 X9.299 Y-2.157 Z-9.185
N3610 X9.251 Y-2.093 Z-9.235
N3615 X9.199 Y-2.023 Z-9.271
N3620 X9.144 Y-1.95 Z-9.293
N3625 X9.088 Y-1.874 Z-9.3
N3630 G3 X8.476 Y-1.382 I-1.268 J-0.947
N3635 G1 X7.645 Y-1.037
N3640 X7.275 Y-0.868
N3645 X7.023 Y-0.752
N3650 X6.868 Y-0.661
N3655 X6.607 Y-0.502
N3660 X6.406 Y-0.393
N3665 X6.22 Y-0.304
N3670 X5.958 Y-0.193
N3675 X5.098 Y0.121
N3680 X4.257 Y0.481
N3685 X3.492 Y0.984
N3690 X2.83 Y1.617
N3695 X2.28 Y2.348
N3700 X1.84 Y3.151
N3705 X1.741 Y3.363
N3710 X1.619 Y3.563
N3715 X1.477 Y3.749
N3720 G3 X0.63 Y3.787 Z-9.1 I-0.442 J-0.405
N3725 X0.652 Y2.882 I0.405 J-0.443
N3730 G1 X5.895 Y-1.465
N3735 G3 X6.779 Y-1.333 I0.383 J0.462
N3740 X6.607 Y-0.502 Z-9.3 I-0.502 J0.329
N3745 G1 X6.187 Y-0.245
N3750 X5.154 Y0.388
N3755 X4.946 Y0.52
N3760 X4.531 Y0.83
N3765 X4.323 Y0.987
N3770 X2.848 Y2.246
N3775 X2.662 Y2.42
N3780 X2.42 Y2.662
N3785 X2.246 Y2.848
N3790 X0.987 Y4.323
N3795 X0.793 Y4.58
N3800 X0.52 Y4.946
N3805 X0.378 Y5.17
N3810 X-0.453 Y6.527
N3815 X-0.681 Y6.902
N3820 X-0.698 Y6.93
N3825 G3 X-1.202 Y7.207 I-0.505 J-0.324
N3830 G1 X-1.203
N3835 X-1.295 Y7.2
N3840 X-1.385 Y7.179
N3845 X-1.474 Y7.15 Z-9.293
N3850 X-1.561 Y7.123 Z-9.271
N3855 X-1.644 Y7.096 Z-9.235
N3860 X-1.721 Y7.072 Z-9.185
N3865 X-1.789 Y7.05 Z-9.124
N3870 X-1.847 Y7.032 Z-9.053
N3875 X-1.894 Y7.017 Z-8.972
N3880 X-1.929 Y7.006 Z-8.885
N3885 X-1.949 Y6.999 Z-8.794
N3890 X-1.956 Y6.997 Z-8.7
N3895 G0 Z15.
(2D CONTOUR1)
N3900 G0 X-32.9 Y15.4
N3905 Z15.
N3910 Z5.
N3915 G1 Z1. F400.
N3920 Z0.7
N3925 G18 G2 X-22.9 Z-9.3 I10. K0. F900.
N3930 G17
N3935 G1 G41 X-12.9 Y12.1 D17
N3940 G3 X0.4 Y25.4 I0. J13.3
N3945 G1 Y35.4
N3950 G2 X15.4 Y50.4 I15. J0.
N3955 G1 X35.4
N3960 G2 X50.4 Y35.4 I0. J-15.
N3965 G1 Y15.4
N3970 G2 X35.4 Y0.4 I-15. J0.
N3975 G1 X15.4
N3980 G2 X0.4 Y15.4 I0. J15.
N3985 G1 Y25.4
N3990 G3 X-12.9 Y38.7 I-13.3 J0.
N3995 G1 G40 X-22.9 Y35.4
N4000 G18 G3 X-32.9 Z0.7 I0. K10.
N4005 G0 Z15.
N4010 G17
(2D POCKET1)
N4015 S13000 M3
N4020 G0 X23.009 Y26.13
N4025 Z15.
N4030 Z5.
N4035 G1 Z3.099 F400.
N4040 X23.001 Y26.104 Z2.921
N4045 X22.98 Y26.029 Z2.76
N4050 X22.952 Y25.909 Z2.628
N4055 X22.925 Y25.756 Z2.539
N4060 X22.907 Y25.582 Z2.5
N4065 G3 X27.893 Y25.218 Z1.951 I2.493 J-0.182
N4070 X22.907 Y25.582 Z1.402 I-2.493 J0.182
N4075 X27.893 Y25.218 Z0.852 I2.493 J-0.182
N4080 X22.907 Y25.582 Z0.303 I-2.493 J0.182
N4085 X27.893 Y25.218 Z-0.246 I2.493 J-0.182
N4090 X22.907 Y25.582 Z-0.795 I-2.493 J0.182
N4095 X27.893 Y25.218 Z-1.344 I2.493 J-0.182
N4100 X22.907 Y25.582 Z-1.894 I-2.493 J0.182
N4105 X27.893 Y25.218 Z-2.443 I2.493 J-0.182
N4110 X22.907 Y25.582 Z-2.992 I-2.493 J0.182
N4115 X27.893 Y25.218 Z-3.541 I2.493 J-0.182
N4120 X22.907 Y25.582 Z-4.09 I-2.493 J0.182
N4125 X27.893 Y25.218 Z-4.64 I2.493 J-0.182
N4130 X22.907 Y25.582 Z-5.189 I-2.493 J0.182
N4135 X27.893 Y25.218 Z-5.738 I2.493 J-0.182
N4140 X25.491 Y27.898 Z-6.019 I-2.493 J0.182
N4145 X22.9 Y25.4 Z-6.3 I-0.091 J-2.498
N4150 X25.5 I1.3 J0.
N4155 G1 X25.492 Y25.438 F900.
N4160 X25.471 Y25.471
N4165 X25.438 Y25.492
N4170 X25.4 Y25.5
N4175 X25.362 Y25.492
N4180 X25.329 Y25.471
N4185 X25.308 Y25.438
N4190 X25.3 Y25.4
N4195 G3 X26.7 I0.7 J0.
N4200 X24.1 I-1.3 J0.
N4205 X27.9 I1.9 J0.
N4210 X22.9 I-2.5 J0.
N4215 X27.9 I2.5 J0.
N4220 G1 X27.897 Y25.441 Z-6.293
N4225 X27.887 Y25.482 Z-6.287
N4230 X27.873 Y25.517 Z-6.268
N4235 X27.855 Y25.549 Z-6.249
N4240 X27.817 Y25.594 Z-6.189
N4245 X27.787 Y25.619 Z-6.114
N4250 X27.776 Y25.626 Z-6.031
N4255 G0 Z5.
N4260 X35.009 Y26.13
N4265 G1 Z3.099 F400.
N4270 X35.001 Y26.104 Z2.921
N4275 X34.98 Y26.029 Z2.76
N4280 X34.952 Y25.909 Z2.628
N4285 X34.925 Y25.756 Z2.539
N4290 X34.907 Y25.582 Z2.5
N4295 G3 X39.893 Y25.218 Z1.951 I2.493 J-0.182
N4300 X34.907 Y25.582 Z1.402 I-2.493 J0.182
N4305 X39.893 Y25.218 Z0.852 I2.493 J-0.182
N4310 X34.907 Y25.582 Z0.303 I-2.493 J0.182
N4315 X39.893 Y25.218 Z-0.246 I2.493 J-0.182
N4320 X34.907 Y25.582 Z-0.795 I-2.493 J0.182
N4325 X39.893 Y25.218 Z-1.344 I2.493 J-0.182
N4330 X34.907 Y25.582 Z-1.894 I-2.493 J0.182
N4335 X39.893 Y25.218 Z-2.443 I2.493 J-0.182
N4340 X34.907 Y25.582 Z-2.992 I-2.493 J0.182
N4345 X39.893 Y25.218 Z-3.541 I2.493 J-0.182
N4350 X34.907 Y25.582 Z-4.09 I-2.493 J0.182
N4355 X39.893 Y25.218 Z-4.64 I2.493 J-0.182
N4360 X34.907 Y25.582 Z-5.189 I-2.493 J0.182
N4365 X39.893 Y25.218 Z-5.738 I2.493 J-0.182
N4370 X37.491 Y27.898 Z-6.019 I-2.493 J0.182
N4375 X34.9 Y25.4 Z-6.3 I-0.091 J-2.498
N4380 X37.5 I1.3 J0.
N4385 G1 X37.492 Y25.438 F900.
N4390 X37.471 Y25.471
N4395 X37.438 Y25.492
N4400 X37.4 Y25.5
N4405 X37.362 Y25.492
N4410 X37.329 Y25.471
N4415 X37.308 Y25.438
N4420 X37.3 Y25.4
N4425 G3 X38.7 I0.7 J0.
N4430 X36.1 I-1.3 J0.
N4435 X39.9 I1.9 J0.
N4440 X34.9 I-2.5 J0.
N4445 X39.9 I2.5 J0.
N4450 G1 X39.893 Y25.492 Z-6.285
N4455 X39.872 Y25.582 Z-6.271
N4460 X39.841 Y25.66 Z-6.228
N4465 X39.799 Y25.733 Z-6.185
N4470 X39.76 Y25.786 Z-6.119
N4475 X39.714 Y25.834 Z-6.053
N4480 X39.648 Y25.888 Z-5.885
N4485 X39.624 Y25.905 Z-5.7
N4490 G0 Z5.
N4495 X35.009 Y14.13
N4500 G1 Z3.099 F400.
N4505 X35.001 Y14.104 Z2.921
N4510 X34.98 Y14.029 Z2.76
N4515 X34.952 Y13.909 Z2.628
N4520 X34.925 Y13.756 Z2.539
N4525 X34.907 Y13.582 Z2.5
N4530 G3 X39.893 Y13.218 Z1.951 I2.493 J-0.182
N4535 X34.907 Y13.582 Z1.402 I-2.493 J0.182
N4540 X39.893 Y13.218 Z0.852 I2.493 J-0.182
N4545 X34.907 Y13.582 Z0.303 I-2.493 J0.182
N4550 X39.893 Y13.218 Z-0.246 I2.493 J-0.182
N4555 X34.907 Y13.582 Z-0.795 I-2.493 J0.182
N4560 X39.893 Y13.218 Z-1.344 I2.493 J-0.182
N4565 X34.907 Y13.582 Z-1.894 I-2.493 J0.182
N4570 X39.893 Y13.218 Z-2.443 I2.493 J-0.182
N4575 X34.907 Y13.582 Z-2.992 I-2.493 J0.182
N4580 X39.893 Y13.218 Z-3.541 I2.493 J-0.182
N4585 X34.907 Y13.582 Z-4.09 I-2.493 J0.182
N4590 X39.893 Y13.218 Z-4.64 I2.493 J-0.182
N4595 X34.907 Y13.582 Z-5.189 I-2.493 J0.182
N4600 X39.893 Y13.218 Z-5.738 I2.493 J-0.182
N4605 X37.491 Y15.898 Z-6.019 I-2.493 J0.182
N4610 X34.9 Y13.4 Z-6.3 I-0.091 J-2.498
N4615 X37.5 I1.3 J0.
N4620 G1 X37.492 Y13.438 F900.
N4625 X37.471 Y13.471
N4630 X37.438 Y13.492
N4635 X37.4 Y13.5
N4640 X37.362 Y13.492
N4645 X37.329 Y13.471
N4650 X37.308 Y13.438
N4655 X37.3 Y13.4
N4660 G3 X38.7 I0.7 J0.
N4665 X36.1 I-1.3 J0.
N4670 X39.9 I1.9 J0.
N4675 X34.9 I-2.5 J0.
N4680 X39.9 I2.5 J0.
N4685 G1 X39.893 Y13.492 Z-6.285
N4690 X39.872 Y13.582 Z-6.271
N4695 X39.841 Y13.66 Z-6.228
N4700 X39.799 Y13.733 Z-6.185
N4705 X39.76 Y13.786 Z-6.119
N4710 X39.714 Y13.834 Z-6.053
N4715 X39.648 Y13.888 Z-5.885
N4720 X39.624 Y13.905 Z-5.7
N4725 G0 Z5.
N4730 X23.009 Y14.13
N4735 G1 Z3.099 F400.
N4740 X23.001 Y14.104 Z2.921
N4745 X22.98 Y14.029 Z2.76
N4750 X22.952 Y13.909 Z2.628
N4755 X22.925 Y13.756 Z2.539
N4760 X22.907 Y13.582 Z2.5
N4765 G3 X27.893 Y13.218 Z1.951 I2.493 J-0.182
N4770 X22.907 Y13.582 Z1.402 I-2.493 J0.182
N4775 X27.893 Y13.218 Z0.852 I2.493 J-0.182
N4780 X22.907 Y13.582 Z0.303 I-2.493 J0.182
N4785 X27.893 Y13.218 Z-0.246 I2.493 J-0.182
N4790 X22.907 Y13.582 Z-0.795 I-2.493 J0.182
N4795 X27.893 Y13.218 Z-1.344 I2.493 J-0.182
N4800 X22.907 Y13.582 Z-1.894 I-2.493 J0.182
N4805 X27.893 Y13.218 Z-2.443 I2.493 J-0.182
N4810 X22.907 Y13.582 Z-2.992 I-2.493 J0.182
N4815 X27.893 Y13.218 Z-3.541 I2.493 J-0.182
N4820 X22.907 Y13.582 Z-4.09 I-2.493 J0.182
N4825 X27.893 Y13.218 Z-4.64 I2.493 J-0.182
N4830 X22.907 Y13.582 Z-5.189 I-2.493 J0.182
N4835 X27.893 Y13.218 Z-5.738 I2.493 J-0.182
N4840 X25.491 Y15.898 Z-6.019 I-2.493 J0.182
N4845 X22.9 Y13.4 Z-6.3 I-0.091 J-2.498
N4850 X25.5 I1.3 J0.
N4855 G1 X25.492 Y13.438 F900.
N4860 X25.471 Y13.471
N4865 X25.438 Y13.492
N4870 X25.4 Y13.5
N4875 X25.362 Y13.492
N4880 X25.329 Y13.471
N4885 X25.308 Y13.438
N4890 X25.3 Y13.4
N4895 G3 X26.7 I0.7 J0.
N4900 X24.1 I-1.3 J0.
N4905 X27.9 I1.9 J0.
N4910 X22.9 I-2.5 J0.
N4915 X27.9 I2.5 J0.
N4920 G1 X27.897 Y13.441 Z-6.293
N4925 X27.887 Y13.482 Z-6.287
N4930 X27.873 Y13.517 Z-6.268
N4935 X27.855 Y13.549 Z-6.249
N4940 X27.817 Y13.594 Z-6.189
N4945 X27.787 Y13.619 Z-6.114
N4950 X27.776 Y13.626 Z-6.031
N4955 G0 Z5.
N4960 X11.009 Y14.13
N4965 G1 Z3.099 F400.
N4970 X11.001 Y14.104 Z2.921
N4975 X10.98 Y14.029 Z2.76
N4980 X10.952 Y13.909 Z2.628
N4985 X10.925 Y13.756 Z2.539
N4990 X10.907 Y13.582 Z2.5
N4995 G3 X15.893 Y13.218 Z1.951 I2.493 J-0.182
N5000 X10.907 Y13.582 Z1.402 I-2.493 J0.182
N5005 X15.893 Y13.218 Z0.852 I2.493 J-0.182
N5010 X10.907 Y13.582 Z0.303 I-2.493 J0.182
N5015 X15.893 Y13.218 Z-0.246 I2.493 J-0.182
N5020 X10.907 Y13.582 Z-0.795 I-2.493 J0.182
N5025 X15.893 Y13.218 Z-1.344 I2.493 J-0.182
N5030 X10.907 Y13.582 Z-1.894 I-2.493 J0.182
N5035 X15.893 Y13.218 Z-2.443 I2.493 J-0.182
N5040 X10.907 Y13.582 Z-2.992 I-2.493 J0.182
N5045 X15.893 Y13.218 Z-3.541 I2.493 J-0.182
N5050 X10.907 Y13.582 Z-4.09 I-2.493 J0.182
N5055 X15.893 Y13.218 Z-4.64 I2.493 J-0.182
N5060 X10.907 Y13.582 Z-5.189 I-2.493 J0.182
N5065 X15.893 Y13.218 Z-5.738 I2.493 J-0.182
N5070 X13.491 Y15.898 Z-6.019 I-2.493 J0.182
N5075 X10.9 Y13.4 Z-6.3 I-0.091 J-2.498
N5080 X13.5 I1.3 J0.
N5085 G1 X13.492 Y13.438 F900.
N5090 X13.471 Y13.471
N5095 X13.438 Y13.492
N5100 X13.4 Y13.5
N5105 X13.362 Y13.492
N5110 X13.329 Y13.471
N5115 X13.308 Y13.438
N5120 X13.3 Y13.4
N5125 G3 X14.7 I0.7 J0.
N5130 X12.1 I-1.3 J0.
N5135 X15.9 I1.9 J0.
N5140 X10.9 I-2.5 J0.
N5145 X15.9 I2.5 J0.
N5150 G1 X15.893 Y13.492 Z-6.285
N5155 X15.872 Y13.582 Z-6.271
N5160 X15.841 Y13.66 Z-6.228
N5165 X15.799 Y13.733 Z-6.185
N5170 X15.76 Y13.786 Z-6.119
N5175 X15.714 Y13.834 Z-6.053
N5180 X15.648 Y13.888 Z-5.885
N5185 X15.624 Y13.905 Z-5.7
N5190 G0 Z5.
N5195 X11.009 Y26.13
N5200 G1 Z3.099 F400.
N5205 X11.001 Y26.104 Z2.921
N5210 X10.98 Y26.029 Z2.76
N5215 X10.952 Y25.909 Z2.628
N5220 X10.925 Y25.756 Z2.539
N5225 X10.907 Y25.582 Z2.5
N5230 G3 X15.893 Y25.218 Z1.951 I2.493 J-0.182
N5235 X10.907 Y25.582 Z1.402 I-2.493 J0.182
N5240 X15.893 Y25.218 Z0.852 I2.493 J-0.182
N5245 X10.907 Y25.582 Z0.303 I-2.493 J0.182
N5250 X15.893 Y25.218 Z-0.246 I2.493 J-0.182
N5255 X10.907 Y25.582 Z-0.795 I-2.493 J0.182
N5260 X15.893 Y25.218 Z-1.344 I2.493 J-0.182
N5265 X10.907 Y25.582 Z-1.894 I-2.493 J0.182
N5270 X15.893 Y25.218 Z-2.443 I2.493 J-0.182
N5275 X10.907 Y25.582 Z-2.992 I-2.493 J0.182
N5280 X15.893 Y25.218 Z-3.541 I2.493 J-0.182
N5285 X10.907 Y25.582 Z-4.09 I-2.493 J0.182
N5290 X15.893 Y25.218 Z-4.64 I2.493 J-0.182
N5295 X10.907 Y25.582 Z-5.189 I-2.493 J0.182
N5300 X15.893 Y25.218 Z-5.738 I2.493 J-0.182
N5305 X13.491 Y27.898 Z-6.019 I-2.493 J0.182
N5310 X10.9 Y25.4 Z-6.3 I-0.091 J-2.498
N5315 X13.5 I1.3 J0.
N5320 G1 X13.492 Y25.438 F900.
N5325 X13.471 Y25.471
N5330 X13.438 Y25.492
N5335 X13.4 Y25.5
N5340 X13.362 Y25.492
N5345 X13.329 Y25.471
N5350 X13.308 Y25.438
N5355 X13.3 Y25.4
N5360 G3 X14.7 I0.7 J0.
N5365 X12.1 I-1.3 J0.
N5370 X15.9 I1.9 J0.
N5375 X10.9 I-2.5 J0.
N5380 X15.9 I2.5 J0.
N5385 G1 X15.893 Y25.492 Z-6.285
N5390 X15.872 Y25.582 Z-6.271
N5395 X15.841 Y25.66 Z-6.228
N5400 X15.799 Y25.733 Z-6.185
N5405 X15.76 Y25.786 Z-6.119
N5410 X15.714 Y25.834 Z-6.053
N5415 X15.648 Y25.888 Z-5.885
N5420 X15.624 Y25.905 Z-5.7
N5425 G0 Z5.
N5430 X11.009 Y38.13
N5435 G1 Z3.099 F400.
N5440 X11.001 Y38.104 Z2.921
N5445 X10.98 Y38.029 Z2.76
N5450 X10.952 Y37.909 Z2.628
N5455 X10.925 Y37.756 Z2.539
N5460 X10.907 Y37.582 Z2.5
N5465 G3 X15.893 Y37.218 Z1.951 I2.493 J-0.182
N5470 X10.907 Y37.582 Z1.402 I-2.493 J0.182
N5475 X15.893 Y37.218 Z0.852 I2.493 J-0.182
N5480 X10.907 Y37.582 Z0.303 I-2.493 J0.182
N5485 X15.893 Y37.218 Z-0.246 I2.493 J-0.182
N5490 X10.907 Y37.582 Z-0.795 I-2.493 J0.182
N5495 X15.893 Y37.218 Z-1.344 I2.493 J-0.182
N5500 X10.907 Y37.582 Z-1.894 I-2.493 J0.182
N5505 X15.893 Y37.218 Z-2.443 I2.493 J-0.182
N5510 X10.907 Y37.582 Z-2.992 I-2.493 J0.182
N5515 X15.893 Y37.218 Z-3.541 I2.493 J-0.182
N5520 X10.907 Y37.582 Z-4.09 I-2.493 J0.182
N5525 X15.893 Y37.218 Z-4.64 I2.493 J-0.182
N5530 X10.907 Y37.582 Z-5.189 I-2.493 J0.182
N5535 X15.893 Y37.218 Z-5.738 I2.493 J-0.182
N5540 X13.491 Y39.898 Z-6.019 I-2.493 J0.182
N5545 X10.9 Y37.4 Z-6.3 I-0.091 J-2.498
N5550 X13.5 I1.3 J0.
N5555 G1 X13.492 Y37.438 F900.
N5560 X13.471 Y37.471
N5565 X13.438 Y37.492
N5570 X13.4 Y37.5
N5575 X13.362 Y37.492
N5580 X13.329 Y37.471
N5585 X13.308 Y37.438
N5590 X13.3 Y37.4
N5595 G3 X14.7 I0.7 J0.
N5600 X12.1 I-1.3 J0.
N5605 X15.9 I1.9 J0.
N5610 X10.9 I-2.5 J0.
N5615 X15.9 I2.5 J0.
N5620 G1 X15.893 Y37.492 Z-6.285
N5625 X15.872 Y37.582 Z-6.271
N5630 X15.841 Y37.66 Z-6.228
N5635 X15.799 Y37.733 Z-6.185
N5640 X15.76 Y37.786 Z-6.119
N5645 X15.714 Y37.834 Z-6.053
N5650 X15.648 Y37.888 Z-5.885
N5655 X15.624 Y37.905 Z-5.7
N5660 G0 Z5.
N5665 X23.009 Y38.13
N5670 G1 Z3.099 F400.
N5675 X23.001 Y38.104 Z2.921
N5680 X22.98 Y38.029 Z2.76
N5685 X22.952 Y37.909 Z2.628
N5690 X22.925 Y37.756 Z2.539
N5695 X22.907 Y37.582 Z2.5
N5700 G3 X27.893 Y37.218 Z1.951 I2.493 J-0.182
N5705 X22.907 Y37.582 Z1.402 I-2.493 J0.182
N5710 X27.893 Y37.218 Z0.852 I2.493 J-0.182
N5715 X22.907 Y37.582 Z0.303 I-2.493 J0.182
N5720 X27.893 Y37.218 Z-0.246 I2.493 J-0.182
N5725 X22.907 Y37.582 Z-0.795 I-2.493 J0.182
N5730 X27.893 Y37.218 Z-1.344 I2.493 J-0.182
N5735 X22.907 Y37.582 Z-1.894 I-2.493 J0.182
N5740 X27.893 Y37.218 Z-2.443 I2.493 J-0.182
N5745 X22.907 Y37.582 Z-2.992 I-2.493 J0.182
N5750 X27.893 Y37.218 Z-3.541 I2.493 J-0.182
N5755 X22.907 Y37.582 Z-4.09 I-2.493 J0.182
N5760 X27.893 Y37.218 Z-4.64 I2.493 J-0.182
N5765 X22.907 Y37.582 Z-5.189 I-2.493 J0.182
N5770 X27.893 Y37.218 Z-5.738 I2.493 J-0.182
N5775 X25.491 Y39.898 Z-6.019 I-2.493 J0.182
N5780 X22.9 Y37.4 Z-6.3 I-0.091 J-2.498
N5785 X25.5 I1.3 J0.
N5790 G1 X25.492 Y37.438 F900.
N5795 X25.471 Y37.471
N5800 X25.438 Y37.492
N5805 X25.4 Y37.5
N5810 X25.362 Y37.492
N5815 X25.329 Y37.471
N5820 X25.308 Y37.438
N5825 X25.3 Y37.4
N5830 G3 X26.7 I0.7 J0.
N5835 X24.1 I-1.3 J0.
N5840 X27.9 I1.9 J0.
N5845 X22.9 I-2.5 J0.
N5850 X27.9 I2.5 J0.
N5855 G1 X27.897 Y37.441 Z-6.293
N5860 X27.887 Y37.482 Z-6.287
N5865 X27.873 Y37.517 Z-6.268
N5870 X27.855 Y37.549 Z-6.249
N5875 X27.817 Y37.594 Z-6.189
N5880 X27.787 Y37.619 Z-6.114
N5885 X27.776 Y37.626 Z-6.031
N5890 G0 Z5.
N5895 X35.009 Y38.13
N5900 G1 Z3.099 F400.
N5905 X35.001 Y38.104 Z2.921
N5910 X34.98 Y38.029 Z2.76
N5915 X34.952 Y37.909 Z2.628
N5920 X34.925 Y37.756 Z2.539
N5925 X34.907 Y37.582 Z2.5
N5930 G3 X39.893 Y37.218 Z1.951 I2.493 J-0.182
N5935 X34.907 Y37.582 Z1.402 I-2.493 J0.182
N5940 X39.893 Y37.218 Z0.852 I2.493 J-0.182
N5945 X34.907 Y37.582 Z0.303 I-2.493 J0.182
N5950 X39.893 Y37.218 Z-0.246 I2.493 J-0.182
N5955 X34.907 Y37.582 Z-0.795 I-2.493 J0.182
N5960 X39.893 Y37.218 Z-1.344 I2.493 J-0.182
N5965 X34.907 Y37.582 Z-1.894 I-2.493 J0.182
N5970 X39.893 Y37.218 Z-2.443 I2.493 J-0.182
N5975 X34.907 Y37.582 Z-2.992 I-2.493 J0.182
N5980 X39.893 Y37.218 Z-3.541 I2.493 J-0.182
N5985 X34.907 Y37.582 Z-4.09 I-2.493 J0.182
N5990 X39.893 Y37.218 Z-4.64 I2.493 J-0.182
N5995 X34.907 Y37.582 Z-5.189 I-2.493 J0.182
N6000 X39.893 Y37.218 Z-5.738 I2.493 J-0.182
N6005 X37.491 Y39.898 Z-6.019 I-2.493 J0.182
N6010 X34.9 Y37.4 Z-6.3 I-0.091 J-2.498
N6015 X37.5 I1.3 J0.
N6020 G1 X37.492 Y37.438 F900.
N6025 X37.471 Y37.471
N6030 X37.438 Y37.492
N6035 X37.4 Y37.5
N6040 X37.362 Y37.492
N6045 X37.329 Y37.471
N6050 X37.308 Y37.438
N6055 X37.3 Y37.4
N6060 G3 X38.7 I0.7 J0.
N6065 X36.1 I-1.3 J0.
N6070 X39.9 I1.9 J0.
N6075 X34.9 I-2.5 J0.
N6080 X39.9 I2.5 J0.
N6085 G1 X39.893 Y37.492 Z-6.285
N6090 X39.872 Y37.582 Z-6.271
N6095 X39.841 Y37.66 Z-6.228
N6100 X39.799 Y37.733 Z-6.185
N6105 X39.76 Y37.786 Z-6.119
N6110 X39.714 Y37.834 Z-6.053
N6115 X39.648 Y37.888 Z-5.885
N6120 X39.624 Y37.905 Z-5.7
N6125 G0 Z15.
N6130 M5
N6135 G53 Z0.
(DRILL1)
N6140 M9
N6145 T1 M6
N6150 S4851 M3
N6155 G54
N6160 M8
N6165 G0 X13.4 Y13.4
N6170 G43 Z15. H1
N6175 G0 Z5.
N6180 G98 G81 X13.4 Y13.4 Z-12.103 R-1.3 F436.59
N6185 X25.4
N6190 X37.4
N6195 Y25.4
N6200 X25.4
N6205 X13.4
N6210 Y37.4
N6215 X25.4
N6220 X37.4
N6225 G80
N6230 G0 Z15.
N6235 M5
N6240 G53 Z0.
(DRILL2)
N6245 M9
N6250 T2 M6
N6255 S8561 M3
N6260 G54
N6265 M8
N6270 G0 X5.4 Y25.4
N6275 G43 Z15. H2
N6280 G0 Z5.
N6285 G81 X5.4 Y25.4 Z-11.321 R4.7 F436.59
N6290 X45.4
N6295 G80
N6300 G0 Z15.
N6305 M5
N6310 G53 Z0.
(THREAD2)
N6315 M9
N6320 T23 M6
N6325 S13001 M3
N6330 G54
N6335 M8
N6340 G0 X5.4 Y25.4
N6345 G43 Z15. H23
N6350 G0 Z-8.387
N6355 G1 Z-10.387 F300.03
N6360 X5.658 Y25.142
N6365 G3 X5.916 Y25.4 Z-10.3 I0. J0.258
N6370 X4.884 Z-9.95 I-0.516 J0. F585.03
N6375 X5.916 Z-9.6 I0.516 J0.
N6380 X4.884 Z-9.25 I-0.516 J0.
N6385 X5.916 Z-8.9 I0.516 J0.
N6390 X4.884 Z-8.55 I-0.516 J0.
N6395 X5.916 Z-8.2 I0.516 J0.
N6400 X4.884 Z-7.85 I-0.516 J0.
N6405 X5.916 Z-7.5 I0.516 J0.
N6410 X4.884 Z-7.15 I-0.516 J0.
N6415 X5.916 Z-6.8 I0.516 J0.
N6420 X4.884 Z-6.45 I-0.516 J0.
N6425 X5.916 Z-6.1 I0.516 J0.
N6430 X4.884 Z-5.75 I-0.516 J0.
N6435 X5.916 Z-5.4 I0.516 J0.
N6440 X4.884 Z-5.05 I-0.516 J0.
N6445 X5.916 Z-4.7 I0.516 J0.
N6450 X4.884 Z-4.35 I-0.516 J0.
N6455 X5.916 Z-4. I0.516 J0.
N6460 X4.884 Z-3.65 I-0.516 J0.
N6465 X5.916 Z-3.3 I0.516 J0.
N6470 X4.884 Z-2.95 I-0.516 J0.
N6475 X5.916 Z-2.6 I0.516 J0.
N6480 X4.884 Z-2.25 I-0.516 J0.
N6485 X5.916 Z-1.9 I0.516 J0.
N6490 X4.884 Z-1.55 I-0.516 J0.
N6495 X5.916 Z-1.2 I0.516 J0.
N6500 X4.884 Z-0.85 I-0.516 J0.
N6505 X5.916 Z-0.5 I0.516 J0.
N6510 X5.285 Y25.903 Z-0.3 I-0.516 J0.
N6515 X5.091 Y25.594 Z-0.213 I0.057 J-0.252 F300.03
N6520 G1 X5.4 Y25.4
N6525 G0 Z5.
N6530 X45.4
N6535 Z-8.387
N6540 G1 Z-10.387 F300.03
N6545 X45.658 Y25.142
N6550 G3 X45.916 Y25.4 Z-10.3 I0. J0.258
N6555 X44.884 Z-9.95 I-0.516 J0. F585.03
N6560 X45.916 Z-9.6 I0.516 J0.
N6565 X44.884 Z-9.25 I-0.516 J0.
N6570 X45.916 Z-8.9 I0.516 J0.
N6575 X44.884 Z-8.55 I-0.516 J0.
N6580 X45.916 Z-8.2 I0.516 J0.
N6585 X44.884 Z-7.85 I-0.516 J0.
N6590 X45.916 Z-7.5 I0.516 J0.
N6595 X44.884 Z-7.15 I-0.516 J0.
N6600 X45.916 Z-6.8 I0.516 J0.
N6605 X44.884 Z-6.45 I-0.516 J0.
N6610 X45.916 Z-6.1 I0.516 J0.
N6615 X44.884 Z-5.75 I-0.516 J0.
N6620 X45.916 Z-5.4 I0.516 J0.
N6625 X44.884 Z-5.05 I-0.516 J0.
N6630 X45.916 Z-4.7 I0.516 J0.
N6635 X44.884 Z-4.35 I-0.516 J0.
N6640 X45.916 Z-4. I0.516 J0.
N6645 X44.884 Z-3.65 I-0.516 J0.
N6650 X45.916 Z-3.3 I0.516 J0.
N6655 X44.884 Z-2.95 I-0.516 J0.
N6660 X45.916 Z-2.6 I0.516 J0.
N6665 X44.884 Z-2.25 I-0.516 J0.
N6670 X45.916 Z-1.9 I0.516 J0.
N6675 X44.884 Z-1.55 I-0.516 J0.
N6680 X45.916 Z-1.2 I0.516 J0.
N6685 X44.884 Z-0.85 I-0.516 J0.
N6690 X45.916 Z-0.5 I0.516 J0.
N6695 X45.285 Y25.903 Z-0.3 I-0.516 J0.
N6700 X45.091 Y25.594 Z-0.213 I0.057 J-0.252 F300.03
N6705 G1 X45.4 Y25.4
N6710 G0 Z15.
N6715 M5
N6720 G53 Z0.
(2D CHAMFER1)
N6725 M9
N6730 T1 M6
N6735 S5000 M3
N6740 G54
N6745 M8
N6750 G0 X29.25 Y25.4
N6755 G43 Z15. H1
N6760 G0 Z5.
N6765 G1 Z2. F333.33
N6770 Z-1.65
N6775 X29.85 F1000.
N6780 G3 X20.95 I-4.45 J0.
N6785 X29.85 I4.45 J0.
N6790 G1 X29.25
N6795 G0 Z5.
N6800 X41.25
N6805 G1 Z2. F333.33
N6810 Z-1.65
N6815 X41.85 F1000.
N6820 G3 X32.95 I-4.45 J0.
N6825 X41.85 I4.45 J0.
N6830 G1 X41.25
N6835 G0 Z5.
N6840 X45.416
N6845 G1 Z2. F333.33
N6850 Z-1.65
N6855 X46.016 F1000.
N6860 G3 X44.784 I-0.616 J0.
N6865 X46.016 I0.616 J0.
N6870 G1 X45.416
N6875 G0 Z5.
N6880 X41.25 Y37.4
N6885 G1 Z2. F333.33
N6890 Z-1.65
N6895 X41.85 F1000.
N6900 G3 X32.95 I-4.45 J0.
N6905 X41.85 I4.45 J0.
N6910 G1 X41.25
N6915 G0 Z5.
N6920 X29.25
N6925 G1 Z2. F333.33
N6930 Z-1.65
N6935 X29.85 F1000.
N6940 G3 X20.95 I-4.45 J0.
N6945 X29.85 I4.45 J0.
N6950 G1 X29.25
N6955 G0 Z5.
N6960 X17.238 Y37.698
N6965 G1 Z2. F333.33
N6970 Z-1.65
N6975 X17.837 Y37.745 F1000.
N6980 G3 X8.963 Y37.055 I-4.437 J-0.345
N6985 X17.837 Y37.745 I4.437 J0.345
N6990 G1 X17.238 Y37.698
N6995 G0 Z5.
N7000 X17.25 Y25.4
N7005 G1 Z2. F333.33
N7010 Z-1.65
N7015 X17.85 F1000.
N7020 G3 X8.95 I-4.45 J0.
N7025 X17.85 I4.45 J0.
N7030 G1 X17.25
N7035 G0 Z5.
N7040 Y13.4
N7045 G1 Z2. F333.33
N7050 Z-1.65
N7055 X17.85 F1000.
N7060 G3 X8.95 I-4.45 J0.
N7065 X17.85 I4.45 J0.
N7070 G1 X17.25
N7075 G0 Z5.
N7080 X29.238 Y13.698
N7085 G1 Z2. F333.33
N7090 Z-1.65
N7095 X29.837 Y13.745 F1000.
N7100 G3 X20.963 Y13.055 I-4.437 J-0.345
N7105 X29.837 Y13.745 I4.437 J0.345
N7110 G1 X29.238 Y13.698
N7115 G0 Z5.
N7120 X41.25 Y13.4
N7125 G1 Z2. F333.33
N7130 Z-1.65
N7135 X41.85 F1000.
N7140 G3 X32.95 I-4.45 J0.
N7145 X41.85 I4.45 J0.
N7150 G1 X41.25
N7155 G0 Z5.
N7160 X5.414 Y25.408
N7165 G1 Z2. F333.33
N7170 Z-1.65
N7175 X5.933 Y25.708 F1000.
N7180 G3 X4.867 Y25.092 I-0.533 J-0.308
N7185 X5.933 Y25.708 I0.533 J0.308
N7190 G1 X5.414 Y25.408
N7195 G0 Z15.
N7200 M9
N7205 G53 Z0.
N7210 M30
%
