%
(RICHI_S1_V1)
(T2  D=6. CR=0. TAPER=90DEG - ZMIN=-8. - SPOT DRILL)
(T16  D=6. CR=0.5 - ZMIN=-38. - BULLNOSE END MILL)
(T25  D=2.5 CR=0. - ZMIN=-10. - FLAT END MILL)
(T99  D=7.8 CR=0. TAPER=118DEG - ZMIN=-52.343 - DRILL)
N10 G90 G94 G17 G91.1
N15 G21
N20 G53 G0 Z0.
(FACE2)
N25 T16 M6
N30 T2
N35 S13000 M3
N40 G54
N45 G64 P0.01 Q0.01
N50 M8
N55 G0 X50.22 Y-1.068
N60 G43 Z15. H16
N65 G0 Z5.
N70 G1 Z-2.4 F400.
N75 G18 G3 X49.62 Z-3. I-0.6 K0. F1560.
N80 G1 X49.51
N85 X-3.01
N90 G17 G2 Y0.843 I0. J0.956
N95 G1 X49.51
N100 G3 Y2.755 I0. J0.956
N105 G1 X-3.01
N110 G2 Y4.666 I0. J0.956
N115 G1 X49.51
N120 G3 Y6.578 I0. J0.956
N125 G1 X-3.01
N130 G2 Y8.489 I0. J0.956
N135 G1 X49.51
N140 G3 Y10.401 I0. J0.956
N145 G1 X-3.01
N150 G2 Y12.313 I0. J0.956
N155 G1 X49.51
N160 G3 Y14.224 I0. J0.956
N165 G1 X-3.01
N170 G2 Y16.136 I0. J0.956
N175 G1 X49.51
N180 G3 Y18.047 I0. J0.956
N185 G1 X-3.01
N190 G2 Y19.959 I0. J0.956
N195 G1 X49.51
N200 G3 Y21.87 I0. J0.956
N205 G1 X-3.01
N210 G2 Y23.782 I0. J0.956
N215 G1 X49.51
N220 G3 Y25.693 I0. J0.956
N225 G1 X-3.01
N230 G2 Y27.605 I0. J0.956
N235 G1 X49.51
N240 G18 G2 X50.11 Z-2.4 I0. K0.6
N245 G0 Z5.
N250 X50.22 Y-1.068
N255 G1 Z-5.4 F400.
N260 G3 X49.62 Z-6. I-0.6 K0. F1560.
N265 G1 X49.51
N270 X-3.01
N275 G17 G2 Y0.843 I0. J0.956
N280 G1 X49.51
N285 G3 Y2.755 I0. J0.956
N290 G1 X-3.01
N295 G2 Y4.666 I0. J0.956
N300 G1 X49.51
N305 G3 Y6.578 I0. J0.956
N310 G1 X-3.01
N315 G2 Y8.489 I0. J0.956
N320 G1 X49.51
N325 G3 Y10.401 I0. J0.956
N330 G1 X-3.01
N335 G2 Y12.313 I0. J0.956
N340 G1 X49.51
N345 G3 Y14.224 I0. J0.956
N350 G1 X-3.01
N355 G2 Y16.136 I0. J0.956
N360 G1 X49.51
N365 G3 Y18.047 I0. J0.956
N370 G1 X-3.01
N375 G2 Y19.959 I0. J0.956
N380 G1 X49.51
N385 G3 Y21.87 I0. J0.956
N390 G1 X-3.01
N395 G2 Y23.782 I0. J0.956
N400 G1 X49.51
N405 G3 Y25.693 I0. J0.956
N410 G1 X-3.01
N415 G2 Y27.605 I0. J0.956
N420 G1 X49.51
N425 G18 G2 X50.11 Z-5.4 I0. K0.6
N430 G0 Z15.
N435 G17
(2D ADAPTIVE2)
N440 G64 P0.1 Q0.1
N445 G0 X-0.47 Y-6.283
N450 Z15.
N455 Z5.
N460 Z-7.4
N465 G1 Z-8. F1560.
N470 Z-10.
N475 G3 X0. Y-3.017 I-14.839 J3.801
N480 G1 Y-2.902
N485 X-0.61 Y-2.22
N490 X-1.069 Y-1.428
N495 X-1.396 Y-0.573
N500 X-1.619 Y0.315
N505 X-1.764 Y1.219
N510 X-1.857 Y2.13
N515 X-1.914 Y3.043
N520 X-1.948 Y3.958
N525 X-1.969 Y4.873
N530 X-1.982 Y5.789
N535 X-1.989 Y6.704
N540 X-1.994 Y7.62
N545 X-1.996 Y8.535
N550 X-1.999 Y10.366
N555 X-2. Y16.774
N560 Y28.217
N565 X-1.814 Y29.113
N570 X-1.343 Y29.898
N575 X-0.682 Y30.531
N580 X0.098 Y31.011
N585 X0.946 Y31.355
N590 X1.83 Y31.592
N595 X2.733 Y31.747
N600 X3.643 Y31.846
N605 X4.556 Y31.907
N610 X5.471 Y31.944
N615 X6.386 Y31.967
N620 X7.301 Y31.98
N625 X8.216 Y31.988
N630 X9.132 Y31.993
N635 X10.047 Y31.996
N640 X11.878 Y31.999
N645 X14.624 Y32.
N650 X44.833
N655 X45.72 Y31.772
N660 X46.487 Y31.272
N665 X47.1 Y30.592
N670 X47.561 Y29.801
N675 X47.891 Y28.947
N680 X48.115 Y28.06
N685 X48.262 Y27.156
N690 X48.355 Y26.246
N695 X48.413 Y25.332
N700 X48.448 Y24.417
N705 X48.469 Y23.502
N710 X48.482 Y22.587
N715 X48.489 Y21.671
N720 X48.494 Y20.756
N725 X48.496 Y19.84
N730 X48.499 Y18.01
N735 X48.5 Y13.432
N740 Y1.532
N745 X48.244 Y0.653
N750 X47.711 Y-0.091
N755 X47.01 Y-0.68
N760 X46.207 Y-1.12
N765 X45.346 Y-1.431
N770 X44.455 Y-1.642
N775 X43.55 Y-1.779
N780 X42.639 Y-1.866
N785 X41.725 Y-1.919
N790 X40.81 Y-1.952
N795 X39.895 Y-1.971
N800 X38.98 Y-1.983
N805 X38.064 Y-1.99
N810 X37.149 Y-1.994
N815 X35.318 Y-1.998
N820 X31.656 Y-2.
N825 X11.517
N830 X3.278
N835 X2.379 Y-1.828
N840 X1.514 Y-1.53
N845 X0.784 Y-0.978
N850 X0.216 Y-0.26
N855 X-0.198 Y0.557
N860 X-0.486 Y1.426
N865 X-0.677 Y2.321
N870 X-0.8 Y3.228
N875 X-0.878 Y4.14
N880 X-0.926 Y5.054
N885 X-0.956 Y5.969
N890 X-0.973 Y6.885
N895 X-0.984 Y7.8
N900 X-0.99 Y8.715
N905 X-0.994 Y9.631
N910 X-0.998 Y11.462
N915 X-1. Y15.123
N920 Y26.108
N925 X-0.988 Y27.024
N930 X-0.766 Y27.912
N935 X-0.309 Y28.705
N940 X0.33 Y29.361
N945 X1.091 Y29.87
N950 X1.926 Y30.244
N955 X2.803 Y30.507
N960 X3.701 Y30.686
N965 X4.609 Y30.803
N970 X5.521 Y30.878
N975 X6.435 Y30.925
N980 X7.35 Y30.954
N985 X8.265 Y30.972
N990 X9.181 Y30.983
N995 X10.096 Y30.99
N1000 X11.011 Y30.994
N1005 X12.842 Y30.998
N1010 X16.504 Y31.
N1015 X43.051
N1020 X43.962 Y30.909
N1025 X44.813 Y30.57
N1030 X45.544 Y30.02
N1035 X46.13 Y29.316
N1040 X46.571 Y28.514
N1045 X46.888 Y27.655
N1050 X47.105 Y26.766
N1055 X47.25 Y25.862
N1060 X47.344 Y24.951
N1065 X47.404 Y24.038
N1070 X47.441 Y23.123
N1075 X47.464 Y22.208
N1080 X47.478 Y21.293
N1085 X47.487 Y20.377
N1090 X47.492 Y19.462
N1095 X47.495 Y18.547
N1100 X47.497 Y17.631
N1105 X47.499 Y14.885
N1110 X47.5 Y2.984
N1115 X47.288 Y2.094
N1120 X46.835 Y1.299
N1125 X46.198 Y0.641
N1130 X45.438 Y0.131
N1135 X44.603 Y-0.244
N1140 X43.726 Y-0.508
N1145 X42.828 Y-0.687
N1150 X41.92 Y-0.804
N1155 X41.008 Y-0.879
N1160 X40.094 Y-0.926
N1165 X39.179 Y-0.955
N1170 X38.263 Y-0.973
N1175 X37.348 Y-0.983
N1180 X36.433 Y-0.99
N1185 X35.517 Y-0.994
N1190 X33.686 Y-0.998
N1195 X30.025 Y-1.
N1200 X13.547
N1205 X5.308
N1210 X4.393 Y-0.984
N1215 X3.486 Y-0.86
N1220 X2.643 Y-0.504
N1225 X1.921 Y0.059
N1230 X1.345 Y0.771
N1235 X0.912 Y1.577
N1240 X0.602 Y2.438
N1245 X0.388 Y3.329
N1250 X0.246 Y4.233
N1255 X0.154 Y5.144
N1260 X0.095 Y6.057
N1265 X0.059 Y6.972
N1270 X0.036 Y7.887
N1275 X0.022 Y8.802
N1280 X0.013 Y9.718
N1285 X0.008 Y10.633
N1290 X0.005 Y11.549
N1295 X0.002 Y13.379
N1300 X0. Y17.956
N1305 Y24.364
N1310 X0.002 Y25.28
N1315 X0.083 Y26.192
N1320 X0.387 Y27.055
N1325 X0.899 Y27.814
N1330 X1.571 Y28.436
N1335 X2.35 Y28.916
N1340 X3.195 Y29.269
N1345 X4.076 Y29.518
N1350 X4.975 Y29.688
N1355 X5.884 Y29.801
N1360 X6.796 Y29.875
N1365 X7.711 Y29.922
N1370 X8.626 Y29.951
N1375 X9.541 Y29.97
N1380 X10.456 Y29.982
N1385 X11.371 Y29.989
N1390 X12.287 Y29.993
N1395 X13.202 Y29.996
N1400 X15.033 Y29.998
N1405 X20.526 Y30.
N1410 X41.58
N1415 X42.495 Y29.954
N1420 X43.375 Y29.702
N1425 X44.161 Y29.232
N1430 X44.813 Y28.59
N1435 X45.323 Y27.83
N1440 X45.702 Y26.996
N1445 X45.972 Y26.122
N1450 X46.158 Y25.225
N1455 X46.282 Y24.318
N1460 X46.362 Y23.406
N1465 X46.414 Y22.492
N1470 X46.447 Y21.578
N1475 X46.467 Y20.662
N1480 X46.48 Y19.747
N1485 X46.488 Y18.832
N1490 X46.492 Y17.916
N1495 X46.495 Y17.001
N1500 X46.498 Y15.17
N1505 X46.499 Y13.339
N1510 X46.5 Y5.1
N1515 X46.484 Y4.185
N1520 X46.281 Y3.292
N1525 X45.851 Y2.484
N1530 X45.238 Y1.805
N1535 X44.497 Y1.267
N1540 X43.675 Y0.864
N1545 X42.806 Y0.574
N1550 X41.913 Y0.374
N1555 X41.008 Y0.239
N1560 X40.097 Y0.151
N1565 X39.183 Y0.094
N1570 X38.268 Y0.059
N1575 X37.353 Y0.036
N1580 X36.438 Y0.022
N1585 X35.522 Y0.014
N1590 X34.607 Y0.008
N1595 X33.692 Y0.005
N1600 X31.861 Y0.002
N1605 X27.284 Y0.
N1610 X7.144
N1615 X6.229 Y0.001
N1620 X5.314 Y0.027
N1625 X4.417 Y0.208
N1630 X3.596 Y0.614
N1635 X2.897 Y1.205
N1640 X2.34 Y1.931
N1645 X1.918 Y2.744
N1650 X1.614 Y3.607
N1655 X1.402 Y4.498
N1660 X1.259 Y5.402
N1665 X1.165 Y6.313
N1670 X1.104 Y7.226
N1675 X1.065 Y8.141
N1680 X1.04 Y9.056
N1685 X1.025 Y9.971
N1690 X1.015 Y10.886
N1695 X1.009 Y11.802
N1700 X1.006 Y12.717
N1705 X1.002 Y14.548
N1710 X1. Y18.21
N1715 Y23.702
N1720 X1.023 Y24.618
N1725 X1.212 Y25.513
N1730 X1.615 Y26.335
N1735 X2.2 Y27.039
N1740 X2.921 Y27.603
N1745 X3.729 Y28.034
N1750 X4.589 Y28.348
N1755 X5.477 Y28.569
N1760 X6.38 Y28.719
N1765 X7.29 Y28.819
N1770 X8.203 Y28.885
N1775 X9.118 Y28.927
N1780 X10.033 Y28.954
N1785 X10.948 Y28.971
N1790 X11.863 Y28.982
N1795 X12.779 Y28.989
N1800 X13.694 Y28.993
N1805 X15.525 Y28.997
N1810 X18.271 Y28.999
N1815 X21.017 Y29.
N1820 X40.241
N1825 X41.156 Y28.972
N1830 X42.05 Y28.775
N1835 X42.868 Y28.364
N1840 X43.565 Y27.77
N1845 X44.123 Y27.044
N1850 X44.548 Y26.234
N1855 X44.858 Y25.372
N1860 X45.076 Y24.483
N1865 X45.225 Y23.58
N1870 X45.323 Y22.67
N1875 X45.388 Y21.757
N1880 X45.429 Y20.842
N1885 X45.456 Y19.927
N1890 X45.472 Y19.012
N1895 X45.483 Y18.096
N1900 X45.489 Y17.181
N1905 X45.493 Y16.266
N1910 X45.498 Y14.435
N1915 X45.5 Y10.773
N1920 Y6.196
N1925 X45.469 Y5.281
N1930 X45.262 Y4.389
N1935 X44.836 Y3.579
N1940 X44.231 Y2.893
N1945 X43.498 Y2.344
N1950 X42.682 Y1.928
N1955 X41.818 Y1.625
N1960 X40.928 Y1.413
N1965 X40.024 Y1.268
N1970 X39.114 Y1.172
N1975 X38.2 Y1.109
N1980 X37.286 Y1.069
N1985 X36.371 Y1.043
N1990 X35.455 Y1.027
N1995 X34.54 Y1.017
N2000 X33.625 Y1.01
N2005 X32.709 Y1.006
N2010 X30.878 Y1.002
N2015 X27.217 Y1.
N2020 X7.993
N2025 X7.077 Y1.004
N2030 X6.164 Y1.06
N2035 X5.282 Y1.305
N2040 X4.487 Y1.76
N2045 X3.818 Y2.385
N2050 X3.287 Y3.13
N2055 X2.887 Y3.954
N2060 X2.597 Y4.822
N2065 X2.395 Y5.715
N2070 X2.257 Y6.62
N2075 X2.165 Y7.531
N2080 X2.105 Y8.444
N2085 X2.067 Y9.359
N2090 X2.042 Y10.274
N2095 X2.026 Y11.189
N2100 X2.016 Y12.104
N2105 X2.01 Y13.02
N2110 X2.006 Y13.935
N2115 X2.002 Y15.766
N2120 X2. Y19.428
N2125 Y22.174
N2130 X2.006 Y23.089
N2135 X2.101 Y24.
N2140 X2.398 Y24.866
N2145 X2.892 Y25.636
N2150 X3.546 Y26.278
N2155 X4.309 Y26.782
N2160 X5.143 Y27.161
N2165 X6.016 Y27.435
N2170 X6.912 Y27.625
N2175 X7.818 Y27.755
N2180 X8.729 Y27.842
N2185 X9.643 Y27.898
N2190 X10.558 Y27.935
N2195 X11.473 Y27.959
N2200 X12.388 Y27.974
N2205 X13.303 Y27.984
N2210 X14.219 Y27.99
N2215 X15.134 Y27.994
N2220 X16.965 Y27.998
N2225 X20.627 Y28.
N2230 X20.996
N2235 X21.064 Y28.001
N2240 X21.132 Y28.005
N2245 X21.2 Y28.011
N2250 X21.38 Y28.031
N2255 X22.627 Y28.154
N2260 X23.25 Y28.198
N2265 X23.873 Y28.154
N2270 X24.788 Y28.112
N2275 X25.702 Y28.065
N2280 X26.617 Y28.038
N2285 X27.532 Y28.022
N2290 X28.448 Y28.013
N2295 X29.363 Y28.008
N2300 X30.279 Y28.005
N2305 X32.109 Y28.002
N2310 X36.687 Y28.
N2315 X38.517
N2320 X39.433 Y27.996
N2325 X40.346 Y27.926
N2330 X41.223 Y27.665
N2335 X42.012 Y27.2
N2340 X42.676 Y26.57
N2345 X43.203 Y25.822
N2350 X43.603 Y24.998
N2355 X43.893 Y24.13
N2360 X44.096 Y23.238
N2365 X44.236 Y22.333
N2370 X44.329 Y21.422
N2375 X44.39 Y20.509
N2380 X44.43 Y19.594
N2385 X44.456 Y18.679
N2390 X44.472 Y17.764
N2395 X44.482 Y16.849
N2400 X44.489 Y15.933
N2405 X44.493 Y15.018
N2410 X44.497 Y13.187
N2415 X44.499 Y10.441
N2420 X44.5 Y7.694
N2425 X44.492 Y6.779
N2430 X44.374 Y5.871
N2435 X44.047 Y5.016
N2440 X43.526 Y4.263
N2445 X42.853 Y3.642
N2450 X42.077 Y3.157
N2455 X41.236 Y2.795
N2460 X40.359 Y2.534
N2465 X39.462 Y2.353
N2470 X38.554 Y2.23
N2475 X37.643 Y2.148
N2480 X36.729 Y2.095
N2485 X35.814 Y2.06
N2490 X34.899 Y2.038
N2495 X33.984 Y2.024
N2500 X33.068 Y2.015
N2505 X32.153 Y2.009
N2510 X31.237 Y2.006
N2515 X29.407 Y2.002
N2520 X25.504 Y2.
N2525 X25.435 Y1.999
N2530 X25.367 Y1.995
N2535 X25.299 Y1.989
N2540 X25.12 Y1.969
N2545 X23.873 Y1.846
N2550 X23.25 Y1.802
N2555 X22.627 Y1.846
N2560 X21.712 Y1.889
N2565 X20.798 Y1.935
N2570 X19.883 Y1.962
N2575 X18.968 Y1.978
N2580 X18.052 Y1.987
N2585 X17.137 Y1.992
N2590 X16.221 Y1.995
N2595 X14.391 Y1.998
N2600 X8.898 Y2.
N2605 X7.983 Y2.009
N2610 X7.072 Y2.098
N2615 X6.201 Y2.381
N2620 X5.424 Y2.866
N2625 X4.774 Y3.51
N2630 X4.26 Y4.267
N2635 X3.872 Y5.097
N2640 X3.591 Y5.968
N2645 X3.393 Y6.862
N2650 X3.258 Y7.767
N2655 X3.167 Y8.678
N2660 X3.108 Y9.591
N2665 X3.069 Y10.506
N2670 X3.044 Y11.421
N2675 X3.028 Y12.336
N2680 X3.017 Y13.252
N2685 X3.011 Y14.167
N2690 X3.007 Y15.083
N2695 X3.003 Y16.913
N2700 X3.001 Y19.66
N2705 X3. Y20.575
N2710 X3.001 Y21.49
N2715 X3.027 Y22.406
N2720 X3.201 Y23.304
N2725 X3.58 Y24.137
N2730 X4.141 Y24.861
N2735 X4.839 Y25.453
N2740 X5.632 Y25.911
N2745 X6.482 Y26.252
N2750 X7.364 Y26.495
N2755 X8.264 Y26.665
N2760 X9.172 Y26.78
N2765 X10.084 Y26.857
N2770 X10.998 Y26.908
N2775 X11.913 Y26.941
N2780 X12.828 Y26.962
N2785 X13.743 Y26.976
N2790 X14.659 Y26.985
N2795 X15.574 Y26.99
N2800 X16.489 Y26.994
N2805 X17.38 Y26.996
N2810 X17.61 Y27.011
N2815 X17.836 Y27.053
N2820 X18.055 Y27.122
N2825 X18.471 Y27.283
N2830 X18.657 Y27.35
N2835 X19.925 Y27.735
N2840 X20.133 Y27.795
N2845 X20.549 Y27.914
N2850 X20.757 Y27.951
N2855 X21.172 Y28.008
N2860 X21.2 Y28.011
N2865 X21.209 Y28.013
N2870 G2 X21.661 Y28.134 I1.606 J-5.123
N2875 G1 X21.71 Y28.142
N2880 X21.758 Y28.147
N2885 X21.968 Y28.158
N2890 X23.094 Y28.218
N2895 X23.309 Y28.229
N2900 X23.358 Y28.23
N2905 X23.407 Y28.226
N2910 G2 X23.87 Y28.154 I-0.592 J-5.336
N2915 G1 X23.873
N2920 X25.12 Y28.031
N2925 X25.328 Y28.008
N2930 X25.743 Y27.951
N2935 X25.951 Y27.914
N2940 X26.471 Y27.765
N2945 X26.575 Y27.735
N2950 X27.159 Y27.558
N2955 X27.541 Y27.463
N2960 X27.881 Y27.384
N2965 X28.328 Y27.3
N2970 X28.944 Y27.212
N2975 X29.855 Y27.123
N2980 X30.769 Y27.072
N2985 X31.684 Y27.042
N2990 X32.599 Y27.025
N2995 X33.514 Y27.015
N3000 X34.43 Y27.009
N3005 X35.345 Y27.005
N3010 X38.091 Y27.
N3015 X39.006 Y26.96
N3020 X39.899 Y26.761
N3025 X40.724 Y26.363
N3030 X41.432 Y25.783
N3035 X42.007 Y25.071
N3040 X42.451 Y24.27
N3045 X42.78 Y23.416
N3050 X43.016 Y22.531
N3055 X43.179 Y21.631
N3060 X43.29 Y20.722
N3065 X43.364 Y19.81
N3070 X43.413 Y18.895
N3075 X43.444 Y17.981
N3080 X43.464 Y17.065
N3085 X43.477 Y16.15
N3090 X43.486 Y15.235
N3095 X43.491 Y14.319
N3100 X43.494 Y13.404
N3105 X43.498 Y11.573
N3110 X43.499 Y8.827
N3115 X43.49 Y7.911
N3120 X43.38 Y7.003
N3125 X43.074 Y6.14
N3130 X42.571 Y5.375
N3135 X41.913 Y4.739
N3140 X41.148 Y4.236
N3145 X40.314 Y3.857
N3150 X39.441 Y3.582
N3155 X38.547 Y3.388
N3160 X37.641 Y3.255
N3165 X36.73 Y3.166
N3170 X35.816 Y3.107
N3175 X34.902 Y3.069
N3180 X33.987 Y3.044
N3185 X33.071 Y3.028
N3190 X32.156 Y3.018
N3195 X31.241 Y3.011
N3200 X30.325 Y3.007
N3205 X29.121 Y3.004
N3210 X28.891 Y2.989
N3215 X28.664 Y2.947
N3220 X28.445 Y2.878
N3225 X28.029 Y2.717
N3230 X27.843 Y2.65
N3235 X26.575 Y2.265
N3240 X26.367 Y2.205
N3245 X25.951 Y2.086
N3250 X25.743 Y2.049
N3255 X25.328 Y1.992
N3260 X25.299 Y1.989
N3265 X25.291 Y1.987
N3270 G2 X24.838 Y1.866 I-1.606 J5.121
N3275 G1 X24.79 Y1.858
N3280 X24.741 Y1.853
N3285 X24.531 Y1.842
N3290 X23.406 Y1.782
N3295 X23.191 Y1.771
N3300 X23.142 Y1.77
N3305 X23.093 Y1.774
N3310 G2 X22.63 Y1.846 I0.592 J5.334
N3315 G1 X22.627
N3320 X21.38 Y1.969
N3325 X21.172 Y1.992
N3330 X20.757 Y2.049
N3335 X20.549 Y2.086
N3340 X20.029 Y2.235
N3345 X19.925 Y2.265
N3350 X19.341 Y2.442
N3355 X18.959 Y2.537
N3360 X18.619 Y2.616
N3365 X18.172 Y2.7
N3370 X17.556 Y2.788
N3375 X16.645 Y2.877
N3380 X15.731 Y2.928
N3385 X14.816 Y2.958
N3390 X13.901 Y2.975
N3395 X12.986 Y2.985
N3400 X12.07 Y2.991
N3405 X11.155 Y2.995
N3410 X10.239 Y2.997
N3415 X9.324 Y3.001
N3420 X8.41 Y3.055
N3425 X7.522 Y3.275
N3430 X6.708 Y3.695
N3435 X6.013 Y4.29
N3440 X5.451 Y5.013
N3445 X5.018 Y5.82
N3450 X4.699 Y6.677
N3455 X4.47 Y7.564
N3460 X4.312 Y8.465
N3465 X4.204 Y9.375
N3470 X4.133 Y10.287
N3475 X4.085 Y11.201
N3480 X4.055 Y12.116
N3485 X4.035 Y13.031
N3490 X4.022 Y13.947
N3495 X4.014 Y14.862
N3500 X4.009 Y15.778
N3505 X4.006 Y16.693
N3510 X4.002 Y18.524
N3515 X4.001 Y20.355
N3520 X4.026 Y21.27
N3525 X4.184 Y22.172
N3530 X4.539 Y23.015
N3535 X5.081 Y23.753
N3540 X5.765 Y24.361
N3545 X6.547 Y24.837
N3550 X7.39 Y25.193
N3555 X8.269 Y25.452
N3560 X9.166 Y25.633
N3565 X10.073 Y25.757
N3570 X10.984 Y25.841
N3575 X11.898 Y25.897
N3580 X12.813 Y25.933
N3585 X13.728 Y25.957
N3590 X14.643 Y25.973
N3595 X15.459 Y25.981
N3600 X15.762 Y26.01
N3605 X16.056 Y26.088
N3610 X16.334 Y26.214
N3615 X16.393 Y26.248
N3620 X17.772 Y26.984
N3625 X17.848 Y27.024
N3630 X18.055 Y27.122
N3635 X18.072 Y27.136 Z-9.995
N3640 X18.083 Y27.155 Z-9.991
N3645 G2 X18.433 Y27.981 Z-9.8 I4.602 J-1.467
N3650 X20.85 Y30.157 I4.252 J-2.292
N3655 G1 X20.915 Y30.179
N3660 X20.982 Y30.194
N3665 X21.05 Y30.201
N3670 X23.881 Y30.337
N3675 X23.95 Y30.336
N3680 X24.018 Y30.328
N3685 X24.084 Y30.312
N3690 G2 X26.7 Y28.375 I-1.399 J-4.623
N3695 X27.126 Y27.589 Z-9.99 I-4.015 J-2.686
N3700 G1 X27.139 Y27.57 Z-9.995
N3705 X27.159 Y27.558 Z-10.
N3710 X27.843 Y27.35
N3715 X28.029 Y27.283
N3720 X28.445 Y27.122
N3725 X28.652 Y27.024
N3730 X28.86 Y26.914
N3735 X29.053 Y26.823
N3740 X29.218 Y26.751
N3745 X29.406 Y26.678
N3750 X29.635 Y26.6
N3755 X29.924 Y26.516
N3760 X30.272 Y26.431
N3765 X30.728 Y26.341
N3770 X31.333 Y26.248
N3775 X32.215 Y26.151
N3780 X33.129 Y26.092
N3785 X34.044 Y26.056
N3790 X34.959 Y26.034
N3795 X35.874 Y26.021
N3800 X36.789 Y26.011
N3805 X37.705 Y25.986
N3810 X38.608 Y25.839
N3815 X39.457 Y25.496
N3820 X40.203 Y24.966
N3825 X40.82 Y24.29
N3830 X41.305 Y23.513
N3835 X41.67 Y22.674
N3840 X41.936 Y21.798
N3845 X42.122 Y20.902
N3850 X42.251 Y19.995
N3855 X42.337 Y19.084
N3860 X42.394 Y18.17
N3865 X42.432 Y17.256
N3870 X42.456 Y16.34
N3875 X42.472 Y15.425
N3880 X42.482 Y14.51
N3885 X42.489 Y13.594
N3890 X42.493 Y12.679
N3895 X42.497 Y10.848
N3900 X42.498 Y9.933
N3905 X42.488 Y9.017
N3910 X42.387 Y8.108
N3915 X42.096 Y7.24
N3920 X41.606 Y6.466
N3925 X40.961 Y5.817
N3930 X40.205 Y5.301
N3935 X39.378 Y4.908
N3940 X38.508 Y4.621
N3945 X37.616 Y4.418
N3950 X36.711 Y4.277
N3955 X35.801 Y4.182
N3960 X34.888 Y4.118
N3965 X33.973 Y4.076
N3970 X33.058 Y4.049
N3975 X32.143 Y4.031
N3980 X31.228 Y4.02
N3985 X31.044 Y4.018
N3990 X30.74 Y3.99
N3995 X30.444 Y3.912
N4000 X30.166 Y3.785
N4005 X30.107 Y3.752
N4010 X28.728 Y3.016
N4015 X28.652 Y2.976
N4020 X28.445 Y2.878
N4025 X28.428 Y2.864 Z-9.995
N4030 X28.417 Y2.845 Z-9.991
N4035 G2 X28.067 Y2.019 Z-9.8 I-4.602 J1.467
N4040 X25.65 Y-0.157 I-4.252 J2.292
N4045 G1 X25.585 Y-0.179
N4050 X25.518 Y-0.194
N4055 X25.45 Y-0.201
N4060 X22.619 Y-0.337
N4065 X22.55 Y-0.336
N4070 X22.482 Y-0.328
N4075 X22.416 Y-0.312
N4080 G2 X19.8 Y1.625 I1.399 J4.623
N4085 X19.374 Y2.411 Z-9.99 I4.014 J2.686
N4090 G1 X19.361 Y2.43 Z-9.995
N4095 X19.341 Y2.442 Z-10.
N4100 X18.657 Y2.65
N4105 X18.471 Y2.717
N4110 X18.055 Y2.878
N4115 X17.848 Y2.976
N4120 X17.64 Y3.086
N4125 X17.447 Y3.177
N4130 X17.282 Y3.249
N4135 X17.094 Y3.322
N4140 X16.865 Y3.4
N4145 X16.576 Y3.484
N4150 X16.228 Y3.569
N4155 X15.772 Y3.659
N4160 X15.167 Y3.752
N4165 X14.285 Y3.849
N4170 X13.371 Y3.908
N4175 X12.456 Y3.944
N4180 X11.541 Y3.966
N4185 X10.626 Y3.982
N4190 X9.711 Y4.019
N4195 X8.812 Y4.187
N4200 X7.971 Y4.551
N4205 X7.238 Y5.098
N4210 X6.634 Y5.786
N4215 X6.16 Y6.57
N4220 X5.805 Y7.413
N4225 X5.548 Y8.292
N4230 X5.367 Y9.189
N4235 X5.242 Y10.096
N4240 X5.158 Y11.008
N4245 X5.103 Y11.921
N4250 X5.066 Y12.836
N4255 X5.043 Y13.751
N4260 X5.027 Y14.667
N4265 X5.017 Y15.582
N4270 X5.011 Y16.497
N4275 X5.007 Y17.413
N4280 X5.004 Y18.328
N4285 X5.003 Y19.244
N4290 X5.026 Y20.159
N4295 X5.169 Y21.063
N4300 X5.507 Y21.914
N4305 X6.033 Y22.663
N4310 X6.705 Y23.284
N4315 X7.478 Y23.775
N4320 X8.315 Y24.145
N4325 X9.19 Y24.415
N4330 X10.085 Y24.606
N4335 X10.991 Y24.738
N4340 X11.902 Y24.828
N4345 X12.816 Y24.887
N4350 X14.051 Y24.94
N4355 X14.344 Y24.977
N4360 X14.627 Y25.06
N4365 X14.894 Y25.187
N4370 X15.136 Y25.355
N4375 X15.354 Y25.534
N4380 X15.562 Y25.696
N4385 X15.978 Y26.013
N4390 X16.185 Y26.131
N4395 X16.334 Y26.214
N4400 X16.35 Y26.229 Z-9.995
N4405 X16.359 Y26.249 Z-9.991
N4410 G2 X16.632 Y27.104 Z-9.8 I6.344 J-1.557
N4415 X18.844 Y29.963 I6.071 J-2.412
N4420 X19.165 Y30.078 I0.354 J-0.484
N4425 G1 X25.622 Y30.437
N4430 G2 X25.954 Y30.358 I0.033 J-0.599
N4435 X28.467 Y27.767 I-3.251 J-5.666
N4440 X28.836 Y26.943 Z-9.992 I-5.764 J-3.075
N4445 G1 X28.845 Y26.926 Z-9.996
N4450 X28.86 Y26.914 Z-10.
N4455 X30.107 Y26.248
N4460 X30.362 Y26.105
N4465 X30.522 Y26.013
N4470 X30.595 Y25.971
N4475 X30.757 Y25.891
N4480 X30.929 Y25.816
N4485 X31.142 Y25.733
N4490 X31.409 Y25.642
N4495 X31.707 Y25.555
N4500 X32.095 Y25.459
N4505 X32.57 Y25.364
N4510 X33.212 Y25.265
N4515 X34.122 Y25.164
N4520 X35.035 Y25.102
N4525 X35.949 Y25.059
N4530 X36.863 Y24.998
N4535 X37.757 Y24.805
N4540 X38.586 Y24.415
N4545 X39.307 Y23.851
N4550 X39.899 Y23.153
N4555 X40.362 Y22.364
N4560 X40.71 Y21.517
N4565 X40.961 Y20.637
N4570 X41.138 Y19.738
N4575 X41.26 Y18.831
N4580 X41.342 Y17.919
N4585 X41.397 Y17.006
N4590 X41.433 Y16.091
N4595 X41.457 Y15.176
N4600 X41.472 Y14.26
N4605 X41.482 Y13.345
N4610 X41.489 Y12.43
N4615 X41.493 Y11.514
N4620 Y10.599
N4625 X41.464 Y9.684
N4630 X41.29 Y8.785
N4635 X40.915 Y7.95
N4640 X40.362 Y7.221
N4645 X39.67 Y6.621
N4650 X38.884 Y6.152
N4655 X38.039 Y5.8
N4660 X37.16 Y5.545
N4665 X36.262 Y5.366
N4670 X35.355 Y5.243
N4675 X34.443 Y5.16
N4680 X33.53 Y5.105
N4685 X32.615 Y5.068
N4690 X32.437 Y5.059
N4695 X32.147 Y5.022
N4700 X31.867 Y4.938
N4705 X31.604 Y4.812
N4710 X31.364 Y4.645
N4715 X31.146 Y4.466
N4720 X30.938 Y4.304
N4725 X30.522 Y3.987
N4730 X30.315 Y3.869
N4735 X30.166 Y3.785
N4740 X30.15 Y3.771 Z-9.995
N4745 X30.141 Y3.751 Z-9.991
N4750 G2 X29.867 Y2.896 Z-9.8 I-6.344 J1.557
N4755 X27.656 Y0.037 I-6.071 J2.412
N4760 X27.334 Y-0.078 I-0.354 J0.484
N4765 G1 X20.878 Y-0.437
N4770 G2 X20.546 Y-0.358 I-0.033 J0.599
N4775 X18.033 Y2.233 I3.251 J5.666
N4780 X17.664 Y3.057 Z-9.992 I5.763 J3.075
N4785 G1 X17.655 Y3.074 Z-9.996
N4790 X17.64 Y3.086 Z-10.
N4795 X16.393 Y3.752
N4800 X16.138 Y3.895
N4805 X15.978 Y3.987
N4810 X15.905 Y4.029
N4815 X15.743 Y4.109
N4820 X15.571 Y4.184
N4825 X15.358 Y4.267
N4830 X15.091 Y4.358
N4835 X14.793 Y4.445
N4840 X14.405 Y4.541
N4845 X13.929 Y4.636
N4850 X13.282 Y4.736
N4855 X12.372 Y4.838
N4860 X11.459 Y4.905
N4865 X10.547 Y4.989
N4870 X9.659 Y5.21
N4875 X8.842 Y5.622
N4880 X8.135 Y6.203
N4885 X7.556 Y6.913
N4890 X7.105 Y7.709
N4895 X6.768 Y8.56
N4900 X6.523 Y9.443
N4905 X6.352 Y10.342
N4910 X6.234 Y11.25
N4915 X6.154 Y12.162
N4920 X6.1 Y13.075
N4925 X6.065 Y13.99
N4930 X6.042 Y14.905
N4935 X6.027 Y15.821
N4940 X6.017 Y16.736
N4945 X6.011 Y17.651
N4950 X6.013 Y18.567
N4955 X6.066 Y19.481
N4960 X6.281 Y20.37
N4965 X6.695 Y21.187
N4970 X7.279 Y21.892
N4975 X7.992 Y22.467
N4980 X8.791 Y22.913
N4985 X9.644 Y23.245
N4990 X10.527 Y23.485
N4995 X11.427 Y23.654
N5000 X12.335 Y23.77
N5005 X12.807 Y23.818
N5010 X13.107 Y23.873
N5015 X13.394 Y23.976
N5020 X13.661 Y24.125
N5025 X13.9 Y24.315
N5030 X14.038 Y24.444
N5035 X14.534 Y24.859
N5040 X15.116 Y25.339
N5045 X15.136 Y25.355
N5050 X15.147 Y25.368 Z-9.996
N5055 X15.154 Y25.385 Z-9.993
N5060 G2 X15.402 Y26.256 Z-9.8 I7.764 J-1.739
N5065 X18.088 Y29.968 I7.515 J-2.611
N5070 X18.427 Y30.091 I0.364 J-0.477
N5075 G1 X26.843 Y30.45
N5080 G2 X27.191 Y30.356 I0.026 J-0.599
N5085 X30.182 Y26.889 I-4.274 J-6.711
N5090 X30.505 Y26.039 Z-9.993 I-7.265 J-3.244
N5095 G1 X30.512 Y26.025 Z-9.997
N5100 X30.522 Y26.013 Z-10.
N5105 X30.947 Y25.69
N5110 X31.146 Y25.534
N5115 X31.288 Y25.417
N5120 X31.421 Y25.319
N5125 X31.544 Y25.233
N5130 X31.671 Y25.154
N5135 X31.819 Y25.072
N5140 X31.981 Y24.99
N5145 X32.182 Y24.899
N5150 X32.432 Y24.799
N5155 X32.692 Y24.708
N5160 X33.024 Y24.608
N5165 X33.426 Y24.506
N5170 X33.953 Y24.396
N5175 X34.856 Y24.247
N5180 X35.763 Y24.123
N5185 X36.653 Y23.911
N5190 X37.485 Y23.528
N5195 X38.214 Y22.974
N5200 X38.817 Y22.286
N5205 X39.294 Y21.505
N5210 X39.655 Y20.663
N5215 X39.919 Y19.787
N5220 X40.107 Y18.891
N5225 X40.238 Y17.985
N5230 X40.326 Y17.074
N5235 X40.386 Y16.16
N5240 X40.426 Y15.246
N5245 X40.452 Y14.331
N5250 X40.469 Y13.415
N5255 X40.48 Y12.5
N5260 X40.484 Y11.585
N5265 X40.449 Y10.67
N5270 X40.267 Y9.773
N5275 X39.886 Y8.94
N5280 X39.327 Y8.216
N5285 X38.632 Y7.62
N5290 X37.844 Y7.154
N5295 X36.998 Y6.804
N5300 X36.118 Y6.55
N5305 X35.221 Y6.371
N5310 X34.314 Y6.247
N5315 X33.701 Y6.185
N5320 X33.399 Y6.13
N5325 X33.11 Y6.026
N5330 X32.841 Y5.876
N5335 X32.6 Y5.685
N5340 X32.462 Y5.556
N5345 X31.966 Y5.141
N5350 X31.384 Y4.661
N5355 X31.364 Y4.645
N5360 X31.353 Y4.632 Z-9.996
N5365 X31.346 Y4.615 Z-9.993
N5370 G2 X31.098 Y3.744 Z-9.8 I-7.764 J1.739
N5375 X28.412 Y0.032 I-7.515 J2.611
N5380 X28.074 Y-0.091 I-0.364 J0.477
N5385 G1 X19.657 Y-0.45
N5390 G2 X19.309 Y-0.356 I-0.026 J0.599
N5395 X16.318 Y3.111 I4.274 J6.711
N5400 X15.995 Y3.961 Z-9.993 I7.265 J3.244
N5405 G1 X15.988 Y3.975 Z-9.997
N5410 X15.978 Y3.987 Z-10.
N5415 X15.553 Y4.31
N5420 X15.354 Y4.466
N5425 X15.212 Y4.583
N5430 X15.079 Y4.681
N5435 X14.956 Y4.767
N5440 X14.829 Y4.846
N5445 X14.681 Y4.929
N5450 X14.519 Y5.01
N5455 X14.317 Y5.101
N5460 X14.067 Y5.201
N5465 X13.798 Y5.295
N5470 X13.453 Y5.399
N5475 X12.94 Y5.53
N5480 X12.044 Y5.718
N5485 X11.152 Y5.92
N5490 X10.301 Y6.26
N5495 X9.539 Y6.766
N5500 X8.892 Y7.414
N5505 X8.371 Y8.167
N5510 X7.97 Y8.99
N5515 X7.673 Y9.855
N5520 X7.459 Y10.745
N5525 X7.309 Y11.649
N5530 X7.206 Y12.558
N5535 X7.136 Y13.471
N5540 X7.089 Y14.385
N5545 X7.058 Y15.3
N5550 X7.038 Y16.215
N5555 X7.026 Y17.131
N5560 X7.037 Y18.046
N5565 X7.166 Y18.952
N5570 X7.49 Y19.808
N5575 X7.998 Y20.57
N5580 X8.656 Y21.206
N5585 X9.42 Y21.711
N5590 X10.25 Y22.095
N5595 X11.121 Y22.378
N5600 X12.011 Y22.592
N5605 X12.054 Y22.604
N5610 X12.314 Y22.7
N5615 X12.558 Y22.834
N5620 X12.778 Y23.004
N5625 X12.97 Y23.205
N5630 X13.306 Y23.614
N5635 X13.692 Y24.076
N5640 X13.827 Y24.237
N5645 X13.9 Y24.315
N5650 G3 X13.943 Y25.044 I-0.454 J0.393
N5655 G1 X13.89 Y25.122 Z-9.993
N5660 X13.839 Y25.198 Z-9.971
N5665 X13.79 Y25.27 Z-9.935
N5670 X13.745 Y25.336 Z-9.885
N5675 X13.705 Y25.395 Z-9.824
N5680 X13.671 Y25.446 Z-9.753
N5685 X13.643 Y25.487 Z-9.672
N5690 X13.623 Y25.517 Z-9.585
N5695 X13.611 Y25.535 Z-9.494
N5700 X13.607 Y25.541 Z-9.4
N5705 G0 Z5.
N5710 X30.642 Y26.63
N5715 Z-8.8
N5720 G1 Z-9.4 F1560.
N5725 X30.645 Y26.623 Z-9.494
N5730 X30.652 Y26.603 Z-9.585
N5735 X30.664 Y26.569 Z-9.672
N5740 X30.681 Y26.522 Z-9.753
N5745 X30.702 Y26.465 Z-9.824
N5750 X30.726 Y26.398 Z-9.885
N5755 X30.754 Y26.322 Z-9.935
N5760 X30.783 Y26.24 Z-9.971
N5765 X30.814 Y26.154 Z-9.993
N5770 X30.846 Y26.066 Z-10.
N5775 G3 X31.288 Y25.417 I1.488 J0.538
N5780 G1 X31.769 Y25.022
N5785 X31.977 Y24.851
N5790 X32.392 Y24.503
N5795 X32.518 Y24.408
N5800 X32.641 Y24.322
N5805 X32.768 Y24.241
N5810 X32.925 Y24.152
N5815 X33.12 Y24.051
N5820 X33.345 Y23.947
N5825 X33.621 Y23.834
N5830 X34.482 Y23.523
N5835 X35.354 Y23.247
N5840 X36.19 Y22.873
N5845 X36.942 Y22.351
N5850 X37.584 Y21.698
N5855 X38.104 Y20.944
N5860 X38.507 Y20.122
N5865 X38.807 Y19.258
N5870 X39.025 Y18.369
N5875 X39.178 Y17.466
N5880 X39.285 Y16.557
N5885 X39.357 Y15.644
N5890 X39.406 Y14.73
N5895 X39.438 Y13.815
N5900 X39.458 Y12.9
N5905 X39.453 Y11.985
N5910 X39.332 Y11.077
N5915 X39.017 Y10.218
N5920 X38.514 Y9.453
N5925 X37.859 Y8.813
N5930 X37.098 Y8.304
N5935 X36.269 Y7.917
N5940 X35.399 Y7.631
N5945 X34.509 Y7.415
N5950 X34.451 Y7.399
N5955 X34.189 Y7.303
N5960 X33.945 Y7.168
N5965 X33.725 Y6.999
N5970 X33.532 Y6.798
N5975 X33.194 Y6.386
N5980 X32.808 Y5.924
N5985 X32.673 Y5.763
N5990 X32.6 Y5.685
N5995 G3 X32.557 Y4.956 I0.454 J-0.393
N6000 G1 X32.61 Y4.878 Z-9.993
N6005 X32.661 Y4.802 Z-9.971
N6010 X32.71 Y4.73 Z-9.935
N6015 X32.755 Y4.664 Z-9.885
N6020 X32.795 Y4.605 Z-9.824
N6025 X32.829 Y4.554 Z-9.753
N6030 X32.857 Y4.513 Z-9.672
N6035 X32.877 Y4.483 Z-9.585
N6040 X32.889 Y4.465 Z-9.494
N6045 X32.893 Y4.459 Z-9.4
N6050 G0 Z5.
N6055 X15.858 Y3.37
N6060 Z-8.8
N6065 G1 Z-9.4 F1560.
N6070 X15.855 Y3.377 Z-9.494
N6075 X15.848 Y3.397 Z-9.585
N6080 X15.836 Y3.431 Z-9.672
N6085 X15.819 Y3.478 Z-9.753
N6090 X15.798 Y3.535 Z-9.824
N6095 X15.774 Y3.602 Z-9.885
N6100 X15.746 Y3.678 Z-9.935
N6105 X15.717 Y3.76 Z-9.971
N6110 X15.686 Y3.846 Z-9.993
N6115 X15.654 Y3.934 Z-10.
N6120 G3 X15.212 Y4.583 I-1.488 J-0.538
N6125 G1 X14.731 Y4.978
N6130 X14.523 Y5.149
N6135 X14.108 Y5.497
N6140 X13.974 Y5.598
N6145 X13.852 Y5.684
N6150 X13.703 Y5.779
N6155 X13.505 Y5.894
N6160 X13.248 Y6.028
N6165 X12.419 Y6.417
N6170 X11.591 Y6.808
N6175 X10.823 Y7.306
N6180 X10.151 Y7.928
N6185 X9.593 Y8.653
N6190 X9.15 Y9.454
N6195 X8.812 Y10.305
N6200 X8.564 Y11.186
N6205 X8.386 Y12.084
N6210 X8.261 Y12.991
N6215 X8.175 Y13.902
N6220 X8.116 Y14.816
N6225 X8.077 Y15.73
N6230 X8.057 Y16.646
N6235 X8.117 Y17.559
N6240 X8.352 Y18.444
N6245 X8.782 Y19.252
N6250 X9.381 Y19.944
N6255 X10.104 Y20.507
N6260 X10.905 Y20.948
N6265 X11.166 Y21.07
N6270 X11.422 Y21.215
N6275 X11.652 Y21.4
N6280 X11.848 Y21.619
N6285 X12.008 Y21.867
N6290 X12.03 Y21.908
N6295 X12.237 Y22.274
N6300 X12.653 Y22.817
N6305 X12.861 Y23.072
N6310 X12.97 Y23.205
N6315 G3 X12.968 Y23.935 I-0.477 J0.364
N6320 G1 X12.911 Y24.009 Z-9.993
N6325 X12.855 Y24.082 Z-9.971
N6330 X12.802 Y24.151 Z-9.935
N6335 X12.753 Y24.214 Z-9.885
N6340 X12.709 Y24.271 Z-9.824
N6345 X12.672 Y24.32 Z-9.753
N6350 X12.642 Y24.359 Z-9.672
N6355 X12.62 Y24.387 Z-9.585
N6360 X12.606 Y24.405 Z-9.494
N6365 X12.602 Y24.41 Z-9.4
N6370 G0 Z5.
N6375 X14.742 Y4.278
N6380 Z-8.8
N6385 G1 Z-9.4 F1560.
N6390 X14.739 Y4.285 Z-9.494
N6395 X14.732 Y4.305 Z-9.585
N6400 X14.72 Y4.339 Z-9.672
N6405 X14.704 Y4.386 Z-9.753
N6410 X14.683 Y4.443 Z-9.824
N6415 X14.66 Y4.511 Z-9.885
N6420 X14.633 Y4.587 Z-9.935
N6425 X14.604 Y4.669 Z-9.971
N6430 X14.574 Y4.755 Z-9.993
N6435 X14.543 Y4.844 Z-10.
N6440 G3 X14.108 Y5.497 I-1.493 J-0.524
N6445 G1 X14.038 Y5.556
N6450 X13.9 Y5.685
N6455 X13.827 Y5.763
N6460 X13.383 Y6.293
N6465 X13.263 Y6.423
N6470 X13.01 Y6.675
N6475 X12.334 Y7.292
N6480 X11.666 Y7.918
N6485 X11.063 Y8.607
N6490 X10.55 Y9.365
N6495 X10.137 Y10.182
N6500 X9.816 Y11.039
N6505 X9.575 Y11.922
N6510 X9.399 Y12.821
N6515 X9.273 Y13.727
N6520 X9.186 Y14.639
N6525 X9.133 Y15.552
N6530 X9.159 Y16.467
N6535 X9.366 Y17.359
N6540 X9.775 Y18.178
N6545 X10.35 Y18.891
N6550 X10.468 Y19.
N6555 X10.656 Y19.203
N6560 X10.811 Y19.432
N6565 X10.93 Y19.682
N6570 X11.086 Y20.085
N6575 X11.168 Y20.293
N6580 X11.499 Y20.916
N6585 X12.008 Y21.867
N6590 G3 X11.864 Y22.583 I-0.539 J0.264
N6595 G1 X11.793 Y22.645 Z-9.993
N6600 X11.724 Y22.705 Z-9.971
N6605 X11.658 Y22.762 Z-9.935
N6610 X11.598 Y22.815 Z-9.885
N6615 X11.544 Y22.862 Z-9.824
N6620 X11.498 Y22.902 Z-9.753
N6625 X11.461 Y22.935 Z-9.672
N6630 X11.434 Y22.958 Z-9.585
N6635 X11.417 Y22.973 Z-9.494
N6640 X11.412 Y22.978 Z-9.4
N6645 G0 Z5.
N6650 X13.791 Y4.98
N6655 Z-8.8
N6660 G1 Z-9.4 F1560.
N6665 X13.79 Y4.987 Z-9.494
N6670 X13.787 Y5.009 Z-9.585
N6675 X13.781 Y5.044 Z-9.672
N6680 X13.773 Y5.093 Z-9.753
N6685 X13.763 Y5.153 Z-9.824
N6690 X13.752 Y5.224 Z-9.885
N6695 X13.739 Y5.303 Z-9.935
N6700 X13.726 Y5.389 Z-9.971
N6705 X13.711 Y5.479 Z-9.993
N6710 X13.696 Y5.572 Z-10.
N6715 G3 X13.383 Y6.293 I-1.563 J-0.25
N6720 G1 X13.276 Y6.421
N6725 X12.795 Y7.009
N6730 X12.653 Y7.183
N6735 X12.237 Y7.726
N6740 X12.03 Y8.092
N6745 X11.278 Y9.499
N6750 X11.168 Y9.707
N6755 X11.086 Y9.915
N6760 X10.925 Y10.33
N6765 X10.86 Y10.537
N6770 X10.545 Y11.575
N6775 X10.484 Y11.783
N6780 X10.365 Y12.198
N6785 X10.313 Y12.405
N6790 X10.256 Y12.821
N6795 X10.229 Y13.028
N6800 X10.106 Y14.274
N6805 X10.089 Y14.481
N6810 X10.059 Y14.896
N6815 Y15.104
N6820 X10.089 Y15.519
N6825 X10.106 Y15.726
N6830 X10.229 Y16.972
N6835 X10.256 Y17.179
N6840 X10.313 Y17.595
N6845 X10.367 Y17.811
N6850 X10.484 Y18.217
N6855 X10.575 Y18.524
N6860 X10.86 Y19.463
N6865 X10.925 Y19.67
N6870 X10.93 Y19.682
N6875 G0 Z5.
N6880 X31.758 Y25.722
N6885 Z-8.8
N6890 G1 Z-9.4 F1560.
N6895 X31.761 Y25.715 Z-9.494
N6900 X31.768 Y25.695 Z-9.585
N6905 X31.78 Y25.661 Z-9.672
N6910 X31.796 Y25.614 Z-9.753
N6915 X31.817 Y25.557 Z-9.824
N6920 X31.84 Y25.489 Z-9.885
N6925 X31.867 Y25.413 Z-9.935
N6930 X31.896 Y25.331 Z-9.971
N6935 X31.926 Y25.245 Z-9.993
N6940 X31.957 Y25.156 Z-10.
N6945 G3 X32.392 Y24.503 I1.493 J0.524
N6950 G1 X32.462 Y24.444
N6955 X32.6 Y24.315
N6960 X32.673 Y24.237
N6965 X32.94 Y23.919
N6970 X33.055 Y23.795
N6975 X33.16 Y23.688
N6980 X33.27 Y23.587
N6985 X33.393 Y23.485
N6990 X33.546 Y23.369
N6995 X34.299 Y22.847
N7000 X35.075 Y22.363
N7005 X35.801 Y21.805
N7010 X36.438 Y21.147
N7015 X36.968 Y20.401
N7020 X37.389 Y19.588
N7025 X37.712 Y18.732
N7030 X37.95 Y17.848
N7035 X38.122 Y16.949
N7040 X38.243 Y16.041
N7045 X38.327 Y15.13
N7050 X38.384 Y14.216
N7055 X38.416 Y13.301
N7060 X38.356 Y12.388
N7065 X38.112 Y11.505
N7070 X37.671 Y10.703
N7075 X37.063 Y10.019
N7080 X36.335 Y9.464
N7085 X35.53 Y9.028
N7090 X35.33 Y8.934
N7095 X35.077 Y8.788
N7100 X34.849 Y8.604
N7105 X34.654 Y8.386
N7110 X34.496 Y8.14
N7115 X34.47 Y8.092
N7120 X34.263 Y7.726
N7125 X33.847 Y7.183
N7130 X33.639 Y6.928
N7135 X33.532 Y6.798
N7140 G3 X33.534 Y6.067 I0.477 J-0.364
N7145 G1 X33.591 Y5.993 Z-9.993
N7150 X33.647 Y5.92 Z-9.971
N7155 X33.7 Y5.851 Z-9.935
N7160 X33.749 Y5.788 Z-9.885
N7165 X33.793 Y5.731 Z-9.824
N7170 X33.83 Y5.683 Z-9.753
N7175 X33.86 Y5.644 Z-9.672
N7180 X33.882 Y5.615 Z-9.585
N7185 X33.896 Y5.598 Z-9.494
N7190 X33.9 Y5.592 Z-9.4
N7195 G0 Z5.
N7200 X32.528 Y25.23
N7205 Z-8.8
N7210 G1 Z-9.4 F1560.
N7215 X32.529 Y25.223 Z-9.494
N7220 X32.533 Y25.201 Z-9.585
N7225 X32.539 Y25.166 Z-9.672
N7230 X32.547 Y25.117 Z-9.753
N7235 X32.557 Y25.057 Z-9.824
N7240 X32.568 Y24.986 Z-9.885
N7245 X32.581 Y24.907 Z-9.935
N7250 X32.595 Y24.821 Z-9.971
N7255 X32.61 Y24.731 Z-9.993
N7260 X32.625 Y24.638 Z-10.
N7265 G3 X32.94 Y23.919 I1.562 J0.255
N7270 G1 X33.224 Y23.579
N7275 X33.705 Y22.991
N7280 X33.847 Y22.817
N7285 X34.19 Y22.369
N7290 X34.782 Y21.67
N7295 X35.329 Y20.936
N7300 X35.824 Y20.166
N7305 X36.241 Y19.351
N7310 X36.577 Y18.5
N7315 X36.836 Y17.622
N7320 X37.031 Y16.727
N7325 X37.174 Y15.823
N7330 X37.274 Y14.913
N7335 X37.322 Y13.999
N7340 X37.227 Y13.089
N7345 X36.922 Y12.225
N7350 X36.427 Y11.456
N7355 X36. Y11.004
N7360 X35.83 Y10.798
N7365 X35.687 Y10.572
N7370 X35.575 Y10.33
N7375 X35.414 Y9.915
N7380 X35.332 Y9.707
N7385 X35.001 Y9.084
N7390 X34.496 Y8.14
N7395 G3 X34.64 Y7.424 I0.539 J-0.264
N7400 G1 X34.711 Y7.362 Z-9.993
N7405 X34.78 Y7.302 Z-9.971
N7410 X34.845 Y7.245 Z-9.935
N7415 X34.906 Y7.192 Z-9.885
N7420 X34.96 Y7.145 Z-9.824
N7425 X35.006 Y7.105 Z-9.753
N7430 X35.043 Y7.072 Z-9.672
N7435 X35.07 Y7.049 Z-9.585
N7440 X35.086 Y7.034 Z-9.494
N7445 X35.092 Y7.029 Z-9.4
N7450 G0 Z5.
N7455 X33.839 Y23.698
N7460 Z-8.8
N7465 G1 Z-9.4 F1560.
N7470 Y23.69 Z-9.494
N7475 X33.842 Y23.668 Z-9.585
N7480 X33.846 Y23.633 Z-9.672
N7485 X33.852 Y23.584 Z-9.753
N7490 X33.859 Y23.523 Z-9.824
N7495 X33.867 Y23.452 Z-9.885
N7500 X33.877 Y23.372 Z-9.935
N7505 X33.887 Y23.286 Z-9.971
N7510 X33.897 Y23.195 Z-9.993
N7515 X33.908 Y23.102 Z-10.
N7520 G3 X34.19 Y22.369 I1.572 J0.184
N7525 G1 X34.263 Y22.274
N7530 X34.47 Y21.908
N7535 X35.222 Y20.501
N7540 X35.332 Y20.293
N7545 X35.414 Y20.085
N7550 X35.575 Y19.67
N7555 X35.64 Y19.463
N7560 X35.955 Y18.425
N7565 X36.016 Y18.217
N7570 X36.135 Y17.802
N7575 X36.187 Y17.595
N7580 X36.244 Y17.179
N7585 X36.271 Y16.972
N7590 X36.394 Y15.726
N7595 X36.411 Y15.519
N7600 X36.441 Y15.104
N7605 Y14.896
N7610 X36.411 Y14.481
N7615 X36.394 Y14.274
N7620 X36.271 Y13.028
N7625 X36.244 Y12.821
N7630 X36.187 Y12.405
N7635 X36.133 Y12.189
N7640 X36.016 Y11.783
N7645 X35.925 Y11.476
N7650 X35.64 Y10.537
N7655 X35.575 Y10.33
N7660 X35.557 Y10.239
N7665 X35.554 Y10.146
N7670 X35.57 Y10.074 Z-9.995
N7675 X35.586 Y10.003 Z-9.982
N7680 X35.601 Y9.935 Z-9.959
N7685 X35.645 Y9.869 Z-9.921
N7690 X35.685 Y9.808 Z-9.871
N7695 X35.721 Y9.754 Z-9.812
N7700 X35.766 Y9.718 Z-9.741
N7705 X35.802 Y9.69 Z-9.663
N7710 X35.828 Y9.67 Z-9.579
N7715 X35.844 Y9.657 Z-9.491
N7720 X35.849 Y9.653 Z-9.4
N7725 G0 Z5.
N7730 X-0.47 Y-6.283
N7735 Z-11.4
N7740 G1 Z-12. F1560.
N7745 Z-14.
N7750 G3 X0. Y-3.017 I-14.839 J3.801
N7755 G1 Y-2.902
N7760 X-0.61 Y-2.22
N7765 X-1.069 Y-1.428
N7770 X-1.396 Y-0.573
N7775 X-1.619 Y0.315
N7780 X-1.764 Y1.219
N7785 X-1.857 Y2.13
N7790 X-1.914 Y3.043
N7795 X-1.948 Y3.958
N7800 X-1.969 Y4.873
N7805 X-1.982 Y5.789
N7810 X-1.989 Y6.704
N7815 X-1.994 Y7.62
N7820 X-1.996 Y8.535
N7825 X-1.999 Y10.366
N7830 X-2. Y16.774
N7835 Y28.217
N7840 X-1.814 Y29.113
N7845 X-1.343 Y29.898
N7850 X-0.682 Y30.531
N7855 X0.098 Y31.011
N7860 X0.946 Y31.355
N7865 X1.83 Y31.592
N7870 X2.733 Y31.747
N7875 X3.643 Y31.846
N7880 X4.556 Y31.907
N7885 X5.471 Y31.944
N7890 X6.386 Y31.967
N7895 X7.301 Y31.98
N7900 X8.216 Y31.988
N7905 X9.132 Y31.993
N7910 X10.047 Y31.996
N7915 X11.878 Y31.999
N7920 X14.624 Y32.
N7925 X44.833
N7930 X45.72 Y31.772
N7935 X46.487 Y31.272
N7940 X47.1 Y30.592
N7945 X47.561 Y29.801
N7950 X47.891 Y28.947
N7955 X48.115 Y28.06
N7960 X48.262 Y27.156
N7965 X48.355 Y26.246
N7970 X48.413 Y25.332
N7975 X48.448 Y24.417
N7980 X48.469 Y23.502
N7985 X48.482 Y22.587
N7990 X48.489 Y21.671
N7995 X48.494 Y20.756
N8000 X48.496 Y19.84
N8005 X48.499 Y18.01
N8010 X48.5 Y13.432
N8015 Y1.532
N8020 X48.244 Y0.653
N8025 X47.711 Y-0.091
N8030 X47.01 Y-0.68
N8035 X46.207 Y-1.12
N8040 X45.346 Y-1.431
N8045 X44.455 Y-1.642
N8050 X43.55 Y-1.779
N8055 X42.639 Y-1.866
N8060 X41.725 Y-1.919
N8065 X40.81 Y-1.952
N8070 X39.895 Y-1.971
N8075 X38.98 Y-1.983
N8080 X38.064 Y-1.99
N8085 X37.149 Y-1.994
N8090 X35.318 Y-1.998
N8095 X31.656 Y-2.
N8100 X11.517
N8105 X3.278
N8110 X2.379 Y-1.828
N8115 X1.514 Y-1.53
N8120 X0.784 Y-0.978
N8125 X0.216 Y-0.26
N8130 X-0.198 Y0.557
N8135 X-0.486 Y1.426
N8140 X-0.677 Y2.321
N8145 X-0.8 Y3.228
N8150 X-0.878 Y4.14
N8155 X-0.926 Y5.054
N8160 X-0.956 Y5.969
N8165 X-0.973 Y6.885
N8170 X-0.984 Y7.8
N8175 X-0.99 Y8.715
N8180 X-0.994 Y9.631
N8185 X-0.998 Y11.462
N8190 X-1. Y15.123
N8195 Y26.108
N8200 X-0.988 Y27.024
N8205 X-0.766 Y27.912
N8210 X-0.309 Y28.705
N8215 X0.33 Y29.361
N8220 X1.091 Y29.87
N8225 X1.926 Y30.244
N8230 X2.803 Y30.507
N8235 X3.701 Y30.686
N8240 X4.609 Y30.803
N8245 X5.521 Y30.878
N8250 X6.435 Y30.925
N8255 X7.35 Y30.954
N8260 X8.265 Y30.972
N8265 X9.181 Y30.983
N8270 X10.096 Y30.99
N8275 X11.011 Y30.994
N8280 X12.842 Y30.998
N8285 X16.504 Y31.
N8290 X43.051
N8295 X43.962 Y30.909
N8300 X44.813 Y30.57
N8305 X45.544 Y30.02
N8310 X46.13 Y29.316
N8315 X46.571 Y28.514
N8320 X46.888 Y27.655
N8325 X47.105 Y26.766
N8330 X47.25 Y25.862
N8335 X47.344 Y24.951
N8340 X47.404 Y24.038
N8345 X47.441 Y23.123
N8350 X47.464 Y22.208
N8355 X47.478 Y21.293
N8360 X47.487 Y20.377
N8365 X47.492 Y19.462
N8370 X47.495 Y18.547
N8375 X47.497 Y17.631
N8380 X47.499 Y14.885
N8385 X47.5 Y2.984
N8390 X47.288 Y2.094
N8395 X46.835 Y1.299
N8400 X46.198 Y0.641
N8405 X45.438 Y0.131
N8410 X44.603 Y-0.244
N8415 X43.726 Y-0.508
N8420 X42.828 Y-0.687
N8425 X41.92 Y-0.804
N8430 X41.008 Y-0.879
N8435 X40.094 Y-0.926
N8440 X39.179 Y-0.955
N8445 X38.263 Y-0.973
N8450 X37.348 Y-0.983
N8455 X36.433 Y-0.99
N8460 X35.517 Y-0.994
N8465 X33.686 Y-0.998
N8470 X30.025 Y-1.
N8475 X13.547
N8480 X5.308
N8485 X4.393 Y-0.984
N8490 X3.486 Y-0.86
N8495 X2.643 Y-0.504
N8500 X1.921 Y0.059
N8505 X1.345 Y0.771
N8510 X0.912 Y1.577
N8515 X0.602 Y2.438
N8520 X0.388 Y3.329
N8525 X0.246 Y4.233
N8530 X0.154 Y5.144
N8535 X0.095 Y6.057
N8540 X0.059 Y6.972
N8545 X0.036 Y7.887
N8550 X0.022 Y8.802
N8555 X0.013 Y9.718
N8560 X0.008 Y10.633
N8565 X0.005 Y11.549
N8570 X0.002 Y13.379
N8575 X0. Y17.956
N8580 Y24.364
N8585 X0.002 Y25.28
N8590 X0.083 Y26.192
N8595 X0.387 Y27.055
N8600 X0.899 Y27.814
N8605 X1.571 Y28.436
N8610 X2.35 Y28.916
N8615 X3.195 Y29.269
N8620 X4.076 Y29.518
N8625 X4.975 Y29.688
N8630 X5.884 Y29.801
N8635 X6.796 Y29.875
N8640 X7.711 Y29.922
N8645 X8.626 Y29.951
N8650 X9.541 Y29.97
N8655 X10.456 Y29.982
N8660 X11.371 Y29.989
N8665 X12.287 Y29.993
N8670 X13.202 Y29.996
N8675 X15.033 Y29.998
N8680 X20.526 Y30.
N8685 X41.58
N8690 X42.495 Y29.954
N8695 X43.375 Y29.702
N8700 X44.161 Y29.232
N8705 X44.813 Y28.59
N8710 X45.323 Y27.83
N8715 X45.702 Y26.996
N8720 X45.972 Y26.122
N8725 X46.158 Y25.225
N8730 X46.282 Y24.318
N8735 X46.362 Y23.406
N8740 X46.414 Y22.492
N8745 X46.447 Y21.578
N8750 X46.467 Y20.662
N8755 X46.48 Y19.747
N8760 X46.488 Y18.832
N8765 X46.492 Y17.916
N8770 X46.495 Y17.001
N8775 X46.498 Y15.17
N8780 X46.499 Y13.339
N8785 X46.5 Y5.1
N8790 X46.484 Y4.185
N8795 X46.281 Y3.292
N8800 X45.851 Y2.484
N8805 X45.238 Y1.805
N8810 X44.497 Y1.267
N8815 X43.675 Y0.864
N8820 X42.806 Y0.574
N8825 X41.913 Y0.374
N8830 X41.008 Y0.239
N8835 X40.097 Y0.151
N8840 X39.183 Y0.094
N8845 X38.268 Y0.059
N8850 X37.353 Y0.036
N8855 X36.438 Y0.022
N8860 X35.522 Y0.014
N8865 X34.607 Y0.008
N8870 X33.692 Y0.005
N8875 X31.861 Y0.002
N8880 X27.284 Y0.
N8885 X7.144
N8890 X6.229 Y0.001
N8895 X5.314 Y0.027
N8900 X4.417 Y0.208
N8905 X3.596 Y0.614
N8910 X2.897 Y1.205
N8915 X2.34 Y1.931
N8920 X1.918 Y2.744
N8925 X1.614 Y3.607
N8930 X1.402 Y4.498
N8935 X1.259 Y5.402
N8940 X1.165 Y6.313
N8945 X1.104 Y7.226
N8950 X1.065 Y8.141
N8955 X1.04 Y9.056
N8960 X1.025 Y9.971
N8965 X1.015 Y10.886
N8970 X1.009 Y11.802
N8975 X1.006 Y12.717
N8980 X1.002 Y14.548
N8985 X1. Y18.21
N8990 Y23.702
N8995 X1.023 Y24.618
N9000 X1.212 Y25.513
N9005 X1.615 Y26.335
N9010 X2.2 Y27.039
N9015 X2.921 Y27.603
N9020 X3.729 Y28.034
N9025 X4.589 Y28.348
N9030 X5.477 Y28.569
N9035 X6.38 Y28.719
N9040 X7.29 Y28.819
N9045 X8.203 Y28.885
N9050 X9.118 Y28.927
N9055 X10.033 Y28.954
N9060 X10.948 Y28.971
N9065 X11.863 Y28.982
N9070 X12.779 Y28.989
N9075 X13.694 Y28.993
N9080 X15.525 Y28.997
N9085 X18.271 Y28.999
N9090 X21.017 Y29.
N9095 X40.241
N9100 X41.156 Y28.972
N9105 X42.05 Y28.775
N9110 X42.868 Y28.364
N9115 X43.565 Y27.77
N9120 X44.123 Y27.044
N9125 X44.548 Y26.234
N9130 X44.858 Y25.372
N9135 X45.076 Y24.483
N9140 X45.225 Y23.58
N9145 X45.323 Y22.67
N9150 X45.388 Y21.757
N9155 X45.429 Y20.842
N9160 X45.456 Y19.927
N9165 X45.472 Y19.012
N9170 X45.483 Y18.096
N9175 X45.489 Y17.181
N9180 X45.493 Y16.266
N9185 X45.498 Y14.435
N9190 X45.5 Y10.773
N9195 Y6.196
N9200 X45.469 Y5.281
N9205 X45.262 Y4.389
N9210 X44.836 Y3.579
N9215 X44.231 Y2.893
N9220 X43.498 Y2.344
N9225 X42.682 Y1.928
N9230 X41.818 Y1.625
N9235 X40.928 Y1.413
N9240 X40.024 Y1.268
N9245 X39.114 Y1.172
N9250 X38.2 Y1.109
N9255 X37.286 Y1.069
N9260 X36.371 Y1.043
N9265 X35.455 Y1.027
N9270 X34.54 Y1.017
N9275 X33.625 Y1.01
N9280 X32.709 Y1.006
N9285 X30.878 Y1.002
N9290 X27.217 Y1.
N9295 X7.993
N9300 X7.077 Y1.004
N9305 X6.164 Y1.06
N9310 X5.282 Y1.305
N9315 X4.487 Y1.76
N9320 X3.818 Y2.385
N9325 X3.287 Y3.13
N9330 X2.887 Y3.954
N9335 X2.597 Y4.822
N9340 X2.395 Y5.715
N9345 X2.257 Y6.62
N9350 X2.165 Y7.531
N9355 X2.105 Y8.444
N9360 X2.067 Y9.359
N9365 X2.042 Y10.274
N9370 X2.026 Y11.189
N9375 X2.016 Y12.104
N9380 X2.01 Y13.02
N9385 X2.006 Y13.935
N9390 X2.002 Y15.766
N9395 X2. Y19.428
N9400 Y22.174
N9405 X2.006 Y23.089
N9410 X2.101 Y24.
N9415 X2.398 Y24.866
N9420 X2.892 Y25.636
N9425 X3.546 Y26.278
N9430 X4.309 Y26.782
N9435 X5.143 Y27.161
N9440 X6.016 Y27.435
N9445 X6.912 Y27.625
N9450 X7.818 Y27.755
N9455 X8.729 Y27.842
N9460 X9.643 Y27.898
N9465 X10.558 Y27.935
N9470 X11.473 Y27.959
N9475 X12.388 Y27.974
N9480 X13.303 Y27.984
N9485 X14.219 Y27.99
N9490 X15.134 Y27.994
N9495 X16.965 Y27.998
N9500 X20.627 Y28.
N9505 X20.996
N9510 X21.064 Y28.001
N9515 X21.132 Y28.005
N9520 X21.2 Y28.011
N9525 X21.38 Y28.031
N9530 X22.627 Y28.154
N9535 X23.25 Y28.198
N9540 X23.873 Y28.154
N9545 X24.788 Y28.112
N9550 X25.702 Y28.065
N9555 X26.617 Y28.038
N9560 X27.532 Y28.022
N9565 X28.448 Y28.013
N9570 X29.363 Y28.008
N9575 X30.279 Y28.005
N9580 X32.109 Y28.002
N9585 X36.687 Y28.
N9590 X38.517
N9595 X39.433 Y27.996
N9600 X40.346 Y27.926
N9605 X41.223 Y27.665
N9610 X42.012 Y27.2
N9615 X42.676 Y26.57
N9620 X43.203 Y25.822
N9625 X43.603 Y24.998
N9630 X43.893 Y24.13
N9635 X44.096 Y23.238
N9640 X44.236 Y22.333
N9645 X44.329 Y21.422
N9650 X44.39 Y20.509
N9655 X44.43 Y19.594
N9660 X44.456 Y18.679
N9665 X44.472 Y17.764
N9670 X44.482 Y16.849
N9675 X44.489 Y15.933
N9680 X44.493 Y15.018
N9685 X44.497 Y13.187
N9690 X44.499 Y10.441
N9695 X44.5 Y7.694
N9700 X44.492 Y6.779
N9705 X44.374 Y5.871
N9710 X44.047 Y5.016
N9715 X43.526 Y4.263
N9720 X42.853 Y3.642
N9725 X42.077 Y3.157
N9730 X41.236 Y2.795
N9735 X40.359 Y2.534
N9740 X39.462 Y2.353
N9745 X38.554 Y2.23
N9750 X37.643 Y2.148
N9755 X36.729 Y2.095
N9760 X35.814 Y2.06
N9765 X34.899 Y2.038
N9770 X33.984 Y2.024
N9775 X33.068 Y2.015
N9780 X32.153 Y2.009
N9785 X31.237 Y2.006
N9790 X29.407 Y2.002
N9795 X25.504 Y2.
N9800 X25.435 Y1.999
N9805 X25.367 Y1.995
N9810 X25.299 Y1.989
N9815 X25.12 Y1.969
N9820 X23.873 Y1.846
N9825 X23.25 Y1.802
N9830 X22.627 Y1.846
N9835 X21.712 Y1.889
N9840 X20.798 Y1.935
N9845 X19.883 Y1.962
N9850 X18.968 Y1.978
N9855 X18.052 Y1.987
N9860 X17.137 Y1.992
N9865 X16.221 Y1.995
N9870 X14.391 Y1.998
N9875 X8.898 Y2.
N9880 X7.983 Y2.009
N9885 X7.072 Y2.098
N9890 X6.201 Y2.381
N9895 X5.424 Y2.866
N9900 X4.774 Y3.51
N9905 X4.26 Y4.267
N9910 X3.872 Y5.097
N9915 X3.591 Y5.968
N9920 X3.393 Y6.862
N9925 X3.258 Y7.767
N9930 X3.167 Y8.678
N9935 X3.108 Y9.591
N9940 X3.069 Y10.506
N9945 X3.044 Y11.421
N9950 X3.028 Y12.336
N9955 X3.017 Y13.252
N9960 X3.011 Y14.167
N9965 X3.007 Y15.083
N9970 X3.003 Y16.913
N9975 X3.001 Y19.66
N9980 X3. Y20.575
N9985 X3.001 Y21.49
N9990 X3.027 Y22.406
N9995 X3.201 Y23.304
N10000 X3.58 Y24.137
N10005 X4.141 Y24.861
N10010 X4.839 Y25.453
N10015 X5.632 Y25.911
N10020 X6.482 Y26.252
N10025 X7.364 Y26.495
N10030 X8.264 Y26.665
N10035 X9.172 Y26.78
N10040 X10.084 Y26.857
N10045 X10.998 Y26.908
N10050 X11.913 Y26.941
N10055 X12.828 Y26.962
N10060 X13.743 Y26.976
N10065 X14.659 Y26.985
N10070 X15.574 Y26.99
N10075 X16.489 Y26.994
N10080 X17.38 Y26.996
N10085 X17.61 Y27.011
N10090 X17.836 Y27.053
N10095 X18.055 Y27.122
N10100 X18.471 Y27.283
N10105 X18.657 Y27.35
N10110 X19.925 Y27.735
N10115 X20.133 Y27.795
N10120 X20.549 Y27.914
N10125 X20.757 Y27.951
N10130 X21.172 Y28.008
N10135 X21.2 Y28.011
N10140 X21.209 Y28.013
N10145 G2 X21.661 Y28.134 I1.606 J-5.123
N10150 G1 X21.71 Y28.142
N10155 X21.758 Y28.147
N10160 X21.968 Y28.158
N10165 X23.094 Y28.218
N10170 X23.309 Y28.229
N10175 X23.358 Y28.23
N10180 X23.407 Y28.226
N10185 G2 X23.87 Y28.154 I-0.592 J-5.336
N10190 G1 X23.873
N10195 X25.12 Y28.031
N10200 X25.328 Y28.008
N10205 X25.743 Y27.951
N10210 X25.951 Y27.914
N10215 X26.471 Y27.765
N10220 X26.575 Y27.735
N10225 X27.159 Y27.558
N10230 X27.541 Y27.463
N10235 X27.881 Y27.384
N10240 X28.328 Y27.3
N10245 X28.944 Y27.212
N10250 X29.855 Y27.123
N10255 X30.769 Y27.072
N10260 X31.684 Y27.042
N10265 X32.599 Y27.025
N10270 X33.514 Y27.015
N10275 X34.43 Y27.009
N10280 X35.345 Y27.005
N10285 X38.091 Y27.
N10290 X39.006 Y26.96
N10295 X39.899 Y26.761
N10300 X40.724 Y26.363
N10305 X41.432 Y25.783
N10310 X42.007 Y25.071
N10315 X42.451 Y24.27
N10320 X42.78 Y23.416
N10325 X43.016 Y22.531
N10330 X43.179 Y21.631
N10335 X43.29 Y20.722
N10340 X43.364 Y19.81
N10345 X43.413 Y18.895
N10350 X43.444 Y17.981
N10355 X43.464 Y17.065
N10360 X43.477 Y16.15
N10365 X43.486 Y15.235
N10370 X43.491 Y14.319
N10375 X43.494 Y13.404
N10380 X43.498 Y11.573
N10385 X43.499 Y8.827
N10390 X43.49 Y7.911
N10395 X43.38 Y7.003
N10400 X43.074 Y6.14
N10405 X42.571 Y5.375
N10410 X41.913 Y4.739
N10415 X41.148 Y4.236
N10420 X40.314 Y3.857
N10425 X39.441 Y3.582
N10430 X38.547 Y3.388
N10435 X37.641 Y3.255
N10440 X36.73 Y3.166
N10445 X35.816 Y3.107
N10450 X34.902 Y3.069
N10455 X33.987 Y3.044
N10460 X33.071 Y3.028
N10465 X32.156 Y3.018
N10470 X31.241 Y3.011
N10475 X30.325 Y3.007
N10480 X29.121 Y3.004
N10485 X28.891 Y2.989
N10490 X28.664 Y2.947
N10495 X28.445 Y2.878
N10500 X28.029 Y2.717
N10505 X27.843 Y2.65
N10510 X26.575 Y2.265
N10515 X26.367 Y2.205
N10520 X25.951 Y2.086
N10525 X25.743 Y2.049
N10530 X25.328 Y1.992
N10535 X25.299 Y1.989
N10540 X25.291 Y1.987
N10545 G2 X24.838 Y1.866 I-1.606 J5.121
N10550 G1 X24.79 Y1.858
N10555 X24.741 Y1.853
N10560 X24.531 Y1.842
N10565 X23.406 Y1.782
N10570 X23.191 Y1.771
N10575 X23.142 Y1.77
N10580 X23.093 Y1.774
N10585 G2 X22.63 Y1.846 I0.592 J5.334
N10590 G1 X22.627
N10595 X21.38 Y1.969
N10600 X21.172 Y1.992
N10605 X20.757 Y2.049
N10610 X20.549 Y2.086
N10615 X20.029 Y2.235
N10620 X19.925 Y2.265
N10625 X19.341 Y2.442
N10630 X18.959 Y2.537
N10635 X18.619 Y2.616
N10640 X18.172 Y2.7
N10645 X17.556 Y2.788
N10650 X16.645 Y2.877
N10655 X15.731 Y2.928
N10660 X14.816 Y2.958
N10665 X13.901 Y2.975
N10670 X12.986 Y2.985
N10675 X12.07 Y2.991
N10680 X11.155 Y2.995
N10685 X10.239 Y2.997
N10690 X9.324 Y3.001
N10695 X8.41 Y3.055
N10700 X7.522 Y3.275
N10705 X6.708 Y3.695
N10710 X6.013 Y4.29
N10715 X5.451 Y5.013
N10720 X5.018 Y5.82
N10725 X4.699 Y6.677
N10730 X4.47 Y7.564
N10735 X4.312 Y8.465
N10740 X4.204 Y9.375
N10745 X4.133 Y10.287
N10750 X4.085 Y11.201
N10755 X4.055 Y12.116
N10760 X4.035 Y13.031
N10765 X4.022 Y13.947
N10770 X4.014 Y14.862
N10775 X4.009 Y15.778
N10780 X4.006 Y16.693
N10785 X4.002 Y18.524
N10790 X4.001 Y20.355
N10795 X4.026 Y21.27
N10800 X4.184 Y22.172
N10805 X4.539 Y23.015
N10810 X5.081 Y23.753
N10815 X5.765 Y24.361
N10820 X6.547 Y24.837
N10825 X7.39 Y25.193
N10830 X8.269 Y25.452
N10835 X9.166 Y25.633
N10840 X10.073 Y25.757
N10845 X10.984 Y25.841
N10850 X11.898 Y25.897
N10855 X12.813 Y25.933
N10860 X13.728 Y25.957
N10865 X14.643 Y25.973
N10870 X15.459 Y25.981
N10875 X15.762 Y26.01
N10880 X16.056 Y26.088
N10885 X16.334 Y26.214
N10890 X16.393 Y26.248
N10895 X17.772 Y26.984
N10900 X17.848 Y27.024
N10905 X18.055 Y27.122
N10910 X18.072 Y27.136 Z-13.995
N10915 X18.083 Y27.155 Z-13.991
N10920 G2 X18.433 Y27.981 Z-13.8 I4.602 J-1.467
N10925 X20.85 Y30.157 I4.252 J-2.292
N10930 G1 X20.915 Y30.179
N10935 X20.982 Y30.194
N10940 X21.05 Y30.201
N10945 X23.881 Y30.337
N10950 X23.95 Y30.336
N10955 X24.018 Y30.328
N10960 X24.084 Y30.312
N10965 G2 X26.7 Y28.375 I-1.399 J-4.623
N10970 X27.126 Y27.589 Z-13.99 I-4.015 J-2.686
N10975 G1 X27.139 Y27.57 Z-13.995
N10980 X27.159 Y27.558 Z-14.
N10985 X27.843 Y27.35
N10990 X28.029 Y27.283
N10995 X28.445 Y27.122
N11000 X28.652 Y27.024
N11005 X28.86 Y26.914
N11010 X29.053 Y26.823
N11015 X29.218 Y26.751
N11020 X29.406 Y26.678
N11025 X29.635 Y26.6
N11030 X29.924 Y26.516
N11035 X30.272 Y26.431
N11040 X30.728 Y26.341
N11045 X31.333 Y26.248
N11050 X32.215 Y26.151
N11055 X33.129 Y26.092
N11060 X34.044 Y26.056
N11065 X34.959 Y26.034
N11070 X35.874 Y26.021
N11075 X36.789 Y26.011
N11080 X37.705 Y25.986
N11085 X38.608 Y25.839
N11090 X39.457 Y25.496
N11095 X40.203 Y24.966
N11100 X40.82 Y24.29
N11105 X41.305 Y23.513
N11110 X41.67 Y22.674
N11115 X41.936 Y21.798
N11120 X42.122 Y20.902
N11125 X42.251 Y19.995
N11130 X42.337 Y19.084
N11135 X42.394 Y18.17
N11140 X42.432 Y17.256
N11145 X42.456 Y16.34
N11150 X42.472 Y15.425
N11155 X42.482 Y14.51
N11160 X42.489 Y13.594
N11165 X42.493 Y12.679
N11170 X42.497 Y10.848
N11175 X42.498 Y9.933
N11180 X42.488 Y9.017
N11185 X42.387 Y8.108
N11190 X42.096 Y7.24
N11195 X41.606 Y6.466
N11200 X40.961 Y5.817
N11205 X40.205 Y5.301
N11210 X39.378 Y4.908
N11215 X38.508 Y4.621
N11220 X37.616 Y4.418
N11225 X36.711 Y4.277
N11230 X35.801 Y4.182
N11235 X34.888 Y4.118
N11240 X33.973 Y4.076
N11245 X33.058 Y4.049
N11250 X32.143 Y4.031
N11255 X31.228 Y4.02
N11260 X31.044 Y4.018
N11265 X30.74 Y3.99
N11270 X30.444 Y3.912
N11275 X30.166 Y3.785
N11280 X30.107 Y3.752
N11285 X28.728 Y3.016
N11290 X28.652 Y2.976
N11295 X28.445 Y2.878
N11300 X28.428 Y2.864 Z-13.995
N11305 X28.417 Y2.845 Z-13.991
N11310 G2 X28.067 Y2.019 Z-13.8 I-4.602 J1.467
N11315 X25.65 Y-0.157 I-4.252 J2.292
N11320 G1 X25.585 Y-0.179
N11325 X25.518 Y-0.194
N11330 X25.45 Y-0.201
N11335 X22.619 Y-0.337
N11340 X22.55 Y-0.336
N11345 X22.482 Y-0.328
N11350 X22.416 Y-0.312
N11355 G2 X19.8 Y1.625 I1.399 J4.623
N11360 X19.374 Y2.411 Z-13.99 I4.014 J2.686
N11365 G1 X19.361 Y2.43 Z-13.995
N11370 X19.341 Y2.442 Z-14.
N11375 X18.657 Y2.65
N11380 X18.471 Y2.717
N11385 X18.055 Y2.878
N11390 X17.848 Y2.976
N11395 X17.64 Y3.086
N11400 X17.447 Y3.177
N11405 X17.282 Y3.249
N11410 X17.094 Y3.322
N11415 X16.865 Y3.4
N11420 X16.576 Y3.484
N11425 X16.228 Y3.569
N11430 X15.772 Y3.659
N11435 X15.167 Y3.752
N11440 X14.285 Y3.849
N11445 X13.371 Y3.908
N11450 X12.456 Y3.944
N11455 X11.541 Y3.966
N11460 X10.626 Y3.982
N11465 X9.711 Y4.019
N11470 X8.812 Y4.187
N11475 X7.971 Y4.551
N11480 X7.238 Y5.098
N11485 X6.634 Y5.786
N11490 X6.16 Y6.57
N11495 X5.805 Y7.413
N11500 X5.548 Y8.292
N11505 X5.367 Y9.189
N11510 X5.242 Y10.096
N11515 X5.158 Y11.008
N11520 X5.103 Y11.921
N11525 X5.066 Y12.836
N11530 X5.043 Y13.751
N11535 X5.027 Y14.667
N11540 X5.017 Y15.582
N11545 X5.011 Y16.497
N11550 X5.007 Y17.413
N11555 X5.004 Y18.328
N11560 X5.003 Y19.244
N11565 X5.026 Y20.159
N11570 X5.169 Y21.063
N11575 X5.507 Y21.914
N11580 X6.033 Y22.663
N11585 X6.705 Y23.284
N11590 X7.478 Y23.775
N11595 X8.315 Y24.145
N11600 X9.19 Y24.415
N11605 X10.085 Y24.606
N11610 X10.991 Y24.738
N11615 X11.902 Y24.828
N11620 X12.816 Y24.887
N11625 X14.051 Y24.94
N11630 X14.344 Y24.977
N11635 X14.627 Y25.06
N11640 X14.894 Y25.187
N11645 X15.136 Y25.355
N11650 X15.354 Y25.534
N11655 X15.562 Y25.696
N11660 X15.978 Y26.013
N11665 X16.185 Y26.131
N11670 X16.334 Y26.214
N11675 X16.35 Y26.229 Z-13.995
N11680 X16.359 Y26.249 Z-13.991
N11685 G2 X16.632 Y27.104 Z-13.8 I6.344 J-1.557
N11690 X18.844 Y29.963 I6.071 J-2.412
N11695 X19.165 Y30.078 I0.354 J-0.484
N11700 G1 X25.622 Y30.437
N11705 G2 X25.954 Y30.358 I0.033 J-0.599
N11710 X28.467 Y27.767 I-3.251 J-5.666
N11715 X28.836 Y26.943 Z-13.992 I-5.764 J-3.075
N11720 G1 X28.845 Y26.926 Z-13.996
N11725 X28.86 Y26.914 Z-14.
N11730 X30.107 Y26.248
N11735 X30.362 Y26.105
N11740 X30.522 Y26.013
N11745 X30.595 Y25.971
N11750 X30.757 Y25.891
N11755 X30.929 Y25.816
N11760 X31.142 Y25.733
N11765 X31.409 Y25.642
N11770 X31.707 Y25.555
N11775 X32.095 Y25.459
N11780 X32.57 Y25.364
N11785 X33.212 Y25.265
N11790 X34.122 Y25.164
N11795 X35.035 Y25.102
N11800 X35.949 Y25.059
N11805 X36.863 Y24.998
N11810 X37.757 Y24.805
N11815 X38.586 Y24.415
N11820 X39.307 Y23.851
N11825 X39.899 Y23.153
N11830 X40.362 Y22.364
N11835 X40.71 Y21.517
N11840 X40.961 Y20.637
N11845 X41.138 Y19.738
N11850 X41.26 Y18.831
N11855 X41.342 Y17.919
N11860 X41.397 Y17.006
N11865 X41.433 Y16.091
N11870 X41.457 Y15.176
N11875 X41.472 Y14.26
N11880 X41.482 Y13.345
N11885 X41.489 Y12.43
N11890 X41.493 Y11.514
N11895 Y10.599
N11900 X41.464 Y9.684
N11905 X41.29 Y8.785
N11910 X40.915 Y7.95
N11915 X40.362 Y7.221
N11920 X39.67 Y6.621
N11925 X38.884 Y6.152
N11930 X38.039 Y5.8
N11935 X37.16 Y5.545
N11940 X36.262 Y5.366
N11945 X35.355 Y5.243
N11950 X34.443 Y5.16
N11955 X33.53 Y5.105
N11960 X32.615 Y5.068
N11965 X32.437 Y5.059
N11970 X32.147 Y5.022
N11975 X31.867 Y4.938
N11980 X31.604 Y4.812
N11985 X31.364 Y4.645
N11990 X31.146 Y4.466
N11995 X30.938 Y4.304
N12000 X30.522 Y3.987
N12005 X30.315 Y3.869
N12010 X30.166 Y3.785
N12015 X30.15 Y3.771 Z-13.995
N12020 X30.141 Y3.751 Z-13.991
N12025 G2 X29.867 Y2.896 Z-13.8 I-6.344 J1.557
N12030 X27.656 Y0.037 I-6.071 J2.412
N12035 X27.334 Y-0.078 I-0.354 J0.484
N12040 G1 X20.878 Y-0.437
N12045 G2 X20.546 Y-0.358 I-0.033 J0.599
N12050 X18.033 Y2.233 I3.251 J5.666
N12055 X17.664 Y3.057 Z-13.992 I5.763 J3.075
N12060 G1 X17.655 Y3.074 Z-13.996
N12065 X17.64 Y3.086 Z-14.
N12070 X16.393 Y3.752
N12075 X16.138 Y3.895
N12080 X15.978 Y3.987
N12085 X15.905 Y4.029
N12090 X15.743 Y4.109
N12095 X15.571 Y4.184
N12100 X15.358 Y4.267
N12105 X15.091 Y4.358
N12110 X14.793 Y4.445
N12115 X14.405 Y4.541
N12120 X13.929 Y4.636
N12125 X13.282 Y4.736
N12130 X12.372 Y4.838
N12135 X11.459 Y4.905
N12140 X10.547 Y4.989
N12145 X9.659 Y5.21
N12150 X8.842 Y5.622
N12155 X8.135 Y6.203
N12160 X7.556 Y6.913
N12165 X7.105 Y7.709
N12170 X6.768 Y8.56
N12175 X6.523 Y9.443
N12180 X6.352 Y10.342
N12185 X6.234 Y11.25
N12190 X6.154 Y12.162
N12195 X6.1 Y13.075
N12200 X6.065 Y13.99
N12205 X6.042 Y14.905
N12210 X6.027 Y15.821
N12215 X6.017 Y16.736
N12220 X6.011 Y17.651
N12225 X6.013 Y18.567
N12230 X6.066 Y19.481
N12235 X6.281 Y20.37
N12240 X6.695 Y21.187
N12245 X7.279 Y21.892
N12250 X7.992 Y22.467
N12255 X8.791 Y22.913
N12260 X9.644 Y23.245
N12265 X10.527 Y23.485
N12270 X11.427 Y23.654
N12275 X12.335 Y23.77
N12280 X12.807 Y23.818
N12285 X13.107 Y23.873
N12290 X13.394 Y23.976
N12295 X13.661 Y24.125
N12300 X13.9 Y24.315
N12305 X14.038 Y24.444
N12310 X14.534 Y24.859
N12315 X15.116 Y25.339
N12320 X15.136 Y25.355
N12325 X15.147 Y25.368 Z-13.996
N12330 X15.154 Y25.385 Z-13.993
N12335 G2 X15.402 Y26.256 Z-13.8 I7.764 J-1.739
N12340 X18.088 Y29.968 I7.515 J-2.611
N12345 X18.427 Y30.091 I0.364 J-0.477
N12350 G1 X26.843 Y30.45
N12355 G2 X27.191 Y30.356 I0.026 J-0.599
N12360 X30.182 Y26.889 I-4.274 J-6.711
N12365 X30.505 Y26.039 Z-13.993 I-7.265 J-3.244
N12370 G1 X30.512 Y26.025 Z-13.997
N12375 X30.522 Y26.013 Z-14.
N12380 X30.947 Y25.69
N12385 X31.146 Y25.534
N12390 X31.288 Y25.417
N12395 X31.421 Y25.319
N12400 X31.544 Y25.233
N12405 X31.671 Y25.154
N12410 X31.819 Y25.072
N12415 X31.981 Y24.99
N12420 X32.182 Y24.899
N12425 X32.432 Y24.799
N12430 X32.692 Y24.708
N12435 X33.024 Y24.608
N12440 X33.426 Y24.506
N12445 X33.953 Y24.396
N12450 X34.856 Y24.247
N12455 X35.763 Y24.123
N12460 X36.653 Y23.911
N12465 X37.485 Y23.528
N12470 X38.214 Y22.974
N12475 X38.817 Y22.286
N12480 X39.294 Y21.505
N12485 X39.655 Y20.663
N12490 X39.919 Y19.787
N12495 X40.107 Y18.891
N12500 X40.238 Y17.985
N12505 X40.326 Y17.074
N12510 X40.386 Y16.16
N12515 X40.426 Y15.246
N12520 X40.452 Y14.331
N12525 X40.469 Y13.415
N12530 X40.48 Y12.5
N12535 X40.484 Y11.585
N12540 X40.449 Y10.67
N12545 X40.267 Y9.773
N12550 X39.886 Y8.94
N12555 X39.327 Y8.216
N12560 X38.632 Y7.62
N12565 X37.844 Y7.154
N12570 X36.998 Y6.804
N12575 X36.118 Y6.55
N12580 X35.221 Y6.371
N12585 X34.314 Y6.247
N12590 X33.701 Y6.185
N12595 X33.399 Y6.13
N12600 X33.11 Y6.026
N12605 X32.841 Y5.876
N12610 X32.6 Y5.685
N12615 X32.462 Y5.556
N12620 X31.966 Y5.141
N12625 X31.384 Y4.661
N12630 X31.364 Y4.645
N12635 X31.353 Y4.632 Z-13.996
N12640 X31.346 Y4.615 Z-13.993
N12645 G2 X31.098 Y3.744 Z-13.8 I-7.764 J1.739
N12650 X28.412 Y0.032 I-7.515 J2.611
N12655 X28.074 Y-0.091 I-0.364 J0.477
N12660 G1 X19.657 Y-0.45
N12665 G2 X19.309 Y-0.356 I-0.026 J0.599
N12670 X16.318 Y3.111 I4.274 J6.711
N12675 X15.995 Y3.961 Z-13.993 I7.265 J3.244
N12680 G1 X15.988 Y3.975 Z-13.997
N12685 X15.978 Y3.987 Z-14.
N12690 X15.553 Y4.31
N12695 X15.354 Y4.466
N12700 X15.212 Y4.583
N12705 X15.079 Y4.681
N12710 X14.956 Y4.767
N12715 X14.829 Y4.846
N12720 X14.681 Y4.929
N12725 X14.519 Y5.01
N12730 X14.317 Y5.101
N12735 X14.067 Y5.201
N12740 X13.798 Y5.295
N12745 X13.453 Y5.399
N12750 X12.94 Y5.53
N12755 X12.044 Y5.718
N12760 X11.152 Y5.92
N12765 X10.301 Y6.26
N12770 X9.539 Y6.766
N12775 X8.892 Y7.414
N12780 X8.371 Y8.167
N12785 X7.97 Y8.99
N12790 X7.673 Y9.855
N12795 X7.459 Y10.745
N12800 X7.309 Y11.649
N12805 X7.206 Y12.558
N12810 X7.136 Y13.471
N12815 X7.089 Y14.385
N12820 X7.058 Y15.3
N12825 X7.038 Y16.215
N12830 X7.026 Y17.131
N12835 X7.037 Y18.046
N12840 X7.166 Y18.952
N12845 X7.49 Y19.808
N12850 X7.998 Y20.57
N12855 X8.656 Y21.206
N12860 X9.42 Y21.711
N12865 X10.25 Y22.095
N12870 X11.121 Y22.378
N12875 X12.011 Y22.592
N12880 X12.054 Y22.604
N12885 X12.314 Y22.7
N12890 X12.558 Y22.834
N12895 X12.778 Y23.004
N12900 X12.97 Y23.205
N12905 X13.306 Y23.614
N12910 X13.692 Y24.076
N12915 X13.827 Y24.237
N12920 X13.9 Y24.315
N12925 G3 X13.943 Y25.044 I-0.454 J0.393
N12930 G1 X13.89 Y25.122 Z-13.993
N12935 X13.839 Y25.198 Z-13.971
N12940 X13.79 Y25.27 Z-13.935
N12945 X13.745 Y25.336 Z-13.885
N12950 X13.705 Y25.395 Z-13.824
N12955 X13.671 Y25.446 Z-13.753
N12960 X13.643 Y25.487 Z-13.672
N12965 X13.623 Y25.517 Z-13.585
N12970 X13.611 Y25.535 Z-13.494
N12975 X13.607 Y25.541 Z-13.4
N12980 G0 Z5.
N12985 X30.642 Y26.63
N12990 Z-12.8
N12995 G1 Z-13.4 F1560.
N13000 X30.645 Y26.623 Z-13.494
N13005 X30.652 Y26.603 Z-13.585
N13010 X30.664 Y26.569 Z-13.672
N13015 X30.681 Y26.522 Z-13.753
N13020 X30.702 Y26.465 Z-13.824
N13025 X30.726 Y26.398 Z-13.885
N13030 X30.754 Y26.322 Z-13.935
N13035 X30.783 Y26.24 Z-13.971
N13040 X30.814 Y26.154 Z-13.993
N13045 X30.846 Y26.066 Z-14.
N13050 G3 X31.288 Y25.417 I1.488 J0.538
N13055 G1 X31.769 Y25.022
N13060 X31.977 Y24.851
N13065 X32.392 Y24.503
N13070 X32.518 Y24.408
N13075 X32.641 Y24.322
N13080 X32.768 Y24.241
N13085 X32.925 Y24.152
N13090 X33.12 Y24.051
N13095 X33.345 Y23.947
N13100 X33.621 Y23.834
N13105 X34.482 Y23.523
N13110 X35.354 Y23.247
N13115 X36.19 Y22.873
N13120 X36.942 Y22.351
N13125 X37.584 Y21.698
N13130 X38.104 Y20.944
N13135 X38.507 Y20.122
N13140 X38.807 Y19.258
N13145 X39.025 Y18.369
N13150 X39.178 Y17.466
N13155 X39.285 Y16.557
N13160 X39.357 Y15.644
N13165 X39.406 Y14.73
N13170 X39.438 Y13.815
N13175 X39.458 Y12.9
N13180 X39.453 Y11.985
N13185 X39.332 Y11.077
N13190 X39.017 Y10.218
N13195 X38.514 Y9.453
N13200 X37.859 Y8.813
N13205 X37.098 Y8.304
N13210 X36.269 Y7.917
N13215 X35.399 Y7.631
N13220 X34.509 Y7.415
N13225 X34.451 Y7.399
N13230 X34.189 Y7.303
N13235 X33.945 Y7.168
N13240 X33.725 Y6.999
N13245 X33.532 Y6.798
N13250 X33.194 Y6.386
N13255 X32.808 Y5.924
N13260 X32.673 Y5.763
N13265 X32.6 Y5.685
N13270 G3 X32.557 Y4.956 I0.454 J-0.393
N13275 G1 X32.61 Y4.878 Z-13.993
N13280 X32.661 Y4.802 Z-13.971
N13285 X32.71 Y4.73 Z-13.935
N13290 X32.755 Y4.664 Z-13.885
N13295 X32.795 Y4.605 Z-13.824
N13300 X32.829 Y4.554 Z-13.753
N13305 X32.857 Y4.513 Z-13.672
N13310 X32.877 Y4.483 Z-13.585
N13315 X32.889 Y4.465 Z-13.494
N13320 X32.893 Y4.459 Z-13.4
N13325 G0 Z5.
N13330 X15.858 Y3.37
N13335 Z-12.8
N13340 G1 Z-13.4 F1560.
N13345 X15.855 Y3.377 Z-13.494
N13350 X15.848 Y3.397 Z-13.585
N13355 X15.836 Y3.431 Z-13.672
N13360 X15.819 Y3.478 Z-13.753
N13365 X15.798 Y3.535 Z-13.824
N13370 X15.774 Y3.602 Z-13.885
N13375 X15.746 Y3.678 Z-13.935
N13380 X15.717 Y3.76 Z-13.971
N13385 X15.686 Y3.846 Z-13.993
N13390 X15.654 Y3.934 Z-14.
N13395 G3 X15.212 Y4.583 I-1.488 J-0.538
N13400 G1 X14.731 Y4.978
N13405 X14.523 Y5.149
N13410 X14.108 Y5.497
N13415 X13.974 Y5.598
N13420 X13.852 Y5.684
N13425 X13.703 Y5.779
N13430 X13.505 Y5.894
N13435 X13.248 Y6.028
N13440 X12.419 Y6.417
N13445 X11.591 Y6.808
N13450 X10.823 Y7.306
N13455 X10.151 Y7.928
N13460 X9.593 Y8.653
N13465 X9.15 Y9.454
N13470 X8.812 Y10.305
N13475 X8.564 Y11.186
N13480 X8.386 Y12.084
N13485 X8.261 Y12.991
N13490 X8.175 Y13.902
N13495 X8.116 Y14.816
N13500 X8.077 Y15.73
N13505 X8.057 Y16.646
N13510 X8.117 Y17.559
N13515 X8.352 Y18.444
N13520 X8.782 Y19.252
N13525 X9.381 Y19.944
N13530 X10.104 Y20.507
N13535 X10.905 Y20.948
N13540 X11.166 Y21.07
N13545 X11.422 Y21.215
N13550 X11.652 Y21.4
N13555 X11.848 Y21.619
N13560 X12.008 Y21.867
N13565 X12.03 Y21.908
N13570 X12.237 Y22.274
N13575 X12.653 Y22.817
N13580 X12.861 Y23.072
N13585 X12.97 Y23.205
N13590 G3 X12.968 Y23.935 I-0.477 J0.364
N13595 G1 X12.911 Y24.009 Z-13.993
N13600 X12.855 Y24.082 Z-13.971
N13605 X12.802 Y24.151 Z-13.935
N13610 X12.753 Y24.214 Z-13.885
N13615 X12.709 Y24.271 Z-13.824
N13620 X12.672 Y24.32 Z-13.753
N13625 X12.642 Y24.359 Z-13.672
N13630 X12.62 Y24.387 Z-13.585
N13635 X12.606 Y24.405 Z-13.494
N13640 X12.602 Y24.41 Z-13.4
N13645 G0 Z5.
N13650 X14.742 Y4.278
N13655 Z-12.8
N13660 G1 Z-13.4 F1560.
N13665 X14.739 Y4.285 Z-13.494
N13670 X14.732 Y4.305 Z-13.585
N13675 X14.72 Y4.339 Z-13.672
N13680 X14.704 Y4.386 Z-13.753
N13685 X14.683 Y4.443 Z-13.824
N13690 X14.66 Y4.511 Z-13.885
N13695 X14.633 Y4.587 Z-13.935
N13700 X14.604 Y4.669 Z-13.971
N13705 X14.574 Y4.755 Z-13.993
N13710 X14.543 Y4.844 Z-14.
N13715 G3 X14.108 Y5.497 I-1.493 J-0.524
N13720 G1 X14.038 Y5.556
N13725 X13.9 Y5.685
N13730 X13.827 Y5.763
N13735 X13.383 Y6.293
N13740 X13.263 Y6.423
N13745 X13.01 Y6.675
N13750 X12.334 Y7.292
N13755 X11.666 Y7.918
N13760 X11.063 Y8.607
N13765 X10.55 Y9.365
N13770 X10.137 Y10.182
N13775 X9.816 Y11.039
N13780 X9.575 Y11.922
N13785 X9.399 Y12.821
N13790 X9.273 Y13.727
N13795 X9.186 Y14.639
N13800 X9.133 Y15.552
N13805 X9.159 Y16.467
N13810 X9.366 Y17.359
N13815 X9.775 Y18.178
N13820 X10.35 Y18.891
N13825 X10.468 Y19.
N13830 X10.656 Y19.203
N13835 X10.811 Y19.432
N13840 X10.93 Y19.682
N13845 X11.086 Y20.085
N13850 X11.168 Y20.293
N13855 X11.499 Y20.916
N13860 X12.008 Y21.867
N13865 G3 X11.864 Y22.583 I-0.539 J0.264
N13870 G1 X11.793 Y22.645 Z-13.993
N13875 X11.724 Y22.705 Z-13.971
N13880 X11.658 Y22.762 Z-13.935
N13885 X11.598 Y22.815 Z-13.885
N13890 X11.544 Y22.862 Z-13.824
N13895 X11.498 Y22.902 Z-13.753
N13900 X11.461 Y22.935 Z-13.672
N13905 X11.434 Y22.958 Z-13.585
N13910 X11.417 Y22.973 Z-13.494
N13915 X11.412 Y22.978 Z-13.4
N13920 G0 Z5.
N13925 X13.791 Y4.98
N13930 Z-12.8
N13935 G1 Z-13.4 F1560.
N13940 X13.79 Y4.987 Z-13.494
N13945 X13.787 Y5.009 Z-13.585
N13950 X13.781 Y5.044 Z-13.672
N13955 X13.773 Y5.093 Z-13.753
N13960 X13.763 Y5.153 Z-13.824
N13965 X13.752 Y5.224 Z-13.885
N13970 X13.739 Y5.303 Z-13.935
N13975 X13.726 Y5.389 Z-13.971
N13980 X13.711 Y5.479 Z-13.993
N13985 X13.696 Y5.572 Z-14.
N13990 G3 X13.383 Y6.293 I-1.563 J-0.25
N13995 G1 X13.276 Y6.421
N14000 X12.795 Y7.009
N14005 X12.653 Y7.183
N14010 X12.237 Y7.726
N14015 X12.03 Y8.092
N14020 X11.278 Y9.499
N14025 X11.168 Y9.707
N14030 X11.086 Y9.915
N14035 X10.925 Y10.33
N14040 X10.86 Y10.537
N14045 X10.545 Y11.575
N14050 X10.484 Y11.783
N14055 X10.365 Y12.198
N14060 X10.313 Y12.405
N14065 X10.256 Y12.821
N14070 X10.229 Y13.028
N14075 X10.106 Y14.274
N14080 X10.089 Y14.481
N14085 X10.059 Y14.896
N14090 Y15.104
N14095 X10.089 Y15.519
N14100 X10.106 Y15.726
N14105 X10.229 Y16.972
N14110 X10.256 Y17.179
N14115 X10.313 Y17.595
N14120 X10.367 Y17.811
N14125 X10.484 Y18.217
N14130 X10.575 Y18.524
N14135 X10.86 Y19.463
N14140 X10.925 Y19.67
N14145 X10.93 Y19.682
N14150 G0 Z5.
N14155 X31.758 Y25.722
N14160 Z-12.8
N14165 G1 Z-13.4 F1560.
N14170 X31.761 Y25.715 Z-13.494
N14175 X31.768 Y25.695 Z-13.585
N14180 X31.78 Y25.661 Z-13.672
N14185 X31.796 Y25.614 Z-13.753
N14190 X31.817 Y25.557 Z-13.824
N14195 X31.84 Y25.489 Z-13.885
N14200 X31.867 Y25.413 Z-13.935
N14205 X31.896 Y25.331 Z-13.971
N14210 X31.926 Y25.245 Z-13.993
N14215 X31.957 Y25.156 Z-14.
N14220 G3 X32.392 Y24.503 I1.493 J0.524
N14225 G1 X32.462 Y24.444
N14230 X32.6 Y24.315
N14235 X32.673 Y24.237
N14240 X32.94 Y23.919
N14245 X33.055 Y23.795
N14250 X33.16 Y23.688
N14255 X33.27 Y23.587
N14260 X33.393 Y23.485
N14265 X33.546 Y23.369
N14270 X34.299 Y22.847
N14275 X35.075 Y22.363
N14280 X35.801 Y21.805
N14285 X36.438 Y21.147
N14290 X36.968 Y20.401
N14295 X37.389 Y19.588
N14300 X37.712 Y18.732
N14305 X37.95 Y17.848
N14310 X38.122 Y16.949
N14315 X38.243 Y16.041
N14320 X38.327 Y15.13
N14325 X38.384 Y14.216
N14330 X38.416 Y13.301
N14335 X38.356 Y12.388
N14340 X38.112 Y11.505
N14345 X37.671 Y10.703
N14350 X37.063 Y10.019
N14355 X36.335 Y9.464
N14360 X35.53 Y9.028
N14365 X35.33 Y8.934
N14370 X35.077 Y8.788
N14375 X34.849 Y8.604
N14380 X34.654 Y8.386
N14385 X34.496 Y8.14
N14390 X34.47 Y8.092
N14395 X34.263 Y7.726
N14400 X33.847 Y7.183
N14405 X33.639 Y6.928
N14410 X33.532 Y6.798
N14415 G3 X33.534 Y6.067 I0.477 J-0.364
N14420 G1 X33.591 Y5.993 Z-13.993
N14425 X33.647 Y5.92 Z-13.971
N14430 X33.7 Y5.851 Z-13.935
N14435 X33.749 Y5.788 Z-13.885
N14440 X33.793 Y5.731 Z-13.824
N14445 X33.83 Y5.683 Z-13.753
N14450 X33.86 Y5.644 Z-13.672
N14455 X33.882 Y5.615 Z-13.585
N14460 X33.896 Y5.598 Z-13.494
N14465 X33.9 Y5.592 Z-13.4
N14470 G0 Z5.
N14475 X32.528 Y25.23
N14480 Z-12.8
N14485 G1 Z-13.4 F1560.
N14490 X32.529 Y25.223 Z-13.494
N14495 X32.533 Y25.201 Z-13.585
N14500 X32.539 Y25.166 Z-13.672
N14505 X32.547 Y25.117 Z-13.753
N14510 X32.557 Y25.057 Z-13.824
N14515 X32.568 Y24.986 Z-13.885
N14520 X32.581 Y24.907 Z-13.935
N14525 X32.595 Y24.821 Z-13.971
N14530 X32.61 Y24.731 Z-13.993
N14535 X32.625 Y24.638 Z-14.
N14540 G3 X32.94 Y23.919 I1.562 J0.255
N14545 G1 X33.224 Y23.579
N14550 X33.705 Y22.991
N14555 X33.847 Y22.817
N14560 X34.19 Y22.369
N14565 X34.782 Y21.67
N14570 X35.329 Y20.936
N14575 X35.824 Y20.166
N14580 X36.241 Y19.351
N14585 X36.577 Y18.5
N14590 X36.836 Y17.622
N14595 X37.031 Y16.727
N14600 X37.174 Y15.823
N14605 X37.274 Y14.913
N14610 X37.322 Y13.999
N14615 X37.227 Y13.089
N14620 X36.922 Y12.225
N14625 X36.427 Y11.456
N14630 X36. Y11.004
N14635 X35.83 Y10.798
N14640 X35.687 Y10.572
N14645 X35.575 Y10.33
N14650 X35.414 Y9.915
N14655 X35.332 Y9.707
N14660 X35.001 Y9.084
N14665 X34.496 Y8.14
N14670 G3 X34.64 Y7.424 I0.539 J-0.264
N14675 G1 X34.711 Y7.362 Z-13.993
N14680 X34.78 Y7.302 Z-13.971
N14685 X34.845 Y7.245 Z-13.935
N14690 X34.906 Y7.192 Z-13.885
N14695 X34.96 Y7.145 Z-13.824
N14700 X35.006 Y7.105 Z-13.753
N14705 X35.043 Y7.072 Z-13.672
N14710 X35.07 Y7.049 Z-13.585
N14715 X35.086 Y7.034 Z-13.494
N14720 X35.092 Y7.029 Z-13.4
N14725 G0 Z5.
N14730 X33.839 Y23.698
N14735 Z-12.8
N14740 G1 Z-13.4 F1560.
N14745 Y23.69 Z-13.494
N14750 X33.842 Y23.668 Z-13.585
N14755 X33.846 Y23.633 Z-13.672
N14760 X33.852 Y23.584 Z-13.753
N14765 X33.859 Y23.523 Z-13.824
N14770 X33.867 Y23.452 Z-13.885
N14775 X33.877 Y23.372 Z-13.935
N14780 X33.887 Y23.286 Z-13.971
N14785 X33.897 Y23.195 Z-13.993
N14790 X33.908 Y23.102 Z-14.
N14795 G3 X34.19 Y22.369 I1.572 J0.184
N14800 G1 X34.263 Y22.274
N14805 X34.47 Y21.908
N14810 X35.222 Y20.501
N14815 X35.332 Y20.293
N14820 X35.414 Y20.085
N14825 X35.575 Y19.67
N14830 X35.64 Y19.463
N14835 X35.955 Y18.425
N14840 X36.016 Y18.217
N14845 X36.135 Y17.802
N14850 X36.187 Y17.595
N14855 X36.244 Y17.179
N14860 X36.271 Y16.972
N14865 X36.394 Y15.726
N14870 X36.411 Y15.519
N14875 X36.441 Y15.104
N14880 Y14.896
N14885 X36.411 Y14.481
N14890 X36.394 Y14.274
N14895 X36.271 Y13.028
N14900 X36.244 Y12.821
N14905 X36.187 Y12.405
N14910 X36.133 Y12.189
N14915 X36.016 Y11.783
N14920 X35.925 Y11.476
N14925 X35.64 Y10.537
N14930 X35.575 Y10.33
N14935 X35.557 Y10.239
N14940 X35.554 Y10.146
N14945 X35.57 Y10.074 Z-13.995
N14950 X35.586 Y10.003 Z-13.982
N14955 X35.601 Y9.935 Z-13.959
N14960 X35.645 Y9.869 Z-13.921
N14965 X35.685 Y9.808 Z-13.871
N14970 X35.721 Y9.754 Z-13.812
N14975 X35.766 Y9.718 Z-13.741
N14980 X35.802 Y9.69 Z-13.663
N14985 X35.828 Y9.67 Z-13.579
N14990 X35.844 Y9.657 Z-13.491
N14995 X35.849 Y9.653 Z-13.4
N15000 G0 Z5.
N15005 X-0.47 Y-6.283
N15010 Z-15.4
N15015 G1 Z-16. F1560.
N15020 Z-18.
N15025 G3 X0. Y-3.017 I-14.839 J3.801
N15030 G1 Y-2.902
N15035 X-0.61 Y-2.22
N15040 X-1.069 Y-1.428
N15045 X-1.396 Y-0.573
N15050 X-1.619 Y0.315
N15055 X-1.764 Y1.219
N15060 X-1.857 Y2.13
N15065 X-1.914 Y3.043
N15070 X-1.948 Y3.958
N15075 X-1.969 Y4.873
N15080 X-1.982 Y5.789
N15085 X-1.989 Y6.704
N15090 X-1.994 Y7.62
N15095 X-1.996 Y8.535
N15100 X-1.999 Y10.366
N15105 X-2. Y16.774
N15110 Y28.217
N15115 X-1.814 Y29.113
N15120 X-1.343 Y29.898
N15125 X-0.682 Y30.531
N15130 X0.098 Y31.011
N15135 X0.946 Y31.355
N15140 X1.83 Y31.592
N15145 X2.733 Y31.747
N15150 X3.643 Y31.846
N15155 X4.556 Y31.907
N15160 X5.471 Y31.944
N15165 X6.386 Y31.967
N15170 X7.301 Y31.98
N15175 X8.216 Y31.988
N15180 X9.132 Y31.993
N15185 X10.047 Y31.996
N15190 X11.878 Y31.999
N15195 X14.624 Y32.
N15200 X44.833
N15205 X45.72 Y31.772
N15210 X46.487 Y31.272
N15215 X47.1 Y30.592
N15220 X47.561 Y29.801
N15225 X47.891 Y28.947
N15230 X48.115 Y28.06
N15235 X48.262 Y27.156
N15240 X48.355 Y26.246
N15245 X48.413 Y25.332
N15250 X48.448 Y24.417
N15255 X48.469 Y23.502
N15260 X48.482 Y22.587
N15265 X48.489 Y21.671
N15270 X48.494 Y20.756
N15275 X48.496 Y19.84
N15280 X48.499 Y18.01
N15285 X48.5 Y13.432
N15290 Y1.532
N15295 X48.244 Y0.653
N15300 X47.711 Y-0.091
N15305 X47.01 Y-0.68
N15310 X46.207 Y-1.12
N15315 X45.346 Y-1.431
N15320 X44.455 Y-1.642
N15325 X43.55 Y-1.779
N15330 X42.639 Y-1.866
N15335 X41.725 Y-1.919
N15340 X40.81 Y-1.952
N15345 X39.895 Y-1.971
N15350 X38.98 Y-1.983
N15355 X38.064 Y-1.99
N15360 X37.149 Y-1.994
N15365 X35.318 Y-1.998
N15370 X31.656 Y-2.
N15375 X11.517
N15380 X3.278
N15385 X2.379 Y-1.828
N15390 X1.514 Y-1.53
N15395 X0.784 Y-0.978
N15400 X0.216 Y-0.26
N15405 X-0.198 Y0.557
N15410 X-0.486 Y1.426
N15415 X-0.677 Y2.321
N15420 X-0.8 Y3.228
N15425 X-0.878 Y4.14
N15430 X-0.926 Y5.054
N15435 X-0.956 Y5.969
N15440 X-0.973 Y6.885
N15445 X-0.984 Y7.8
N15450 X-0.99 Y8.715
N15455 X-0.994 Y9.631
N15460 X-0.998 Y11.462
N15465 X-1. Y15.123
N15470 Y26.108
N15475 X-0.988 Y27.024
N15480 X-0.766 Y27.912
N15485 X-0.309 Y28.705
N15490 X0.33 Y29.361
N15495 X1.091 Y29.87
N15500 X1.926 Y30.244
N15505 X2.803 Y30.507
N15510 X3.701 Y30.686
N15515 X4.609 Y30.803
N15520 X5.521 Y30.878
N15525 X6.435 Y30.925
N15530 X7.35 Y30.954
N15535 X8.265 Y30.972
N15540 X9.181 Y30.983
N15545 X10.096 Y30.99
N15550 X11.011 Y30.994
N15555 X12.842 Y30.998
N15560 X16.504 Y31.
N15565 X43.051
N15570 X43.962 Y30.909
N15575 X44.813 Y30.57
N15580 X45.544 Y30.02
N15585 X46.13 Y29.316
N15590 X46.571 Y28.514
N15595 X46.888 Y27.655
N15600 X47.105 Y26.766
N15605 X47.25 Y25.862
N15610 X47.344 Y24.951
N15615 X47.404 Y24.038
N15620 X47.441 Y23.123
N15625 X47.464 Y22.208
N15630 X47.478 Y21.293
N15635 X47.487 Y20.377
N15640 X47.492 Y19.462
N15645 X47.495 Y18.547
N15650 X47.497 Y17.631
N15655 X47.499 Y14.885
N15660 X47.5 Y2.984
N15665 X47.288 Y2.094
N15670 X46.835 Y1.299
N15675 X46.198 Y0.641
N15680 X45.438 Y0.131
N15685 X44.603 Y-0.244
N15690 X43.726 Y-0.508
N15695 X42.828 Y-0.687
N15700 X41.92 Y-0.804
N15705 X41.008 Y-0.879
N15710 X40.094 Y-0.926
N15715 X39.179 Y-0.955
N15720 X38.263 Y-0.973
N15725 X37.348 Y-0.983
N15730 X36.433 Y-0.99
N15735 X35.517 Y-0.994
N15740 X33.686 Y-0.998
N15745 X30.025 Y-1.
N15750 X13.547
N15755 X5.308
N15760 X4.393 Y-0.984
N15765 X3.486 Y-0.86
N15770 X2.643 Y-0.504
N15775 X1.921 Y0.059
N15780 X1.345 Y0.771
N15785 X0.912 Y1.577
N15790 X0.602 Y2.438
N15795 X0.388 Y3.329
N15800 X0.246 Y4.233
N15805 X0.154 Y5.144
N15810 X0.095 Y6.057
N15815 X0.059 Y6.972
N15820 X0.036 Y7.887
N15825 X0.022 Y8.802
N15830 X0.013 Y9.718
N15835 X0.008 Y10.633
N15840 X0.005 Y11.549
N15845 X0.002 Y13.379
N15850 X0. Y17.956
N15855 Y24.364
N15860 X0.002 Y25.28
N15865 X0.083 Y26.192
N15870 X0.387 Y27.055
N15875 X0.899 Y27.814
N15880 X1.571 Y28.436
N15885 X2.35 Y28.916
N15890 X3.195 Y29.269
N15895 X4.076 Y29.518
N15900 X4.975 Y29.688
N15905 X5.884 Y29.801
N15910 X6.796 Y29.875
N15915 X7.711 Y29.922
N15920 X8.626 Y29.951
N15925 X9.541 Y29.97
N15930 X10.456 Y29.982
N15935 X11.371 Y29.989
N15940 X12.287 Y29.993
N15945 X13.202 Y29.996
N15950 X15.033 Y29.998
N15955 X20.526 Y30.
N15960 X41.58
N15965 X42.495 Y29.954
N15970 X43.375 Y29.702
N15975 X44.161 Y29.232
N15980 X44.813 Y28.59
N15985 X45.323 Y27.83
N15990 X45.702 Y26.996
N15995 X45.972 Y26.122
N16000 X46.158 Y25.225
N16005 X46.282 Y24.318
N16010 X46.362 Y23.406
N16015 X46.414 Y22.492
N16020 X46.447 Y21.578
N16025 X46.467 Y20.662
N16030 X46.48 Y19.747
N16035 X46.488 Y18.832
N16040 X46.492 Y17.916
N16045 X46.495 Y17.001
N16050 X46.498 Y15.17
N16055 X46.499 Y13.339
N16060 X46.5 Y5.1
N16065 X46.484 Y4.185
N16070 X46.281 Y3.292
N16075 X45.851 Y2.484
N16080 X45.238 Y1.805
N16085 X44.497 Y1.267
N16090 X43.675 Y0.864
N16095 X42.806 Y0.574
N16100 X41.913 Y0.374
N16105 X41.008 Y0.239
N16110 X40.097 Y0.151
N16115 X39.183 Y0.094
N16120 X38.268 Y0.059
N16125 X37.353 Y0.036
N16130 X36.438 Y0.022
N16135 X35.522 Y0.014
N16140 X34.607 Y0.008
N16145 X33.692 Y0.005
N16150 X31.861 Y0.002
N16155 X27.284 Y0.
N16160 X7.144
N16165 X6.229 Y0.001
N16170 X5.314 Y0.027
N16175 X4.417 Y0.208
N16180 X3.596 Y0.614
N16185 X2.897 Y1.205
N16190 X2.34 Y1.931
N16195 X1.918 Y2.744
N16200 X1.614 Y3.607
N16205 X1.402 Y4.498
N16210 X1.259 Y5.402
N16215 X1.165 Y6.313
N16220 X1.104 Y7.226
N16225 X1.065 Y8.141
N16230 X1.04 Y9.056
N16235 X1.025 Y9.971
N16240 X1.015 Y10.886
N16245 X1.009 Y11.802
N16250 X1.006 Y12.717
N16255 X1.002 Y14.548
N16260 X1. Y18.21
N16265 Y23.702
N16270 X1.023 Y24.618
N16275 X1.212 Y25.513
N16280 X1.615 Y26.335
N16285 X2.2 Y27.039
N16290 X2.921 Y27.603
N16295 X3.729 Y28.034
N16300 X4.589 Y28.348
N16305 X5.477 Y28.569
N16310 X6.38 Y28.719
N16315 X7.29 Y28.819
N16320 X8.203 Y28.885
N16325 X9.118 Y28.927
N16330 X10.033 Y28.954
N16335 X10.948 Y28.971
N16340 X11.863 Y28.982
N16345 X12.779 Y28.989
N16350 X13.694 Y28.993
N16355 X15.525 Y28.997
N16360 X18.271 Y28.999
N16365 X21.017 Y29.
N16370 X40.241
N16375 X41.156 Y28.972
N16380 X42.05 Y28.775
N16385 X42.868 Y28.364
N16390 X43.565 Y27.77
N16395 X44.123 Y27.044
N16400 X44.548 Y26.234
N16405 X44.858 Y25.372
N16410 X45.076 Y24.483
N16415 X45.225 Y23.58
N16420 X45.323 Y22.67
N16425 X45.388 Y21.757
N16430 X45.429 Y20.842
N16435 X45.456 Y19.927
N16440 X45.472 Y19.012
N16445 X45.483 Y18.096
N16450 X45.489 Y17.181
N16455 X45.493 Y16.266
N16460 X45.498 Y14.435
N16465 X45.5 Y10.773
N16470 Y6.196
N16475 X45.469 Y5.281
N16480 X45.262 Y4.389
N16485 X44.836 Y3.579
N16490 X44.231 Y2.893
N16495 X43.498 Y2.344
N16500 X42.682 Y1.928
N16505 X41.818 Y1.625
N16510 X40.928 Y1.413
N16515 X40.024 Y1.268
N16520 X39.114 Y1.172
N16525 X38.2 Y1.109
N16530 X37.286 Y1.069
N16535 X36.371 Y1.043
N16540 X35.455 Y1.027
N16545 X34.54 Y1.017
N16550 X33.625 Y1.01
N16555 X32.709 Y1.006
N16560 X30.878 Y1.002
N16565 X27.217 Y1.
N16570 X7.993
N16575 X7.077 Y1.004
N16580 X6.164 Y1.06
N16585 X5.282 Y1.305
N16590 X4.487 Y1.76
N16595 X3.818 Y2.385
N16600 X3.287 Y3.13
N16605 X2.887 Y3.954
N16610 X2.597 Y4.822
N16615 X2.395 Y5.715
N16620 X2.257 Y6.62
N16625 X2.165 Y7.531
N16630 X2.105 Y8.444
N16635 X2.067 Y9.359
N16640 X2.042 Y10.274
N16645 X2.026 Y11.189
N16650 X2.016 Y12.104
N16655 X2.01 Y13.02
N16660 X2.006 Y13.935
N16665 X2.002 Y15.766
N16670 X2. Y19.428
N16675 Y22.174
N16680 X2.006 Y23.089
N16685 X2.101 Y24.
N16690 X2.398 Y24.866
N16695 X2.892 Y25.636
N16700 X3.546 Y26.278
N16705 X4.309 Y26.782
N16710 X5.143 Y27.161
N16715 X6.016 Y27.435
N16720 X6.912 Y27.625
N16725 X7.818 Y27.755
N16730 X8.729 Y27.842
N16735 X9.643 Y27.898
N16740 X10.558 Y27.935
N16745 X11.473 Y27.959
N16750 X12.388 Y27.974
N16755 X13.303 Y27.984
N16760 X14.219 Y27.99
N16765 X15.134 Y27.994
N16770 X16.965 Y27.998
N16775 X20.627 Y28.
N16780 X20.996
N16785 X21.064 Y28.001
N16790 X21.132 Y28.005
N16795 X21.2 Y28.011
N16800 X21.38 Y28.031
N16805 X22.627 Y28.154
N16810 X23.25 Y28.198
N16815 X23.873 Y28.154
N16820 X24.788 Y28.112
N16825 X25.702 Y28.065
N16830 X26.617 Y28.038
N16835 X27.532 Y28.022
N16840 X28.448 Y28.013
N16845 X29.363 Y28.008
N16850 X30.279 Y28.005
N16855 X32.109 Y28.002
N16860 X36.687 Y28.
N16865 X38.517
N16870 X39.433 Y27.996
N16875 X40.346 Y27.926
N16880 X41.223 Y27.665
N16885 X42.012 Y27.2
N16890 X42.676 Y26.57
N16895 X43.203 Y25.822
N16900 X43.603 Y24.998
N16905 X43.893 Y24.13
N16910 X44.096 Y23.238
N16915 X44.236 Y22.333
N16920 X44.329 Y21.422
N16925 X44.39 Y20.509
N16930 X44.43 Y19.594
N16935 X44.456 Y18.679
N16940 X44.472 Y17.764
N16945 X44.482 Y16.849
N16950 X44.489 Y15.933
N16955 X44.493 Y15.018
N16960 X44.497 Y13.187
N16965 X44.499 Y10.441
N16970 X44.5 Y7.694
N16975 X44.492 Y6.779
N16980 X44.374 Y5.871
N16985 X44.047 Y5.016
N16990 X43.526 Y4.263
N16995 X42.853 Y3.642
N17000 X42.077 Y3.157
N17005 X41.236 Y2.795
N17010 X40.359 Y2.534
N17015 X39.462 Y2.353
N17020 X38.554 Y2.23
N17025 X37.643 Y2.148
N17030 X36.729 Y2.095
N17035 X35.814 Y2.06
N17040 X34.899 Y2.038
N17045 X33.984 Y2.024
N17050 X33.068 Y2.015
N17055 X32.153 Y2.009
N17060 X31.237 Y2.006
N17065 X29.407 Y2.002
N17070 X25.504 Y2.
N17075 X25.435 Y1.999
N17080 X25.367 Y1.995
N17085 X25.299 Y1.989
N17090 X25.12 Y1.969
N17095 X23.873 Y1.846
N17100 X23.25 Y1.802
N17105 X22.627 Y1.846
N17110 X21.712 Y1.889
N17115 X20.798 Y1.935
N17120 X19.883 Y1.962
N17125 X18.968 Y1.978
N17130 X18.052 Y1.987
N17135 X17.137 Y1.992
N17140 X16.221 Y1.995
N17145 X14.391 Y1.998
N17150 X8.898 Y2.
N17155 X7.983 Y2.009
N17160 X7.072 Y2.098
N17165 X6.201 Y2.381
N17170 X5.424 Y2.866
N17175 X4.774 Y3.51
N17180 X4.26 Y4.267
N17185 X3.872 Y5.097
N17190 X3.591 Y5.968
N17195 X3.393 Y6.862
N17200 X3.258 Y7.767
N17205 X3.167 Y8.678
N17210 X3.108 Y9.591
N17215 X3.069 Y10.506
N17220 X3.044 Y11.421
N17225 X3.028 Y12.336
N17230 X3.017 Y13.252
N17235 X3.011 Y14.167
N17240 X3.007 Y15.083
N17245 X3.003 Y16.913
N17250 X3.001 Y19.66
N17255 X3. Y20.575
N17260 X3.001 Y21.49
N17265 X3.027 Y22.406
N17270 X3.201 Y23.304
N17275 X3.58 Y24.137
N17280 X4.141 Y24.861
N17285 X4.839 Y25.453
N17290 X5.632 Y25.911
N17295 X6.482 Y26.252
N17300 X7.364 Y26.495
N17305 X8.264 Y26.665
N17310 X9.172 Y26.78
N17315 X10.084 Y26.857
N17320 X10.998 Y26.908
N17325 X11.913 Y26.941
N17330 X12.828 Y26.962
N17335 X13.743 Y26.976
N17340 X14.659 Y26.985
N17345 X15.574 Y26.99
N17350 X16.489 Y26.994
N17355 X17.38 Y26.996
N17360 X17.61 Y27.011
N17365 X17.836 Y27.053
N17370 X18.055 Y27.122
N17375 X18.471 Y27.283
N17380 X18.657 Y27.35
N17385 X19.925 Y27.735
N17390 X20.133 Y27.795
N17395 X20.549 Y27.914
N17400 X20.757 Y27.951
N17405 X21.172 Y28.008
N17410 X21.2 Y28.011
N17415 X21.209 Y28.013
N17420 G2 X21.661 Y28.134 I1.606 J-5.123
N17425 G1 X21.71 Y28.142
N17430 X21.758 Y28.147
N17435 X21.968 Y28.158
N17440 X23.094 Y28.218
N17445 X23.309 Y28.229
N17450 X23.358 Y28.23
N17455 X23.407 Y28.226
N17460 G2 X23.87 Y28.154 I-0.592 J-5.336
N17465 G1 X23.873
N17470 X25.12 Y28.031
N17475 X25.328 Y28.008
N17480 X25.743 Y27.951
N17485 X25.951 Y27.914
N17490 X26.471 Y27.765
N17495 X26.575 Y27.735
N17500 X27.159 Y27.558
N17505 X27.541 Y27.463
N17510 X27.881 Y27.384
N17515 X28.328 Y27.3
N17520 X28.944 Y27.212
N17525 X29.855 Y27.123
N17530 X30.769 Y27.072
N17535 X31.684 Y27.042
N17540 X32.599 Y27.025
N17545 X33.514 Y27.015
N17550 X34.43 Y27.009
N17555 X35.345 Y27.005
N17560 X38.091 Y27.
N17565 X39.006 Y26.96
N17570 X39.899 Y26.761
N17575 X40.724 Y26.363
N17580 X41.432 Y25.783
N17585 X42.007 Y25.071
N17590 X42.451 Y24.27
N17595 X42.78 Y23.416
N17600 X43.016 Y22.531
N17605 X43.179 Y21.631
N17610 X43.29 Y20.722
N17615 X43.364 Y19.81
N17620 X43.413 Y18.895
N17625 X43.444 Y17.981
N17630 X43.464 Y17.065
N17635 X43.477 Y16.15
N17640 X43.486 Y15.235
N17645 X43.491 Y14.319
N17650 X43.494 Y13.404
N17655 X43.498 Y11.573
N17660 X43.499 Y8.827
N17665 X43.49 Y7.911
N17670 X43.38 Y7.003
N17675 X43.074 Y6.14
N17680 X42.571 Y5.375
N17685 X41.913 Y4.739
N17690 X41.148 Y4.236
N17695 X40.314 Y3.857
N17700 X39.441 Y3.582
N17705 X38.547 Y3.388
N17710 X37.641 Y3.255
N17715 X36.73 Y3.166
N17720 X35.816 Y3.107
N17725 X34.902 Y3.069
N17730 X33.987 Y3.044
N17735 X33.071 Y3.028
N17740 X32.156 Y3.018
N17745 X31.241 Y3.011
N17750 X30.325 Y3.007
N17755 X29.121 Y3.004
N17760 X28.891 Y2.989
N17765 X28.664 Y2.947
N17770 X28.445 Y2.878
N17775 X28.029 Y2.717
N17780 X27.843 Y2.65
N17785 X26.575 Y2.265
N17790 X26.367 Y2.205
N17795 X25.951 Y2.086
N17800 X25.743 Y2.049
N17805 X25.328 Y1.992
N17810 X25.299 Y1.989
N17815 X25.291 Y1.987
N17820 G2 X24.838 Y1.866 I-1.606 J5.121
N17825 G1 X24.79 Y1.858
N17830 X24.741 Y1.853
N17835 X24.531 Y1.842
N17840 X23.406 Y1.782
N17845 X23.191 Y1.771
N17850 X23.142 Y1.77
N17855 X23.093 Y1.774
N17860 G2 X22.63 Y1.846 I0.592 J5.334
N17865 G1 X22.627
N17870 X21.38 Y1.969
N17875 X21.172 Y1.992
N17880 X20.757 Y2.049
N17885 X20.549 Y2.086
N17890 X20.029 Y2.235
N17895 X19.925 Y2.265
N17900 X19.341 Y2.442
N17905 X18.959 Y2.537
N17910 X18.619 Y2.616
N17915 X18.172 Y2.7
N17920 X17.556 Y2.788
N17925 X16.645 Y2.877
N17930 X15.731 Y2.928
N17935 X14.816 Y2.958
N17940 X13.901 Y2.975
N17945 X12.986 Y2.985
N17950 X12.07 Y2.991
N17955 X11.155 Y2.995
N17960 X10.239 Y2.997
N17965 X9.324 Y3.001
N17970 X8.41 Y3.055
N17975 X7.522 Y3.275
N17980 X6.708 Y3.695
N17985 X6.013 Y4.29
N17990 X5.451 Y5.013
N17995 X5.018 Y5.82
N18000 X4.699 Y6.677
N18005 X4.47 Y7.564
N18010 X4.312 Y8.465
N18015 X4.204 Y9.375
N18020 X4.133 Y10.287
N18025 X4.085 Y11.201
N18030 X4.055 Y12.116
N18035 X4.035 Y13.031
N18040 X4.022 Y13.947
N18045 X4.014 Y14.862
N18050 X4.009 Y15.778
N18055 X4.006 Y16.693
N18060 X4.002 Y18.524
N18065 X4.001 Y20.355
N18070 X4.026 Y21.27
N18075 X4.184 Y22.172
N18080 X4.539 Y23.015
N18085 X5.081 Y23.753
N18090 X5.765 Y24.361
N18095 X6.547 Y24.837
N18100 X7.39 Y25.193
N18105 X8.269 Y25.452
N18110 X9.166 Y25.633
N18115 X10.073 Y25.757
N18120 X10.984 Y25.841
N18125 X11.898 Y25.897
N18130 X12.813 Y25.933
N18135 X13.728 Y25.957
N18140 X14.643 Y25.973
N18145 X15.459 Y25.981
N18150 X15.762 Y26.01
N18155 X16.056 Y26.088
N18160 X16.334 Y26.214
N18165 X16.393 Y26.248
N18170 X17.772 Y26.984
N18175 X17.848 Y27.024
N18180 X18.055 Y27.122
N18185 X18.072 Y27.136 Z-17.995
N18190 X18.083 Y27.155 Z-17.991
N18195 G2 X18.433 Y27.981 Z-17.8 I4.602 J-1.467
N18200 X20.85 Y30.157 I4.252 J-2.292
N18205 G1 X20.915 Y30.179
N18210 X20.982 Y30.194
N18215 X21.05 Y30.201
N18220 X23.881 Y30.337
N18225 X23.95 Y30.336
N18230 X24.018 Y30.328
N18235 X24.084 Y30.312
N18240 G2 X26.7 Y28.375 I-1.399 J-4.623
N18245 X27.126 Y27.589 Z-17.99 I-4.015 J-2.686
N18250 G1 X27.139 Y27.57 Z-17.995
N18255 X27.159 Y27.558 Z-18.
N18260 X27.843 Y27.35
N18265 X28.029 Y27.283
N18270 X28.445 Y27.122
N18275 X28.652 Y27.024
N18280 X28.86 Y26.914
N18285 X29.053 Y26.823
N18290 X29.218 Y26.751
N18295 X29.406 Y26.678
N18300 X29.635 Y26.6
N18305 X29.924 Y26.516
N18310 X30.272 Y26.431
N18315 X30.728 Y26.341
N18320 X31.333 Y26.248
N18325 X32.215 Y26.151
N18330 X33.129 Y26.092
N18335 X34.044 Y26.056
N18340 X34.959 Y26.034
N18345 X35.874 Y26.021
N18350 X36.789 Y26.011
N18355 X37.705 Y25.986
N18360 X38.608 Y25.839
N18365 X39.457 Y25.496
N18370 X40.203 Y24.966
N18375 X40.82 Y24.29
N18380 X41.305 Y23.513
N18385 X41.67 Y22.674
N18390 X41.936 Y21.798
N18395 X42.122 Y20.902
N18400 X42.251 Y19.995
N18405 X42.337 Y19.084
N18410 X42.394 Y18.17
N18415 X42.432 Y17.256
N18420 X42.456 Y16.34
N18425 X42.472 Y15.425
N18430 X42.482 Y14.51
N18435 X42.489 Y13.594
N18440 X42.493 Y12.679
N18445 X42.497 Y10.848
N18450 X42.498 Y9.933
N18455 X42.488 Y9.017
N18460 X42.387 Y8.108
N18465 X42.096 Y7.24
N18470 X41.606 Y6.466
N18475 X40.961 Y5.817
N18480 X40.205 Y5.301
N18485 X39.378 Y4.908
N18490 X38.508 Y4.621
N18495 X37.616 Y4.418
N18500 X36.711 Y4.277
N18505 X35.801 Y4.182
N18510 X34.888 Y4.118
N18515 X33.973 Y4.076
N18520 X33.058 Y4.049
N18525 X32.143 Y4.031
N18530 X31.228 Y4.02
N18535 X31.044 Y4.018
N18540 X30.74 Y3.99
N18545 X30.444 Y3.912
N18550 X30.166 Y3.785
N18555 X30.107 Y3.752
N18560 X28.728 Y3.016
N18565 X28.652 Y2.976
N18570 X28.445 Y2.878
N18575 X28.428 Y2.864 Z-17.995
N18580 X28.417 Y2.845 Z-17.991
N18585 G2 X28.067 Y2.019 Z-17.8 I-4.602 J1.467
N18590 X25.65 Y-0.157 I-4.252 J2.292
N18595 G1 X25.585 Y-0.179
N18600 X25.518 Y-0.194
N18605 X25.45 Y-0.201
N18610 X22.619 Y-0.337
N18615 X22.55 Y-0.336
N18620 X22.482 Y-0.328
N18625 X22.416 Y-0.312
N18630 G2 X19.8 Y1.625 I1.399 J4.623
N18635 X19.374 Y2.411 Z-17.99 I4.014 J2.686
N18640 G1 X19.361 Y2.43 Z-17.995
N18645 X19.341 Y2.442 Z-18.
N18650 X18.657 Y2.65
N18655 X18.471 Y2.717
N18660 X18.055 Y2.878
N18665 X17.848 Y2.976
N18670 X17.64 Y3.086
N18675 X17.447 Y3.177
N18680 X17.282 Y3.249
N18685 X17.094 Y3.322
N18690 X16.865 Y3.4
N18695 X16.576 Y3.484
N18700 X16.228 Y3.569
N18705 X15.772 Y3.659
N18710 X15.167 Y3.752
N18715 X14.285 Y3.849
N18720 X13.371 Y3.908
N18725 X12.456 Y3.944
N18730 X11.541 Y3.966
N18735 X10.626 Y3.982
N18740 X9.711 Y4.019
N18745 X8.812 Y4.187
N18750 X7.971 Y4.551
N18755 X7.238 Y5.098
N18760 X6.634 Y5.786
N18765 X6.16 Y6.57
N18770 X5.805 Y7.413
N18775 X5.548 Y8.292
N18780 X5.367 Y9.189
N18785 X5.242 Y10.096
N18790 X5.158 Y11.008
N18795 X5.103 Y11.921
N18800 X5.066 Y12.836
N18805 X5.043 Y13.751
N18810 X5.027 Y14.667
N18815 X5.017 Y15.582
N18820 X5.011 Y16.497
N18825 X5.007 Y17.413
N18830 X5.004 Y18.328
N18835 X5.003 Y19.244
N18840 X5.026 Y20.159
N18845 X5.169 Y21.063
N18850 X5.507 Y21.914
N18855 X6.033 Y22.663
N18860 X6.705 Y23.284
N18865 X7.478 Y23.775
N18870 X8.315 Y24.145
N18875 X9.19 Y24.415
N18880 X10.085 Y24.606
N18885 X10.991 Y24.738
N18890 X11.902 Y24.828
N18895 X12.816 Y24.887
N18900 X14.051 Y24.94
N18905 X14.344 Y24.977
N18910 X14.627 Y25.06
N18915 X14.894 Y25.187
N18920 X15.136 Y25.355
N18925 X15.354 Y25.534
N18930 X15.562 Y25.696
N18935 X15.978 Y26.013
N18940 X16.185 Y26.131
N18945 X16.334 Y26.214
N18950 X16.35 Y26.229 Z-17.995
N18955 X16.359 Y26.249 Z-17.991
N18960 G2 X16.632 Y27.104 Z-17.8 I6.344 J-1.557
N18965 X18.844 Y29.963 I6.071 J-2.412
N18970 X19.165 Y30.078 I0.354 J-0.484
N18975 G1 X25.622 Y30.437
N18980 G2 X25.954 Y30.358 I0.033 J-0.599
N18985 X28.467 Y27.767 I-3.251 J-5.666
N18990 X28.836 Y26.943 Z-17.992 I-5.764 J-3.075
N18995 G1 X28.845 Y26.926 Z-17.996
N19000 X28.86 Y26.914 Z-18.
N19005 X30.107 Y26.248
N19010 X30.362 Y26.105
N19015 X30.522 Y26.013
N19020 X30.595 Y25.971
N19025 X30.757 Y25.891
N19030 X30.929 Y25.816
N19035 X31.142 Y25.733
N19040 X31.409 Y25.642
N19045 X31.707 Y25.555
N19050 X32.095 Y25.459
N19055 X32.57 Y25.364
N19060 X33.212 Y25.265
N19065 X34.122 Y25.164
N19070 X35.035 Y25.102
N19075 X35.949 Y25.059
N19080 X36.863 Y24.998
N19085 X37.757 Y24.805
N19090 X38.586 Y24.415
N19095 X39.307 Y23.851
N19100 X39.899 Y23.153
N19105 X40.362 Y22.364
N19110 X40.71 Y21.517
N19115 X40.961 Y20.637
N19120 X41.138 Y19.738
N19125 X41.26 Y18.831
N19130 X41.342 Y17.919
N19135 X41.397 Y17.006
N19140 X41.433 Y16.091
N19145 X41.457 Y15.176
N19150 X41.472 Y14.26
N19155 X41.482 Y13.345
N19160 X41.489 Y12.43
N19165 X41.493 Y11.514
N19170 Y10.599
N19175 X41.464 Y9.684
N19180 X41.29 Y8.785
N19185 X40.915 Y7.95
N19190 X40.362 Y7.221
N19195 X39.67 Y6.621
N19200 X38.884 Y6.152
N19205 X38.039 Y5.8
N19210 X37.16 Y5.545
N19215 X36.262 Y5.366
N19220 X35.355 Y5.243
N19225 X34.443 Y5.16
N19230 X33.53 Y5.105
N19235 X32.615 Y5.068
N19240 X32.437 Y5.059
N19245 X32.147 Y5.022
N19250 X31.867 Y4.938
N19255 X31.604 Y4.812
N19260 X31.364 Y4.645
N19265 X31.146 Y4.466
N19270 X30.938 Y4.304
N19275 X30.522 Y3.987
N19280 X30.315 Y3.869
N19285 X30.166 Y3.785
N19290 X30.15 Y3.771 Z-17.995
N19295 X30.141 Y3.751 Z-17.991
N19300 G2 X29.867 Y2.896 Z-17.8 I-6.344 J1.557
N19305 X27.656 Y0.037 I-6.071 J2.412
N19310 X27.334 Y-0.078 I-0.354 J0.484
N19315 G1 X20.878 Y-0.437
N19320 G2 X20.546 Y-0.358 I-0.033 J0.599
N19325 X18.033 Y2.233 I3.251 J5.666
N19330 X17.664 Y3.057 Z-17.992 I5.763 J3.075
N19335 G1 X17.655 Y3.074 Z-17.996
N19340 X17.64 Y3.086 Z-18.
N19345 X16.393 Y3.752
N19350 X16.138 Y3.895
N19355 X15.978 Y3.987
N19360 X15.905 Y4.029
N19365 X15.743 Y4.109
N19370 X15.571 Y4.184
N19375 X15.358 Y4.267
N19380 X15.091 Y4.358
N19385 X14.793 Y4.445
N19390 X14.405 Y4.541
N19395 X13.929 Y4.636
N19400 X13.282 Y4.736
N19405 X12.372 Y4.838
N19410 X11.459 Y4.905
N19415 X10.547 Y4.989
N19420 X9.659 Y5.21
N19425 X8.842 Y5.622
N19430 X8.135 Y6.203
N19435 X7.556 Y6.913
N19440 X7.105 Y7.709
N19445 X6.768 Y8.56
N19450 X6.523 Y9.443
N19455 X6.352 Y10.342
N19460 X6.234 Y11.25
N19465 X6.154 Y12.162
N19470 X6.1 Y13.075
N19475 X6.065 Y13.99
N19480 X6.042 Y14.905
N19485 X6.027 Y15.821
N19490 X6.017 Y16.736
N19495 X6.011 Y17.651
N19500 X6.013 Y18.567
N19505 X6.066 Y19.481
N19510 X6.281 Y20.37
N19515 X6.695 Y21.187
N19520 X7.279 Y21.892
N19525 X7.992 Y22.467
N19530 X8.791 Y22.913
N19535 X9.644 Y23.245
N19540 X10.527 Y23.485
N19545 X11.427 Y23.654
N19550 X12.335 Y23.77
N19555 X12.807 Y23.818
N19560 X13.107 Y23.873
N19565 X13.394 Y23.976
N19570 X13.661 Y24.125
N19575 X13.9 Y24.315
N19580 X14.038 Y24.444
N19585 X14.534 Y24.859
N19590 X15.116 Y25.339
N19595 X15.136 Y25.355
N19600 X15.147 Y25.368 Z-17.996
N19605 X15.154 Y25.385 Z-17.993
N19610 G2 X15.402 Y26.256 Z-17.8 I7.764 J-1.739
N19615 X18.088 Y29.968 I7.515 J-2.611
N19620 X18.427 Y30.091 I0.364 J-0.477
N19625 G1 X26.843 Y30.45
N19630 G2 X27.191 Y30.356 I0.026 J-0.599
N19635 X30.182 Y26.889 I-4.274 J-6.711
N19640 X30.505 Y26.039 Z-17.993 I-7.265 J-3.244
N19645 G1 X30.512 Y26.025 Z-17.997
N19650 X30.522 Y26.013 Z-18.
N19655 X30.947 Y25.69
N19660 X31.146 Y25.534
N19665 X31.288 Y25.417
N19670 X31.421 Y25.319
N19675 X31.544 Y25.233
N19680 X31.671 Y25.154
N19685 X31.819 Y25.072
N19690 X31.981 Y24.99
N19695 X32.182 Y24.899
N19700 X32.432 Y24.799
N19705 X32.692 Y24.708
N19710 X33.024 Y24.608
N19715 X33.426 Y24.506
N19720 X33.953 Y24.396
N19725 X34.856 Y24.247
N19730 X35.763 Y24.123
N19735 X36.653 Y23.911
N19740 X37.485 Y23.528
N19745 X38.214 Y22.974
N19750 X38.817 Y22.286
N19755 X39.294 Y21.505
N19760 X39.655 Y20.663
N19765 X39.919 Y19.787
N19770 X40.107 Y18.891
N19775 X40.238 Y17.985
N19780 X40.326 Y17.074
N19785 X40.386 Y16.16
N19790 X40.426 Y15.246
N19795 X40.452 Y14.331
N19800 X40.469 Y13.415
N19805 X40.48 Y12.5
N19810 X40.484 Y11.585
N19815 X40.449 Y10.67
N19820 X40.267 Y9.773
N19825 X39.886 Y8.94
N19830 X39.327 Y8.216
N19835 X38.632 Y7.62
N19840 X37.844 Y7.154
N19845 X36.998 Y6.804
N19850 X36.118 Y6.55
N19855 X35.221 Y6.371
N19860 X34.314 Y6.247
N19865 X33.701 Y6.185
N19870 X33.399 Y6.13
N19875 X33.11 Y6.026
N19880 X32.841 Y5.876
N19885 X32.6 Y5.685
N19890 X32.462 Y5.556
N19895 X31.966 Y5.141
N19900 X31.384 Y4.661
N19905 X31.364 Y4.645
N19910 X31.353 Y4.632 Z-17.996
N19915 X31.346 Y4.615 Z-17.993
N19920 G2 X31.098 Y3.744 Z-17.8 I-7.764 J1.739
N19925 X28.412 Y0.032 I-7.515 J2.611
N19930 X28.074 Y-0.091 I-0.364 J0.477
N19935 G1 X19.657 Y-0.45
N19940 G2 X19.309 Y-0.356 I-0.026 J0.599
N19945 X16.318 Y3.111 I4.274 J6.711
N19950 X15.995 Y3.961 Z-17.993 I7.265 J3.244
N19955 G1 X15.988 Y3.975 Z-17.997
N19960 X15.978 Y3.987 Z-18.
N19965 X15.553 Y4.31
N19970 X15.354 Y4.466
N19975 X15.212 Y4.583
N19980 X15.079 Y4.681
N19985 X14.956 Y4.767
N19990 X14.829 Y4.846
N19995 X14.681 Y4.929
N20000 X14.519 Y5.01
N20005 X14.317 Y5.101
N20010 X14.067 Y5.201
N20015 X13.798 Y5.295
N20020 X13.453 Y5.399
N20025 X12.94 Y5.53
N20030 X12.044 Y5.718
N20035 X11.152 Y5.92
N20040 X10.301 Y6.26
N20045 X9.539 Y6.766
N20050 X8.892 Y7.414
N20055 X8.371 Y8.167
N20060 X7.97 Y8.99
N20065 X7.673 Y9.855
N20070 X7.459 Y10.745
N20075 X7.309 Y11.649
N20080 X7.206 Y12.558
N20085 X7.136 Y13.471
N20090 X7.089 Y14.385
N20095 X7.058 Y15.3
N20100 X7.038 Y16.215
N20105 X7.026 Y17.131
N20110 X7.037 Y18.046
N20115 X7.166 Y18.952
N20120 X7.49 Y19.808
N20125 X7.998 Y20.57
N20130 X8.656 Y21.206
N20135 X9.42 Y21.711
N20140 X10.25 Y22.095
N20145 X11.121 Y22.378
N20150 X12.011 Y22.592
N20155 X12.054 Y22.604
N20160 X12.314 Y22.7
N20165 X12.558 Y22.834
N20170 X12.778 Y23.004
N20175 X12.97 Y23.205
N20180 X13.306 Y23.614
N20185 X13.692 Y24.076
N20190 X13.827 Y24.237
N20195 X13.9 Y24.315
N20200 G3 X13.943 Y25.044 I-0.454 J0.393
N20205 G1 X13.89 Y25.122 Z-17.993
N20210 X13.839 Y25.198 Z-17.971
N20215 X13.79 Y25.27 Z-17.935
N20220 X13.745 Y25.336 Z-17.885
N20225 X13.705 Y25.395 Z-17.824
N20230 X13.671 Y25.446 Z-17.753
N20235 X13.643 Y25.487 Z-17.672
N20240 X13.623 Y25.517 Z-17.585
N20245 X13.611 Y25.535 Z-17.494
N20250 X13.607 Y25.541 Z-17.4
N20255 G0 Z5.
N20260 X30.642 Y26.63
N20265 Z-16.8
N20270 G1 Z-17.4 F1560.
N20275 X30.645 Y26.623 Z-17.494
N20280 X30.652 Y26.603 Z-17.585
N20285 X30.664 Y26.569 Z-17.672
N20290 X30.681 Y26.522 Z-17.753
N20295 X30.702 Y26.465 Z-17.824
N20300 X30.726 Y26.398 Z-17.885
N20305 X30.754 Y26.322 Z-17.935
N20310 X30.783 Y26.24 Z-17.971
N20315 X30.814 Y26.154 Z-17.993
N20320 X30.846 Y26.066 Z-18.
N20325 G3 X31.288 Y25.417 I1.488 J0.538
N20330 G1 X31.769 Y25.022
N20335 X31.977 Y24.851
N20340 X32.392 Y24.503
N20345 X32.518 Y24.408
N20350 X32.641 Y24.322
N20355 X32.768 Y24.241
N20360 X32.925 Y24.152
N20365 X33.12 Y24.051
N20370 X33.345 Y23.947
N20375 X33.621 Y23.834
N20380 X34.482 Y23.523
N20385 X35.354 Y23.247
N20390 X36.19 Y22.873
N20395 X36.942 Y22.351
N20400 X37.584 Y21.698
N20405 X38.104 Y20.944
N20410 X38.507 Y20.122
N20415 X38.807 Y19.258
N20420 X39.025 Y18.369
N20425 X39.178 Y17.466
N20430 X39.285 Y16.557
N20435 X39.357 Y15.644
N20440 X39.406 Y14.73
N20445 X39.438 Y13.815
N20450 X39.458 Y12.9
N20455 X39.453 Y11.985
N20460 X39.332 Y11.077
N20465 X39.017 Y10.218
N20470 X38.514 Y9.453
N20475 X37.859 Y8.813
N20480 X37.098 Y8.304
N20485 X36.269 Y7.917
N20490 X35.399 Y7.631
N20495 X34.509 Y7.415
N20500 X34.451 Y7.399
N20505 X34.189 Y7.303
N20510 X33.945 Y7.168
N20515 X33.725 Y6.999
N20520 X33.532 Y6.798
N20525 X33.194 Y6.386
N20530 X32.808 Y5.924
N20535 X32.673 Y5.763
N20540 X32.6 Y5.685
N20545 G3 X32.557 Y4.956 I0.454 J-0.393
N20550 G1 X32.61 Y4.878 Z-17.993
N20555 X32.661 Y4.802 Z-17.971
N20560 X32.71 Y4.73 Z-17.935
N20565 X32.755 Y4.664 Z-17.885
N20570 X32.795 Y4.605 Z-17.824
N20575 X32.829 Y4.554 Z-17.753
N20580 X32.857 Y4.513 Z-17.672
N20585 X32.877 Y4.483 Z-17.585
N20590 X32.889 Y4.465 Z-17.494
N20595 X32.893 Y4.459 Z-17.4
N20600 G0 Z5.
N20605 X15.858 Y3.37
N20610 Z-16.8
N20615 G1 Z-17.4 F1560.
N20620 X15.855 Y3.377 Z-17.494
N20625 X15.848 Y3.397 Z-17.585
N20630 X15.836 Y3.431 Z-17.672
N20635 X15.819 Y3.478 Z-17.753
N20640 X15.798 Y3.535 Z-17.824
N20645 X15.774 Y3.602 Z-17.885
N20650 X15.746 Y3.678 Z-17.935
N20655 X15.717 Y3.76 Z-17.971
N20660 X15.686 Y3.846 Z-17.993
N20665 X15.654 Y3.934 Z-18.
N20670 G3 X15.212 Y4.583 I-1.488 J-0.538
N20675 G1 X14.731 Y4.978
N20680 X14.523 Y5.149
N20685 X14.108 Y5.497
N20690 X13.974 Y5.598
N20695 X13.852 Y5.684
N20700 X13.703 Y5.779
N20705 X13.505 Y5.894
N20710 X13.248 Y6.028
N20715 X12.419 Y6.417
N20720 X11.591 Y6.808
N20725 X10.823 Y7.306
N20730 X10.151 Y7.928
N20735 X9.593 Y8.653
N20740 X9.15 Y9.454
N20745 X8.812 Y10.305
N20750 X8.564 Y11.186
N20755 X8.386 Y12.084
N20760 X8.261 Y12.991
N20765 X8.175 Y13.902
N20770 X8.116 Y14.816
N20775 X8.077 Y15.73
N20780 X8.057 Y16.646
N20785 X8.117 Y17.559
N20790 X8.352 Y18.444
N20795 X8.782 Y19.252
N20800 X9.381 Y19.944
N20805 X10.104 Y20.507
N20810 X10.905 Y20.948
N20815 X11.166 Y21.07
N20820 X11.422 Y21.215
N20825 X11.652 Y21.4
N20830 X11.848 Y21.619
N20835 X12.008 Y21.867
N20840 X12.03 Y21.908
N20845 X12.237 Y22.274
N20850 X12.653 Y22.817
N20855 X12.861 Y23.072
N20860 X12.97 Y23.205
N20865 G3 X12.968 Y23.935 I-0.477 J0.364
N20870 G1 X12.911 Y24.009 Z-17.993
N20875 X12.855 Y24.082 Z-17.971
N20880 X12.802 Y24.151 Z-17.935
N20885 X12.753 Y24.214 Z-17.885
N20890 X12.709 Y24.271 Z-17.824
N20895 X12.672 Y24.32 Z-17.753
