%
(RICHI_S2_V2)
(T16  D=6. CR=0.5 - ZMIN=32. - BULLNOSE END MILL)
N10 G90 G94 G17 G91.1
N15 G21
N20 G53 G0 Z0.
(FACE5)
N25 T16 M6
N30 S13000 M3
N35 G54
N40 G64 P0.01 Q0.01
N45 M8
N50 G0 X42.329 Y-9.568
N55 G43 Z65. H16
N60 G0 Z55.
N65 G1 Z44.6 F400.
N70 G18 G3 X41.729 Z44. I-0.6 K0. F1560.
N75 G1 X-1.729
N80 G3 X-2.329 Z44.6 I0. K0.6
N85 G0 Z55.
N90 X46.666 Y-6.171
N95 G1 Z44.6 F400.
N100 G3 X46.066 Z44. I-0.6 K0. F1560.
N105 G1 X-6.066
N110 G3 X-6.666 Z44.6 I0. K0.6
N115 G0 Z55.
N120 X49.5 Y-2.775
N125 G1 Z44.6 F400.
N130 G3 X48.9 Z44. I-0.6 K0. F1560.
N135 G1 X-8.9
N140 G3 X-9.5 Z44.6 I0. K0.6
N145 G0 Z55.
N150 X51.429 Y0.622
N155 G1 Z44.6 F400.
N160 G3 X50.829 Z44. I-0.6 K0. F1560.
N165 G1 X-10.829
N170 G3 X-11.429 Z44.6 I0. K0.6
N175 G0 Z55.
N180 X52.697 Y4.019
N185 G1 Z44.6 F400.
N190 G3 X52.097 Z44. I-0.6 K0. F1560.
N195 G1 X-12.097
N200 G3 X-12.697 Z44.6 I0. K0.6
N205 G0 Z55.
N210 X53.403 Y7.416
N215 G1 Z44.6 F400.
N220 G3 X52.803 Z44. I-0.6 K0. F1560.
N225 G1 X-12.803
N230 G3 X-13.403 Z44.6 I0. K0.6
N235 G0 Z55.
N240 X53.76 Y10.813
N245 G1 Z44.6 F400.
N250 G3 X53.16 Z44. I-0.6 K0. F1560.
N255 G1 X53.01
N260 X-13.01
N265 G3 X-13.61 Z44.6 I0. K0.6
N270 G0 Z55.
N275 X53.886 Y14.209
N280 G1 Z44.6 F400.
N285 G3 X53.286 Z44. I-0.6 K0. F1560.
N290 G1 X53.01
N295 X-13.01
N300 G3 X-13.61 Z44.6 I0. K0.6
N305 G0 Z55.
N310 X53.583 Y17.606
N315 G1 Z44.6 F400.
N320 G3 X52.983 Z44. I-0.6 K0. F1560.
N325 G1 X52.981
N330 X-12.981
N335 G3 X-13.581 Z44.6 I0. K0.6
N340 G0 Z55.
N345 X53.171 Y21.003
N350 G1 Z44.6 F400.
N355 G3 X52.571 Z44. I-0.6 K0. F1560.
N360 G1 X-12.571
N365 G3 X-13.171 Z44.6 I0. K0.6
N370 G0 Z55.
N375 X52.237 Y24.4
N380 G1 Z44.6 F400.
N385 G3 X51.637 Z44. I-0.6 K0. F1560.
N390 G1 X-11.637
N395 G3 X-12.237 Z44.6 I0. K0.6
N400 G0 Z55.
N405 X50.711 Y27.796
N410 G1 Z44.6 F400.
N415 G3 X50.111 Z44. I-0.6 K0. F1560.
N420 G1 X-10.111
N425 G3 X-10.711 Z44.6 I0. K0.6
N430 G0 Z55.
N435 X48.446 Y31.193
N440 G1 Z44.6 F400.
N445 G3 X47.846 Z44. I-0.6 K0. F1560.
N450 G1 X-7.846
N455 G3 X-8.446 Z44.6 I0. K0.6
N460 G0 Z55.
N465 X45.106 Y34.59
N470 G1 Z44.6 F400.
N475 G3 X44.506 Z44. I-0.6 K0. F1560.
N480 G1 X-4.506
N485 G3 X-5.106 Z44.6 I0. K0.6
N490 G0 Z65.
N495 G17
(2D ADAPTIVE5)
N500 G64 P0.1 Q0.1
N505 G0 X-3.72 Y-7.783
N510 Z65.
N515 Z55.
N520 Z47.6
N525 G1 Z47. F1560.
N530 Z45.
N535 G3 X-3.25 Y-4.517 I-14.839 J3.801
N540 G1 Y-4.402
N545 X-3.86 Y-3.72
N550 X-4.319 Y-2.928
N555 X-4.646 Y-2.073
N560 X-4.869 Y-1.185
N565 X-5.014 Y-0.281
N570 X-5.107 Y0.63
N575 X-5.164 Y1.543
N580 X-5.198 Y2.458
N585 X-5.219 Y3.373
N590 X-5.232 Y4.289
N595 X-5.239 Y5.204
N600 X-5.244 Y6.12
N605 X-5.246 Y7.035
N610 X-5.249 Y8.866
N615 X-5.25 Y15.274
N620 Y26.717
N625 X-5.064 Y27.613
N630 X-4.593 Y28.398
N635 X-3.932 Y29.031
N640 X-3.152 Y29.511
N645 X-2.304 Y29.855
N650 X-1.42 Y30.092
N655 X-0.517 Y30.247
N660 X0.393 Y30.346
N665 X1.306 Y30.407
N670 X2.221 Y30.444
N675 X3.136 Y30.467
N680 X4.051 Y30.48
N685 X4.966 Y30.488
N690 X5.882 Y30.493
N695 X6.797 Y30.496
N700 X8.628 Y30.499
N705 X11.374 Y30.5
N710 X41.583
N715 X42.47 Y30.272
N720 X43.237 Y29.772
N725 X43.85 Y29.092
N730 X44.311 Y28.301
N735 X44.641 Y27.447
N740 X44.865 Y26.56
N745 X45.012 Y25.656
N750 X45.105 Y24.746
N755 X45.163 Y23.832
N760 X45.198 Y22.917
N765 X45.219 Y22.002
N770 X45.232 Y21.087
N775 X45.239 Y20.171
N780 X45.244 Y19.256
N785 X45.246 Y18.34
N790 X45.249 Y16.51
N795 X45.25 Y11.932
N800 Y0.032
N805 X44.994 Y-0.847
N810 X44.461 Y-1.591
N815 X43.76 Y-2.18
N820 X42.957 Y-2.62
N825 X42.096 Y-2.931
N830 X41.205 Y-3.142
N835 X40.3 Y-3.279
N840 X39.389 Y-3.366
N845 X38.475 Y-3.419
N850 X37.56 Y-3.452
N855 X36.645 Y-3.471
N860 X35.73 Y-3.483
N865 X34.814 Y-3.49
N870 X33.899 Y-3.494
N875 X32.068 Y-3.498
N880 X28.406 Y-3.5
N885 X8.267
N890 X0.028
N895 X-0.871 Y-3.328
N900 X-1.736 Y-3.03
N905 X-2.466 Y-2.478
N910 X-3.034 Y-1.76
N915 X-3.448 Y-0.943
N920 X-3.736 Y-0.074
N925 X-3.927 Y0.821
N930 X-4.05 Y1.728
N935 X-4.128 Y2.64
N940 X-4.176 Y3.554
N945 X-4.206 Y4.469
N950 X-4.223 Y5.385
N955 X-4.234 Y6.3
N960 X-4.24 Y7.215
N965 X-4.244 Y8.131
N970 X-4.248 Y9.962
N975 X-4.25 Y13.623
N980 Y24.608
N985 X-4.238 Y25.524
N990 X-4.016 Y26.412
N995 X-3.559 Y27.205
N1000 X-2.92 Y27.861
N1005 X-2.159 Y28.37
N1010 X-1.324 Y28.744
N1015 X-0.447 Y29.007
N1020 X0.451 Y29.186
N1025 X1.359 Y29.303
N1030 X2.271 Y29.378
N1035 X3.185 Y29.425
N1040 X4.1 Y29.454
N1045 X5.015 Y29.472
N1050 X5.931 Y29.483
N1055 X6.846 Y29.49
N1060 X7.761 Y29.494
N1065 X9.592 Y29.498
N1070 X13.254 Y29.5
N1075 X39.801
N1080 X40.712 Y29.409
N1085 X41.563 Y29.07
N1090 X42.294 Y28.52
N1095 X42.88 Y27.816
N1100 X43.321 Y27.014
N1105 X43.638 Y26.155
N1110 X43.855 Y25.266
N1115 X44. Y24.362
N1120 X44.094 Y23.451
N1125 X44.154 Y22.538
N1130 X44.191 Y21.623
N1135 X44.214 Y20.708
N1140 X44.228 Y19.793
N1145 X44.237 Y18.877
N1150 X44.242 Y17.962
N1155 X44.245 Y17.047
N1160 X44.247 Y16.131
N1165 X44.249 Y13.385
N1170 X44.25 Y1.484
N1175 X44.038 Y0.594
N1180 X43.585 Y-0.201
N1185 X42.948 Y-0.859
N1190 X42.188 Y-1.369
N1195 X41.353 Y-1.744
N1200 X40.476 Y-2.008
N1205 X39.578 Y-2.187
N1210 X38.67 Y-2.304
N1215 X37.758 Y-2.379
N1220 X36.844 Y-2.426
N1225 X35.929 Y-2.455
N1230 X35.013 Y-2.473
N1235 X34.098 Y-2.483
N1240 X33.183 Y-2.49
N1245 X32.267 Y-2.494
N1250 X30.436 Y-2.498
N1255 X26.775 Y-2.5
N1260 X10.297
N1265 X2.058
N1270 X1.143 Y-2.484
N1275 X0.236 Y-2.36
N1280 X-0.607 Y-2.004
N1285 X-1.329 Y-1.441
N1290 X-1.905 Y-0.729
N1295 X-2.338 Y0.077
N1300 X-2.648 Y0.938
N1305 X-2.862 Y1.829
N1310 X-3.004 Y2.733
N1315 X-3.096 Y3.644
N1320 X-3.155 Y4.557
N1325 X-3.191 Y5.472
N1330 X-3.214 Y6.387
N1335 X-3.228 Y7.302
N1340 X-3.237 Y8.218
N1345 X-3.242 Y9.133
N1350 X-3.245 Y10.049
N1355 X-3.248 Y11.879
N1360 X-3.25 Y16.456
N1365 Y22.864
N1370 X-3.248 Y23.78
N1375 X-3.167 Y24.692
N1380 X-2.863 Y25.555
N1385 X-2.351 Y26.314
N1390 X-1.679 Y26.936
N1395 X-0.9 Y27.416
N1400 X-0.055 Y27.769
N1405 X0.826 Y28.018
N1410 X1.725 Y28.188
N1415 X2.634 Y28.301
N1420 X3.546 Y28.375
N1425 X4.461 Y28.422
N1430 X5.376 Y28.451
N1435 X6.291 Y28.47
N1440 X7.206 Y28.482
N1445 X8.121 Y28.489
N1450 X9.037 Y28.493
N1455 X9.952 Y28.496
N1460 X11.783 Y28.498
N1465 X17.276 Y28.5
N1470 X38.33
N1475 X39.245 Y28.454
N1480 X40.125 Y28.202
N1485 X40.911 Y27.732
N1490 X41.563 Y27.09
N1495 X42.073 Y26.33
N1500 X42.452 Y25.496
N1505 X42.722 Y24.622
N1510 X42.908 Y23.725
N1515 X43.032 Y22.818
N1520 X43.112 Y21.906
N1525 X43.164 Y20.992
N1530 X43.197 Y20.078
N1535 X43.217 Y19.162
N1540 X43.23 Y18.247
N1545 X43.238 Y17.332
N1550 X43.242 Y16.416
N1555 X43.245 Y15.501
N1560 X43.248 Y13.67
N1565 X43.249 Y11.839
N1570 X43.25 Y3.6
N1575 X43.234 Y2.685
N1580 X43.031 Y1.792
N1585 X42.601 Y0.984
N1590 X41.988 Y0.305
N1595 X41.247 Y-0.233
N1600 X40.425 Y-0.636
N1605 X39.556 Y-0.926
N1610 X38.663 Y-1.126
N1615 X37.758 Y-1.261
N1620 X36.847 Y-1.349
N1625 X35.933 Y-1.406
N1630 X35.018 Y-1.441
N1635 X34.103 Y-1.464
N1640 X33.188 Y-1.478
N1645 X32.272 Y-1.486
N1650 X31.357 Y-1.492
N1655 X30.442 Y-1.495
N1660 X28.611 Y-1.498
N1665 X24.034 Y-1.5
N1670 X3.894
N1675 X2.979 Y-1.499
N1680 X2.064 Y-1.473
N1685 X1.167 Y-1.292
N1690 X0.346 Y-0.886
N1695 X-0.353 Y-0.295
N1700 X-0.91 Y0.431
N1705 X-1.332 Y1.244
N1710 X-1.636 Y2.107
N1715 X-1.848 Y2.998
N1720 X-1.991 Y3.902
N1725 X-2.085 Y4.813
N1730 X-2.146 Y5.726
N1735 X-2.185 Y6.641
N1740 X-2.21 Y7.556
N1745 X-2.225 Y8.471
N1750 X-2.235 Y9.386
N1755 X-2.241 Y10.302
N1760 X-2.244 Y11.217
N1765 X-2.248 Y13.048
N1770 X-2.25 Y16.71
N1775 Y22.202
N1780 X-2.227 Y23.118
N1785 X-2.038 Y24.013
N1790 X-1.635 Y24.835
N1795 X-1.05 Y25.539
N1800 X-0.329 Y26.103
N1805 X0.479 Y26.534
N1810 X1.339 Y26.848
N1815 X2.227 Y27.069
N1820 X3.13 Y27.219
N1825 X4.04 Y27.319
N1830 X4.953 Y27.385
N1835 X5.868 Y27.427
N1840 X6.783 Y27.454
N1845 X7.698 Y27.471
N1850 X8.613 Y27.482
N1855 X9.529 Y27.489
N1860 X10.444 Y27.493
N1865 X12.275 Y27.497
N1870 X15.021 Y27.499
N1875 X17.767 Y27.5
N1880 X36.991
N1885 X37.906 Y27.472
N1890 X38.8 Y27.275
N1895 X39.618 Y26.864
N1900 X40.315 Y26.27
N1905 X40.873 Y25.544
N1910 X41.298 Y24.734
N1915 X41.608 Y23.872
N1920 X41.826 Y22.983
N1925 X41.975 Y22.08
N1930 X42.073 Y21.17
N1935 X42.138 Y20.257
N1940 X42.179 Y19.342
N1945 X42.206 Y18.427
N1950 X42.222 Y17.512
N1955 X42.233 Y16.596
N1960 X42.239 Y15.681
N1965 X42.243 Y14.766
N1970 X42.248 Y12.935
N1975 X42.25 Y9.273
N1980 Y4.696
N1985 X42.219 Y3.781
N1990 X42.012 Y2.889
N1995 X41.586 Y2.079
N2000 X40.981 Y1.393
N2005 X40.248 Y0.844
N2010 X39.432 Y0.428
N2015 X38.568 Y0.125
N2020 X37.678 Y-0.087
N2025 X36.774 Y-0.232
N2030 X35.864 Y-0.328
N2035 X34.95 Y-0.391
N2040 X34.036 Y-0.431
N2045 X33.121 Y-0.457
N2050 X32.205 Y-0.473
N2055 X31.29 Y-0.483
N2060 X30.375 Y-0.49
N2065 X29.459 Y-0.494
N2070 X27.628 Y-0.498
N2075 X23.967 Y-0.5
N2080 X4.743
N2085 X3.827 Y-0.496
N2090 X2.914 Y-0.44
N2095 X2.032 Y-0.195
N2100 X1.237 Y0.26
N2105 X0.568 Y0.885
N2110 X0.037 Y1.63
N2115 X-0.363 Y2.454
N2120 X-0.653 Y3.322
N2125 X-0.855 Y4.215
N2130 X-0.993 Y5.12
N2135 X-1.085 Y6.031
N2140 X-1.145 Y6.944
N2145 X-1.183 Y7.859
N2150 X-1.208 Y8.774
N2155 X-1.224 Y9.689
N2160 X-1.234 Y10.604
N2165 X-1.24 Y11.52
N2170 X-1.244 Y12.435
N2175 X-1.248 Y14.266
N2180 X-1.25 Y17.928
N2185 Y20.674
N2190 X-1.244 Y21.589
N2195 X-1.149 Y22.5
N2200 X-0.852 Y23.366
N2205 X-0.358 Y24.136
N2210 X0.296 Y24.778
N2215 X1.059 Y25.282
N2220 X1.893 Y25.661
N2225 X2.766 Y25.935
N2230 X3.662 Y26.125
N2235 X4.568 Y26.255
N2240 X5.479 Y26.342
N2245 X6.393 Y26.398
N2250 X7.308 Y26.435
N2255 X8.223 Y26.459
N2260 X9.138 Y26.474
N2265 X10.053 Y26.484
N2270 X10.969 Y26.49
N2275 X11.884 Y26.494
N2280 X13.715 Y26.498
N2285 X17.377 Y26.5
N2290 X35.685
N2295 X36.6 Y26.484
N2300 X37.504 Y26.335
N2305 X38.348 Y25.981
N2310 X39.082 Y25.434
N2315 X39.682 Y24.743
N2320 X40.149 Y23.955
N2325 X40.496 Y23.108
N2330 X40.744 Y22.227
N2335 X40.917 Y21.328
N2340 X41.033 Y20.42
N2345 X41.111 Y19.508
N2350 X41.161 Y18.594
N2355 X41.194 Y17.679
N2360 X41.215 Y16.764
N2365 X41.228 Y15.849
N2370 X41.236 Y14.933
N2375 X41.241 Y14.018
N2380 X41.245 Y13.102
N2385 X41.248 Y11.272
N2390 X41.25 Y7.61
N2395 X41.249 Y5.779
N2400 X41.211 Y4.864
N2405 X41.002 Y3.973
N2410 X40.581 Y3.16
N2415 X39.984 Y2.467
N2420 X39.258 Y1.909
N2425 X38.448 Y1.482
N2430 X37.588 Y1.168
N2435 X36.7 Y0.946
N2440 X35.798 Y0.793
N2445 X34.888 Y0.69
N2450 X33.975 Y0.622
N2455 X33.061 Y0.578
N2460 X32.146 Y0.549
N2465 X31.23 Y0.531
N2470 X30.315 Y0.52
N2475 X29.4 Y0.512
N2480 X28.484 Y0.508
N2485 X27.569 Y0.505
N2490 X25.738 Y0.502
N2495 X21.161 Y0.5
N2500 X16.584
N2505 X5.599 Y0.501
N2510 X4.683 Y0.51
N2515 X3.773 Y0.608
N2520 X2.907 Y0.903
N2525 X2.136 Y1.397
N2530 X1.493 Y2.048
N2535 X0.986 Y2.81
N2540 X0.604 Y3.643
N2545 X0.328 Y4.515
N2550 X0.134 Y5.41
N2555 X0.002 Y6.316
N2560 X-0.087 Y7.227
N2565 X-0.145 Y8.141
N2570 X-0.183 Y9.055
N2575 X-0.207 Y9.97
N2580 X-0.223 Y10.886
N2585 X-0.233 Y11.801
N2590 X-0.239 Y12.716
N2595 X-0.243 Y13.632
N2600 X-0.247 Y15.463
N2605 X-0.25 Y19.124
N2610 X-0.248 Y20.04
N2615 X-0.217 Y20.955
N2620 X-0.032 Y21.851
N2625 X0.357 Y22.68
N2630 X0.926 Y23.397
N2635 X1.63 Y23.981
N2640 X2.427 Y24.433
N2645 X3.279 Y24.768
N2650 X4.162 Y25.007
N2655 X5.063 Y25.173
N2660 X5.971 Y25.285
N2665 X6.883 Y25.36
N2670 X7.797 Y25.41
N2675 X8.712 Y25.442
N2680 X9.627 Y25.463
N2685 X10.543 Y25.477
N2690 X11.458 Y25.485
N2695 X12.374 Y25.491
N2700 X13.289 Y25.494
N2705 X15.12 Y25.498
N2710 X18.782 Y25.5
N2715 X34.344
N2720 X35.259 Y25.495
N2725 X36.17 Y25.4
N2730 X37.037 Y25.109
N2735 X37.812 Y24.621
N2740 X38.461 Y23.975
N2745 X38.975 Y23.217
N2750 X39.364 Y22.389
N2755 X39.648 Y21.519
N2760 X39.848 Y20.625
N2765 X39.986 Y19.72
N2770 X40.078 Y18.81
N2775 X40.139 Y17.896
N2780 X40.179 Y16.982
N2785 X40.205 Y16.067
N2790 X40.221 Y15.151
N2795 X40.232 Y14.236
N2800 X40.239 Y13.321
N2805 X40.243 Y12.405
N2810 X40.247 Y10.574
N2815 X40.249 Y7.828
N2820 Y6.913
N2825 X40.212 Y5.998
N2830 X40.016 Y5.104
N2835 X39.616 Y4.281
N2840 X39.036 Y3.572
N2845 X38.324 Y2.997
N2850 X37.523 Y2.553
N2855 X36.669 Y2.223
N2860 X35.785 Y1.987
N2865 X34.884 Y1.823
N2870 X33.976 Y1.712
N2875 X33.063 Y1.637
N2880 X32.149 Y1.588
N2885 X31.234 Y1.557
N2890 X30.319 Y1.536
N2895 X29.404 Y1.523
N2900 X28.488 Y1.514
N2905 X27.573 Y1.509
N2910 X26.657 Y1.506
N2915 X24.827 Y1.502
N2920 X21.165 Y1.5
N2925 X7.434
N2930 X6.518 Y1.501
N2935 X5.603 Y1.519
N2940 X4.696 Y1.645
N2945 X3.84 Y1.97
N2950 X3.085 Y2.487
N2955 X2.457 Y3.153
N2960 X1.963 Y3.924
N2965 X1.591 Y4.76
N2970 X1.322 Y5.635
N2975 X1.132 Y6.531
N2980 X1.002 Y7.437
N2985 X0.915 Y8.348
N2990 X0.857 Y9.262
N2995 X0.819 Y10.176
N3000 X0.794 Y11.092
N3005 X0.778 Y12.007
N3010 X0.768 Y12.922
N3015 X0.761 Y13.838
N3020 X0.757 Y14.753
N3025 X0.753 Y16.584
N3030 X0.751 Y18.415
N3035 X0.758 Y19.33
N3040 X0.835 Y20.242
N3045 X1.094 Y21.12
N3050 X1.551 Y21.914
N3055 X2.171 Y22.587
N3060 X2.91 Y23.127
N3065 X3.728 Y23.539
N3070 X4.592 Y23.841
N3075 X5.482 Y24.056
N3080 X6.385 Y24.205
N3085 X7.295 Y24.306
N3090 X8.208 Y24.373
N3095 X9.122 Y24.418
N3100 X10.037 Y24.447
N3105 X10.952 Y24.466
N3110 X11.868 Y24.478
N3115 X12.783 Y24.486
N3120 X13.698 Y24.491
N3125 X14.614 Y24.494
N3130 X16.445 Y24.498
N3135 X20.106 Y24.5
N3140 X32.922
N3145 X33.838 Y24.498
N3150 X34.752 Y24.453
N3155 X35.644 Y24.245
N3160 X36.464 Y23.839
N3165 X37.17 Y23.257
N3170 X37.745 Y22.544
N3175 X38.189 Y21.744
N3180 X38.519 Y20.89
N3185 X38.756 Y20.006
N3190 X38.922 Y19.105
N3195 X39.034 Y18.197
N3200 X39.109 Y17.285
N3205 X39.159 Y16.371
N3210 X39.191 Y15.456
N3215 X39.212 Y14.541
N3220 X39.226 Y13.625
N3225 X39.235 Y12.71
N3230 X39.24 Y11.794
N3235 X39.244 Y10.879
N3240 X39.248 Y9.048
N3245 Y8.133
N3250 X39.222 Y7.218
N3255 X39.061 Y6.317
N3260 X38.702 Y5.474
N3265 X38.157 Y4.739
N3270 X37.47 Y4.134
N3275 X36.687 Y3.66
N3280 X35.843 Y3.305
N3285 X34.965 Y3.047
N3290 X34.067 Y2.866
N3295 X33.16 Y2.742
N3300 X32.249 Y2.658
N3305 X31.335 Y2.602
N3310 X30.42 Y2.566
N3315 X29.505 Y2.542
N3320 X28.59 Y2.527
N3325 X27.675 Y2.517
N3330 X26.759 Y2.511
N3335 X25.844 Y2.507
N3340 X24.013 Y2.503
N3345 X21.267 Y2.501
N3350 X8.451 Y2.5
N3355 X7.535 Y2.501
N3360 X6.62 Y2.523
N3365 X5.715 Y2.657
N3370 X4.86 Y2.986
N3375 X4.106 Y3.505
N3380 X3.479 Y4.172
N3385 X2.984 Y4.942
N3390 X2.61 Y5.777
N3395 X2.338 Y6.651
N3400 X2.145 Y7.546
N3405 X2.012 Y8.452
N3410 X1.922 Y9.363
N3415 X1.862 Y10.276
N3420 X1.823 Y11.191
N3425 X1.797 Y12.106
N3430 X1.78 Y13.021
N3435 X1.769 Y13.937
N3440 X1.762 Y14.852
N3445 X1.758 Y15.767
N3450 X1.755 Y16.683
N3455 X1.754 Y17.598
N3460 X1.77 Y18.514
N3465 X1.885 Y19.422
N3470 X2.192 Y20.284
N3475 X2.689 Y21.053
N3480 X3.34 Y21.697
N3485 X4.099 Y22.208
N3490 X4.928 Y22.596
N3495 X5.799 Y22.88
N3500 X6.692 Y23.082
N3505 X7.596 Y23.221
N3510 X8.507 Y23.316
N3515 X9.42 Y23.379
N3520 X10.335 Y23.421
N3525 X10.877 Y23.438
N3530 X11.048 Y23.451
N3535 X11.216 Y23.48
N3540 X11.382 Y23.525
N3545 X12.52 Y23.89
N3550 X12.728 Y23.949
N3555 X12.867 Y23.982
N3560 X13.143 Y24.03
N3565 X13.351 Y24.05
N3570 X13.974 Y24.103
N3575 X14.39 Y24.136
N3580 X14.598 Y24.153
N3585 X15.114 Y24.19
N3590 X15.221
N3595 X15.637 Y24.161
N3600 X15.844 Y24.142
N3605 X17.091 Y23.957
N3610 X17.299 Y23.92
N3615 X17.714 Y23.843
N3620 X17.965 Y23.797
N3625 X18.562 Y23.712
N3630 X19.467 Y23.621
N3635 X20.381 Y23.57
N3640 X21.295 Y23.541
N3645 X22.211 Y23.524
N3650 X23.126 Y23.514
N3655 X24.042 Y23.508
N3660 X24.957 Y23.505
N3665 X26.788 Y23.502
N3670 X32.28 Y23.5
N3675 X33.196 Y23.488
N3680 X34.105 Y23.383
N3685 X34.972 Y23.09
N3690 X35.749 Y22.606
N3695 X36.404 Y21.966
N3700 X36.926 Y21.214
N3705 X37.323 Y20.389
N3710 X37.615 Y19.521
N3715 X37.821 Y18.63
N3720 X37.965 Y17.726
N3725 X38.062 Y16.815
N3730 X38.127 Y15.902
N3735 X38.17 Y14.988
N3740 X38.198 Y14.073
N3745 X38.217 Y13.158
N3750 X38.229 Y12.242
N3755 X38.236 Y11.327
N3760 X38.241 Y10.411
N3765 X38.244 Y9.496
N3770 X38.238 Y8.581
N3775 X38.139 Y7.671
N3780 X37.85 Y6.802
N3785 X37.371 Y6.022
N3790 X36.732 Y5.366
N3795 X35.982 Y4.841
N3800 X35.159 Y4.441
N3805 X34.292 Y4.146
N3810 X33.401 Y3.936
N3815 X32.497 Y3.791
N3820 X31.587 Y3.691
N3825 X30.674 Y3.625
N3830 X29.76 Y3.581
N3835 X28.845 Y3.553
N3840 X27.93 Y3.534
N3845 X27.014 Y3.522
N3850 X26.099 Y3.514
N3855 X25.184 Y3.509
N3860 X24.268 Y3.506
N3865 X23.353 Y3.504
N3870 X20.606 Y3.501
N3875 X19.262 Y3.5
N3880 X19.102 Y3.493
N3885 X18.943 Y3.473
N3890 X18.787 Y3.438
N3895 X17.922 Y3.206
N3900 X17.714 Y3.157
N3905 X17.299 Y3.08
N3910 X17.091 Y3.043
N3915 X15.844 Y2.858
N3920 X15.637 Y2.839
N3925 X15.221 Y2.81
N3930 X15.114
N3935 X14.598 Y2.847
N3940 X14.182 Y2.881
N3945 X13.559 Y2.932
N3950 X13.351 Y2.95
N3955 X13.143 Y2.97
N3960 X12.867 Y3.018
N3965 X12.728 Y3.051
N3970 X12.468 Y3.111
N3975 X12.05 Y3.192
N3980 X11.477 Y3.278
N3985 X10.621 Y3.367
N3990 X9.707 Y3.423
N3995 X8.793 Y3.456
N4000 X7.878 Y3.485
N4005 X6.968 Y3.589
N4010 X6.098 Y3.873
N4015 X5.315 Y4.347
N4020 X4.653 Y4.98
N4025 X4.123 Y5.726
N4030 X3.716 Y6.546
N4035 X3.416 Y7.411
N4040 X3.201 Y8.301
N4045 X3.052 Y9.204
N4050 X2.949 Y10.114
N4055 X2.881 Y11.026
N4060 X2.835 Y11.941
N4065 X2.805 Y12.856
N4070 X2.786 Y13.771
N4075 X2.773 Y14.686
N4080 X2.765 Y15.602
N4085 X2.76 Y16.517
N4090 X2.773 Y17.432
N4095 X2.88 Y18.342
N4100 X3.171 Y19.209
N4105 X3.658 Y19.985
N4110 X4.3 Y20.637
N4115 X5.053 Y21.158
N4120 X5.877 Y21.557
N4125 X6.744 Y21.85
N4130 X7.635 Y22.059
N4135 X8.539 Y22.205
N4140 X8.78 Y22.26
N4145 X9.012 Y22.345
N4150 X9.231 Y22.459
N4155 X9.611 Y22.687
N4160 X9.819 Y22.812
N4165 X10.047 Y22.944
N4170 X10.442 Y23.165
N4175 X10.65 Y23.274
N4180 X10.858 Y23.351
N4185 X11.273 Y23.49
N4190 X11.382 Y23.525
N4195 X11.39 Y23.528 Z45.002
N4200 G2 X12.234 Y23.924 Z45.2 I3.486 J-6.342
N4205 X13.15 Y24.214 I2.641 J-6.737
N4210 G1 X13.206 Y24.225
N4215 X13.263 Y24.231
N4220 X15.773 Y24.357
N4225 X15.83
N4230 X15.887 Y24.352
N4235 G2 X16.826 Y24.155 I-1.012 J-7.166
N4240 X17.707 Y23.846 Z45.002 I-1.951 J-6.969
N4245 G1 X17.714 Y23.843 Z45.
N4250 X17.922 Y23.794
N4255 X20.831 Y23.014
N4260 X21.279 Y22.917
N4265 X21.694 Y22.833
N4270 X22.258 Y22.745
N4275 X23.076 Y22.653
N4280 X23.99 Y22.59
N4285 X24.904 Y22.554
N4290 X25.82 Y22.532
N4295 X26.735 Y22.519
N4300 X27.65 Y22.512
N4305 X28.566 Y22.507
N4310 X29.481 Y22.504
N4315 X31.312 Y22.5
N4320 X32.227 Y22.482
N4325 X33.135 Y22.365
N4330 X33.999 Y22.062
N4335 X34.769 Y21.567
N4340 X35.416 Y20.92
N4345 X35.932 Y20.163
N4350 X36.325 Y19.337
N4355 X36.613 Y18.468
N4360 X36.819 Y17.576
N4365 X36.962 Y16.672
N4370 X37.059 Y15.761
N4375 X37.125 Y14.848
N4380 X37.168 Y13.934
N4385 X37.197 Y13.019
N4390 X37.216 Y12.104
N4395 X37.228 Y11.188
N4400 X37.234 Y10.273
N4405 X37.215 Y9.358
N4410 X37.071 Y8.454
N4415 X36.729 Y7.604
N4420 X36.203 Y6.855
N4425 X35.533 Y6.232
N4430 X34.761 Y5.739
N4435 X33.925 Y5.366
N4440 X33.051 Y5.094
N4445 X32.156 Y4.901
N4450 X31.251 Y4.768
N4455 X30.34 Y4.677
N4460 X29.426 Y4.616
N4465 X28.512 Y4.576
N4470 X27.597 Y4.549
N4475 X26.681 Y4.532
N4480 X25.766 Y4.521
N4485 X24.851 Y4.513
N4490 X23.935 Y4.509
N4495 X23.002 Y4.505
N4500 X22.843 Y4.498
N4505 X22.686 Y4.477
N4510 X22.531 Y4.443
N4515 X18.787 Y3.438
N4520 X18.779 Y3.435 Z45.002
N4525 G2 X17.918 Y3.075 Z45.2 I-3.491 J7.149
N4530 X17.485 Y2.937 I-2.63 J7.508
N4535 G1 X17.421 Y2.923
N4540 X17.357 Y2.915
N4545 X14.205 Y2.715
N4550 X14.14 Y2.714
N4555 X14.075 Y2.721
N4560 G2 X13.635 Y2.801 I1.213 J7.862
N4565 X12.728 Y3.051 Z45. I1.653 J7.782
N4570 G1 X12.52 Y3.11
N4575 X11.273 Y3.51
N4580 X10.858 Y3.649
N4585 X10.65 Y3.726
N4590 X10.615 Y3.744
N4595 X10.479 Y3.807
N4600 X10.271 Y3.882
N4605 X10.013 Y3.963
N4610 X9.592 Y4.075
N4615 X8.698 Y4.272
N4620 X7.807 Y4.482
N4625 X6.963 Y4.836
N4630 X6.211 Y5.358
N4635 X5.579 Y6.02
N4640 X5.072 Y6.782
N4645 X4.684 Y7.611
N4650 X4.396 Y8.48
N4655 X4.19 Y9.372
N4660 X4.046 Y10.276
N4665 X3.947 Y11.186
N4670 X3.88 Y12.099
N4675 X3.835 Y13.014
N4680 X3.806 Y13.929
N4685 X3.786 Y14.844
N4690 X3.777 Y15.759
N4695 X3.799 Y16.674
N4700 X3.952 Y17.577
N4705 X4.304 Y18.422
N4710 X4.838 Y19.166
N4715 X5.513 Y19.783
N4720 X6.288 Y20.27
N4725 X6.705 Y20.454
N4730 X6.898 Y20.552
N4735 X7.078 Y20.673
N4740 X7.243 Y20.814
N4745 X7.949 Y21.498
N4750 X8.171 Y21.699
N4755 X8.402 Y21.906
N4760 X8.572 Y22.052
N4765 X8.669 Y22.114
N4770 X9.231 Y22.459
N4775 X9.244 Y22.471 Z45.004
N4780 X9.253 Y22.486 Z45.007
N4785 G2 X9.634 Y23.308 Z45.2 I5.894 J-2.237
N4790 X13.072 Y26.201 I5.512 J-3.059
N4795 G1 X13.155 Y26.224
N4800 X13.24 Y26.234
N4805 X16.468 Y26.39
N4810 X16.554 Y26.388
N4815 X16.639 Y26.373
N4820 G2 X20.344 Y23.815 I-1.492 J-6.125
N4825 X20.797 Y23.042 Z45.01 I-5.198 J-3.566
N4830 G1 X20.811 Y23.024 Z45.005
N4835 X20.831 Y23.014 Z45.
N4840 X24.571 Y22.01
N4845 X25.009 Y21.915
N4850 X25.438 Y21.83
N4855 X26.021 Y21.741
N4860 X26.874 Y21.647
N4865 X27.787 Y21.588
N4870 X28.702 Y21.553
N4875 X29.617 Y21.531
N4880 X30.532 Y21.514
N4885 X31.447 Y21.475
N4890 X32.347 Y21.311
N4895 X33.19 Y20.952
N4900 X33.93 Y20.413
N4905 X34.544 Y19.734
N4910 X35.029 Y18.958
N4915 X35.395 Y18.119
N4920 X35.662 Y17.243
N4925 X35.852 Y16.348
N4930 X35.983 Y15.442
N4935 X36.073 Y14.531
N4940 X36.133 Y13.617
N4945 X36.174 Y12.703
N4950 X36.2 Y11.788
N4955 X36.21 Y10.872
N4960 X36.152 Y9.959
N4965 X35.921 Y9.073
N4970 X35.494 Y8.263
N4975 X34.9 Y7.567
N4980 X34.18 Y7.001
N4985 X33.376 Y6.564
N4990 X32.52 Y6.238
N4995 X31.635 Y6.004
N5000 X30.735 Y5.839
N5005 X29.826 Y5.726
N5010 X28.914 Y5.65
N5015 X28. Y5.598
N5020 X27.085 Y5.564
N5025 X26.89 Y5.56
N5030 X26.745 Y5.55
N5035 X26.601 Y5.529
N5040 X26.46 Y5.497
N5045 X22.531 Y4.443
N5050 X22.508 Y4.429 Z45.006
N5055 X22.494 Y4.407 Z45.011
N5060 G2 X22.148 Y3.589 Z45.2 I-6.069 J2.087
N5065 X19.733 Y0.994 I-5.723 J2.905
N5070 X19.458 Y0.91 I-0.309 J0.514
N5075 G1 X14.058 Y0.596
N5080 G2 X13.775 Y0.649 I-0.035 J0.599
N5085 X11.087 Y2.932 I2.65 J5.845
N5090 X10.638 Y3.72 Z45.007 I5.338 J3.563
N5095 G1 X10.628 Y3.734 Z45.004
N5100 X10.615 Y3.744 Z45.
N5105 X10.442 Y3.835
N5110 X10.026 Y4.067
N5115 X9.819 Y4.188
N5120 X9.347 Y4.471
N5125 X9.195 Y4.563
N5130 X8.669 Y4.886
N5135 X8.572 Y4.948
N5140 X8.544 Y4.972
N5145 X7.818 Y5.531
N5150 X7.125 Y6.129
N5155 X6.535 Y6.828
N5160 X6.056 Y7.609
N5165 X5.96 Y7.825
N5170 X5.92 Y7.91
N5175 X5.875 Y7.993
N5180 X5.826 Y8.074
N5185 G3 X5.334 Y8.331 Z45.123 I-0.493 J-0.343
N5190 G1 X5.333
N5195 G3 X4.991 Y8.224 Z45.2 I0. J-0.6
N5200 X4.882 Y7.336 I0.342 J-0.493
N5205 G1 X7.687 Y4.134
N5210 G3 X8.581 Y4.125 I0.451 J0.395
N5215 X8.544 Y4.972 Z45. I-0.443 J0.405
N5220 G1 X8.402 Y5.094
N5225 X8.156 Y5.314
N5230 X7.942 Y5.509
N5235 X7.117 Y6.307
N5240 X7.087 Y6.339
N5245 X6.702 Y6.756
N5250 X6.545 Y6.962
N5255 X6.008 Y7.792
N5260 X5.74 Y8.207
N5265 X5.663 Y8.333
N5270 X5.382 Y8.83
N5275 X5.292 Y9.037
N5280 X5.138 Y9.452
N5285 X5.04 Y9.722
N5290 X4.69 Y10.698
N5295 X4.625 Y10.905
N5300 X4.545 Y11.321
N5305 X4.506 Y11.528
N5310 X4.362 Y12.774
N5315 X4.343 Y12.981
N5320 X4.31 Y13.396
N5325 Y13.604
N5330 X4.343 Y14.019
N5335 X4.362 Y14.226
N5340 X4.506 Y15.472
N5345 X4.585 Y15.887
N5350 X4.625 Y16.095
N5355 X4.69 Y16.302
N5360 X5.062 Y17.34
N5365 X5.138 Y17.548
N5370 X5.292 Y17.963
N5375 X5.382 Y18.17
N5380 X5.663 Y18.667
N5385 X5.74 Y18.793
N5390 X6.286 Y19.639
N5395 X6.545 Y20.038
N5400 X6.704 Y20.246
N5405 X7.087 Y20.661
N5410 X7.117 Y20.693
N5415 X7.243 Y20.814
N5420 X7.256 Y20.837 Z45.006
N5425 G2 X7.566 Y21.698 Z45.2 I8.87 J-2.703
N5430 X11.068 Y25.906 I8.561 J-3.564
N5435 X11.354 Y26.002 I0.327 J-0.503
N5440 G1 X19.763 Y26.587
N5445 G2 X20.059 Y26.532 I0.042 J-0.599
N5450 X24.121 Y22.832 I-3.933 J-8.398
N5455 X24.537 Y22.039 Z45.01 I-7.995 J-4.698
N5460 G1 X24.551 Y22.021 Z45.005
N5465 X24.571 Y22.01 Z45.
N5470 X28.311 Y21.006
N5475 X28.759 Y20.909
N5480 X29.657 Y20.73
N5485 X30.561 Y20.59
N5490 X31.447 Y20.361
N5495 X32.271 Y19.962
N5500 X32.991 Y19.396
N5505 X33.586 Y18.701
N5510 X33.668 Y18.564
N5515 X33.731 Y18.465
N5520 X33.801 Y18.371
N5525 X33.876 Y18.281
N5530 G3 X34.724 Y18.264 Z45.2 I0.433 J0.416
N5535 X34.575 Y19.234 I-0.415 J0.433
N5540 G1 X28.753 Y22.117
N5545 G3 X27.913 Y21.754 I-0.266 J-0.538
N5550 X28.311 Y21.006 Z45. I0.574 J-0.175
N5555 G1 X30.181 Y20.504
N5560 X30.805 Y20.298
N5565 X30.933 Y20.246
N5570 X31.636 Y19.942
N5575 X31.844 Y19.851
N5580 X32.051 Y19.751
N5585 X32.259 Y19.634
N5590 X32.467 Y19.5
N5595 X32.675 Y19.337
N5600 X32.833 Y19.208
N5605 X33.574 Y18.585
N5610 X33.79 Y18.378
N5615 X33.922 Y18.231
N5620 X33.973 Y18.17
N5625 X34.13 Y17.963
N5630 X34.678 Y17.132
N5635 X34.96 Y16.672
N5640 X35.035 Y16.51
N5645 X35.122 Y16.302
N5650 X35.194 Y16.095
N5655 X35.381 Y15.472
N5660 X35.441 Y15.264
N5665 X35.584 Y14.758
N5670 X35.604 Y14.642
N5675 X35.636 Y14.434
N5680 X35.652 Y14.226
N5685 X35.657 Y14.019
N5690 X35.658 Y13.396
N5695 X35.657 Y12.981
N5700 X35.652 Y12.774
N5705 X35.636 Y12.566
N5710 X35.604 Y12.358
N5715 X35.584 Y12.242
N5720 X35.576 Y12.215
N5725 X35.372 Y11.322
N5730 X35.156 Y10.433
N5735 X34.779 Y9.598
N5740 X34.238 Y8.86
N5745 X33.562 Y8.243
N5750 X32.872 Y7.806
N5755 X32.811 Y7.766
N5760 X32.751 Y7.723
N5765 X32.694 Y7.678
N5770 G3 X32.637 Y6.832 Z45.2 I0.395 J-0.452
N5775 X33.595 Y6.904 I0.452 J0.395
N5780 G1 X36.654 Y11.71
N5785 G3 X36.33 Y12.603 I-0.506 J0.322
N5790 X35.576 Y12.215 Z45. I-0.182 J-0.572
N5795 G1 X35.441 Y11.736
N5800 X35.376 Y11.51
N5805 X35.194 Y10.905
N5810 X35.122 Y10.698
N5815 X35.035 Y10.49
N5820 X34.96 Y10.328
N5825 X34.678 Y9.868
N5830 X34.129 Y9.036
N5835 X33.973 Y8.83
N5840 X33.922 Y8.769
N5845 X33.79 Y8.622
N5850 X33.574 Y8.415
N5855 X32.833 Y7.792
N5860 X32.675 Y7.663
N5865 X32.467 Y7.5
N5870 X32.259 Y7.366
N5875 X32.051 Y7.249
N5880 X31.844 Y7.149
N5885 X31.636 Y7.058
N5890 X30.933 Y6.754
N5895 X30.805 Y6.702
N5900 X30.181 Y6.496
N5905 X26.46 Y5.497
N5910 X26.373 Y5.464
N5915 X26.294 Y5.417
N5920 X26.241 Y5.364 Z45.005
N5925 X26.19 Y5.313 Z45.018
N5930 X26.14 Y5.263 Z45.041
N5935 X26.108 Y5.191 Z45.079
N5940 X26.079 Y5.124 Z45.129
N5945 X26.052 Y5.065 Z45.188
N5950 X26.045 Y5.004 Z45.265
N5955 X26.039 Y4.957 Z45.35
N5960 X26.035 Y4.924 Z45.442
N5965 X26.036 Y4.908 Z45.52
N5970 Y4.902 Z45.6
N5975 G0 Z55.
N5980 X-3.72 Y-7.783
N5985 Z42.6
N5990 G1 Z42. F1560.
N5995 Z40.
N6000 G3 X-3.25 Y-4.517 I-14.839 J3.801
N6005 G1 Y-4.402
N6010 X-3.86 Y-3.72
N6015 X-4.319 Y-2.928
N6020 X-4.646 Y-2.073
N6025 X-4.869 Y-1.185
N6030 X-5.014 Y-0.281
N6035 X-5.107 Y0.63
N6040 X-5.164 Y1.543
N6045 X-5.198 Y2.458
N6050 X-5.219 Y3.373
N6055 X-5.232 Y4.289
N6060 X-5.239 Y5.204
N6065 X-5.244 Y6.12
N6070 X-5.246 Y7.035
N6075 X-5.249 Y8.866
N6080 X-5.25 Y15.274
N6085 Y26.717
N6090 X-5.064 Y27.613
N6095 X-4.593 Y28.398
N6100 X-3.932 Y29.031
N6105 X-3.152 Y29.511
N6110 X-2.304 Y29.855
N6115 X-1.42 Y30.092
N6120 X-0.517 Y30.247
N6125 X0.393 Y30.346
N6130 X1.306 Y30.407
N6135 X2.221 Y30.444
N6140 X3.136 Y30.467
N6145 X4.051 Y30.48
N6150 X4.966 Y30.488
N6155 X5.882 Y30.493
N6160 X6.797 Y30.496
N6165 X8.628 Y30.499
N6170 X11.374 Y30.5
N6175 X41.583
N6180 X42.47 Y30.272
N6185 X43.237 Y29.772
N6190 X43.85 Y29.092
N6195 X44.311 Y28.301
N6200 X44.641 Y27.447
N6205 X44.865 Y26.56
N6210 X45.012 Y25.656
N6215 X45.105 Y24.746
N6220 X45.163 Y23.832
N6225 X45.198 Y22.917
N6230 X45.219 Y22.002
N6235 X45.232 Y21.087
N6240 X45.239 Y20.171
N6245 X45.244 Y19.256
N6250 X45.246 Y18.34
N6255 X45.249 Y16.51
N6260 X45.25 Y11.932
N6265 Y0.032
N6270 X44.994 Y-0.847
N6275 X44.461 Y-1.591
N6280 X43.76 Y-2.18
N6285 X42.957 Y-2.62
N6290 X42.096 Y-2.931
N6295 X41.205 Y-3.142
N6300 X40.3 Y-3.279
N6305 X39.389 Y-3.366
N6310 X38.475 Y-3.419
N6315 X37.56 Y-3.452
N6320 X36.645 Y-3.471
N6325 X35.73 Y-3.483
N6330 X34.814 Y-3.49
N6335 X33.899 Y-3.494
N6340 X32.068 Y-3.498
N6345 X28.406 Y-3.5
N6350 X8.267
N6355 X0.028
N6360 X-0.871 Y-3.328
N6365 X-1.736 Y-3.03
N6370 X-2.466 Y-2.478
N6375 X-3.034 Y-1.76
N6380 X-3.448 Y-0.943
N6385 X-3.736 Y-0.074
N6390 X-3.927 Y0.821
N6395 X-4.05 Y1.728
N6400 X-4.128 Y2.64
N6405 X-4.176 Y3.554
N6410 X-4.206 Y4.469
N6415 X-4.223 Y5.385
N6420 X-4.234 Y6.3
N6425 X-4.24 Y7.215
N6430 X-4.244 Y8.131
N6435 X-4.248 Y9.962
N6440 X-4.25 Y13.623
N6445 Y24.608
N6450 X-4.238 Y25.524
N6455 X-4.016 Y26.412
N6460 X-3.559 Y27.205
N6465 X-2.92 Y27.861
N6470 X-2.159 Y28.37
N6475 X-1.324 Y28.744
N6480 X-0.447 Y29.007
N6485 X0.451 Y29.186
N6490 X1.359 Y29.303
N6495 X2.271 Y29.378
N6500 X3.185 Y29.425
N6505 X4.1 Y29.454
N6510 X5.015 Y29.472
N6515 X5.931 Y29.483
N6520 X6.846 Y29.49
N6525 X7.761 Y29.494
N6530 X9.592 Y29.498
N6535 X13.254 Y29.5
N6540 X39.801
N6545 X40.712 Y29.409
N6550 X41.563 Y29.07
N6555 X42.294 Y28.52
N6560 X42.88 Y27.816
N6565 X43.321 Y27.014
N6570 X43.638 Y26.155
N6575 X43.855 Y25.266
N6580 X44. Y24.362
N6585 X44.094 Y23.451
N6590 X44.154 Y22.538
N6595 X44.191 Y21.623
N6600 X44.214 Y20.708
N6605 X44.228 Y19.793
N6610 X44.237 Y18.877
N6615 X44.242 Y17.962
N6620 X44.245 Y17.047
N6625 X44.247 Y16.131
N6630 X44.249 Y13.385
N6635 X44.25 Y1.484
N6640 X44.038 Y0.594
N6645 X43.585 Y-0.201
N6650 X42.948 Y-0.859
N6655 X42.188 Y-1.369
N6660 X41.353 Y-1.744
N6665 X40.476 Y-2.008
N6670 X39.578 Y-2.187
N6675 X38.67 Y-2.304
N6680 X37.758 Y-2.379
N6685 X36.844 Y-2.426
N6690 X35.929 Y-2.455
N6695 X35.013 Y-2.473
N6700 X34.098 Y-2.483
N6705 X33.183 Y-2.49
N6710 X32.267 Y-2.494
N6715 X30.436 Y-2.498
N6720 X26.775 Y-2.5
N6725 X10.297
N6730 X2.058
N6735 X1.143 Y-2.484
N6740 X0.236 Y-2.36
N6745 X-0.607 Y-2.004
N6750 X-1.329 Y-1.441
N6755 X-1.905 Y-0.729
N6760 X-2.338 Y0.077
N6765 X-2.648 Y0.938
N6770 X-2.862 Y1.829
N6775 X-3.004 Y2.733
N6780 X-3.096 Y3.644
N6785 X-3.155 Y4.557
N6790 X-3.191 Y5.472
N6795 X-3.214 Y6.387
N6800 X-3.228 Y7.302
N6805 X-3.237 Y8.218
N6810 X-3.242 Y9.133
N6815 X-3.245 Y10.049
N6820 X-3.248 Y11.879
N6825 X-3.25 Y16.456
N6830 Y22.864
N6835 X-3.248 Y23.78
N6840 X-3.167 Y24.692
N6845 X-2.863 Y25.555
N6850 X-2.351 Y26.314
N6855 X-1.679 Y26.936
N6860 X-0.9 Y27.416
N6865 X-0.055 Y27.769
N6870 X0.826 Y28.018
N6875 X1.725 Y28.188
N6880 X2.634 Y28.301
N6885 X3.546 Y28.375
N6890 X4.461 Y28.422
N6895 X5.376 Y28.451
N6900 X6.291 Y28.47
N6905 X7.206 Y28.482
N6910 X8.121 Y28.489
N6915 X9.037 Y28.493
N6920 X9.952 Y28.496
N6925 X11.783 Y28.498
N6930 X17.276 Y28.5
N6935 X38.33
N6940 X39.245 Y28.454
N6945 X40.125 Y28.202
N6950 X40.911 Y27.732
N6955 X41.563 Y27.09
N6960 X42.073 Y26.33
N6965 X42.452 Y25.496
N6970 X42.722 Y24.622
N6975 X42.908 Y23.725
N6980 X43.032 Y22.818
N6985 X43.112 Y21.906
N6990 X43.164 Y20.992
N6995 X43.197 Y20.078
N7000 X43.217 Y19.162
N7005 X43.23 Y18.247
N7010 X43.238 Y17.332
N7015 X43.242 Y16.416
N7020 X43.245 Y15.501
N7025 X43.248 Y13.67
N7030 X43.249 Y11.839
N7035 X43.25 Y3.6
N7040 X43.234 Y2.685
N7045 X43.031 Y1.792
N7050 X42.601 Y0.984
N7055 X41.988 Y0.305
N7060 X41.247 Y-0.233
N7065 X40.425 Y-0.636
N7070 X39.556 Y-0.926
N7075 X38.663 Y-1.126
N7080 X37.758 Y-1.261
N7085 X36.847 Y-1.349
N7090 X35.933 Y-1.406
N7095 X35.018 Y-1.441
N7100 X34.103 Y-1.464
N7105 X33.188 Y-1.478
N7110 X32.272 Y-1.486
N7115 X31.357 Y-1.492
N7120 X30.442 Y-1.495
N7125 X28.611 Y-1.498
N7130 X24.034 Y-1.5
N7135 X3.894
N7140 X2.979 Y-1.499
N7145 X2.064 Y-1.473
N7150 X1.167 Y-1.292
N7155 X0.346 Y-0.886
N7160 X-0.353 Y-0.295
N7165 X-0.91 Y0.431
N7170 X-1.332 Y1.244
N7175 X-1.636 Y2.107
N7180 X-1.848 Y2.998
N7185 X-1.991 Y3.902
N7190 X-2.085 Y4.813
N7195 X-2.146 Y5.726
N7200 X-2.185 Y6.641
N7205 X-2.21 Y7.556
N7210 X-2.225 Y8.471
N7215 X-2.235 Y9.386
N7220 X-2.241 Y10.302
N7225 X-2.244 Y11.217
N7230 X-2.248 Y13.048
N7235 X-2.25 Y16.71
N7240 Y22.202
N7245 X-2.227 Y23.118
N7250 X-2.038 Y24.013
N7255 X-1.635 Y24.835
N7260 X-1.05 Y25.539
N7265 X-0.329 Y26.103
N7270 X0.479 Y26.534
N7275 X1.339 Y26.848
N7280 X2.227 Y27.069
N7285 X3.13 Y27.219
N7290 X4.04 Y27.319
N7295 X4.953 Y27.385
N7300 X5.868 Y27.427
N7305 X6.783 Y27.454
N7310 X7.698 Y27.471
N7315 X8.613 Y27.482
N7320 X9.529 Y27.489
N7325 X10.444 Y27.493
N7330 X12.275 Y27.497
N7335 X15.021 Y27.499
N7340 X17.767 Y27.5
N7345 X36.991
N7350 X37.906 Y27.472
N7355 X38.8 Y27.275
N7360 X39.618 Y26.864
N7365 X40.315 Y26.27
N7370 X40.873 Y25.544
N7375 X41.298 Y24.734
N7380 X41.608 Y23.872
N7385 X41.826 Y22.983
N7390 X41.975 Y22.08
N7395 X42.073 Y21.17
N7400 X42.138 Y20.257
N7405 X42.179 Y19.342
N7410 X42.206 Y18.427
N7415 X42.222 Y17.512
N7420 X42.233 Y16.596
N7425 X42.239 Y15.681
N7430 X42.243 Y14.766
N7435 X42.248 Y12.935
N7440 X42.25 Y9.273
N7445 Y4.696
N7450 X42.219 Y3.781
N7455 X42.012 Y2.889
N7460 X41.586 Y2.079
N7465 X40.981 Y1.393
N7470 X40.248 Y0.844
N7475 X39.432 Y0.428
N7480 X38.568 Y0.125
N7485 X37.678 Y-0.087
N7490 X36.774 Y-0.232
N7495 X35.864 Y-0.328
N7500 X34.95 Y-0.391
N7505 X34.036 Y-0.431
N7510 X33.121 Y-0.457
N7515 X32.205 Y-0.473
N7520 X31.29 Y-0.483
N7525 X30.375 Y-0.49
N7530 X29.459 Y-0.494
N7535 X27.628 Y-0.498
N7540 X23.967 Y-0.5
N7545 X4.743
N7550 X3.827 Y-0.496
N7555 X2.914 Y-0.44
N7560 X2.032 Y-0.195
N7565 X1.237 Y0.26
N7570 X0.568 Y0.885
N7575 X0.037 Y1.63
N7580 X-0.363 Y2.454
N7585 X-0.653 Y3.322
N7590 X-0.855 Y4.215
N7595 X-0.993 Y5.12
N7600 X-1.085 Y6.031
N7605 X-1.145 Y6.944
N7610 X-1.183 Y7.859
N7615 X-1.208 Y8.774
N7620 X-1.224 Y9.689
N7625 X-1.234 Y10.604
N7630 X-1.24 Y11.52
N7635 X-1.244 Y12.435
N7640 X-1.248 Y14.266
N7645 X-1.25 Y17.928
N7650 Y20.674
N7655 X-1.244 Y21.589
N7660 X-1.149 Y22.5
N7665 X-0.852 Y23.366
N7670 X-0.358 Y24.136
N7675 X0.296 Y24.778
N7680 X1.059 Y25.282
N7685 X1.893 Y25.661
N7690 X2.766 Y25.935
N7695 X3.662 Y26.125
N7700 X4.568 Y26.255
N7705 X5.479 Y26.342
N7710 X6.393 Y26.398
N7715 X7.308 Y26.435
N7720 X8.223 Y26.459
N7725 X9.138 Y26.474
N7730 X10.053 Y26.484
N7735 X10.969 Y26.49
N7740 X11.884 Y26.494
N7745 X13.715 Y26.498
N7750 X17.377 Y26.5
N7755 X35.685
N7760 X36.6 Y26.484
N7765 X37.504 Y26.335
N7770 X38.348 Y25.981
N7775 X39.082 Y25.434
N7780 X39.682 Y24.743
N7785 X40.149 Y23.955
N7790 X40.496 Y23.108
N7795 X40.744 Y22.227
N7800 X40.917 Y21.328
N7805 X41.033 Y20.42
N7810 X41.111 Y19.508
N7815 X41.161 Y18.594
N7820 X41.194 Y17.679
N7825 X41.215 Y16.764
N7830 X41.228 Y15.849
N7835 X41.236 Y14.933
N7840 X41.241 Y14.018
N7845 X41.245 Y13.102
N7850 X41.248 Y11.272
N7855 X41.25 Y7.61
N7860 X41.249 Y5.779
N7865 X41.211 Y4.864
N7870 X41.002 Y3.973
N7875 X40.581 Y3.16
N7880 X39.984 Y2.467
N7885 X39.258 Y1.909
N7890 X38.448 Y1.482
N7895 X37.588 Y1.168
N7900 X36.7 Y0.946
N7905 X35.798 Y0.793
N7910 X34.888 Y0.69
N7915 X33.975 Y0.622
N7920 X33.061 Y0.578
N7925 X32.146 Y0.549
N7930 X31.23 Y0.531
N7935 X30.315 Y0.52
N7940 X29.4 Y0.512
N7945 X28.484 Y0.508
N7950 X27.569 Y0.505
N7955 X25.738 Y0.502
N7960 X21.161 Y0.5
N7965 X16.584
N7970 X5.599 Y0.501
N7975 X4.683 Y0.51
N7980 X3.773 Y0.608
N7985 X2.907 Y0.903
N7990 X2.136 Y1.397
N7995 X1.493 Y2.048
N8000 X0.986 Y2.81
N8005 X0.604 Y3.643
N8010 X0.328 Y4.515
N8015 X0.134 Y5.41
N8020 X0.002 Y6.316
N8025 X-0.087 Y7.227
N8030 X-0.145 Y8.141
N8035 X-0.183 Y9.055
N8040 X-0.207 Y9.97
N8045 X-0.223 Y10.886
N8050 X-0.233 Y11.801
N8055 X-0.239 Y12.716
N8060 X-0.243 Y13.632
N8065 X-0.247 Y15.463
N8070 X-0.25 Y19.124
N8075 X-0.248 Y20.04
N8080 X-0.217 Y20.955
N8085 X-0.032 Y21.851
N8090 X0.357 Y22.68
N8095 X0.926 Y23.397
N8100 X1.63 Y23.981
N8105 X2.427 Y24.433
N8110 X3.279 Y24.768
N8115 X4.162 Y25.007
N8120 X5.063 Y25.173
N8125 X5.971 Y25.285
N8130 X6.883 Y25.36
N8135 X7.797 Y25.41
N8140 X8.712 Y25.442
N8145 X9.627 Y25.463
N8150 X10.543 Y25.477
N8155 X11.458 Y25.485
N8160 X12.374 Y25.491
N8165 X13.289 Y25.494
N8170 X15.12 Y25.498
N8175 X18.782 Y25.5
N8180 X34.344
N8185 X35.259 Y25.495
N8190 X36.17 Y25.4
N8195 X37.037 Y25.109
N8200 X37.812 Y24.621
N8205 X38.461 Y23.975
N8210 X38.975 Y23.217
N8215 X39.364 Y22.389
N8220 X39.648 Y21.519
N8225 X39.848 Y20.625
N8230 X39.986 Y19.72
N8235 X40.078 Y18.81
N8240 X40.139 Y17.896
N8245 X40.179 Y16.982
N8250 X40.205 Y16.067
N8255 X40.221 Y15.151
N8260 X40.232 Y14.236
N8265 X40.239 Y13.321
N8270 X40.243 Y12.405
N8275 X40.247 Y10.574
N8280 X40.249 Y7.828
N8285 Y6.913
N8290 X40.212 Y5.998
N8295 X40.016 Y5.104
N8300 X39.616 Y4.281
N8305 X39.036 Y3.572
N8310 X38.324 Y2.997
N8315 X37.523 Y2.553
N8320 X36.669 Y2.223
N8325 X35.785 Y1.987
N8330 X34.884 Y1.823
N8335 X33.976 Y1.712
N8340 X33.063 Y1.637
N8345 X32.149 Y1.588
N8350 X31.234 Y1.557
N8355 X30.319 Y1.536
N8360 X29.404 Y1.523
N8365 X28.488 Y1.514
N8370 X27.573 Y1.509
N8375 X26.657 Y1.506
N8380 X24.827 Y1.502
N8385 X21.165 Y1.5
N8390 X7.434
N8395 X6.518 Y1.501
N8400 X5.603 Y1.519
N8405 X4.696 Y1.645
N8410 X3.84 Y1.97
N8415 X3.085 Y2.487
N8420 X2.457 Y3.153
N8425 X1.963 Y3.924
N8430 X1.591 Y4.76
N8435 X1.322 Y5.635
N8440 X1.132 Y6.531
N8445 X1.002 Y7.437
N8450 X0.915 Y8.348
N8455 X0.857 Y9.262
N8460 X0.819 Y10.176
N8465 X0.794 Y11.092
N8470 X0.778 Y12.007
N8475 X0.768 Y12.922
N8480 X0.761 Y13.838
N8485 X0.757 Y14.753
N8490 X0.753 Y16.584
N8495 X0.751 Y18.415
N8500 X0.758 Y19.33
N8505 X0.835 Y20.242
N8510 X1.094 Y21.12
N8515 X1.551 Y21.914
N8520 X2.171 Y22.587
N8525 X2.91 Y23.127
N8530 X3.728 Y23.539
N8535 X4.592 Y23.841
N8540 X5.482 Y24.056
N8545 X6.385 Y24.205
N8550 X7.295 Y24.306
N8555 X8.208 Y24.373
N8560 X9.122 Y24.418
N8565 X10.037 Y24.447
N8570 X10.952 Y24.466
N8575 X11.868 Y24.478
N8580 X12.783 Y24.486
N8585 X13.698 Y24.491
N8590 X14.614 Y24.494
N8595 X16.445 Y24.498
N8600 X20.106 Y24.5
N8605 X32.922
N8610 X33.838 Y24.498
N8615 X34.752 Y24.453
N8620 X35.644 Y24.245
N8625 X36.464 Y23.839
N8630 X37.17 Y23.257
N8635 X37.745 Y22.544
N8640 X38.189 Y21.744
N8645 X38.519 Y20.89
N8650 X38.756 Y20.006
N8655 X38.922 Y19.105
N8660 X39.034 Y18.197
N8665 X39.109 Y17.285
N8670 X39.159 Y16.371
N8675 X39.191 Y15.456
N8680 X39.212 Y14.541
N8685 X39.226 Y13.625
N8690 X39.235 Y12.71
N8695 X39.24 Y11.794
N8700 X39.244 Y10.879
N8705 X39.248 Y9.048
N8710 Y8.133
N8715 X39.222 Y7.218
N8720 X39.061 Y6.317
N8725 X38.702 Y5.474
N8730 X38.157 Y4.739
N8735 X37.47 Y4.134
N8740 X36.687 Y3.66
N8745 X35.843 Y3.305
N8750 X34.965 Y3.047
N8755 X34.067 Y2.866
N8760 X33.16 Y2.742
N8765 X32.249 Y2.658
N8770 X31.335 Y2.602
N8775 X30.42 Y2.566
N8780 X29.505 Y2.542
N8785 X28.59 Y2.527
N8790 X27.675 Y2.517
N8795 X26.759 Y2.511
N8800 X25.844 Y2.507
N8805 X24.013 Y2.503
N8810 X21.267 Y2.501
N8815 X8.451 Y2.5
N8820 X7.535 Y2.501
N8825 X6.62 Y2.523
N8830 X5.715 Y2.657
N8835 X4.86 Y2.986
N8840 X4.106 Y3.505
N8845 X3.479 Y4.172
N8850 X2.984 Y4.942
N8855 X2.61 Y5.777
N8860 X2.338 Y6.651
N8865 X2.145 Y7.546
N8870 X2.012 Y8.452
N8875 X1.922 Y9.363
N8880 X1.862 Y10.276
N8885 X1.823 Y11.191
N8890 X1.797 Y12.106
N8895 X1.78 Y13.021
N8900 X1.769 Y13.937
N8905 X1.762 Y14.852
N8910 X1.758 Y15.767
N8915 X1.755 Y16.683
N8920 X1.754 Y17.598
N8925 X1.77 Y18.514
N8930 X1.885 Y19.422
N8935 X2.192 Y20.284
N8940 X2.689 Y21.053
N8945 X3.34 Y21.697
N8950 X4.099 Y22.208
N8955 X4.928 Y22.596
N8960 X5.799 Y22.88
N8965 X6.692 Y23.082
N8970 X7.596 Y23.221
N8975 X8.507 Y23.316
N8980 X9.42 Y23.379
N8985 X10.335 Y23.421
N8990 X10.877 Y23.438
N8995 X11.048 Y23.451
N9000 X11.216 Y23.48
N9005 X11.382 Y23.525
N9010 X12.52 Y23.89
N9015 X12.728 Y23.949
N9020 X12.867 Y23.982
N9025 X13.143 Y24.03
N9030 X13.351 Y24.05
N9035 X13.974 Y24.103
N9040 X14.39 Y24.136
N9045 X14.598 Y24.153
N9050 X15.114 Y24.19
N9055 X15.221
N9060 X15.637 Y24.161
N9065 X15.844 Y24.142
N9070 X17.091 Y23.957
N9075 X17.299 Y23.92
N9080 X17.714 Y23.843
N9085 X17.965 Y23.797
N9090 X18.562 Y23.712
N9095 X19.467 Y23.621
N9100 X20.381 Y23.57
N9105 X21.295 Y23.541
N9110 X22.211 Y23.524
N9115 X23.126 Y23.514
N9120 X24.042 Y23.508
N9125 X24.957 Y23.505
N9130 X26.788 Y23.502
N9135 X32.28 Y23.5
N9140 X33.196 Y23.488
N9145 X34.105 Y23.383
N9150 X34.972 Y23.09
N9155 X35.749 Y22.606
N9160 X36.404 Y21.966
N9165 X36.926 Y21.214
N9170 X37.323 Y20.389
N9175 X37.615 Y19.521
N9180 X37.821 Y18.63
N9185 X37.965 Y17.726
N9190 X38.062 Y16.815
N9195 X38.127 Y15.902
N9200 X38.17 Y14.988
N9205 X38.198 Y14.073
N9210 X38.217 Y13.158
N9215 X38.229 Y12.242
N9220 X38.236 Y11.327
N9225 X38.241 Y10.411
N9230 X38.244 Y9.496
N9235 X38.238 Y8.581
N9240 X38.139 Y7.671
N9245 X37.85 Y6.802
N9250 X37.371 Y6.022
N9255 X36.732 Y5.366
N9260 X35.982 Y4.841
N9265 X35.159 Y4.441
N9270 X34.292 Y4.146
N9275 X33.401 Y3.936
N9280 X32.497 Y3.791
N9285 X31.587 Y3.691
N9290 X30.674 Y3.625
N9295 X29.76 Y3.581
N9300 X28.845 Y3.553
N9305 X27.93 Y3.534
N9310 X27.014 Y3.522
N9315 X26.099 Y3.514
N9320 X25.184 Y3.509
N9325 X24.268 Y3.506
N9330 X23.353 Y3.504
N9335 X20.606 Y3.501
N9340 X19.262 Y3.5
N9345 X19.102 Y3.493
N9350 X18.943 Y3.473
N9355 X18.787 Y3.438
N9360 X17.922 Y3.206
N9365 X17.714 Y3.157
N9370 X17.299 Y3.08
N9375 X17.091 Y3.043
N9380 X15.844 Y2.858
N9385 X15.637 Y2.839
N9390 X15.221 Y2.81
N9395 X15.114
N9400 X14.598 Y2.847
N9405 X14.182 Y2.881
N9410 X13.559 Y2.932
N9415 X13.351 Y2.95
N9420 X13.143 Y2.97
N9425 X12.867 Y3.018
N9430 X12.728 Y3.051
N9435 X12.468 Y3.111
N9440 X12.05 Y3.192
N9445 X11.477 Y3.278
N9450 X10.621 Y3.367
N9455 X9.707 Y3.423
N9460 X8.793 Y3.456
N9465 X7.878 Y3.485
N9470 X6.968 Y3.589
N9475 X6.098 Y3.873
N9480 X5.315 Y4.347
N9485 X4.653 Y4.98
N9490 X4.123 Y5.726
N9495 X3.716 Y6.546
N9500 X3.416 Y7.411
N9505 X3.201 Y8.301
N9510 X3.052 Y9.204
N9515 X2.949 Y10.114
N9520 X2.881 Y11.026
N9525 X2.835 Y11.941
N9530 X2.805 Y12.856
N9535 X2.786 Y13.771
N9540 X2.773 Y14.686
N9545 X2.765 Y15.602
N9550 X2.76 Y16.517
N9555 X2.773 Y17.432
N9560 X2.88 Y18.342
N9565 X3.171 Y19.209
N9570 X3.658 Y19.985
N9575 X4.3 Y20.637
N9580 X5.053 Y21.158
N9585 X5.877 Y21.557
N9590 X6.744 Y21.85
N9595 X7.635 Y22.059
N9600 X8.539 Y22.205
N9605 X8.78 Y22.26
N9610 X9.012 Y22.345
N9615 X9.231 Y22.459
N9620 X9.611 Y22.687
N9625 X9.819 Y22.812
N9630 X10.047 Y22.944
N9635 X10.442 Y23.165
N9640 X10.65 Y23.274
N9645 X10.858 Y23.351
N9650 X11.273 Y23.49
N9655 X11.382 Y23.525
N9660 X11.39 Y23.528 Z40.002
N9665 G2 X12.234 Y23.924 Z40.2 I3.486 J-6.342
N9670 X13.15 Y24.214 I2.641 J-6.737
N9675 G1 X13.206 Y24.225
N9680 X13.263 Y24.231
N9685 X15.773 Y24.357
N9690 X15.83
N9695 X15.887 Y24.352
N9700 G2 X16.826 Y24.155 I-1.012 J-7.166
N9705 X17.707 Y23.846 Z40.002 I-1.951 J-6.969
N9710 G1 X17.714 Y23.843 Z40.
N9715 X17.922 Y23.794
N9720 X20.831 Y23.014
N9725 X21.279 Y22.917
N9730 X21.694 Y22.833
N9735 X22.258 Y22.745
N9740 X23.076 Y22.653
N9745 X23.99 Y22.59
N9750 X24.904 Y22.554
N9755 X25.82 Y22.532
N9760 X26.735 Y22.519
N9765 X27.65 Y22.512
N9770 X28.566 Y22.507
N9775 X29.481 Y22.504
N9780 X31.312 Y22.5
N9785 X32.227 Y22.482
N9790 X33.135 Y22.365
N9795 X33.999 Y22.062
N9800 X34.769 Y21.567
N9805 X35.416 Y20.92
N9810 X35.932 Y20.163
N9815 X36.325 Y19.337
N9820 X36.613 Y18.468
N9825 X36.819 Y17.576
N9830 X36.962 Y16.672
N9835 X37.059 Y15.761
N9840 X37.125 Y14.848
N9845 X37.168 Y13.934
N9850 X37.197 Y13.019
N9855 X37.216 Y12.104
N9860 X37.228 Y11.188
N9865 X37.234 Y10.273
N9870 X37.215 Y9.358
N9875 X37.071 Y8.454
N9880 X36.729 Y7.604
N9885 X36.203 Y6.855
N9890 X35.533 Y6.232
N9895 X34.761 Y5.739
N9900 X33.925 Y5.366
N9905 X33.051 Y5.094
N9910 X32.156 Y4.901
N9915 X31.251 Y4.768
N9920 X30.34 Y4.677
N9925 X29.426 Y4.616
N9930 X28.512 Y4.576
N9935 X27.597 Y4.549
N9940 X26.681 Y4.532
N9945 X25.766 Y4.521
N9950 X24.851 Y4.513
N9955 X23.935 Y4.509
N9960 X23.002 Y4.505
N9965 X22.843 Y4.498
N9970 X22.686 Y4.477
N9975 X22.531 Y4.443
N9980 X18.787 Y3.438
N9985 X18.779 Y3.435 Z40.002
N9990 G2 X17.918 Y3.075 Z40.2 I-3.491 J7.149
N9995 X17.485 Y2.937 I-2.63 J7.508
N10000 G1 X17.421 Y2.923
N10005 X17.357 Y2.915
N10010 X14.205 Y2.715
N10015 X14.14 Y2.714
N10020 X14.075 Y2.721
N10025 G2 X13.635 Y2.801 I1.213 J7.862
N10030 X12.728 Y3.051 Z40. I1.653 J7.782
N10035 G1 X12.52 Y3.11
N10040 X11.273 Y3.51
N10045 X10.858 Y3.649
N10050 X10.65 Y3.726
N10055 X10.615 Y3.744
N10060 X10.479 Y3.807
N10065 X10.271 Y3.882
N10070 X10.013 Y3.963
N10075 X9.592 Y4.075
N10080 X8.698 Y4.272
N10085 X7.807 Y4.482
N10090 X6.963 Y4.836
N10095 X6.211 Y5.358
N10100 X5.579 Y6.02
N10105 X5.072 Y6.782
N10110 X4.684 Y7.611
N10115 X4.396 Y8.48
N10120 X4.19 Y9.372
N10125 X4.046 Y10.276
N10130 X3.947 Y11.186
N10135 X3.88 Y12.099
N10140 X3.835 Y13.014
N10145 X3.806 Y13.929
N10150 X3.786 Y14.844
N10155 X3.777 Y15.759
N10160 X3.799 Y16.674
N10165 X3.952 Y17.577
N10170 X4.304 Y18.422
N10175 X4.838 Y19.166
N10180 X5.513 Y19.783
N10185 X6.288 Y20.27
N10190 X6.705 Y20.454
N10195 X6.898 Y20.552
N10200 X7.078 Y20.673
N10205 X7.243 Y20.814
N10210 X7.949 Y21.498
N10215 X8.171 Y21.699
N10220 X8.402 Y21.906
N10225 X8.572 Y22.052
N10230 X8.669 Y22.114
N10235 X9.231 Y22.459
N10240 X9.244 Y22.471 Z40.004
N10245 X9.253 Y22.486 Z40.007
N10250 G2 X9.634 Y23.308 Z40.2 I5.894 J-2.237
N10255 X13.072 Y26.201 I5.512 J-3.059
N10260 G1 X13.155 Y26.224
N10265 X13.24 Y26.234
N10270 X16.468 Y26.39
N10275 X16.554 Y26.388
N10280 X16.639 Y26.373
N10285 G2 X20.344 Y23.815 I-1.492 J-6.125
N10290 X20.797 Y23.042 Z40.01 I-5.198 J-3.566
N10295 G1 X20.811 Y23.024 Z40.005
N10300 X20.831 Y23.014 Z40.
N10305 X24.571 Y22.01
N10310 X25.009 Y21.915
N10315 X25.438 Y21.83
N10320 X26.021 Y21.741
N10325 X26.874 Y21.647
N10330 X27.787 Y21.588
N10335 X28.702 Y21.553
N10340 X29.617 Y21.531
N10345 X30.532 Y21.514
N10350 X31.447 Y21.475
N10355 X32.347 Y21.311
N10360 X33.19 Y20.952
N10365 X33.93 Y20.413
N10370 X34.544 Y19.734
N10375 X35.029 Y18.958
N10380 X35.395 Y18.119
N10385 X35.662 Y17.243
N10390 X35.852 Y16.348
N10395 X35.983 Y15.442
N10400 X36.073 Y14.531
N10405 X36.133 Y13.617
N10410 X36.174 Y12.703
N10415 X36.2 Y11.788
N10420 X36.21 Y10.872
N10425 X36.152 Y9.959
N10430 X35.921 Y9.073
N10435 X35.494 Y8.263
N10440 X34.9 Y7.567
N10445 X34.18 Y7.001
N10450 X33.376 Y6.564
N10455 X32.52 Y6.238
N10460 X31.635 Y6.004
N10465 X30.735 Y5.839
N10470 X29.826 Y5.726
N10475 X28.914 Y5.65
N10480 X28. Y5.598
N10485 X27.085 Y5.564
N10490 X26.89 Y5.56
N10495 X26.745 Y5.55
N10500 X26.601 Y5.529
N10505 X26.46 Y5.497
N10510 X22.531 Y4.443
N10515 X22.508 Y4.429 Z40.006
N10520 X22.494 Y4.407 Z40.011
N10525 G2 X22.148 Y3.589 Z40.2 I-6.069 J2.087
N10530 X19.733 Y0.994 I-5.723 J2.905
N10535 X19.458 Y0.91 I-0.309 J0.514
N10540 G1 X14.058 Y0.596
N10545 G2 X13.775 Y0.649 I-0.035 J0.599
N10550 X11.087 Y2.932 I2.65 J5.845
N10555 X10.638 Y3.72 Z40.007 I5.338 J3.563
N10560 G1 X10.628 Y3.734 Z40.004
N10565 X10.615 Y3.744 Z40.
N10570 X10.442 Y3.835
N10575 X10.026 Y4.067
N10580 X9.819 Y4.188
N10585 X9.347 Y4.471
N10590 X9.195 Y4.563
N10595 X8.669 Y4.886
N10600 X8.572 Y4.948
N10605 X8.544 Y4.972
N10610 X7.818 Y5.531
N10615 X7.125 Y6.129
N10620 X6.535 Y6.828
N10625 X6.056 Y7.609
N10630 X5.96 Y7.825
N10635 X5.92 Y7.91
N10640 X5.875 Y7.993
N10645 X5.826 Y8.074
N10650 G3 X5.334 Y8.331 Z40.123 I-0.493 J-0.343
N10655 G1 X5.333
N10660 G3 X4.991 Y8.224 Z40.2 I0. J-0.6
N10665 X4.882 Y7.336 I0.342 J-0.493
N10670 G1 X7.687 Y4.134
N10675 G3 X8.581 Y4.125 I0.451 J0.395
N10680 X8.544 Y4.972 Z40. I-0.443 J0.405
N10685 G1 X8.402 Y5.094
N10690 X8.156 Y5.314
N10695 X7.942 Y5.509
N10700 X7.117 Y6.307
N10705 X7.087 Y6.339
N10710 X6.702 Y6.756
N10715 X6.545 Y6.962
N10720 X6.008 Y7.792
N10725 X5.74 Y8.207
N10730 X5.663 Y8.333
N10735 X5.382 Y8.83
N10740 X5.292 Y9.037
N10745 X5.138 Y9.452
N10750 X5.04 Y9.722
N10755 X4.69 Y10.698
N10760 X4.625 Y10.905
N10765 X4.545 Y11.321
N10770 X4.506 Y11.528
N10775 X4.362 Y12.774
N10780 X4.343 Y12.981
N10785 X4.31 Y13.396
N10790 Y13.604
N10795 X4.343 Y14.019
N10800 X4.362 Y14.226
N10805 X4.506 Y15.472
N10810 X4.585 Y15.887
N10815 X4.625 Y16.095
N10820 X4.69 Y16.302
N10825 X5.062 Y17.34
N10830 X5.138 Y17.548
N10835 X5.292 Y17.963
N10840 X5.382 Y18.17
N10845 X5.663 Y18.667
N10850 X5.74 Y18.793
N10855 X6.286 Y19.639
N10860 X6.545 Y20.038
N10865 X6.704 Y20.246
N10870 X7.087 Y20.661
N10875 X7.117 Y20.693
N10880 X7.243 Y20.814
N10885 X7.256 Y20.837 Z40.006
N10890 G2 X7.566 Y21.698 Z40.2 I8.87 J-2.703
N10895 X11.068 Y25.906 I8.561 J-3.564
N10900 X11.354 Y26.002 I0.327 J-0.503
N10905 G1 X19.763 Y26.587
N10910 G2 X20.059 Y26.532 I0.042 J-0.599
N10915 X24.121 Y22.832 I-3.933 J-8.398
N10920 X24.537 Y22.039 Z40.01 I-7.995 J-4.698
N10925 G1 X24.551 Y22.021 Z40.005
N10930 X24.571 Y22.01 Z40.
N10935 X28.311 Y21.006
N10940 X28.759 Y20.909
N10945 X29.657 Y20.73
N10950 X30.561 Y20.59
N10955 X31.447 Y20.361
N10960 X32.271 Y19.962
N10965 X32.991 Y19.396
N10970 X33.586 Y18.701
N10975 X33.668 Y18.564
N10980 X33.731 Y18.465
N10985 X33.801 Y18.371
N10990 X33.876 Y18.281
N10995 G3 X34.724 Y18.264 Z40.2 I0.433 J0.416
N11000 X34.575 Y19.234 I-0.415 J0.433
N11005 G1 X28.753 Y22.117
N11010 G3 X27.913 Y21.754 I-0.266 J-0.538
N11015 X28.311 Y21.006 Z40. I0.574 J-0.175
N11020 G1 X30.181 Y20.504
N11025 X30.805 Y20.298
N11030 X30.933 Y20.246
N11035 X31.636 Y19.942
N11040 X31.844 Y19.851
N11045 X32.051 Y19.751
N11050 X32.259 Y19.634
N11055 X32.467 Y19.5
N11060 X32.675 Y19.337
N11065 X32.833 Y19.208
N11070 X33.574 Y18.585
N11075 X33.79 Y18.378
N11080 X33.922 Y18.231
N11085 X33.973 Y18.17
N11090 X34.13 Y17.963
N11095 X34.678 Y17.132
N11100 X34.96 Y16.672
N11105 X35.035 Y16.51
N11110 X35.122 Y16.302
N11115 X35.194 Y16.095
N11120 X35.381 Y15.472
N11125 X35.441 Y15.264
N11130 X35.584 Y14.758
N11135 X35.604 Y14.642
N11140 X35.636 Y14.434
N11145 X35.652 Y14.226
N11150 X35.657 Y14.019
N11155 X35.658 Y13.396
N11160 X35.657 Y12.981
N11165 X35.652 Y12.774
N11170 X35.636 Y12.566
N11175 X35.604 Y12.358
N11180 X35.584 Y12.242
N11185 X35.576 Y12.215
N11190 X35.372 Y11.322
N11195 X35.156 Y10.433
N11200 X34.779 Y9.598
N11205 X34.238 Y8.86
N11210 X33.562 Y8.243
N11215 X32.872 Y7.806
N11220 X32.811 Y7.766
N11225 X32.751 Y7.723
N11230 X32.694 Y7.678
N11235 G3 X32.637 Y6.832 Z40.2 I0.395 J-0.452
N11240 X33.595 Y6.904 I0.452 J0.395
N11245 G1 X36.654 Y11.71
N11250 G3 X36.33 Y12.603 I-0.506 J0.322
N11255 X35.576 Y12.215 Z40. I-0.182 J-0.572
N11260 G1 X35.441 Y11.736
N11265 X35.376 Y11.51
N11270 X35.194 Y10.905
N11275 X35.122 Y10.698
N11280 X35.035 Y10.49
N11285 X34.96 Y10.328
N11290 X34.678 Y9.868
N11295 X34.129 Y9.036
N11300 X33.973 Y8.83
N11305 X33.922 Y8.769
N11310 X33.79 Y8.622
N11315 X33.574 Y8.415
N11320 X32.833 Y7.792
N11325 X32.675 Y7.663
N11330 X32.467 Y7.5
N11335 X32.259 Y7.366
N11340 X32.051 Y7.249
N11345 X31.844 Y7.149
N11350 X31.636 Y7.058
N11355 X30.933 Y6.754
N11360 X30.805 Y6.702
N11365 X30.181 Y6.496
N11370 X26.46 Y5.497
N11375 X26.373 Y5.464
N11380 X26.294 Y5.417
N11385 X26.241 Y5.364 Z40.005
N11390 X26.19 Y5.313 Z40.018
N11395 X26.14 Y5.263 Z40.041
N11400 X26.108 Y5.191 Z40.079
N11405 X26.079 Y5.124 Z40.129
N11410 X26.052 Y5.065 Z40.188
N11415 X26.045 Y5.004 Z40.265
N11420 X26.039 Y4.957 Z40.35
N11425 X26.035 Y4.924 Z40.442
N11430 X26.036 Y4.908 Z40.52
N11435 Y4.902 Z40.6
N11440 G0 Z55.
N11445 X-3.72 Y-7.783
N11450 Z37.6
N11455 G1 Z37. F1560.
N11460 Z35.
N11465 G3 X-3.25 Y-4.517 I-14.839 J3.801
N11470 G1 Y-4.402
N11475 X-3.86 Y-3.72
N11480 X-4.319 Y-2.928
N11485 X-4.646 Y-2.073
N11490 X-4.869 Y-1.185
N11495 X-5.014 Y-0.281
N11500 X-5.107 Y0.63
N11505 X-5.164 Y1.543
N11510 X-5.198 Y2.458
N11515 X-5.219 Y3.373
N11520 X-5.232 Y4.289
N11525 X-5.239 Y5.204
N11530 X-5.244 Y6.12
N11535 X-5.246 Y7.035
N11540 X-5.249 Y8.866
N11545 X-5.25 Y15.274
N11550 Y26.717
N11555 X-5.064 Y27.613
N11560 X-4.593 Y28.398
N11565 X-3.932 Y29.031
N11570 X-3.152 Y29.511
N11575 X-2.304 Y29.855
N11580 X-1.42 Y30.092
N11585 X-0.517 Y30.247
N11590 X0.393 Y30.346
N11595 X1.306 Y30.407
N11600 X2.221 Y30.444
N11605 X3.136 Y30.467
N11610 X4.051 Y30.48
N11615 X4.966 Y30.488
N11620 X5.882 Y30.493
N11625 X6.797 Y30.496
N11630 X8.628 Y30.499
N11635 X11.374 Y30.5
N11640 X41.583
N11645 X42.47 Y30.272
N11650 X43.237 Y29.772
N11655 X43.85 Y29.092
N11660 X44.311 Y28.301
N11665 X44.641 Y27.447
N11670 X44.865 Y26.56
N11675 X45.012 Y25.656
N11680 X45.105 Y24.746
N11685 X45.163 Y23.832
N11690 X45.198 Y22.917
N11695 X45.219 Y22.002
N11700 X45.232 Y21.087
N11705 X45.239 Y20.171
N11710 X45.244 Y19.256
N11715 X45.246 Y18.34
N11720 X45.249 Y16.51
N11725 X45.25 Y11.932
N11730 Y0.032
N11735 X44.994 Y-0.847
N11740 X44.461 Y-1.591
N11745 X43.76 Y-2.18
N11750 X42.957 Y-2.62
N11755 X42.096 Y-2.931
N11760 X41.205 Y-3.142
N11765 X40.3 Y-3.279
N11770 X39.389 Y-3.366
N11775 X38.475 Y-3.419
N11780 X37.56 Y-3.452
N11785 X36.645 Y-3.471
N11790 X35.73 Y-3.483
N11795 X34.814 Y-3.49
N11800 X33.899 Y-3.494
N11805 X32.068 Y-3.498
N11810 X28.406 Y-3.5
N11815 X8.267
N11820 X0.028
N11825 X-0.871 Y-3.328
N11830 X-1.736 Y-3.03
N11835 X-2.466 Y-2.478
N11840 X-3.034 Y-1.76
N11845 X-3.448 Y-0.943
N11850 X-3.736 Y-0.074
N11855 X-3.927 Y0.821
N11860 X-4.05 Y1.728
N11865 X-4.128 Y2.64
N11870 X-4.176 Y3.554
N11875 X-4.206 Y4.469
N11880 X-4.223 Y5.385
N11885 X-4.234 Y6.3
N11890 X-4.24 Y7.215
N11895 X-4.244 Y8.131
N11900 X-4.248 Y9.962
N11905 X-4.25 Y13.623
N11910 Y24.608
N11915 X-4.238 Y25.524
N11920 X-4.016 Y26.412
N11925 X-3.559 Y27.205
N11930 X-2.92 Y27.861
N11935 X-2.159 Y28.37
N11940 X-1.324 Y28.744
N11945 X-0.447 Y29.007
N11950 X0.451 Y29.186
N11955 X1.359 Y29.303
N11960 X2.271 Y29.378
N11965 X3.185 Y29.425
N11970 X4.1 Y29.454
N11975 X5.015 Y29.472
N11980 X5.931 Y29.483
N11985 X6.846 Y29.49
N11990 X7.761 Y29.494
N11995 X9.592 Y29.498
N12000 X13.254 Y29.5
N12005 X39.801
N12010 X40.712 Y29.409
N12015 X41.563 Y29.07
N12020 X42.294 Y28.52
N12025 X42.88 Y27.816
N12030 X43.321 Y27.014
N12035 X43.638 Y26.155
N12040 X43.855 Y25.266
N12045 X44. Y24.362
N12050 X44.094 Y23.451
N12055 X44.154 Y22.538
N12060 X44.191 Y21.623
N12065 X44.214 Y20.708
N12070 X44.228 Y19.793
N12075 X44.237 Y18.877
N12080 X44.242 Y17.962
N12085 X44.245 Y17.047
N12090 X44.247 Y16.131
N12095 X44.249 Y13.385
N12100 X44.25 Y1.484
N12105 X44.038 Y0.594
N12110 X43.585 Y-0.201
N12115 X42.948 Y-0.859
N12120 X42.188 Y-1.369
N12125 X41.353 Y-1.744
N12130 X40.476 Y-2.008
N12135 X39.578 Y-2.187
N12140 X38.67 Y-2.304
N12145 X37.758 Y-2.379
N12150 X36.844 Y-2.426
N12155 X35.929 Y-2.455
N12160 X35.013 Y-2.473
N12165 X34.098 Y-2.483
N12170 X33.183 Y-2.49
N12175 X32.267 Y-2.494
N12180 X30.436 Y-2.498
N12185 X26.775 Y-2.5
N12190 X10.297
N12195 X2.058
N12200 X1.143 Y-2.484
N12205 X0.236 Y-2.36
N12210 X-0.607 Y-2.004
N12215 X-1.329 Y-1.441
N12220 X-1.905 Y-0.729
N12225 X-2.338 Y0.077
N12230 X-2.648 Y0.938
N12235 X-2.862 Y1.829
N12240 X-3.004 Y2.733
N12245 X-3.096 Y3.644
N12250 X-3.155 Y4.557
N12255 X-3.191 Y5.472
N12260 X-3.214 Y6.387
N12265 X-3.228 Y7.302
N12270 X-3.237 Y8.218
N12275 X-3.242 Y9.133
N12280 X-3.245 Y10.049
N12285 X-3.248 Y11.879
N12290 X-3.25 Y16.456
N12295 Y22.864
N12300 X-3.248 Y23.78
N12305 X-3.167 Y24.692
N12310 X-2.863 Y25.555
N12315 X-2.351 Y26.314
N12320 X-1.679 Y26.936
N12325 X-0.9 Y27.416
N12330 X-0.055 Y27.769
N12335 X0.826 Y28.018
N12340 X1.725 Y28.188
N12345 X2.634 Y28.301
N12350 X3.546 Y28.375
N12355 X4.461 Y28.422
N12360 X5.376 Y28.451
N12365 X6.291 Y28.47
N12370 X7.206 Y28.482
N12375 X8.121 Y28.489
N12380 X9.037 Y28.493
N12385 X9.952 Y28.496
N12390 X11.783 Y28.498
N12395 X17.276 Y28.5
N12400 X38.33
N12405 X39.245 Y28.454
N12410 X40.125 Y28.202
N12415 X40.911 Y27.732
N12420 X41.563 Y27.09
N12425 X42.073 Y26.33
N12430 X42.452 Y25.496
N12435 X42.722 Y24.622
N12440 X42.908 Y23.725
N12445 X43.032 Y22.818
N12450 X43.112 Y21.906
N12455 X43.164 Y20.992
N12460 X43.197 Y20.078
N12465 X43.217 Y19.162
N12470 X43.23 Y18.247
N12475 X43.238 Y17.332
N12480 X43.242 Y16.416
N12485 X43.245 Y15.501
N12490 X43.248 Y13.67
N12495 X43.249 Y11.839
N12500 X43.25 Y3.6
N12505 X43.234 Y2.685
N12510 X43.031 Y1.792
N12515 X42.601 Y0.984
N12520 X41.988 Y0.305
N12525 X41.247 Y-0.233
N12530 X40.425 Y-0.636
N12535 X39.556 Y-0.926
N12540 X38.663 Y-1.126
N12545 X37.758 Y-1.261
N12550 X36.847 Y-1.349
N12555 X35.933 Y-1.406
N12560 X35.018 Y-1.441
N12565 X34.103 Y-1.464
N12570 X33.188 Y-1.478
N12575 X32.272 Y-1.486
N12580 X31.357 Y-1.492
N12585 X30.442 Y-1.495
N12590 X28.611 Y-1.498
N12595 X24.034 Y-1.5
N12600 X3.894
N12605 X2.979 Y-1.499
N12610 X2.064 Y-1.473
N12615 X1.167 Y-1.292
N12620 X0.346 Y-0.886
N12625 X-0.353 Y-0.295
N12630 X-0.91 Y0.431
N12635 X-1.332 Y1.244
N12640 X-1.636 Y2.107
N12645 X-1.848 Y2.998
N12650 X-1.991 Y3.902
N12655 X-2.085 Y4.813
N12660 X-2.146 Y5.726
N12665 X-2.185 Y6.641
N12670 X-2.21 Y7.556
N12675 X-2.225 Y8.471
N12680 X-2.235 Y9.386
N12685 X-2.241 Y10.302
N12690 X-2.244 Y11.217
N12695 X-2.248 Y13.048
N12700 X-2.25 Y16.71
N12705 Y22.202
N12710 X-2.227 Y23.118
N12715 X-2.038 Y24.013
N12720 X-1.635 Y24.835
N12725 X-1.05 Y25.539
N12730 X-0.329 Y26.103
N12735 X0.479 Y26.534
N12740 X1.339 Y26.848
N12745 X2.227 Y27.069
N12750 X3.13 Y27.219
N12755 X4.04 Y27.319
N12760 X4.953 Y27.385
N12765 X5.868 Y27.427
N12770 X6.783 Y27.454
N12775 X7.698 Y27.471
N12780 X8.613 Y27.482
N12785 X9.529 Y27.489
N12790 X10.444 Y27.493
N12795 X12.275 Y27.497
N12800 X15.021 Y27.499
N12805 X17.767 Y27.5
N12810 X36.991
N12815 X37.906 Y27.472
N12820 X38.8 Y27.275
N12825 X39.618 Y26.864
N12830 X40.315 Y26.27
N12835 X40.873 Y25.544
N12840 X41.298 Y24.734
N12845 X41.608 Y23.872
N12850 X41.826 Y22.983
N12855 X41.975 Y22.08
N12860 X42.073 Y21.17
N12865 X42.138 Y20.257
N12870 X42.179 Y19.342
N12875 X42.206 Y18.427
N12880 X42.222 Y17.512
N12885 X42.233 Y16.596
N12890 X42.239 Y15.681
N12895 X42.243 Y14.766
N12900 X42.248 Y12.935
N12905 X42.25 Y9.273
N12910 Y4.696
N12915 X42.219 Y3.781
N12920 X42.012 Y2.889
N12925 X41.586 Y2.079
N12930 X40.981 Y1.393
N12935 X40.248 Y0.844
N12940 X39.432 Y0.428
N12945 X38.568 Y0.125
N12950 X37.678 Y-0.087
N12955 X36.774 Y-0.232
N12960 X35.864 Y-0.328
N12965 X34.95 Y-0.391
N12970 X34.036 Y-0.431
N12975 X33.121 Y-0.457
N12980 X32.205 Y-0.473
N12985 X31.29 Y-0.483
N12990 X30.375 Y-0.49
N12995 X29.459 Y-0.494
N13000 X27.628 Y-0.498
N13005 X23.967 Y-0.5
N13010 X4.743
N13015 X3.827 Y-0.496
N13020 X2.914 Y-0.44
N13025 X2.032 Y-0.195
N13030 X1.237 Y0.26
N13035 X0.568 Y0.885
N13040 X0.037 Y1.63
N13045 X-0.363 Y2.454
N13050 X-0.653 Y3.322
N13055 X-0.855 Y4.215
N13060 X-0.993 Y5.12
N13065 X-1.085 Y6.031
N13070 X-1.145 Y6.944
N13075 X-1.183 Y7.859
N13080 X-1.208 Y8.774
N13085 X-1.224 Y9.689
N13090 X-1.234 Y10.604
N13095 X-1.24 Y11.52
N13100 X-1.244 Y12.435
N13105 X-1.248 Y14.266
N13110 X-1.25 Y17.928
N13115 Y20.674
N13120 X-1.244 Y21.589
N13125 X-1.149 Y22.5
N13130 X-0.852 Y23.366
N13135 X-0.358 Y24.136
N13140 X0.296 Y24.778
N13145 X1.059 Y25.282
N13150 X1.893 Y25.661
N13155 X2.766 Y25.935
N13160 X3.662 Y26.125
N13165 X4.568 Y26.255
N13170 X5.479 Y26.342
N13175 X6.393 Y26.398
N13180 X7.308 Y26.435
N13185 X8.223 Y26.459
N13190 X9.138 Y26.474
N13195 X10.053 Y26.484
N13200 X10.969 Y26.49
N13205 X11.884 Y26.494
N13210 X13.715 Y26.498
N13215 X17.377 Y26.5
N13220 X35.685
N13225 X36.6 Y26.484
N13230 X37.504 Y26.335
N13235 X38.348 Y25.981
N13240 X39.082 Y25.434
N13245 X39.682 Y24.743
N13250 X40.149 Y23.955
N13255 X40.496 Y23.108
N13260 X40.744 Y22.227
N13265 X40.917 Y21.328
N13270 X41.033 Y20.42
N13275 X41.111 Y19.508
N13280 X41.161 Y18.594
N13285 X41.194 Y17.679
N13290 X41.215 Y16.764
N13295 X41.228 Y15.849
N13300 X41.236 Y14.933
N13305 X41.241 Y14.018
N13310 X41.245 Y13.102
N13315 X41.248 Y11.272
N13320 X41.25 Y7.61
N13325 X41.249 Y5.779
N13330 X41.211 Y4.864
N13335 X41.002 Y3.973
N13340 X40.581 Y3.16
N13345 X39.984 Y2.467
N13350 X39.258 Y1.909
N13355 X38.448 Y1.482
N13360 X37.588 Y1.168
N13365 X36.7 Y0.946
N13370 X35.798 Y0.793
N13375 X34.888 Y0.69
N13380 X33.975 Y0.622
N13385 X33.061 Y0.578
N13390 X32.146 Y0.549
N13395 X31.23 Y0.531
N13400 X30.315 Y0.52
N13405 X29.4 Y0.512
N13410 X28.484 Y0.508
N13415 X27.569 Y0.505
N13420 X25.738 Y0.502
N13425 X21.161 Y0.5
N13430 X16.584
N13435 X5.599 Y0.501
N13440 X4.683 Y0.51
N13445 X3.773 Y0.608
N13450 X2.907 Y0.903
N13455 X2.136 Y1.397
N13460 X1.493 Y2.048
N13465 X0.986 Y2.81
N13470 X0.604 Y3.643
N13475 X0.328 Y4.515
N13480 X0.134 Y5.41
N13485 X0.002 Y6.316
N13490 X-0.087 Y7.227
N13495 X-0.145 Y8.141
N13500 X-0.183 Y9.055
N13505 X-0.207 Y9.97
N13510 X-0.223 Y10.886
N13515 X-0.233 Y11.801
N13520 X-0.239 Y12.716
N13525 X-0.243 Y13.632
N13530 X-0.247 Y15.463
N13535 X-0.25 Y19.124
N13540 X-0.248 Y20.04
N13545 X-0.217 Y20.955
N13550 X-0.032 Y21.851
N13555 X0.357 Y22.68
N13560 X0.926 Y23.397
N13565 X1.63 Y23.981
N13570 X2.427 Y24.433
N13575 X3.279 Y24.768
N13580 X4.162 Y25.007
N13585 X5.063 Y25.173
N13590 X5.971 Y25.285
N13595 X6.883 Y25.36
N13600 X7.797 Y25.41
N13605 X8.712 Y25.442
N13610 X9.627 Y25.463
N13615 X10.543 Y25.477
N13620 X11.458 Y25.485
N13625 X12.374 Y25.491
N13630 X13.289 Y25.494
N13635 X15.12 Y25.498
N13640 X18.782 Y25.5
N13645 X34.344
N13650 X35.259 Y25.495
N13655 X36.17 Y25.4
N13660 X37.037 Y25.109
N13665 X37.812 Y24.621
N13670 X38.461 Y23.975
N13675 X38.975 Y23.217
N13680 X39.364 Y22.389
N13685 X39.648 Y21.519
N13690 X39.848 Y20.625
N13695 X39.986 Y19.72
N13700 X40.078 Y18.81
N13705 X40.139 Y17.896
N13710 X40.179 Y16.982
N13715 X40.205 Y16.067
N13720 X40.221 Y15.151
N13725 X40.232 Y14.236
N13730 X40.239 Y13.321
N13735 X40.243 Y12.405
N13740 X40.247 Y10.574
N13745 X40.249 Y7.828
N13750 Y6.913
N13755 X40.212 Y5.998
N13760 X40.016 Y5.104
N13765 X39.616 Y4.281
N13770 X39.036 Y3.572
N13775 X38.324 Y2.997
N13780 X37.523 Y2.553
N13785 X36.669 Y2.223
N13790 X35.785 Y1.987
N13795 X34.884 Y1.823
N13800 X33.976 Y1.712
N13805 X33.063 Y1.637
N13810 X32.149 Y1.588
N13815 X31.234 Y1.557
N13820 X30.319 Y1.536
N13825 X29.404 Y1.523
N13830 X28.488 Y1.514
N13835 X27.573 Y1.509
N13840 X26.657 Y1.506
N13845 X24.827 Y1.502
N13850 X21.165 Y1.5
N13855 X7.434
N13860 X6.518 Y1.501
N13865 X5.603 Y1.519
N13870 X4.696 Y1.645
N13875 X3.84 Y1.97
N13880 X3.085 Y2.487
N13885 X2.457 Y3.153
N13890 X1.963 Y3.924
N13895 X1.591 Y4.76
N13900 X1.322 Y5.635
N13905 X1.132 Y6.531
N13910 X1.002 Y7.437
N13915 X0.915 Y8.348
N13920 X0.857 Y9.262
N13925 X0.819 Y10.176
N13930 X0.794 Y11.092
N13935 X0.778 Y12.007
N13940 X0.768 Y12.922
N13945 X0.761 Y13.838
N13950 X0.757 Y14.753
N13955 X0.753 Y16.584
N13960 X0.751 Y18.415
N13965 X0.758 Y19.33
N13970 X0.835 Y20.242
N13975 X1.094 Y21.12
N13980 X1.551 Y21.914
N13985 X2.171 Y22.587
N13990 X2.91 Y23.127
N13995 X3.728 Y23.539
N14000 X4.592 Y23.841
N14005 X5.482 Y24.056
N14010 X6.385 Y24.205
N14015 X7.295 Y24.306
N14020 X8.208 Y24.373
N14025 X9.122 Y24.418
N14030 X10.037 Y24.447
N14035 X10.952 Y24.466
N14040 X11.868 Y24.478
N14045 X12.783 Y24.486
N14050 X13.698 Y24.491
N14055 X14.614 Y24.494
N14060 X16.445 Y24.498
N14065 X20.106 Y24.5
N14070 X32.922
N14075 X33.838 Y24.498
N14080 X34.752 Y24.453
N14085 X35.644 Y24.245
N14090 X36.464 Y23.839
N14095 X37.17 Y23.257
N14100 X37.745 Y22.544
N14105 X38.189 Y21.744
N14110 X38.519 Y20.89
N14115 X38.756 Y20.006
N14120 X38.922 Y19.105
N14125 X39.034 Y18.197
N14130 X39.109 Y17.285
N14135 X39.159 Y16.371
N14140 X39.191 Y15.456
N14145 X39.212 Y14.541
N14150 X39.226 Y13.625
N14155 X39.235 Y12.71
N14160 X39.24 Y11.794
N14165 X39.244 Y10.879
N14170 X39.248 Y9.048
N14175 Y8.133
N14180 X39.222 Y7.218
N14185 X39.061 Y6.317
N14190 X38.702 Y5.474
N14195 X38.157 Y4.739
N14200 X37.47 Y4.134
N14205 X36.687 Y3.66
N14210 X35.843 Y3.305
N14215 X34.965 Y3.047
N14220 X34.067 Y2.866
N14225 X33.16 Y2.742
N14230 X32.249 Y2.658
N14235 X31.335 Y2.602
N14240 X30.42 Y2.566
N14245 X29.505 Y2.542
N14250 X28.59 Y2.527
N14255 X27.675 Y2.517
N14260 X26.759 Y2.511
N14265 X25.844 Y2.507
N14270 X24.013 Y2.503
N14275 X21.267 Y2.501
N14280 X8.451 Y2.5
N14285 X7.535 Y2.501
N14290 X6.62 Y2.523
N14295 X5.715 Y2.657
N14300 X4.86 Y2.986
N14305 X4.106 Y3.505
N14310 X3.479 Y4.172
N14315 X2.984 Y4.942
N14320 X2.61 Y5.777
N14325 X2.338 Y6.651
N14330 X2.145 Y7.546
N14335 X2.012 Y8.452
N14340 X1.922 Y9.363
N14345 X1.862 Y10.276
N14350 X1.823 Y11.191
N14355 X1.797 Y12.106
N14360 X1.78 Y13.021
N14365 X1.769 Y13.937
N14370 X1.762 Y14.852
N14375 X1.758 Y15.767
N14380 X1.755 Y16.683
N14385 X1.754 Y17.598
N14390 X1.77 Y18.514
N14395 X1.885 Y19.422
N14400 X2.192 Y20.284
N14405 X2.689 Y21.053
N14410 X3.34 Y21.697
N14415 X4.099 Y22.208
N14420 X4.928 Y22.596
N14425 X5.799 Y22.88
N14430 X6.692 Y23.082
N14435 X7.596 Y23.221
N14440 X8.507 Y23.316
N14445 X9.42 Y23.379
N14450 X10.335 Y23.421
N14455 X10.877 Y23.438
N14460 X11.048 Y23.451
N14465 X11.216 Y23.48
N14470 X11.382 Y23.525
N14475 X12.52 Y23.89
N14480 X12.728 Y23.949
N14485 X12.867 Y23.982
N14490 X13.143 Y24.03
N14495 X13.351 Y24.05
N14500 X13.974 Y24.103
N14505 X14.39 Y24.136
N14510 X14.598 Y24.153
N14515 X15.114 Y24.19
N14520 X15.221
N14525 X15.637 Y24.161
N14530 X15.844 Y24.142
N14535 X17.091 Y23.957
N14540 X17.299 Y23.92
N14545 X17.714 Y23.843
N14550 X17.965 Y23.797
N14555 X18.562 Y23.712
N14560 X19.467 Y23.621
N14565 X20.381 Y23.57
N14570 X21.295 Y23.541
N14575 X22.211 Y23.524
N14580 X23.126 Y23.514
N14585 X24.042 Y23.508
N14590 X24.957 Y23.505
N14595 X26.788 Y23.502
N14600 X32.28 Y23.5
N14605 X33.196 Y23.488
N14610 X34.105 Y23.383
N14615 X34.972 Y23.09
N14620 X35.749 Y22.606
N14625 X36.404 Y21.966
N14630 X36.926 Y21.214
N14635 X37.323 Y20.389
N14640 X37.615 Y19.521
N14645 X37.821 Y18.63
N14650 X37.965 Y17.726
N14655 X38.062 Y16.815
N14660 X38.127 Y15.902
N14665 X38.17 Y14.988
N14670 X38.198 Y14.073
N14675 X38.217 Y13.158
N14680 X38.229 Y12.242
N14685 X38.236 Y11.327
N14690 X38.241 Y10.411
N14695 X38.244 Y9.496
N14700 X38.238 Y8.581
N14705 X38.139 Y7.671
N14710 X37.85 Y6.802
N14715 X37.371 Y6.022
N14720 X36.732 Y5.366
N14725 X35.982 Y4.841
N14730 X35.159 Y4.441
N14735 X34.292 Y4.146
N14740 X33.401 Y3.936
N14745 X32.497 Y3.791
N14750 X31.587 Y3.691
N14755 X30.674 Y3.625
N14760 X29.76 Y3.581
N14765 X28.845 Y3.553
N14770 X27.93 Y3.534
N14775 X27.014 Y3.522
N14780 X26.099 Y3.514
N14785 X25.184 Y3.509
N14790 X24.268 Y3.506
N14795 X23.353 Y3.504
N14800 X20.606 Y3.501
N14805 X19.262 Y3.5
N14810 X19.102 Y3.493
N14815 X18.943 Y3.473
N14820 X18.787 Y3.438
N14825 X17.922 Y3.206
N14830 X17.714 Y3.157
N14835 X17.299 Y3.08
N14840 X17.091 Y3.043
N14845 X15.844 Y2.858
N14850 X15.637 Y2.839
N14855 X15.221 Y2.81
N14860 X15.114
N14865 X14.598 Y2.847
N14870 X14.182 Y2.881
N14875 X13.559 Y2.932
N14880 X13.351 Y2.95
N14885 X13.143 Y2.97
N14890 X12.867 Y3.018
N14895 X12.728 Y3.051
N14900 X12.468 Y3.111
N14905 X12.05 Y3.192
N14910 X11.477 Y3.278
N14915 X10.621 Y3.367
N14920 X9.707 Y3.423
N14925 X8.793 Y3.456
N14930 X7.878 Y3.485
N14935 X6.968 Y3.589
N14940 X6.098 Y3.873
N14945 X5.315 Y4.347
N14950 X4.653 Y4.98
N14955 X4.123 Y5.726
N14960 X3.716 Y6.546
N14965 X3.416 Y7.411
N14970 X3.201 Y8.301
N14975 X3.052 Y9.204
N14980 X2.949 Y10.114
N14985 X2.881 Y11.026
N14990 X2.835 Y11.941
N14995 X2.805 Y12.856
N15000 X2.786 Y13.771
N15005 X2.773 Y14.686
N15010 X2.765 Y15.602
N15015 X2.76 Y16.517
N15020 X2.773 Y17.432
N15025 X2.88 Y18.342
N15030 X3.171 Y19.209
N15035 X3.658 Y19.985
N15040 X4.3 Y20.637
N15045 X5.053 Y21.158
N15050 X5.877 Y21.557
N15055 X6.744 Y21.85
N15060 X7.635 Y22.059
N15065 X8.539 Y22.205
N15070 X8.78 Y22.26
N15075 X9.012 Y22.345
N15080 X9.231 Y22.459
N15085 X9.611 Y22.687
N15090 X9.819 Y22.812
N15095 X10.047 Y22.944
N15100 X10.442 Y23.165
N15105 X10.65 Y23.274
N15110 X10.858 Y23.351
N15115 X11.273 Y23.49
N15120 X11.382 Y23.525
N15125 X11.39 Y23.528 Z35.002
N15130 G2 X12.234 Y23.924 Z35.2 I3.486 J-6.342
N15135 X13.15 Y24.214 I2.641 J-6.737
N15140 G1 X13.206 Y24.225
N15145 X13.263 Y24.231
N15150 X15.773 Y24.357
N15155 X15.83
N15160 X15.887 Y24.352
N15165 G2 X16.826 Y24.155 I-1.012 J-7.166
N15170 X17.707 Y23.846 Z35.002 I-1.951 J-6.969
N15175 G1 X17.714 Y23.843 Z35.
N15180 X17.922 Y23.794
N15185 X20.831 Y23.014
N15190 X21.279 Y22.917
N15195 X21.694 Y22.833
N15200 X22.258 Y22.745
N15205 X23.076 Y22.653
N15210 X23.99 Y22.59
N15215 X24.904 Y22.554
N15220 X25.82 Y22.532
N15225 X26.735 Y22.519
N15230 X27.65 Y22.512
N15235 X28.566 Y22.507
N15240 X29.481 Y22.504
N15245 X31.312 Y22.5
N15250 X32.227 Y22.482
N15255 X33.135 Y22.365
N15260 X33.999 Y22.062
N15265 X34.769 Y21.567
N15270 X35.416 Y20.92
N15275 X35.932 Y20.163
N15280 X36.325 Y19.337
N15285 X36.613 Y18.468
N15290 X36.819 Y17.576
N15295 X36.962 Y16.672
N15300 X37.059 Y15.761
N15305 X37.125 Y14.848
N15310 X37.168 Y13.934
N15315 X37.197 Y13.019
N15320 X37.216 Y12.104
N15325 X37.228 Y11.188
N15330 X37.234 Y10.273
N15335 X37.215 Y9.358
N15340 X37.071 Y8.454
N15345 X36.729 Y7.604
N15350 X36.203 Y6.855
N15355 X35.533 Y6.232
N15360 X34.761 Y5.739
N15365 X33.925 Y5.366
N15370 X33.051 Y5.094
N15375 X32.156 Y4.901
N15380 X31.251 Y4.768
N15385 X30.34 Y4.677
N15390 X29.426 Y4.616
N15395 X28.512 Y4.576
N15400 X27.597 Y4.549
N15405 X26.681 Y4.532
N15410 X25.766 Y4.521
N15415 X24.851 Y4.513
N15420 X23.935 Y4.509
N15425 X23.002 Y4.505
N15430 X22.843 Y4.498
N15435 X22.686 Y4.477
N15440 X22.531 Y4.443
N15445 X18.787 Y3.438
N15450 X18.779 Y3.435 Z35.002
N15455 G2 X17.918 Y3.075 Z35.2 I-3.491 J7.149
N15460 X17.485 Y2.937 I-2.63 J7.508
N15465 G1 X17.421 Y2.923
N15470 X17.357 Y2.915
N15475 X14.205 Y2.715
N15480 X14.14 Y2.714
N15485 X14.075 Y2.721
N15490 G2 X13.635 Y2.801 I1.213 J7.862
N15495 X12.728 Y3.051 Z35. I1.653 J7.782
N15500 G1 X12.52 Y3.11
N15505 X11.273 Y3.51
N15510 X10.858 Y3.649
N15515 X10.65 Y3.726
N15520 X10.615 Y3.744
N15525 X10.479 Y3.807
N15530 X10.271 Y3.882
N15535 X10.013 Y3.963
N15540 X9.592 Y4.075
N15545 X8.698 Y4.272
N15550 X7.807 Y4.482
N15555 X6.963 Y4.836
N15560 X6.211 Y5.358
N15565 X5.579 Y6.02
N15570 X5.072 Y6.782
N15575 X4.684 Y7.611
N15580 X4.396 Y8.48
N15585 X4.19 Y9.372
N15590 X4.046 Y10.276
N15595 X3.947 Y11.186
N15600 X3.88 Y12.099
N15605 X3.835 Y13.014
N15610 X3.806 Y13.929
N15615 X3.786 Y14.844
N15620 X3.777 Y15.759
N15625 X3.799 Y16.674
N15630 X3.952 Y17.577
N15635 X4.304 Y18.422
N15640 X4.838 Y19.166
N15645 X5.513 Y19.783
N15650 X6.288 Y20.27
N15655 X6.705 Y20.454
N15660 X6.898 Y20.552
N15665 X7.078 Y20.673
N15670 X7.243 Y20.814
N15675 X7.949 Y21.498
N15680 X8.171 Y21.699
N15685 X8.402 Y21.906
N15690 X8.572 Y22.052
N15695 X8.669 Y22.114
N15700 X9.231 Y22.459
N15705 X9.244 Y22.471 Z35.004
N15710 X9.253 Y22.486 Z35.007
N15715 G2 X9.634 Y23.308 Z35.2 I5.894 J-2.237
N15720 X13.072 Y26.201 I5.512 J-3.059
N15725 G1 X13.155 Y26.224
N15730 X13.24 Y26.234
N15735 X16.468 Y26.39
N15740 X16.554 Y26.388
N15745 X16.639 Y26.373
N15750 G2 X20.344 Y23.815 I-1.492 J-6.125
N15755 X20.797 Y23.042 Z35.01 I-5.198 J-3.566
N15760 G1 X20.811 Y23.024 Z35.005
N15765 X20.831 Y23.014 Z35.
N15770 X24.571 Y22.01
N15775 X25.009 Y21.915
N15780 X25.438 Y21.83
N15785 X26.021 Y21.741
N15790 X26.874 Y21.647
N15795 X27.787 Y21.588
N15800 X28.702 Y21.553
N15805 X29.617 Y21.531
N15810 X30.532 Y21.514
N15815 X31.447 Y21.475
N15820 X32.347 Y21.311
N15825 X33.19 Y20.952
N15830 X33.93 Y20.413
N15835 X34.544 Y19.734
N15840 X35.029 Y18.958
N15845 X35.395 Y18.119
N15850 X35.662 Y17.243
N15855 X35.852 Y16.348
N15860 X35.983 Y15.442
N15865 X36.073 Y14.531
N15870 X36.133 Y13.617
N15875 X36.174 Y12.703
N15880 X36.2 Y11.788
N15885 X36.21 Y10.872
N15890 X36.152 Y9.959
N15895 X35.921 Y9.073
N15900 X35.494 Y8.263
N15905 X34.9 Y7.567
N15910 X34.18 Y7.001
N15915 X33.376 Y6.564
N15920 X32.52 Y6.238
N15925 X31.635 Y6.004
N15930 X30.735 Y5.839
N15935 X29.826 Y5.726
N15940 X28.914 Y5.65
N15945 X28. Y5.598
N15950 X27.085 Y5.564
N15955 X26.89 Y5.56
N15960 X26.745 Y5.55
N15965 X26.601 Y5.529
N15970 X26.46 Y5.497
N15975 X22.531 Y4.443
N15980 X22.508 Y4.429 Z35.006
N15985 X22.494 Y4.407 Z35.011
N15990 G2 X22.148 Y3.589 Z35.2 I-6.069 J2.087
N15995 X19.733 Y0.994 I-5.723 J2.905
N16000 X19.458 Y0.91 I-0.309 J0.514
N16005 G1 X14.058 Y0.596
N16010 G2 X13.775 Y0.649 I-0.035 J0.599
N16015 X11.087 Y2.932 I2.65 J5.845
N16020 X10.638 Y3.72 Z35.007 I5.338 J3.563
N16025 G1 X10.628 Y3.734 Z35.004
N16030 X10.615 Y3.744 Z35.
N16035 X10.442 Y3.835
N16040 X10.026 Y4.067
N16045 X9.819 Y4.188
N16050 X9.347 Y4.471
N16055 X9.195 Y4.563
N16060 X8.669 Y4.886
N16065 X8.572 Y4.948
N16070 X8.544 Y4.972
N16075 X7.818 Y5.531
N16080 X7.125 Y6.129
N16085 X6.535 Y6.828
N16090 X6.056 Y7.609
N16095 X5.96 Y7.825
N16100 X5.92 Y7.91
N16105 X5.875 Y7.993
N16110 X5.826 Y8.074
N16115 G3 X5.334 Y8.331 Z35.123 I-0.493 J-0.343
N16120 G1 X5.333
N16125 G3 X4.991 Y8.224 Z35.2 I0. J-0.6
N16130 X4.882 Y7.336 I0.342 J-0.493
N16135 G1 X7.687 Y4.134
N16140 G3 X8.581 Y4.125 I0.451 J0.395
N16145 X8.544 Y4.972 Z35. I-0.443 J0.405
N16150 G1 X8.402 Y5.094
N16155 X8.156 Y5.314
N16160 X7.942 Y5.509
N16165 X7.117 Y6.307
N16170 X7.087 Y6.339
N16175 X6.702 Y6.756
N16180 X6.545 Y6.962
N16185 X6.008 Y7.792
N16190 X5.74 Y8.207
N16195 X5.663 Y8.333
N16200 X5.382 Y8.83
N16205 X5.292 Y9.037
N16210 X5.138 Y9.452
N16215 X5.04 Y9.722
N16220 X4.69 Y10.698
N16225 X4.625 Y10.905
N16230 X4.545 Y11.321
N16235 X4.506 Y11.528
N16240 X4.362 Y12.774
N16245 X4.343 Y12.981
N16250 X4.31 Y13.396
N16255 Y13.604
N16260 X4.343 Y14.019
N16265 X4.362 Y14.226
N16270 X4.506 Y15.472
N16275 X4.585 Y15.887
N16280 X4.625 Y16.095
N16285 X4.69 Y16.302
N16290 X5.062 Y17.34
N16295 X5.138 Y17.548
N16300 X5.292 Y17.963
N16305 X5.382 Y18.17
N16310 X5.663 Y18.667
N16315 X5.74 Y18.793
N16320 X6.286 Y19.639
N16325 X6.545 Y20.038
N16330 X6.704 Y20.246
N16335 X7.087 Y20.661
N16340 X7.117 Y20.693
N16345 X7.243 Y20.814
N16350 X7.256 Y20.837 Z35.006
N16355 G2 X7.566 Y21.698 Z35.2 I8.87 J-2.703
N16360 X11.068 Y25.906 I8.561 J-3.564
N16365 X11.354 Y26.002 I0.327 J-0.503
N16370 G1 X19.763 Y26.587
N16375 G2 X20.059 Y26.532 I0.042 J-0.599
N16380 X24.121 Y22.832 I-3.933 J-8.398
N16385 X24.537 Y22.039 Z35.01 I-7.995 J-4.698
N16390 G1 X24.551 Y22.021 Z35.005
N16395 X24.571 Y22.01 Z35.
N16400 X28.311 Y21.006
N16405 X28.759 Y20.909
N16410 X29.657 Y20.73
N16415 X30.561 Y20.59
N16420 X31.447 Y20.361
N16425 X32.271 Y19.962
N16430 X32.991 Y19.396
N16435 X33.586 Y18.701
N16440 X33.668 Y18.564
N16445 X33.731 Y18.465
N16450 X33.801 Y18.371
N16455 X33.876 Y18.281
N16460 G3 X34.724 Y18.264 Z35.2 I0.433 J0.416
N16465 X34.575 Y19.234 I-0.415 J0.433
N16470 G1 X28.753 Y22.117
N16475 G3 X27.913 Y21.754 I-0.266 J-0.538
N16480 X28.311 Y21.006 Z35. I0.574 J-0.175
N16485 G1 X30.181 Y20.504
N16490 X30.805 Y20.298
N16495 X30.933 Y20.246
N16500 X31.636 Y19.942
N16505 X31.844 Y19.851
N16510 X32.051 Y19.751
N16515 X32.259 Y19.634
N16520 X32.467 Y19.5
N16525 X32.675 Y19.337
N16530 X32.833 Y19.208
N16535 X33.574 Y18.585
N16540 X33.79 Y18.378
N16545 X33.922 Y18.231
N16550 X33.973 Y18.17
N16555 X34.13 Y17.963
N16560 X34.678 Y17.132
N16565 X34.96 Y16.672
N16570 X35.035 Y16.51
N16575 X35.122 Y16.302
N16580 X35.194 Y16.095
N16585 X35.381 Y15.472
N16590 X35.441 Y15.264
N16595 X35.584 Y14.758
N16600 X35.604 Y14.642
N16605 X35.636 Y14.434
N16610 X35.652 Y14.226
N16615 X35.657 Y14.019
N16620 X35.658 Y13.396
N16625 X35.657 Y12.981
N16630 X35.652 Y12.774
N16635 X35.636 Y12.566
N16640 X35.604 Y12.358
N16645 X35.584 Y12.242
N16650 X35.576 Y12.215
N16655 X35.372 Y11.322
N16660 X35.156 Y10.433
N16665 X34.779 Y9.598
N16670 X34.238 Y8.86
N16675 X33.562 Y8.243
N16680 X32.872 Y7.806
N16685 X32.811 Y7.766
N16690 X32.751 Y7.723
N16695 X32.694 Y7.678
N16700 G3 X32.637 Y6.832 Z35.2 I0.395 J-0.452
N16705 X33.595 Y6.904 I0.452 J0.395
N16710 G1 X36.654 Y11.71
N16715 G3 X36.33 Y12.603 I-0.506 J0.322
N16720 X35.576 Y12.215 Z35. I-0.182 J-0.572
N16725 G1 X35.441 Y11.736
N16730 X35.376 Y11.51
N16735 X35.194 Y10.905
N16740 X35.122 Y10.698
N16745 X35.035 Y10.49
N16750 X34.96 Y10.328
N16755 X34.678 Y9.868
N16760 X34.129 Y9.036
N16765 X33.973 Y8.83
N16770 X33.922 Y8.769
N16775 X33.79 Y8.622
N16780 X33.574 Y8.415
N16785 X32.833 Y7.792
N16790 X32.675 Y7.663
N16795 X32.467 Y7.5
N16800 X32.259 Y7.366
N16805 X32.051 Y7.249
N16810 X31.844 Y7.149
N16815 X31.636 Y7.058
N16820 X30.933 Y6.754
N16825 X30.805 Y6.702
N16830 X30.181 Y6.496
N16835 X26.46 Y5.497
N16840 X26.373 Y5.464
N16845 X26.294 Y5.417
N16850 X26.241 Y5.364 Z35.005
N16855 X26.19 Y5.313 Z35.018
N16860 X26.14 Y5.263 Z35.041
N16865 X26.108 Y5.191 Z35.079
N16870 X26.079 Y5.124 Z35.129
N16875 X26.052 Y5.065 Z35.188
N16880 X26.045 Y5.004 Z35.265
N16885 X26.039 Y4.957 Z35.35
N16890 X26.035 Y4.924 Z35.442
N16895 X26.036 Y4.908 Z35.52
N16900 Y4.902 Z35.6
N16905 G0 Z55.
N16910 X-3.72 Y-7.783
N16915 Z34.6
N16920 G1 Z34. F1560.
N16925 Z32.
N16930 G3 X-3.25 Y-4.517 I-14.839 J3.801
N16935 G1 Y-4.402
N16940 X-3.86 Y-3.72
N16945 X-4.319 Y-2.928
N16950 X-4.646 Y-2.073
N16955 X-4.869 Y-1.185
N16960 X-5.014 Y-0.281
N16965 X-5.107 Y0.63
N16970 X-5.164 Y1.543
N16975 X-5.198 Y2.458
N16980 X-5.219 Y3.373
N16985 X-5.232 Y4.289
N16990 X-5.239 Y5.204
N16995 X-5.244 Y6.12
N17000 X-5.246 Y7.035
N17005 X-5.249 Y8.866
N17010 X-5.25 Y15.274
N17015 Y26.717
N17020 X-5.064 Y27.613
N17025 X-4.593 Y28.398
N17030 X-3.932 Y29.031
N17035 X-3.152 Y29.511
N17040 X-2.304 Y29.855
N17045 X-1.42 Y30.092
N17050 X-0.517 Y30.247
N17055 X0.393 Y30.346
N17060 X1.306 Y30.407
N17065 X2.221 Y30.444
N17070 X3.136 Y30.467
N17075 X4.051 Y30.48
N17080 X4.966 Y30.488
N17085 X5.882 Y30.493
N17090 X6.797 Y30.496
N17095 X8.628 Y30.499
N17100 X11.374 Y30.5
N17105 X41.583
N17110 X42.47 Y30.272
N17115 X43.237 Y29.772
N17120 X43.85 Y29.092
N17125 X44.311 Y28.301
N17130 X44.641 Y27.447
N17135 X44.865 Y26.56
N17140 X45.012 Y25.656
N17145 X45.105 Y24.746
N17150 X45.163 Y23.832
N17155 X45.198 Y22.917
N17160 X45.219 Y22.002
N17165 X45.232 Y21.087
N17170 X45.239 Y20.171
N17175 X45.244 Y19.256
N17180 X45.246 Y18.34
N17185 X45.249 Y16.51
N17190 X45.25 Y11.932
N17195 Y0.032
N17200 X44.994 Y-0.847
N17205 X44.461 Y-1.591
N17210 X43.76 Y-2.18
N17215 X42.957 Y-2.62
N17220 X42.096 Y-2.931
N17225 X41.205 Y-3.142
N17230 X40.3 Y-3.279
N17235 X39.389 Y-3.366
N17240 X38.475 Y-3.419
N17245 X37.56 Y-3.452
N17250 X36.645 Y-3.471
N17255 X35.73 Y-3.483
N17260 X34.814 Y-3.49
N17265 X33.899 Y-3.494
N17270 X32.068 Y-3.498
N17275 X28.406 Y-3.5
N17280 X8.267
N17285 X0.028
N17290 X-0.871 Y-3.328
N17295 X-1.736 Y-3.03
N17300 X-2.466 Y-2.478
N17305 X-3.034 Y-1.76
N17310 X-3.448 Y-0.943
N17315 X-3.736 Y-0.074
N17320 X-3.927 Y0.821
N17325 X-4.05 Y1.728
N17330 X-4.128 Y2.64
N17335 X-4.176 Y3.554
N17340 X-4.206 Y4.469
N17345 X-4.223 Y5.385
N17350 X-4.234 Y6.3
N17355 X-4.24 Y7.215
N17360 X-4.244 Y8.131
N17365 X-4.248 Y9.962
N17370 X-4.25 Y13.623
N17375 Y24.608
N17380 X-4.238 Y25.524
N17385 X-4.016 Y26.412
N17390 X-3.559 Y27.205
N17395 X-2.92 Y27.861
N17400 X-2.159 Y28.37
N17405 X-1.324 Y28.744
N17410 X-0.447 Y29.007
N17415 X0.451 Y29.186
N17420 X1.359 Y29.303
N17425 X2.271 Y29.378
N17430 X3.185 Y29.425
N17435 X4.1 Y29.454
N17440 X5.015 Y29.472
N17445 X5.931 Y29.483
N17450 X6.846 Y29.49
N17455 X7.761 Y29.494
N17460 X9.592 Y29.498
N17465 X13.254 Y29.5
N17470 X39.801
N17475 X40.712 Y29.409
N17480 X41.563 Y29.07
N17485 X42.294 Y28.52
N17490 X42.88 Y27.816
N17495 X43.321 Y27.014
N17500 X43.638 Y26.155
N17505 X43.855 Y25.266
N17510 X44. Y24.362
N17515 X44.094 Y23.451
N17520 X44.154 Y22.538
N17525 X44.191 Y21.623
N17530 X44.214 Y20.708
N17535 X44.228 Y19.793
N17540 X44.237 Y18.877
N17545 X44.242 Y17.962
N17550 X44.245 Y17.047
N17555 X44.247 Y16.131
N17560 X44.249 Y13.385
N17565 X44.25 Y1.484
N17570 X44.038 Y0.594
N17575 X43.585 Y-0.201
N17580 X42.948 Y-0.859
N17585 X42.188 Y-1.369
N17590 X41.353 Y-1.744
N17595 X40.476 Y-2.008
N17600 X39.578 Y-2.187
N17605 X38.67 Y-2.304
N17610 X37.758 Y-2.379
N17615 X36.844 Y-2.426
N17620 X35.929 Y-2.455
N17625 X35.013 Y-2.473
N17630 X34.098 Y-2.483
N17635 X33.183 Y-2.49
N17640 X32.267 Y-2.494
N17645 X30.436 Y-2.498
N17650 X26.775 Y-2.5
N17655 X10.297
N17660 X2.058
N17665 X1.143 Y-2.484
N17670 X0.236 Y-2.36
N17675 X-0.607 Y-2.004
N17680 X-1.329 Y-1.441
N17685 X-1.905 Y-0.729
N17690 X-2.338 Y0.077
N17695 X-2.648 Y0.938
N17700 X-2.862 Y1.829
N17705 X-3.004 Y2.733
N17710 X-3.096 Y3.644
N17715 X-3.155 Y4.557
N17720 X-3.191 Y5.472
N17725 X-3.214 Y6.387
N17730 X-3.228 Y7.302
N17735 X-3.237 Y8.218
N17740 X-3.242 Y9.133
N17745 X-3.245 Y10.049
N17750 X-3.248 Y11.879
N17755 X-3.25 Y16.456
N17760 Y22.864
N17765 X-3.248 Y23.78
N17770 X-3.167 Y24.692
N17775 X-2.863 Y25.555
N17780 X-2.351 Y26.314
N17785 X-1.679 Y26.936
N17790 X-0.9 Y27.416
N17795 X-0.055 Y27.769
N17800 X0.826 Y28.018
N17805 X1.725 Y28.188
N17810 X2.634 Y28.301
N17815 X3.546 Y28.375
N17820 X4.461 Y28.422
N17825 X5.376 Y28.451
N17830 X6.291 Y28.47
N17835 X7.206 Y28.482
N17840 X8.121 Y28.489
N17845 X9.037 Y28.493
N17850 X9.952 Y28.496
N17855 X11.783 Y28.498
N17860 X17.276 Y28.5
N17865 X38.33
N17870 X39.245 Y28.454
N17875 X40.125 Y28.202
N17880 X40.911 Y27.732
N17885 X41.563 Y27.09
N17890 X42.073 Y26.33
N17895 X42.452 Y25.496
N17900 X42.722 Y24.622
N17905 X42.908 Y23.725
N17910 X43.032 Y22.818
N17915 X43.112 Y21.906
N17920 X43.164 Y20.992
N17925 X43.197 Y20.078
N17930 X43.217 Y19.162
N17935 X43.23 Y18.247
N17940 X43.238 Y17.332
N17945 X43.242 Y16.416
N17950 X43.245 Y15.501
N17955 X43.248 Y13.67
N17960 X43.249 Y11.839
N17965 X43.25 Y3.6
N17970 X43.234 Y2.685
N17975 X43.031 Y1.792
N17980 X42.601 Y0.984
N17985 X41.988 Y0.305
N17990 X41.247 Y-0.233
N17995 X40.425 Y-0.636
N18000 X39.556 Y-0.926
N18005 X38.663 Y-1.126
N18010 X37.758 Y-1.261
N18015 X36.847 Y-1.349
N18020 X35.933 Y-1.406
N18025 X35.018 Y-1.441
N18030 X34.103 Y-1.464
N18035 X33.188 Y-1.478
N18040 X32.272 Y-1.486
N18045 X31.357 Y-1.492
N18050 X30.442 Y-1.495
N18055 X28.611 Y-1.498
N18060 X24.034 Y-1.5
N18065 X3.894
N18070 X2.979 Y-1.499
N18075 X2.064 Y-1.473
N18080 X1.167 Y-1.292
N18085 X0.346 Y-0.886
N18090 X-0.353 Y-0.295
N18095 X-0.91 Y0.431
N18100 X-1.332 Y1.244
N18105 X-1.636 Y2.107
N18110 X-1.848 Y2.998
N18115 X-1.991 Y3.902
N18120 X-2.085 Y4.813
N18125 X-2.146 Y5.726
N18130 X-2.185 Y6.641
N18135 X-2.21 Y7.556
N18140 X-2.225 Y8.471
N18145 X-2.235 Y9.386
N18150 X-2.241 Y10.302
N18155 X-2.244 Y11.217
N18160 X-2.248 Y13.048
N18165 X-2.25 Y16.71
N18170 Y22.202
N18175 X-2.227 Y23.118
N18180 X-2.038 Y24.013
N18185 X-1.635 Y24.835
N18190 X-1.05 Y25.539
N18195 X-0.329 Y26.103
N18200 X0.479 Y26.534
N18205 X1.339 Y26.848
N18210 X2.227 Y27.069
N18215 X3.13 Y27.219
N18220 X4.04 Y27.319
N18225 X4.953 Y27.385
N18230 X5.868 Y27.427
N18235 X6.783 Y27.454
N18240 X7.698 Y27.471
N18245 X8.613 Y27.482
N18250 X9.529 Y27.489
N18255 X10.444 Y27.493
N18260 X12.275 Y27.497
N18265 X15.021 Y27.499
N18270 X17.767 Y27.5
N18275 X36.991
N18280 X37.906 Y27.472
N18285 X38.8 Y27.275
N18290 X39.618 Y26.864
N18295 X40.315 Y26.27
N18300 X40.873 Y25.544
N18305 X41.298 Y24.734
N18310 X41.608 Y23.872
N18315 X41.826 Y22.983
N18320 X41.975 Y22.08
N18325 X42.073 Y21.17
N18330 X42.138 Y20.257
N18335 X42.179 Y19.342
N18340 X42.206 Y18.427
N18345 X42.222 Y17.512
N18350 X42.233 Y16.596
N18355 X42.239 Y15.681
N18360 X42.243 Y14.766
N18365 X42.248 Y12.935
N18370 X42.25 Y9.273
N18375 Y4.696
N18380 X42.219 Y3.781
N18385 X42.012 Y2.889
N18390 X41.586 Y2.079
N18395 X40.981 Y1.393
N18400 X40.248 Y0.844
N18405 X39.432 Y0.428
N18410 X38.568 Y0.125
N18415 X37.678 Y-0.087
N18420 X36.774 Y-0.232
N18425 X35.864 Y-0.328
N18430 X34.95 Y-0.391
N18435 X34.036 Y-0.431
N18440 X33.121 Y-0.457
N18445 X32.205 Y-0.473
N18450 X31.29 Y-0.483
N18455 X30.375 Y-0.49
N18460 X29.459 Y-0.494
N18465 X27.628 Y-0.498
N18470 X23.967 Y-0.5
N18475 X4.743
N18480 X3.827 Y-0.496
N18485 X2.914 Y-0.44
N18490 X2.032 Y-0.195
N18495 X1.237 Y0.26
N18500 X0.568 Y0.885
N18505 X0.037 Y1.63
N18510 X-0.363 Y2.454
N18515 X-0.653 Y3.322
N18520 X-0.855 Y4.215
N18525 X-0.993 Y5.12
N18530 X-1.085 Y6.031
N18535 X-1.145 Y6.944
N18540 X-1.183 Y7.859
N18545 X-1.208 Y8.774
N18550 X-1.224 Y9.689
N18555 X-1.234 Y10.604
N18560 X-1.24 Y11.52
N18565 X-1.244 Y12.435
N18570 X-1.248 Y14.266
N18575 X-1.25 Y17.928
N18580 Y20.674
N18585 X-1.244 Y21.589
N18590 X-1.149 Y22.5
N18595 X-0.852 Y23.366
N18600 X-0.358 Y24.136
N18605 X0.296 Y24.778
N18610 X1.059 Y25.282
N18615 X1.893 Y25.661
N18620 X2.766 Y25.935
N18625 X3.662 Y26.125
N18630 X4.568 Y26.255
N18635 X5.479 Y26.342
N18640 X6.393 Y26.398
N18645 X7.308 Y26.435
N18650 X8.223 Y26.459
N18655 X9.138 Y26.474
N18660 X10.053 Y26.484
N18665 X10.969 Y26.49
N18670 X11.884 Y26.494
N18675 X13.715 Y26.498
N18680 X17.377 Y26.5
N18685 X35.685
N18690 X36.6 Y26.484
N18695 X37.504 Y26.335
N18700 X38.348 Y25.981
N18705 X39.082 Y25.434
N18710 X39.682 Y24.743
N18715 X40.149 Y23.955
N18720 X40.496 Y23.108
N18725 X40.744 Y22.227
N18730 X40.917 Y21.328
N18735 X41.033 Y20.42
N18740 X41.111 Y19.508
N18745 X41.161 Y18.594
N18750 X41.194 Y17.679
N18755 X41.215 Y16.764
N18760 X41.228 Y15.849
N18765 X41.236 Y14.933
N18770 X41.241 Y14.018
N18775 X41.245 Y13.102
N18780 X41.248 Y11.272
N18785 X41.25 Y7.61
N18790 X41.249 Y5.779
N18795 X41.211 Y4.864
N18800 X41.002 Y3.973
N18805 X40.581 Y3.16
N18810 X39.984 Y2.467
N18815 X39.258 Y1.909
N18820 X38.448 Y1.482
N18825 X37.588 Y1.168
N18830 X36.7 Y0.946
N18835 X35.798 Y0.793
N18840 X34.888 Y0.69
N18845 X33.975 Y0.622
N18850 X33.061 Y0.578
N18855 X32.146 Y0.549
N18860 X31.23 Y0.531
N18865 X30.315 Y0.52
N18870 X29.4 Y0.512
N18875 X28.484 Y0.508
N18880 X27.569 Y0.505
N18885 X25.738 Y0.502
N18890 X21.161 Y0.5
N18895 X16.584
N18900 X5.599 Y0.501
N18905 X4.683 Y0.51
N18910 X3.773 Y0.608
N18915 X2.907 Y0.903
N18920 X2.136 Y1.397
N18925 X1.493 Y2.048
N18930 X0.986 Y2.81
N18935 X0.604 Y3.643
N18940 X0.328 Y4.515
N18945 X0.134 Y5.41
N18950 X0.002 Y6.316
N18955 X-0.087 Y7.227
N18960 X-0.145 Y8.141
N18965 X-0.183 Y9.055
N18970 X-0.207 Y9.97
N18975 X-0.223 Y10.886
N18980 X-0.233 Y11.801
N18985 X-0.239 Y12.716
N18990 X-0.243 Y13.632
N18995 X-0.247 Y15.463
N19000 X-0.25 Y19.124
N19005 X-0.248 Y20.04
N19010 X-0.217 Y20.955
N19015 X-0.032 Y21.851
N19020 X0.357 Y22.68
N19025 X0.926 Y23.397
N19030 X1.63 Y23.981
N19035 X2.427 Y24.433
N19040 X3.279 Y24.768
N19045 X4.162 Y25.007
N19050 X5.063 Y25.173
N19055 X5.971 Y25.285
N19060 X6.883 Y25.36
N19065 X7.797 Y25.41
N19070 X8.712 Y25.442
N19075 X9.627 Y25.463
N19080 X10.543 Y25.477
N19085 X11.458 Y25.485
N19090 X12.374 Y25.491
N19095 X13.289 Y25.494
N19100 X15.12 Y25.498
N19105 X18.782 Y25.5
N19110 X34.344
N19115 X35.259 Y25.495
N19120 X36.17 Y25.4
N19125 X37.037 Y25.109
N19130 X37.812 Y24.621
N19135 X38.461 Y23.975
N19140 X38.975 Y23.217
N19145 X39.364 Y22.389
N19150 X39.648 Y21.519
N19155 X39.848 Y20.625
N19160 X39.986 Y19.72
N19165 X40.078 Y18.81
N19170 X40.139 Y17.896
N19175 X40.179 Y16.982
N19180 X40.205 Y16.067
N19185 X40.221 Y15.151
N19190 X40.232 Y14.236
N19195 X40.239 Y13.321
N19200 X40.243 Y12.405
N19205 X40.247 Y10.574
N19210 X40.249 Y7.828
N19215 Y6.913
N19220 X40.212 Y5.998
N19225 X40.016 Y5.104
N19230 X39.616 Y4.281
N19235 X39.036 Y3.572
N19240 X38.324 Y2.997
N19245 X37.523 Y2.553
N19250 X36.669 Y2.223
N19255 X35.785 Y1.987
N19260 X34.884 Y1.823
N19265 X33.976 Y1.712
N19270 X33.063 Y1.637
N19275 X32.149 Y1.588
N19280 X31.234 Y1.557
N19285 X30.319 Y1.536
N19290 X29.404 Y1.523
N19295 X28.488 Y1.514
N19300 X27.573 Y1.509
N19305 X26.657 Y1.506
N19310 X24.827 Y1.502
N19315 X21.165 Y1.5
N19320 X7.434
N19325 X6.518 Y1.501
N19330 X5.603 Y1.519
N19335 X4.696 Y1.645
N19340 X3.84 Y1.97
N19345 X3.085 Y2.487
N19350 X2.457 Y3.153
N19355 X1.963 Y3.924
N19360 X1.591 Y4.76
N19365 X1.322 Y5.635
N19370 X1.132 Y6.531
N19375 X1.002 Y7.437
N19380 X0.915 Y8.348
N19385 X0.857 Y9.262
N19390 X0.819 Y10.176
N19395 X0.794 Y11.092
N19400 X0.778 Y12.007
N19405 X0.768 Y12.922
N19410 X0.761 Y13.838
N19415 X0.757 Y14.753
N19420 X0.753 Y16.584
N19425 X0.751 Y18.415
N19430 X0.758 Y19.33
N19435 X0.835 Y20.242
N19440 X1.094 Y21.12
N19445 X1.551 Y21.914
N19450 X2.171 Y22.587
N19455 X2.91 Y23.127
N19460 X3.728 Y23.539
N19465 X4.592 Y23.841
N19470 X5.482 Y24.056
N19475 X6.385 Y24.205
N19480 X7.295 Y24.306
N19485 X8.208 Y24.373
N19490 X9.122 Y24.418
N19495 X10.037 Y24.447
N19500 X10.952 Y24.466
N19505 X11.868 Y24.478
N19510 X12.783 Y24.486
N19515 X13.698 Y24.491
N19520 X14.614 Y24.494
N19525 X16.445 Y24.498
N19530 X20.106 Y24.5
N19535 X32.922
N19540 X33.838 Y24.498
N19545 X34.752 Y24.453
N19550 X35.644 Y24.245
N19555 X36.464 Y23.839
N19560 X37.17 Y23.257
N19565 X37.745 Y22.544
N19570 X38.189 Y21.744
N19575 X38.519 Y20.89
N19580 X38.756 Y20.006
N19585 X38.922 Y19.105
N19590 X39.034 Y18.197
N19595 X39.109 Y17.285
N19600 X39.159 Y16.371
N19605 X39.191 Y15.456
N19610 X39.212 Y14.541
N19615 X39.226 Y13.625
N19620 X39.235 Y12.71
N19625 X39.24 Y11.794
N19630 X39.244 Y10.879
N19635 X39.248 Y9.048
N19640 Y8.133
N19645 X39.222 Y7.218
N19650 X39.061 Y6.317
N19655 X38.702 Y5.474
N19660 X38.157 Y4.739
N19665 X37.47 Y4.134
N19670 X36.687 Y3.66
N19675 X35.843 Y3.305
N19680 X34.965 Y3.047
N19685 X34.067 Y2.866
N19690 X33.16 Y2.742
N19695 X32.249 Y2.658
N19700 X31.335 Y2.602
N19705 X30.42 Y2.566
N19710 X29.505 Y2.542
N19715 X28.59 Y2.527
N19720 X27.675 Y2.517
N19725 X26.759 Y2.511
N19730 X25.844 Y2.507
N19735 X24.013 Y2.503
N19740 X21.267 Y2.501
N19745 X8.451 Y2.5
N19750 X7.535 Y2.501
N19755 X6.62 Y2.523
N19760 X5.715 Y2.657
N19765 X4.86 Y2.986
N19770 X4.106 Y3.505
N19775 X3.479 Y4.172
N19780 X2.984 Y4.942
N19785 X2.61 Y5.777
N19790 X2.338 Y6.651
N19795 X2.145 Y7.546
N19800 X2.012 Y8.452
N19805 X1.922 Y9.363
N19810 X1.862 Y10.276
N19815 X1.823 Y11.191
N19820 X1.797 Y12.106
N19825 X1.78 Y13.021
N19830 X1.769 Y13.937
N19835 X1.762 Y14.852
N19840 X1.758 Y15.767
N19845 X1.755 Y16.683
N19850 X1.754 Y17.598
N19855 X1.77 Y18.514
N19860 X1.885 Y19.422
N19865 X2.192 Y20.284
N19870 X2.689 Y21.053
N19875 X3.34 Y21.697
N19880 X4.099 Y22.208
N19885 X4.928 Y22.596
N19890 X5.799 Y22.88
N19895 X6.692 Y23.082
N19900 X7.596 Y23.221
N19905 X8.507 Y23.316
N19910 X9.42 Y23.379
N19915 X10.335 Y23.421
N19920 X10.877 Y23.438
N19925 X11.048 Y23.451
N19930 X11.216 Y23.48
N19935 X11.382 Y23.525
N19940 X12.52 Y23.89
N19945 X12.728 Y23.949
N19950 X12.867 Y23.982
N19955 X13.143 Y24.03
N19960 X13.351 Y24.05
N19965 X13.974 Y24.103
N19970 X14.39 Y24.136
N19975 X14.598 Y24.153
N19980 X15.114 Y24.19
N19985 X15.221
N19990 X15.637 Y24.161
N19995 X15.844 Y24.142
N20000 X17.091 Y23.957
N20005 X17.299 Y23.92
N20010 X17.714 Y23.843
N20015 X17.965 Y23.797
N20020 X18.562 Y23.712
N20025 X19.467 Y23.621
N20030 X20.381 Y23.57
N20035 X21.295 Y23.541
N20040 X22.211 Y23.524
N20045 X23.126 Y23.514
N20050 X24.042 Y23.508
N20055 X24.957 Y23.505
N20060 X26.788 Y23.502
N20065 X32.28 Y23.5
N20070 X33.196 Y23.488
N20075 X34.105 Y23.383
N20080 X34.972 Y23.09
N20085 X35.749 Y22.606
N20090 X36.404 Y21.966
N20095 X36.926 Y21.214
N20100 X37.323 Y20.389
N20105 X37.615 Y19.521
N20110 X37.821 Y18.63
N20115 X37.965 Y17.726
N20120 X38.062 Y16.815
N20125 X38.127 Y15.902
N20130 X38.17 Y14.988
N20135 X38.198 Y14.073
N20140 X38.217 Y13.158
N20145 X38.229 Y12.242
N20150 X38.236 Y11.327
N20155 X38.241 Y10.411
N20160 X38.244 Y9.496
N20165 X38.238 Y8.581
N20170 X38.139 Y7.671
N20175 X37.85 Y6.802
N20180 X37.371 Y6.022
N20185 X36.732 Y5.366
N20190 X35.982 Y4.841
N20195 X35.159 Y4.441
N20200 X34.292 Y4.146
N20205 X33.401 Y3.936
N20210 X32.497 Y3.791
N20215 X31.587 Y3.691
N20220 X30.674 Y3.625
N20225 X29.76 Y3.581
N20230 X28.845 Y3.553
N20235 X27.93 Y3.534
N20240 X27.014 Y3.522
N20245 X26.099 Y3.514
N20250 X25.184 Y3.509
N20255 X24.268 Y3.506
N20260 X23.353 Y3.504
N20265 X20.606 Y3.501
N20270 X19.262 Y3.5
N20275 X19.102 Y3.493
N20280 X18.943 Y3.473
N20285 X18.787 Y3.438
N20290 X17.922 Y3.206
N20295 X17.714 Y3.157
N20300 X17.299 Y3.08
N20305 X17.091 Y3.043
N20310 X15.844 Y2.858
N20315 X15.637 Y2.839
N20320 X15.221 Y2.81
N20325 X15.114
N20330 X14.598 Y2.847
N20335 X14.182 Y2.881
N20340 X13.559 Y2.932
N20345 X13.351 Y2.95
N20350 X13.143 Y2.97
N20355 X12.867 Y3.018
N20360 X12.728 Y3.051
N20365 X12.468 Y3.111
N20370 X12.05 Y3.192
N20375 X11.477 Y3.278
N20380 X10.621 Y3.367
N20385 X9.707 Y3.423
N20390 X8.793 Y3.456
N20395 X7.878 Y3.485
N20400 X6.968 Y3.589
N20405 X6.098 Y3.873
N20410 X5.315 Y4.347
N20415 X4.653 Y4.98
N20420 X4.123 Y5.726
N20425 X3.716 Y6.546
N20430 X3.416 Y7.411
N20435 X3.201 Y8.301
N20440 X3.052 Y9.204
N20445 X2.949 Y10.114
N20450 X2.881 Y11.026
N20455 X2.835 Y11.941
N20460 X2.805 Y12.856
N20465 X2.786 Y13.771
N20470 X2.773 Y14.686
N20475 X2.765 Y15.602
N20480 X2.76 Y16.517
N20485 X2.773 Y17.432
N20490 X2.88 Y18.342
N20495 X3.171 Y19.209
N20500 X3.658 Y19.985
N20505 X4.3 Y20.637
N20510 X5.053 Y21.158
N20515 X5.877 Y21.557
N20520 X6.744 Y21.85
N20525 X7.635 Y22.059
N20530 X8.539 Y22.205
N20535 X8.78 Y22.26
N20540 X9.012 Y22.345
N20545 X9.231 Y22.459
N20550 X9.611 Y22.687
N20555 X9.819 Y22.812
N20560 X10.047 Y22.944
N20565 X10.442 Y23.165
N20570 X10.65 Y23.274
N20575 X10.858 Y23.351
N20580 X11.273 Y23.49
N20585 X11.382 Y23.525
N20590 X11.39 Y23.528 Z32.002
N20595 G2 X12.234 Y23.924 Z32.2 I3.486 J-6.342
N20600 X13.15 Y24.214 I2.641 J-6.737
N20605 G1 X13.206 Y24.225
N20610 X13.263 Y24.231
N20615 X15.773 Y24.357
N20620 X15.83
N20625 X15.887 Y24.352
N20630 G2 X16.826 Y24.155 I-1.012 J-7.166
N20635 X17.707 Y23.846 Z32.002 I-1.951 J-6.969
N20640 G1 X17.714 Y23.843 Z32.
N20645 X17.922 Y23.794
N20650 X20.831 Y23.014
N20655 X21.279 Y22.917
N20660 X21.694 Y22.833
N20665 X22.258 Y22.745
N20670 X23.076 Y22.653
N20675 X23.99 Y22.59
N20680 X24.904 Y22.554
N20685 X25.82 Y22.532
N20690 X26.735 Y22.519
N20695 X27.65 Y22.512
N20700 X28.566 Y22.507
N20705 X29.481 Y22.504
N20710 X31.312 Y22.5
N20715 X32.227 Y22.482
N20720 X33.135 Y22.365
N20725 X33.999 Y22.062
N20730 X34.769 Y21.567
N20735 X35.416 Y20.92
N20740 X35.932 Y20.163
N20745 X36.325 Y19.337
N20750 X36.613 Y18.468
N20755 X36.819 Y17.576
N20760 X36.962 Y16.672
N20765 X37.059 Y15.761
N20770 X37.125 Y14.848
N20775 X37.168 Y13.934
N20780 X37.197 Y13.019
N20785 X37.216 Y12.104
N20790 X37.228 Y11.188
N20795 X37.234 Y10.273
N20800 X37.215 Y9.358
N20805 X37.071 Y8.454
N20810 X36.729 Y7.604
N20815 X36.203 Y6.855
N20820 X35.533 Y6.232
N20825 X34.761 Y5.739
N20830 X33.925 Y5.366
N20835 X33.051 Y5.094
N20840 X32.156 Y4.901
N20845 X31.251 Y4.768
N20850 X30.34 Y4.677
N20855 X29.426 Y4.616
N20860 X28.512 Y4.576
N20865 X27.597 Y4.549
N20870 X26.681 Y4.532
N20875 X25.766 Y4.521
N20880 X24.851 Y4.513
N20885 X23.935 Y4.509
N20890 X23.002 Y4.505
N20895 X22.843 Y4.498
N20900 X22.686 Y4.477
N20905 X22.531 Y4.443
N20910 X18.787 Y3.438
N20915 X18.779 Y3.435 Z32.002
N20920 G2 X17.918 Y3.075 Z32.2 I-3.491 J7.149
N20925 X17.485 Y2.937 I-2.63 J7.508
N20930 G1 X17.421 Y2.923
N20935 X17.357 Y2.915
N20940 X14.205 Y2.715
N20945 X14.14 Y2.714
N20950 X14.075 Y2.721
N20955 G2 X13.635 Y2.801 I1.213 J7.862
N20960 X12.728 Y3.051 Z32. I1.653 J7.782
N20965 G1 X12.52 Y3.11
N20970 X11.273 Y3.51
N20975 X10.858 Y3.649
N20980 X10.65 Y3.726
N20985 X10.615 Y3.744
N20990 X10.479 Y3.807
N20995 X10.271 Y3.882
N21000 X10.013 Y3.963
N21005 X9.592 Y4.075
N21010 X8.698 Y4.272
N21015 X7.807 Y4.482
N21020 X6.963 Y4.836
N21025 X6.211 Y5.358
N21030 X5.579 Y6.02
N21035 X5.072 Y6.782
N21040 X4.684 Y7.611
N21045 X4.396 Y8.48
N21050 X4.19 Y9.372
N21055 X4.046 Y10.276
N21060 X3.947 Y11.186
N21065 X3.88 Y12.099
N21070 X3.835 Y13.014
N21075 X3.806 Y13.929
N21080 X3.786 Y14.844
N21085 X3.777 Y15.759
N21090 X3.799 Y16.674
N21095 X3.952 Y17.577
N21100 X4.304 Y18.422
N21105 X4.838 Y19.166
N21110 X5.513 Y19.783
N21115 X6.288 Y20.27
N21120 X6.705 Y20.454
N21125 X6.898 Y20.552
N21130 X7.078 Y20.673
N21135 X7.243 Y20.814
N21140 X7.949 Y21.498
N21145 X8.171 Y21.699
N21150 X8.402 Y21.906
N21155 X8.572 Y22.052
N21160 X8.669 Y22.114
N21165 X9.231 Y22.459
N21170 X9.244 Y22.471 Z32.004
N21175 X9.253 Y22.486 Z32.007
N21180 G2 X9.634 Y23.308 Z32.2 I5.894 J-2.237
N21185 X13.072 Y26.201 I5.512 J-3.059
N21190 G1 X13.155 Y26.224
N21195 X13.24 Y26.234
N21200 X16.468 Y26.39
N21205 X16.554 Y26.388
N21210 X16.639 Y26.373
N21215 G2 X20.344 Y23.815 I-1.492 J-6.125
N21220 X20.797 Y23.042 Z32.01 I-5.198 J-3.566
N21225 G1 X20.811 Y23.024 Z32.005
N21230 X20.831 Y23.014 Z32.
N21235 X24.571 Y22.01
N21240 X25.009 Y21.915
N21245 X25.438 Y21.83
N21250 X26.021 Y21.741
N21255 X26.874 Y21.647
N21260 X27.787 Y21.588
N21265 X28.702 Y21.553
N21270 X29.617 Y21.531
N21275 X30.532 Y21.514
N21280 X31.447 Y21.475
N21285 X32.347 Y21.311
N21290 X33.19 Y20.952
N21295 X33.93 Y20.413
N21300 X34.544 Y19.734
N21305 X35.029 Y18.958
N21310 X35.395 Y18.119
N21315 X35.662 Y17.243
N21320 X35.852 Y16.348
N21325 X35.983 Y15.442
N21330 X36.073 Y14.531
N21335 X36.133 Y13.617
N21340 X36.174 Y12.703
N21345 X36.2 Y11.788
N21350 X36.21 Y10.872
N21355 X36.152 Y9.959
N21360 X35.921 Y9.073
N21365 X35.494 Y8.263
N21370 X34.9 Y7.567
N21375 X34.18 Y7.001
N21380 X33.376 Y6.564
N21385 X32.52 Y6.238
N21390 X31.635 Y6.004
N21395 X30.735 Y5.839
N21400 X29.826 Y5.726
N21405 X28.914 Y5.65
N21410 X28. Y5.598
N21415 X27.085 Y5.564
N21420 X26.89 Y5.56
N21425 X26.745 Y5.55
N21430 X26.601 Y5.529
N21435 X26.46 Y5.497
N21440 X22.531 Y4.443
N21445 X22.508 Y4.429 Z32.006
N21450 X22.494 Y4.407 Z32.011
N21455 G2 X22.148 Y3.589 Z32.2 I-6.069 J2.087
N21460 X19.733 Y0.994 I-5.723 J2.905
N21465 X19.458 Y0.91 I-0.309 J0.514
N21470 G1 X14.058 Y0.596
N21475 G2 X13.775 Y0.649 I-0.035 J0.599
N21480 X11.087 Y2.932 I2.65 J5.845
N21485 X10.638 Y3.72 Z32.007 I5.338 J3.563
N21490 G1 X10.628 Y3.734 Z32.004
N21495 X10.615 Y3.744 Z32.
N21500 X10.442 Y3.835
N21505 X10.026 Y4.067
N21510 X9.819 Y4.188
N21515 X9.347 Y4.471
N21520 X9.195 Y4.563
N21525 X8.669 Y4.886
N21530 X8.572 Y4.948
N21535 X8.544 Y4.972
N21540 X7.818 Y5.531
N21545 X7.125 Y6.129
N21550 X6.535 Y6.828
N21555 X6.056 Y7.609
N21560 X5.96 Y7.825
