%
(RICHI_S2_V1)
(T16  D=6. CR=0.5 - ZMIN=32. - BULLNOSE END MILL)
N10 G90 G94 G17 G91.1
N15 G21
N20 G53 G0 Z0.
(FACE5)
N25 T16 M6
N30 S13000 M3
N35 G54
N40 G64 P0.01 Q0.01
N45 M8
N50 G0 X40.123 Y-2.609
N55 G43 Z65. H16
N60 G0 Z55.
N65 G1 Z44.6 F400.
N70 G18 G3 X39.523 Z44. I-0.6 K0. F1560.
N75 G1 X0.477
N80 G3 X-0.123 Z44.6 I0. K0.6
N85 G0 Z55.
N90 X43.416 Y0.746
N95 G1 Z44.6 F400.
N100 G3 X42.816 Z44. I-0.6 K0. F1560.
N105 G1 X-2.816
N110 G3 X-3.416 Z44.6 I0. K0.6
N115 G0 Z55.
N120 X45.317 Y4.102
N125 G1 Z44.6 F400.
N130 G3 X44.717 Z44. I-0.6 K0. F1560.
N135 G1 X-4.717
N140 G3 X-5.317 Z44.6 I0. K0.6
N145 G0 Z55.
N150 X46.323 Y7.457
N155 G1 Z44.6 F400.
N160 G3 X45.723 Z44. I-0.6 K0. F1560.
N165 G1 X-5.723
N170 G3 X-6.323 Z44.6 I0. K0.6
N175 G0 Z55.
N180 X46.716 Y10.813
N185 G1 Z44.6 F400.
N190 G3 X46.116 Z44. I-0.6 K0. F1560.
N195 G1 X46.01
N200 X-6.01
N205 G3 X-6.61 Z44.6 I0. K0.6
N210 G0 Z55.
N215 X46.885 Y14.168
N220 G1 Z44.6 F400.
N225 G3 X46.285 Z44. I-0.6 K0. F1560.
N230 G1 X46.01
N235 X-6.01
N240 G3 X-6.61 Z44.6 I0. K0.6
N245 G0 Z55.
N250 X46.574 Y17.524
N255 G1 Z44.6 F400.
N260 G3 X45.974 Z44. I-0.6 K0. F1560.
N265 G1 X-5.974
N270 G3 X-6.574 Z44.6 I0. K0.6
N275 G0 Z55.
N280 X46.013 Y20.879
N285 G1 Z44.6 F400.
N290 G3 X45.413 Z44. I-0.6 K0. F1560.
N295 G1 X-5.413
N300 G3 X-6.013 Z44.6 I0. K0.6
N305 G0 Z55.
N310 X44.684 Y24.235
N315 G1 Z44.6 F400.
N320 G3 X44.084 Z44. I-0.6 K0. F1560.
N325 G1 X-4.084
N330 G3 X-4.684 Z44.6 I0. K0.6
N335 G0 Z55.
N340 X42.327 Y27.59
N345 G1 Z44.6 F400.
N350 G3 X41.727 Z44. I-0.6 K0. F1560.
N355 G1 X-1.727
N360 G3 X-2.327 Z44.6 I0. K0.6
N365 G0 Z65.
N370 G17
(2D ADAPTIVE5)
N375 G64 P0.1 Q0.1
N380 G0 X-3.72 Y-7.783
N385 Z65.
N390 Z55.
N395 Z47.6
N400 G1 Z47. F1560.
N405 Z45.
N410 G3 X-3.25 Y-4.517 I-14.839 J3.801
N415 G1 Y-4.402
N420 X-3.86 Y-3.72
N425 X-4.319 Y-2.928
N430 X-4.646 Y-2.073
N435 X-4.869 Y-1.185
N440 X-5.014 Y-0.281
N445 X-5.107 Y0.63
N450 X-5.164 Y1.543
N455 X-5.198 Y2.458
N460 X-5.219 Y3.373
N465 X-5.232 Y4.289
N470 X-5.239 Y5.204
N475 X-5.244 Y6.12
N480 X-5.246 Y7.035
N485 X-5.249 Y8.866
N490 X-5.25 Y15.274
N495 Y26.717
N500 X-5.064 Y27.613
N505 X-4.593 Y28.398
N510 X-3.932 Y29.031
N515 X-3.152 Y29.511
N520 X-2.304 Y29.855
N525 X-1.42 Y30.092
N530 X-0.517 Y30.247
N535 X0.393 Y30.346
N540 X1.306 Y30.407
N545 X2.221 Y30.444
N550 X3.136 Y30.467
N555 X4.051 Y30.48
N560 X4.966 Y30.488
N565 X5.882 Y30.493
N570 X6.797 Y30.496
N575 X8.628 Y30.499
N580 X11.374 Y30.5
N585 X41.583
N590 X42.47 Y30.272
N595 X43.237 Y29.772
N600 X43.85 Y29.092
N605 X44.311 Y28.301
N610 X44.641 Y27.447
N615 X44.865 Y26.56
N620 X45.012 Y25.656
N625 X45.105 Y24.746
N630 X45.163 Y23.832
N635 X45.198 Y22.917
N640 X45.219 Y22.002
N645 X45.232 Y21.087
N650 X45.239 Y20.171
N655 X45.244 Y19.256
N660 X45.246 Y18.34
N665 X45.249 Y16.51
N670 X45.25 Y11.932
N675 Y0.032
N680 X44.994 Y-0.847
N685 X44.461 Y-1.591
N690 X43.76 Y-2.18
N695 X42.957 Y-2.62
N700 X42.096 Y-2.931
N705 X41.205 Y-3.142
N710 X40.3 Y-3.279
N715 X39.389 Y-3.366
N720 X38.475 Y-3.419
N725 X37.56 Y-3.452
N730 X36.645 Y-3.471
N735 X35.73 Y-3.483
N740 X34.814 Y-3.49
N745 X33.899 Y-3.494
N750 X32.068 Y-3.498
N755 X28.406 Y-3.5
N760 X8.267
N765 X0.028
N770 X-0.871 Y-3.328
N775 X-1.736 Y-3.03
N780 X-2.466 Y-2.478
N785 X-3.034 Y-1.76
N790 X-3.448 Y-0.943
N795 X-3.736 Y-0.074
N800 X-3.927 Y0.821
N805 X-4.05 Y1.728
N810 X-4.128 Y2.64
N815 X-4.176 Y3.554
N820 X-4.206 Y4.469
N825 X-4.223 Y5.385
N830 X-4.234 Y6.3
N835 X-4.24 Y7.215
N840 X-4.244 Y8.131
N845 X-4.248 Y9.962
N850 X-4.25 Y13.623
N855 Y24.608
N860 X-4.238 Y25.524
N865 X-4.016 Y26.412
N870 X-3.559 Y27.205
N875 X-2.92 Y27.861
N880 X-2.159 Y28.37
N885 X-1.324 Y28.744
N890 X-0.447 Y29.007
N895 X0.451 Y29.186
N900 X1.359 Y29.303
N905 X2.271 Y29.378
N910 X3.185 Y29.425
N915 X4.1 Y29.454
N920 X5.015 Y29.472
N925 X5.931 Y29.483
N930 X6.846 Y29.49
N935 X7.761 Y29.494
N940 X9.592 Y29.498
N945 X13.254 Y29.5
N950 X39.801
N955 X40.712 Y29.409
N960 X41.563 Y29.07
N965 X42.294 Y28.52
N970 X42.88 Y27.816
N975 X43.321 Y27.014
N980 X43.638 Y26.155
N985 X43.855 Y25.266
N990 X44. Y24.362
N995 X44.094 Y23.451
N1000 X44.154 Y22.538
N1005 X44.191 Y21.623
N1010 X44.214 Y20.708
N1015 X44.228 Y19.793
N1020 X44.237 Y18.877
N1025 X44.242 Y17.962
N1030 X44.245 Y17.047
N1035 X44.247 Y16.131
N1040 X44.249 Y13.385
N1045 X44.25 Y1.484
N1050 X44.038 Y0.594
N1055 X43.585 Y-0.201
N1060 X42.948 Y-0.859
N1065 X42.188 Y-1.369
N1070 X41.353 Y-1.744
N1075 X40.476 Y-2.008
N1080 X39.578 Y-2.187
N1085 X38.67 Y-2.304
N1090 X37.758 Y-2.379
N1095 X36.844 Y-2.426
N1100 X35.929 Y-2.455
N1105 X35.013 Y-2.473
N1110 X34.098 Y-2.483
N1115 X33.183 Y-2.49
N1120 X32.267 Y-2.494
N1125 X30.436 Y-2.498
N1130 X26.775 Y-2.5
N1135 X10.297
N1140 X2.058
N1145 X1.143 Y-2.484
N1150 X0.236 Y-2.36
N1155 X-0.607 Y-2.004
N1160 X-1.329 Y-1.441
N1165 X-1.905 Y-0.729
N1170 X-2.338 Y0.077
N1175 X-2.648 Y0.938
N1180 X-2.862 Y1.829
N1185 X-3.004 Y2.733
N1190 X-3.096 Y3.644
N1195 X-3.155 Y4.557
N1200 X-3.191 Y5.472
N1205 X-3.214 Y6.387
N1210 X-3.228 Y7.302
N1215 X-3.237 Y8.218
N1220 X-3.242 Y9.133
N1225 X-3.245 Y10.049
N1230 X-3.248 Y11.879
N1235 X-3.25 Y16.456
N1240 Y22.864
N1245 X-3.248 Y23.78
N1250 X-3.167 Y24.692
N1255 X-2.863 Y25.555
N1260 X-2.351 Y26.314
N1265 X-1.679 Y26.936
N1270 X-0.9 Y27.416
N1275 X-0.055 Y27.769
N1280 X0.826 Y28.018
N1285 X1.725 Y28.188
N1290 X2.634 Y28.301
N1295 X3.546 Y28.375
N1300 X4.461 Y28.422
N1305 X5.376 Y28.451
N1310 X6.291 Y28.47
N1315 X7.206 Y28.482
N1320 X8.121 Y28.489
N1325 X9.037 Y28.493
N1330 X9.952 Y28.496
N1335 X11.783 Y28.498
N1340 X17.276 Y28.5
N1345 X38.33
N1350 X39.245 Y28.454
N1355 X40.125 Y28.202
N1360 X40.911 Y27.732
N1365 X41.563 Y27.09
N1370 X42.073 Y26.33
N1375 X42.452 Y25.496
N1380 X42.722 Y24.622
N1385 X42.908 Y23.725
N1390 X43.032 Y22.818
N1395 X43.112 Y21.906
N1400 X43.164 Y20.992
N1405 X43.197 Y20.078
N1410 X43.217 Y19.162
N1415 X43.23 Y18.247
N1420 X43.238 Y17.332
N1425 X43.242 Y16.416
N1430 X43.245 Y15.501
N1435 X43.248 Y13.67
N1440 X43.249 Y11.839
N1445 X43.25 Y3.6
N1450 X43.234 Y2.685
N1455 X43.031 Y1.792
N1460 X42.601 Y0.984
N1465 X41.988 Y0.305
N1470 X41.247 Y-0.233
N1475 X40.425 Y-0.636
N1480 X39.556 Y-0.926
N1485 X38.663 Y-1.126
N1490 X37.758 Y-1.261
N1495 X36.847 Y-1.349
N1500 X35.933 Y-1.406
N1505 X35.018 Y-1.441
N1510 X34.103 Y-1.464
N1515 X33.188 Y-1.478
N1520 X32.272 Y-1.486
N1525 X31.357 Y-1.492
N1530 X30.442 Y-1.495
N1535 X28.611 Y-1.498
N1540 X24.034 Y-1.5
N1545 X3.894
N1550 X2.979 Y-1.499
N1555 X2.064 Y-1.473
N1560 X1.167 Y-1.292
N1565 X0.346 Y-0.886
N1570 X-0.353 Y-0.295
N1575 X-0.91 Y0.431
N1580 X-1.332 Y1.244
N1585 X-1.636 Y2.107
N1590 X-1.848 Y2.998
N1595 X-1.991 Y3.902
N1600 X-2.085 Y4.813
N1605 X-2.146 Y5.726
N1610 X-2.185 Y6.641
N1615 X-2.21 Y7.556
N1620 X-2.225 Y8.471
N1625 X-2.235 Y9.386
N1630 X-2.241 Y10.302
N1635 X-2.244 Y11.217
N1640 X-2.248 Y13.048
N1645 X-2.25 Y16.71
N1650 Y22.202
N1655 X-2.227 Y23.118
N1660 X-2.038 Y24.013
N1665 X-1.635 Y24.835
N1670 X-1.05 Y25.539
N1675 X-0.329 Y26.103
N1680 X0.479 Y26.534
N1685 X1.339 Y26.848
N1690 X2.227 Y27.069
N1695 X3.13 Y27.219
N1700 X4.04 Y27.319
N1705 X4.953 Y27.385
N1710 X5.868 Y27.427
N1715 X6.783 Y27.454
N1720 X7.698 Y27.471
N1725 X8.613 Y27.482
N1730 X9.529 Y27.489
N1735 X10.444 Y27.493
N1740 X12.275 Y27.497
N1745 X15.021 Y27.499
N1750 X17.767 Y27.5
N1755 X36.991
N1760 X37.906 Y27.472
N1765 X38.8 Y27.275
N1770 X39.618 Y26.864
N1775 X40.315 Y26.27
N1780 X40.873 Y25.544
N1785 X41.298 Y24.734
N1790 X41.608 Y23.872
N1795 X41.826 Y22.983
N1800 X41.975 Y22.08
N1805 X42.073 Y21.17
N1810 X42.138 Y20.257
N1815 X42.179 Y19.342
N1820 X42.206 Y18.427
N1825 X42.222 Y17.512
N1830 X42.233 Y16.596
N1835 X42.239 Y15.681
N1840 X42.243 Y14.766
N1845 X42.248 Y12.935
N1850 X42.25 Y9.273
N1855 Y4.696
N1860 X42.219 Y3.781
N1865 X42.012 Y2.889
N1870 X41.586 Y2.079
N1875 X40.981 Y1.393
N1880 X40.248 Y0.844
N1885 X39.432 Y0.428
N1890 X38.568 Y0.125
N1895 X37.678 Y-0.087
N1900 X36.774 Y-0.232
N1905 X35.864 Y-0.328
N1910 X34.95 Y-0.391
N1915 X34.036 Y-0.431
N1920 X33.121 Y-0.457
N1925 X32.205 Y-0.473
N1930 X31.29 Y-0.483
N1935 X30.375 Y-0.49
N1940 X29.459 Y-0.494
N1945 X27.628 Y-0.498
N1950 X23.967 Y-0.5
N1955 X4.743
N1960 X3.827 Y-0.496
N1965 X2.914 Y-0.44
N1970 X2.032 Y-0.195
N1975 X1.237 Y0.26
N1980 X0.568 Y0.885
N1985 X0.037 Y1.63
N1990 X-0.363 Y2.454
N1995 X-0.653 Y3.322
N2000 X-0.855 Y4.215
N2005 X-0.993 Y5.12
N2010 X-1.085 Y6.031
N2015 X-1.145 Y6.944
N2020 X-1.183 Y7.859
N2025 X-1.208 Y8.774
N2030 X-1.224 Y9.689
N2035 X-1.234 Y10.604
N2040 X-1.24 Y11.52
N2045 X-1.244 Y12.435
N2050 X-1.248 Y14.266
N2055 X-1.25 Y17.928
N2060 Y20.674
N2065 X-1.244 Y21.589
N2070 X-1.149 Y22.5
N2075 X-0.852 Y23.366
N2080 X-0.358 Y24.136
N2085 X0.296 Y24.778
N2090 X1.059 Y25.282
N2095 X1.893 Y25.661
N2100 X2.766 Y25.935
N2105 X3.662 Y26.125
N2110 X4.568 Y26.255
N2115 X5.479 Y26.342
N2120 X6.393 Y26.398
N2125 X7.308 Y26.435
N2130 X8.223 Y26.459
N2135 X9.138 Y26.474
N2140 X10.053 Y26.484
N2145 X10.969 Y26.49
N2150 X11.884 Y26.494
N2155 X13.715 Y26.498
N2160 X17.377 Y26.5
N2165 X35.685
N2170 X36.6 Y26.484
N2175 X37.504 Y26.335
N2180 X38.348 Y25.981
N2185 X39.082 Y25.434
N2190 X39.682 Y24.743
N2195 X40.149 Y23.955
N2200 X40.496 Y23.108
N2205 X40.744 Y22.227
N2210 X40.917 Y21.328
N2215 X41.033 Y20.42
N2220 X41.111 Y19.508
N2225 X41.161 Y18.594
N2230 X41.194 Y17.679
N2235 X41.215 Y16.764
N2240 X41.228 Y15.849
N2245 X41.236 Y14.933
N2250 X41.241 Y14.018
N2255 X41.245 Y13.102
N2260 X41.248 Y11.272
N2265 X41.25 Y7.61
N2270 X41.249 Y5.779
N2275 X41.211 Y4.864
N2280 X41.002 Y3.973
N2285 X40.581 Y3.16
N2290 X39.984 Y2.467
N2295 X39.258 Y1.909
N2300 X38.448 Y1.482
N2305 X37.588 Y1.168
N2310 X36.7 Y0.946
N2315 X35.798 Y0.793
N2320 X34.888 Y0.69
N2325 X33.975 Y0.622
N2330 X33.061 Y0.578
N2335 X32.146 Y0.549
N2340 X31.23 Y0.531
N2345 X30.315 Y0.52
N2350 X29.4 Y0.512
N2355 X28.484 Y0.508
N2360 X27.569 Y0.505
N2365 X25.738 Y0.502
N2370 X21.161 Y0.5
N2375 X16.584
N2380 X5.599 Y0.501
N2385 X4.683 Y0.51
N2390 X3.773 Y0.608
N2395 X2.907 Y0.903
N2400 X2.136 Y1.397
N2405 X1.493 Y2.048
N2410 X0.986 Y2.81
N2415 X0.604 Y3.643
N2420 X0.328 Y4.515
N2425 X0.134 Y5.41
N2430 X0.002 Y6.316
N2435 X-0.087 Y7.227
N2440 X-0.145 Y8.141
N2445 X-0.183 Y9.055
N2450 X-0.207 Y9.97
N2455 X-0.223 Y10.886
N2460 X-0.233 Y11.801
N2465 X-0.239 Y12.716
N2470 X-0.243 Y13.632
N2475 X-0.247 Y15.463
N2480 X-0.25 Y19.124
N2485 X-0.248 Y20.04
N2490 X-0.217 Y20.955
N2495 X-0.032 Y21.851
N2500 X0.357 Y22.68
N2505 X0.926 Y23.397
N2510 X1.63 Y23.981
N2515 X2.427 Y24.433
N2520 X3.279 Y24.768
N2525 X4.162 Y25.007
N2530 X5.063 Y25.173
N2535 X5.971 Y25.285
N2540 X6.883 Y25.36
N2545 X7.797 Y25.41
N2550 X8.712 Y25.442
N2555 X9.627 Y25.463
N2560 X10.543 Y25.477
N2565 X11.458 Y25.485
N2570 X12.374 Y25.491
N2575 X13.289 Y25.494
N2580 X15.12 Y25.498
N2585 X18.782 Y25.5
N2590 X34.344
N2595 X35.259 Y25.495
N2600 X36.17 Y25.4
N2605 X37.037 Y25.109
N2610 X37.812 Y24.621
N2615 X38.461 Y23.975
N2620 X38.975 Y23.217
N2625 X39.364 Y22.389
N2630 X39.648 Y21.519
N2635 X39.848 Y20.625
N2640 X39.986 Y19.72
N2645 X40.078 Y18.81
N2650 X40.139 Y17.896
N2655 X40.179 Y16.982
N2660 X40.205 Y16.067
N2665 X40.221 Y15.151
N2670 X40.232 Y14.236
N2675 X40.239 Y13.321
N2680 X40.243 Y12.405
N2685 X40.247 Y10.574
N2690 X40.249 Y7.828
N2695 Y6.913
N2700 X40.212 Y5.998
N2705 X40.016 Y5.104
N2710 X39.616 Y4.281
N2715 X39.036 Y3.572
N2720 X38.324 Y2.997
N2725 X37.523 Y2.553
N2730 X36.669 Y2.223
N2735 X35.785 Y1.987
N2740 X34.884 Y1.823
N2745 X33.976 Y1.712
N2750 X33.063 Y1.637
N2755 X32.149 Y1.588
N2760 X31.234 Y1.557
N2765 X30.319 Y1.536
N2770 X29.404 Y1.523
N2775 X28.488 Y1.514
N2780 X27.573 Y1.509
N2785 X26.657 Y1.506
N2790 X24.827 Y1.502
N2795 X21.165 Y1.5
N2800 X7.434
N2805 X6.518 Y1.501
N2810 X5.603 Y1.519
N2815 X4.696 Y1.645
N2820 X3.84 Y1.97
N2825 X3.085 Y2.487
N2830 X2.457 Y3.153
N2835 X1.963 Y3.924
N2840 X1.591 Y4.76
N2845 X1.322 Y5.635
N2850 X1.132 Y6.531
N2855 X1.002 Y7.437
N2860 X0.915 Y8.348
N2865 X0.857 Y9.262
N2870 X0.819 Y10.176
N2875 X0.794 Y11.092
N2880 X0.778 Y12.007
N2885 X0.768 Y12.922
N2890 X0.761 Y13.838
N2895 X0.757 Y14.753
N2900 X0.753 Y16.584
N2905 X0.751 Y18.415
N2910 X0.758 Y19.33
N2915 X0.835 Y20.242
N2920 X1.094 Y21.12
N2925 X1.551 Y21.914
N2930 X2.171 Y22.587
N2935 X2.91 Y23.127
N2940 X3.728 Y23.539
N2945 X4.592 Y23.841
N2950 X5.482 Y24.056
N2955 X6.385 Y24.205
N2960 X7.295 Y24.306
N2965 X8.208 Y24.373
N2970 X9.122 Y24.418
N2975 X10.037 Y24.447
N2980 X10.952 Y24.466
N2985 X11.868 Y24.478
N2990 X12.783 Y24.486
N2995 X13.698 Y24.491
N3000 X14.614 Y24.494
N3005 X16.445 Y24.498
N3010 X20.106 Y24.5
N3015 X32.922
N3020 X33.838 Y24.498
N3025 X34.752 Y24.453
N3030 X35.644 Y24.245
N3035 X36.464 Y23.839
N3040 X37.17 Y23.257
N3045 X37.745 Y22.544
N3050 X38.189 Y21.744
N3055 X38.519 Y20.89
N3060 X38.756 Y20.006
N3065 X38.922 Y19.105
N3070 X39.034 Y18.197
N3075 X39.109 Y17.285
N3080 X39.159 Y16.371
N3085 X39.191 Y15.456
N3090 X39.212 Y14.541
N3095 X39.226 Y13.625
N3100 X39.235 Y12.71
N3105 X39.24 Y11.794
N3110 X39.244 Y10.879
N3115 X39.248 Y9.048
N3120 Y8.133
N3125 X39.222 Y7.218
N3130 X39.061 Y6.317
N3135 X38.702 Y5.474
N3140 X38.157 Y4.739
N3145 X37.47 Y4.134
N3150 X36.687 Y3.66
N3155 X35.843 Y3.305
N3160 X34.965 Y3.047
N3165 X34.067 Y2.866
N3170 X33.16 Y2.742
N3175 X32.249 Y2.658
N3180 X31.335 Y2.602
N3185 X30.42 Y2.566
N3190 X29.505 Y2.542
N3195 X28.59 Y2.527
N3200 X27.675 Y2.517
N3205 X26.759 Y2.511
N3210 X25.844 Y2.507
N3215 X24.013 Y2.503
N3220 X21.267 Y2.501
N3225 X8.451 Y2.5
N3230 X7.535 Y2.501
N3235 X6.62 Y2.523
N3240 X5.715 Y2.657
N3245 X4.86 Y2.986
N3250 X4.106 Y3.505
N3255 X3.479 Y4.172
N3260 X2.984 Y4.942
N3265 X2.61 Y5.777
N3270 X2.338 Y6.651
N3275 X2.145 Y7.546
N3280 X2.012 Y8.452
N3285 X1.922 Y9.363
N3290 X1.862 Y10.276
N3295 X1.823 Y11.191
N3300 X1.797 Y12.106
N3305 X1.78 Y13.021
N3310 X1.769 Y13.937
N3315 X1.762 Y14.852
N3320 X1.758 Y15.767
N3325 X1.755 Y16.683
N3330 X1.754 Y17.598
N3335 X1.77 Y18.514
N3340 X1.885 Y19.422
N3345 X2.192 Y20.284
N3350 X2.689 Y21.053
N3355 X3.34 Y21.697
N3360 X4.099 Y22.208
N3365 X4.928 Y22.596
N3370 X5.799 Y22.88
N3375 X6.692 Y23.082
N3380 X7.596 Y23.221
N3385 X8.507 Y23.316
N3390 X9.42 Y23.379
N3395 X10.335 Y23.421
N3400 X10.877 Y23.438
N3405 X11.048 Y23.451
N3410 X11.216 Y23.48
N3415 X11.382 Y23.525
N3420 X12.52 Y23.89
N3425 X12.728 Y23.949
N3430 X12.867 Y23.982
N3435 X13.143 Y24.03
N3440 X13.351 Y24.05
N3445 X13.974 Y24.103
N3450 X14.39 Y24.136
N3455 X14.598 Y24.153
N3460 X15.114 Y24.19
N3465 X15.221
N3470 X15.637 Y24.161
N3475 X15.844 Y24.142
N3480 X17.091 Y23.957
N3485 X17.299 Y23.92
N3490 X17.714 Y23.843
N3495 X17.965 Y23.797
N3500 X18.562 Y23.712
N3505 X19.467 Y23.621
N3510 X20.381 Y23.57
N3515 X21.295 Y23.541
N3520 X22.211 Y23.524
N3525 X23.126 Y23.514
N3530 X24.042 Y23.508
N3535 X24.957 Y23.505
N3540 X26.788 Y23.502
N3545 X32.28 Y23.5
N3550 X33.196 Y23.488
N3555 X34.105 Y23.383
N3560 X34.972 Y23.09
N3565 X35.749 Y22.606
N3570 X36.404 Y21.966
N3575 X36.926 Y21.214
N3580 X37.323 Y20.389
N3585 X37.615 Y19.521
N3590 X37.821 Y18.63
N3595 X37.965 Y17.726
N3600 X38.062 Y16.815
N3605 X38.127 Y15.902
N3610 X38.17 Y14.988
N3615 X38.198 Y14.073
N3620 X38.217 Y13.158
N3625 X38.229 Y12.242
N3630 X38.236 Y11.327
N3635 X38.241 Y10.411
N3640 X38.244 Y9.496
N3645 X38.238 Y8.581
N3650 X38.139 Y7.671
N3655 X37.85 Y6.802
N3660 X37.371 Y6.022
N3665 X36.732 Y5.366
N3670 X35.982 Y4.841
N3675 X35.159 Y4.441
N3680 X34.292 Y4.146
N3685 X33.401 Y3.936
N3690 X32.497 Y3.791
N3695 X31.587 Y3.691
N3700 X30.674 Y3.625
N3705 X29.76 Y3.581
N3710 X28.845 Y3.553
N3715 X27.93 Y3.534
N3720 X27.014 Y3.522
N3725 X26.099 Y3.514
N3730 X25.184 Y3.509
N3735 X24.268 Y3.506
N3740 X23.353 Y3.504
N3745 X20.606 Y3.501
N3750 X19.262 Y3.5
N3755 X19.102 Y3.493
N3760 X18.943 Y3.473
N3765 X18.787 Y3.438
N3770 X17.922 Y3.206
N3775 X17.714 Y3.157
N3780 X17.299 Y3.08
N3785 X17.091 Y3.043
N3790 X15.844 Y2.858
N3795 X15.637 Y2.839
N3800 X15.221 Y2.81
N3805 X15.114
N3810 X14.598 Y2.847
N3815 X14.182 Y2.881
N3820 X13.559 Y2.932
N3825 X13.351 Y2.95
N3830 X13.143 Y2.97
N3835 X12.867 Y3.018
N3840 X12.728 Y3.051
N3845 X12.468 Y3.111
N3850 X12.05 Y3.192
N3855 X11.477 Y3.278
N3860 X10.621 Y3.367
N3865 X9.707 Y3.423
N3870 X8.793 Y3.456
N3875 X7.878 Y3.485
N3880 X6.968 Y3.589
N3885 X6.098 Y3.873
N3890 X5.315 Y4.347
N3895 X4.653 Y4.98
N3900 X4.123 Y5.726
N3905 X3.716 Y6.546
N3910 X3.416 Y7.411
N3915 X3.201 Y8.301
N3920 X3.052 Y9.204
N3925 X2.949 Y10.114
N3930 X2.881 Y11.026
N3935 X2.835 Y11.941
N3940 X2.805 Y12.856
N3945 X2.786 Y13.771
N3950 X2.773 Y14.686
N3955 X2.765 Y15.602
N3960 X2.76 Y16.517
N3965 X2.773 Y17.432
N3970 X2.88 Y18.342
N3975 X3.171 Y19.209
N3980 X3.658 Y19.985
N3985 X4.3 Y20.637
N3990 X5.053 Y21.158
N3995 X5.877 Y21.557
N4000 X6.744 Y21.85
N4005 X7.635 Y22.059
N4010 X8.539 Y22.205
N4015 X8.78 Y22.26
N4020 X9.012 Y22.345
N4025 X9.231 Y22.459
N4030 X9.611 Y22.687
N4035 X9.819 Y22.812
N4040 X10.047 Y22.944
N4045 X10.442 Y23.165
N4050 X10.65 Y23.274
N4055 X10.858 Y23.351
N4060 X11.273 Y23.49
N4065 X11.382 Y23.525
N4070 X11.39 Y23.528 Z45.002
N4075 G2 X12.234 Y23.924 Z45.2 I3.486 J-6.342
N4080 X13.15 Y24.214 I2.641 J-6.737
N4085 G1 X13.206 Y24.225
N4090 X13.263 Y24.231
N4095 X15.773 Y24.357
N4100 X15.83
N4105 X15.887 Y24.352
N4110 G2 X16.826 Y24.155 I-1.012 J-7.166
N4115 X17.707 Y23.846 Z45.002 I-1.951 J-6.969
N4120 G1 X17.714 Y23.843 Z45.
N4125 X17.922 Y23.794
N4130 X20.831 Y23.014
N4135 X21.279 Y22.917
N4140 X21.694 Y22.833
N4145 X22.258 Y22.745
N4150 X23.076 Y22.653
N4155 X23.99 Y22.59
N4160 X24.904 Y22.554
N4165 X25.82 Y22.532
N4170 X26.735 Y22.519
N4175 X27.65 Y22.512
N4180 X28.566 Y22.507
N4185 X29.481 Y22.504
N4190 X31.312 Y22.5
N4195 X32.227 Y22.482
N4200 X33.135 Y22.365
N4205 X33.999 Y22.062
N4210 X34.769 Y21.567
N4215 X35.416 Y20.92
N4220 X35.932 Y20.163
N4225 X36.325 Y19.337
N4230 X36.613 Y18.468
N4235 X36.819 Y17.576
N4240 X36.962 Y16.672
N4245 X37.059 Y15.761
N4250 X37.125 Y14.848
N4255 X37.168 Y13.934
N4260 X37.197 Y13.019
N4265 X37.216 Y12.104
N4270 X37.228 Y11.188
N4275 X37.234 Y10.273
N4280 X37.215 Y9.358
N4285 X37.071 Y8.454
N4290 X36.729 Y7.604
N4295 X36.203 Y6.855
N4300 X35.533 Y6.232
N4305 X34.761 Y5.739
N4310 X33.925 Y5.366
N4315 X33.051 Y5.094
N4320 X32.156 Y4.901
N4325 X31.251 Y4.768
N4330 X30.34 Y4.677
N4335 X29.426 Y4.616
N4340 X28.512 Y4.576
N4345 X27.597 Y4.549
N4350 X26.681 Y4.532
N4355 X25.766 Y4.521
N4360 X24.851 Y4.513
N4365 X23.935 Y4.509
N4370 X23.002 Y4.505
N4375 X22.843 Y4.498
N4380 X22.686 Y4.477
N4385 X22.531 Y4.443
N4390 X18.787 Y3.438
N4395 X18.779 Y3.435 Z45.002
N4400 G2 X17.918 Y3.075 Z45.2 I-3.491 J7.149
N4405 X17.485 Y2.937 I-2.63 J7.508
N4410 G1 X17.421 Y2.923
N4415 X17.357 Y2.915
N4420 X14.205 Y2.715
N4425 X14.14 Y2.714
N4430 X14.075 Y2.721
N4435 G2 X13.635 Y2.801 I1.213 J7.862
N4440 X12.728 Y3.051 Z45. I1.653 J7.782
N4445 G1 X12.52 Y3.11
N4450 X11.273 Y3.51
N4455 X10.858 Y3.649
N4460 X10.65 Y3.726
N4465 X10.615 Y3.744
N4470 X10.479 Y3.807
N4475 X10.271 Y3.882
N4480 X10.013 Y3.963
N4485 X9.592 Y4.075
N4490 X8.698 Y4.272
N4495 X7.807 Y4.482
N4500 X6.963 Y4.836
N4505 X6.211 Y5.358
N4510 X5.579 Y6.02
N4515 X5.072 Y6.782
N4520 X4.684 Y7.611
N4525 X4.396 Y8.48
N4530 X4.19 Y9.372
N4535 X4.046 Y10.276
N4540 X3.947 Y11.186
N4545 X3.88 Y12.099
N4550 X3.835 Y13.014
N4555 X3.806 Y13.929
N4560 X3.786 Y14.844
N4565 X3.777 Y15.759
N4570 X3.799 Y16.674
N4575 X3.952 Y17.577
N4580 X4.304 Y18.422
N4585 X4.838 Y19.166
N4590 X5.513 Y19.783
N4595 X6.288 Y20.27
N4600 X6.705 Y20.454
N4605 X6.898 Y20.552
N4610 X7.078 Y20.673
N4615 X7.243 Y20.814
N4620 X7.949 Y21.498
N4625 X8.171 Y21.699
N4630 X8.402 Y21.906
N4635 X8.572 Y22.052
N4640 X8.669 Y22.114
N4645 X9.231 Y22.459
N4650 X9.244 Y22.471 Z45.004
N4655 X9.253 Y22.486 Z45.007
N4660 G2 X9.634 Y23.308 Z45.2 I5.894 J-2.237
N4665 X13.072 Y26.201 I5.512 J-3.059
N4670 G1 X13.155 Y26.224
N4675 X13.24 Y26.234
N4680 X16.468 Y26.39
N4685 X16.554 Y26.388
N4690 X16.639 Y26.373
N4695 G2 X20.344 Y23.815 I-1.492 J-6.125
N4700 X20.797 Y23.042 Z45.01 I-5.198 J-3.566
N4705 G1 X20.811 Y23.024 Z45.005
N4710 X20.831 Y23.014 Z45.
N4715 X24.571 Y22.01
N4720 X25.009 Y21.915
N4725 X25.438 Y21.83
N4730 X26.021 Y21.741
N4735 X26.874 Y21.647
N4740 X27.787 Y21.588
N4745 X28.702 Y21.553
N4750 X29.617 Y21.531
N4755 X30.532 Y21.514
N4760 X31.447 Y21.475
N4765 X32.347 Y21.311
N4770 X33.19 Y20.952
N4775 X33.93 Y20.413
N4780 X34.544 Y19.734
N4785 X35.029 Y18.958
N4790 X35.395 Y18.119
N4795 X35.662 Y17.243
N4800 X35.852 Y16.348
N4805 X35.983 Y15.442
N4810 X36.073 Y14.531
N4815 X36.133 Y13.617
N4820 X36.174 Y12.703
N4825 X36.2 Y11.788
N4830 X36.21 Y10.872
N4835 X36.152 Y9.959
N4840 X35.921 Y9.073
N4845 X35.494 Y8.263
N4850 X34.9 Y7.567
N4855 X34.18 Y7.001
N4860 X33.376 Y6.564
N4865 X32.52 Y6.238
N4870 X31.635 Y6.004
N4875 X30.735 Y5.839
N4880 X29.826 Y5.726
N4885 X28.914 Y5.65
N4890 X28. Y5.598
N4895 X27.085 Y5.564
N4900 X26.89 Y5.56
N4905 X26.745 Y5.55
N4910 X26.601 Y5.529
N4915 X26.46 Y5.497
N4920 X22.531 Y4.443
N4925 X22.508 Y4.429 Z45.006
N4930 X22.494 Y4.407 Z45.011
N4935 G2 X22.148 Y3.589 Z45.2 I-6.069 J2.087
N4940 X19.733 Y0.994 I-5.723 J2.905
N4945 X19.458 Y0.91 I-0.309 J0.514
N4950 G1 X14.058 Y0.596
N4955 G2 X13.775 Y0.649 I-0.035 J0.599
N4960 X11.087 Y2.932 I2.65 J5.845
N4965 X10.638 Y3.72 Z45.007 I5.338 J3.563
N4970 G1 X10.628 Y3.734 Z45.004
N4975 X10.615 Y3.744 Z45.
N4980 X10.442 Y3.835
N4985 X10.026 Y4.067
N4990 X9.819 Y4.188
N4995 X9.347 Y4.471
N5000 X9.195 Y4.563
N5005 X8.669 Y4.886
N5010 X8.572 Y4.948
N5015 X8.544 Y4.972
N5020 X7.818 Y5.531
N5025 X7.125 Y6.129
N5030 X6.535 Y6.828
N5035 X6.056 Y7.609
N5040 X5.96 Y7.825
N5045 X5.92 Y7.91
N5050 X5.875 Y7.993
N5055 X5.826 Y8.074
N5060 G3 X5.334 Y8.331 Z45.123 I-0.493 J-0.343
N5065 G1 X5.333
N5070 G3 X4.991 Y8.224 Z45.2 I0. J-0.6
N5075 X4.882 Y7.336 I0.342 J-0.493
N5080 G1 X7.687 Y4.134
N5085 G3 X8.581 Y4.125 I0.451 J0.395
N5090 X8.544 Y4.972 Z45. I-0.443 J0.405
N5095 G1 X8.402 Y5.094
N5100 X8.156 Y5.314
N5105 X7.942 Y5.509
N5110 X7.117 Y6.307
N5115 X7.087 Y6.339
N5120 X6.702 Y6.756
N5125 X6.545 Y6.962
N5130 X6.008 Y7.792
N5135 X5.74 Y8.207
N5140 X5.663 Y8.333
N5145 X5.382 Y8.83
N5150 X5.292 Y9.037
N5155 X5.138 Y9.452
N5160 X5.04 Y9.722
N5165 X4.69 Y10.698
N5170 X4.625 Y10.905
N5175 X4.545 Y11.321
N5180 X4.506 Y11.528
N5185 X4.362 Y12.774
N5190 X4.343 Y12.981
N5195 X4.31 Y13.396
N5200 Y13.604
N5205 X4.343 Y14.019
N5210 X4.362 Y14.226
N5215 X4.506 Y15.472
N5220 X4.585 Y15.887
N5225 X4.625 Y16.095
N5230 X4.69 Y16.302
N5235 X5.062 Y17.34
N5240 X5.138 Y17.548
N5245 X5.292 Y17.963
N5250 X5.382 Y18.17
N5255 X5.663 Y18.667
N5260 X5.74 Y18.793
N5265 X6.286 Y19.639
N5270 X6.545 Y20.038
N5275 X6.704 Y20.246
N5280 X7.087 Y20.661
N5285 X7.117 Y20.693
N5290 X7.243 Y20.814
N5295 X7.256 Y20.837 Z45.006
N5300 G2 X7.566 Y21.698 Z45.2 I8.87 J-2.703
N5305 X11.068 Y25.906 I8.561 J-3.564
N5310 X11.354 Y26.002 I0.327 J-0.503
N5315 G1 X19.763 Y26.587
N5320 G2 X20.059 Y26.532 I0.042 J-0.599
N5325 X24.121 Y22.832 I-3.933 J-8.398
N5330 X24.537 Y22.039 Z45.01 I-7.995 J-4.698
N5335 G1 X24.551 Y22.021 Z45.005
N5340 X24.571 Y22.01 Z45.
N5345 X28.311 Y21.006
N5350 X28.759 Y20.909
N5355 X29.657 Y20.73
N5360 X30.561 Y20.59
N5365 X31.447 Y20.361
N5370 X32.271 Y19.962
N5375 X32.991 Y19.396
N5380 X33.586 Y18.701
N5385 X33.668 Y18.564
N5390 X33.731 Y18.465
N5395 X33.801 Y18.371
N5400 X33.876 Y18.281
N5405 G3 X34.724 Y18.264 Z45.2 I0.433 J0.416
N5410 X34.575 Y19.234 I-0.415 J0.433
N5415 G1 X28.753 Y22.117
N5420 G3 X27.913 Y21.754 I-0.266 J-0.538
N5425 X28.311 Y21.006 Z45. I0.574 J-0.175
N5430 G1 X30.181 Y20.504
N5435 X30.805 Y20.298
N5440 X30.933 Y20.246
N5445 X31.636 Y19.942
N5450 X31.844 Y19.851
N5455 X32.051 Y19.751
N5460 X32.259 Y19.634
N5465 X32.467 Y19.5
N5470 X32.675 Y19.337
N5475 X32.833 Y19.208
N5480 X33.574 Y18.585
N5485 X33.79 Y18.378
N5490 X33.922 Y18.231
N5495 X33.973 Y18.17
N5500 X34.13 Y17.963
N5505 X34.678 Y17.132
N5510 X34.96 Y16.672
N5515 X35.035 Y16.51
N5520 X35.122 Y16.302
N5525 X35.194 Y16.095
N5530 X35.381 Y15.472
N5535 X35.441 Y15.264
N5540 X35.584 Y14.758
N5545 X35.604 Y14.642
N5550 X35.636 Y14.434
N5555 X35.652 Y14.226
N5560 X35.657 Y14.019
N5565 X35.658 Y13.396
N5570 X35.657 Y12.981
N5575 X35.652 Y12.774
N5580 X35.636 Y12.566
N5585 X35.604 Y12.358
N5590 X35.584 Y12.242
N5595 X35.576 Y12.215
N5600 X35.372 Y11.322
N5605 X35.156 Y10.433
N5610 X34.779 Y9.598
N5615 X34.238 Y8.86
N5620 X33.562 Y8.243
N5625 X32.872 Y7.806
N5630 X32.811 Y7.766
N5635 X32.751 Y7.723
N5640 X32.694 Y7.678
N5645 G3 X32.637 Y6.832 Z45.2 I0.395 J-0.452
N5650 X33.595 Y6.904 I0.452 J0.395
N5655 G1 X36.654 Y11.71
N5660 G3 X36.33 Y12.603 I-0.506 J0.322
N5665 X35.576 Y12.215 Z45. I-0.182 J-0.572
N5670 G1 X35.441 Y11.736
N5675 X35.376 Y11.51
N5680 X35.194 Y10.905
N5685 X35.122 Y10.698
N5690 X35.035 Y10.49
N5695 X34.96 Y10.328
N5700 X34.678 Y9.868
N5705 X34.129 Y9.036
N5710 X33.973 Y8.83
N5715 X33.922 Y8.769
N5720 X33.79 Y8.622
N5725 X33.574 Y8.415
N5730 X32.833 Y7.792
N5735 X32.675 Y7.663
N5740 X32.467 Y7.5
N5745 X32.259 Y7.366
N5750 X32.051 Y7.249
N5755 X31.844 Y7.149
N5760 X31.636 Y7.058
N5765 X30.933 Y6.754
N5770 X30.805 Y6.702
N5775 X30.181 Y6.496
N5780 X26.46 Y5.497
N5785 X26.373 Y5.464
N5790 X26.294 Y5.417
N5795 X26.241 Y5.364 Z45.005
N5800 X26.19 Y5.313 Z45.018
N5805 X26.14 Y5.263 Z45.041
N5810 X26.108 Y5.191 Z45.079
N5815 X26.079 Y5.124 Z45.129
N5820 X26.052 Y5.065 Z45.188
N5825 X26.045 Y5.004 Z45.265
N5830 X26.039 Y4.957 Z45.35
N5835 X26.035 Y4.924 Z45.442
N5840 X26.036 Y4.908 Z45.52
N5845 Y4.902 Z45.6
N5850 G0 Z55.
N5855 X-3.72 Y-7.783
N5860 Z42.6
N5865 G1 Z42. F1560.
N5870 Z40.
N5875 G3 X-3.25 Y-4.517 I-14.839 J3.801
N5880 G1 Y-4.402
N5885 X-3.86 Y-3.72
N5890 X-4.319 Y-2.928
N5895 X-4.646 Y-2.073
N5900 X-4.869 Y-1.185
N5905 X-5.014 Y-0.281
N5910 X-5.107 Y0.63
N5915 X-5.164 Y1.543
N5920 X-5.198 Y2.458
N5925 X-5.219 Y3.373
N5930 X-5.232 Y4.289
N5935 X-5.239 Y5.204
N5940 X-5.244 Y6.12
N5945 X-5.246 Y7.035
N5950 X-5.249 Y8.866
N5955 X-5.25 Y15.274
N5960 Y26.717
N5965 X-5.064 Y27.613
N5970 X-4.593 Y28.398
N5975 X-3.932 Y29.031
N5980 X-3.152 Y29.511
N5985 X-2.304 Y29.855
N5990 X-1.42 Y30.092
N5995 X-0.517 Y30.247
N6000 X0.393 Y30.346
N6005 X1.306 Y30.407
N6010 X2.221 Y30.444
N6015 X3.136 Y30.467
N6020 X4.051 Y30.48
N6025 X4.966 Y30.488
N6030 X5.882 Y30.493
N6035 X6.797 Y30.496
N6040 X8.628 Y30.499
N6045 X11.374 Y30.5
N6050 X41.583
N6055 X42.47 Y30.272
N6060 X43.237 Y29.772
N6065 X43.85 Y29.092
N6070 X44.311 Y28.301
N6075 X44.641 Y27.447
N6080 X44.865 Y26.56
N6085 X45.012 Y25.656
N6090 X45.105 Y24.746
N6095 X45.163 Y23.832
N6100 X45.198 Y22.917
N6105 X45.219 Y22.002
N6110 X45.232 Y21.087
N6115 X45.239 Y20.171
N6120 X45.244 Y19.256
N6125 X45.246 Y18.34
N6130 X45.249 Y16.51
N6135 X45.25 Y11.932
N6140 Y0.032
N6145 X44.994 Y-0.847
N6150 X44.461 Y-1.591
N6155 X43.76 Y-2.18
N6160 X42.957 Y-2.62
N6165 X42.096 Y-2.931
N6170 X41.205 Y-3.142
N6175 X40.3 Y-3.279
N6180 X39.389 Y-3.366
N6185 X38.475 Y-3.419
N6190 X37.56 Y-3.452
N6195 X36.645 Y-3.471
N6200 X35.73 Y-3.483
N6205 X34.814 Y-3.49
N6210 X33.899 Y-3.494
N6215 X32.068 Y-3.498
N6220 X28.406 Y-3.5
N6225 X8.267
N6230 X0.028
N6235 X-0.871 Y-3.328
N6240 X-1.736 Y-3.03
N6245 X-2.466 Y-2.478
N6250 X-3.034 Y-1.76
N6255 X-3.448 Y-0.943
N6260 X-3.736 Y-0.074
N6265 X-3.927 Y0.821
N6270 X-4.05 Y1.728
N6275 X-4.128 Y2.64
N6280 X-4.176 Y3.554
N6285 X-4.206 Y4.469
N6290 X-4.223 Y5.385
N6295 X-4.234 Y6.3
N6300 X-4.24 Y7.215
N6305 X-4.244 Y8.131
N6310 X-4.248 Y9.962
N6315 X-4.25 Y13.623
N6320 Y24.608
N6325 X-4.238 Y25.524
N6330 X-4.016 Y26.412
N6335 X-3.559 Y27.205
N6340 X-2.92 Y27.861
N6345 X-2.159 Y28.37
N6350 X-1.324 Y28.744
N6355 X-0.447 Y29.007
N6360 X0.451 Y29.186
N6365 X1.359 Y29.303
N6370 X2.271 Y29.378
N6375 X3.185 Y29.425
N6380 X4.1 Y29.454
N6385 X5.015 Y29.472
N6390 X5.931 Y29.483
N6395 X6.846 Y29.49
N6400 X7.761 Y29.494
N6405 X9.592 Y29.498
N6410 X13.254 Y29.5
N6415 X39.801
N6420 X40.712 Y29.409
N6425 X41.563 Y29.07
N6430 X42.294 Y28.52
N6435 X42.88 Y27.816
N6440 X43.321 Y27.014
N6445 X43.638 Y26.155
N6450 X43.855 Y25.266
N6455 X44. Y24.362
N6460 X44.094 Y23.451
N6465 X44.154 Y22.538
N6470 X44.191 Y21.623
N6475 X44.214 Y20.708
N6480 X44.228 Y19.793
N6485 X44.237 Y18.877
N6490 X44.242 Y17.962
N6495 X44.245 Y17.047
N6500 X44.247 Y16.131
N6505 X44.249 Y13.385
N6510 X44.25 Y1.484
N6515 X44.038 Y0.594
N6520 X43.585 Y-0.201
N6525 X42.948 Y-0.859
N6530 X42.188 Y-1.369
N6535 X41.353 Y-1.744
N6540 X40.476 Y-2.008
N6545 X39.578 Y-2.187
N6550 X38.67 Y-2.304
N6555 X37.758 Y-2.379
N6560 X36.844 Y-2.426
N6565 X35.929 Y-2.455
N6570 X35.013 Y-2.473
N6575 X34.098 Y-2.483
N6580 X33.183 Y-2.49
N6585 X32.267 Y-2.494
N6590 X30.436 Y-2.498
N6595 X26.775 Y-2.5
N6600 X10.297
N6605 X2.058
N6610 X1.143 Y-2.484
N6615 X0.236 Y-2.36
N6620 X-0.607 Y-2.004
N6625 X-1.329 Y-1.441
N6630 X-1.905 Y-0.729
N6635 X-2.338 Y0.077
N6640 X-2.648 Y0.938
N6645 X-2.862 Y1.829
N6650 X-3.004 Y2.733
N6655 X-3.096 Y3.644
N6660 X-3.155 Y4.557
N6665 X-3.191 Y5.472
N6670 X-3.214 Y6.387
N6675 X-3.228 Y7.302
N6680 X-3.237 Y8.218
N6685 X-3.242 Y9.133
N6690 X-3.245 Y10.049
N6695 X-3.248 Y11.879
N6700 X-3.25 Y16.456
N6705 Y22.864
N6710 X-3.248 Y23.78
N6715 X-3.167 Y24.692
N6720 X-2.863 Y25.555
N6725 X-2.351 Y26.314
N6730 X-1.679 Y26.936
N6735 X-0.9 Y27.416
N6740 X-0.055 Y27.769
N6745 X0.826 Y28.018
N6750 X1.725 Y28.188
N6755 X2.634 Y28.301
N6760 X3.546 Y28.375
N6765 X4.461 Y28.422
N6770 X5.376 Y28.451
N6775 X6.291 Y28.47
N6780 X7.206 Y28.482
N6785 X8.121 Y28.489
N6790 X9.037 Y28.493
N6795 X9.952 Y28.496
N6800 X11.783 Y28.498
N6805 X17.276 Y28.5
N6810 X38.33
N6815 X39.245 Y28.454
N6820 X40.125 Y28.202
N6825 X40.911 Y27.732
N6830 X41.563 Y27.09
N6835 X42.073 Y26.33
N6840 X42.452 Y25.496
N6845 X42.722 Y24.622
N6850 X42.908 Y23.725
N6855 X43.032 Y22.818
N6860 X43.112 Y21.906
N6865 X43.164 Y20.992
N6870 X43.197 Y20.078
N6875 X43.217 Y19.162
N6880 X43.23 Y18.247
N6885 X43.238 Y17.332
N6890 X43.242 Y16.416
N6895 X43.245 Y15.501
N6900 X43.248 Y13.67
N6905 X43.249 Y11.839
N6910 X43.25 Y3.6
N6915 X43.234 Y2.685
N6920 X43.031 Y1.792
N6925 X42.601 Y0.984
N6930 X41.988 Y0.305
N6935 X41.247 Y-0.233
N6940 X40.425 Y-0.636
N6945 X39.556 Y-0.926
N6950 X38.663 Y-1.126
N6955 X37.758 Y-1.261
N6960 X36.847 Y-1.349
N6965 X35.933 Y-1.406
N6970 X35.018 Y-1.441
N6975 X34.103 Y-1.464
N6980 X33.188 Y-1.478
N6985 X32.272 Y-1.486
N6990 X31.357 Y-1.492
N6995 X30.442 Y-1.495
N7000 X28.611 Y-1.498
N7005 X24.034 Y-1.5
N7010 X3.894
N7015 X2.979 Y-1.499
N7020 X2.064 Y-1.473
N7025 X1.167 Y-1.292
N7030 X0.346 Y-0.886
N7035 X-0.353 Y-0.295
N7040 X-0.91 Y0.431
N7045 X-1.332 Y1.244
N7050 X-1.636 Y2.107
N7055 X-1.848 Y2.998
N7060 X-1.991 Y3.902
N7065 X-2.085 Y4.813
N7070 X-2.146 Y5.726
N7075 X-2.185 Y6.641
N7080 X-2.21 Y7.556
N7085 X-2.225 Y8.471
N7090 X-2.235 Y9.386
N7095 X-2.241 Y10.302
N7100 X-2.244 Y11.217
N7105 X-2.248 Y13.048
N7110 X-2.25 Y16.71
N7115 Y22.202
N7120 X-2.227 Y23.118
N7125 X-2.038 Y24.013
N7130 X-1.635 Y24.835
N7135 X-1.05 Y25.539
N7140 X-0.329 Y26.103
N7145 X0.479 Y26.534
N7150 X1.339 Y26.848
N7155 X2.227 Y27.069
N7160 X3.13 Y27.219
N7165 X4.04 Y27.319
N7170 X4.953 Y27.385
N7175 X5.868 Y27.427
N7180 X6.783 Y27.454
N7185 X7.698 Y27.471
N7190 X8.613 Y27.482
N7195 X9.529 Y27.489
N7200 X10.444 Y27.493
N7205 X12.275 Y27.497
N7210 X15.021 Y27.499
N7215 X17.767 Y27.5
N7220 X36.991
N7225 X37.906 Y27.472
N7230 X38.8 Y27.275
N7235 X39.618 Y26.864
N7240 X40.315 Y26.27
N7245 X40.873 Y25.544
N7250 X41.298 Y24.734
N7255 X41.608 Y23.872
N7260 X41.826 Y22.983
N7265 X41.975 Y22.08
N7270 X42.073 Y21.17
N7275 X42.138 Y20.257
N7280 X42.179 Y19.342
N7285 X42.206 Y18.427
N7290 X42.222 Y17.512
N7295 X42.233 Y16.596
N7300 X42.239 Y15.681
N7305 X42.243 Y14.766
N7310 X42.248 Y12.935
N7315 X42.25 Y9.273
N7320 Y4.696
N7325 X42.219 Y3.781
N7330 X42.012 Y2.889
N7335 X41.586 Y2.079
N7340 X40.981 Y1.393
N7345 X40.248 Y0.844
N7350 X39.432 Y0.428
N7355 X38.568 Y0.125
N7360 X37.678 Y-0.087
N7365 X36.774 Y-0.232
N7370 X35.864 Y-0.328
N7375 X34.95 Y-0.391
N7380 X34.036 Y-0.431
N7385 X33.121 Y-0.457
N7390 X32.205 Y-0.473
N7395 X31.29 Y-0.483
N7400 X30.375 Y-0.49
N7405 X29.459 Y-0.494
N7410 X27.628 Y-0.498
N7415 X23.967 Y-0.5
N7420 X4.743
N7425 X3.827 Y-0.496
N7430 X2.914 Y-0.44
N7435 X2.032 Y-0.195
N7440 X1.237 Y0.26
N7445 X0.568 Y0.885
N7450 X0.037 Y1.63
N7455 X-0.363 Y2.454
N7460 X-0.653 Y3.322
N7465 X-0.855 Y4.215
N7470 X-0.993 Y5.12
N7475 X-1.085 Y6.031
N7480 X-1.145 Y6.944
N7485 X-1.183 Y7.859
N7490 X-1.208 Y8.774
N7495 X-1.224 Y9.689
N7500 X-1.234 Y10.604
N7505 X-1.24 Y11.52
N7510 X-1.244 Y12.435
N7515 X-1.248 Y14.266
N7520 X-1.25 Y17.928
N7525 Y20.674
N7530 X-1.244 Y21.589
N7535 X-1.149 Y22.5
N7540 X-0.852 Y23.366
N7545 X-0.358 Y24.136
N7550 X0.296 Y24.778
N7555 X1.059 Y25.282
N7560 X1.893 Y25.661
N7565 X2.766 Y25.935
N7570 X3.662 Y26.125
N7575 X4.568 Y26.255
N7580 X5.479 Y26.342
N7585 X6.393 Y26.398
N7590 X7.308 Y26.435
N7595 X8.223 Y26.459
N7600 X9.138 Y26.474
N7605 X10.053 Y26.484
N7610 X10.969 Y26.49
N7615 X11.884 Y26.494
N7620 X13.715 Y26.498
N7625 X17.377 Y26.5
N7630 X35.685
N7635 X36.6 Y26.484
N7640 X37.504 Y26.335
N7645 X38.348 Y25.981
N7650 X39.082 Y25.434
N7655 X39.682 Y24.743
N7660 X40.149 Y23.955
N7665 X40.496 Y23.108
N7670 X40.744 Y22.227
N7675 X40.917 Y21.328
N7680 X41.033 Y20.42
N7685 X41.111 Y19.508
N7690 X41.161 Y18.594
N7695 X41.194 Y17.679
N7700 X41.215 Y16.764
N7705 X41.228 Y15.849
N7710 X41.236 Y14.933
N7715 X41.241 Y14.018
N7720 X41.245 Y13.102
N7725 X41.248 Y11.272
N7730 X41.25 Y7.61
N7735 X41.249 Y5.779
N7740 X41.211 Y4.864
N7745 X41.002 Y3.973
N7750 X40.581 Y3.16
N7755 X39.984 Y2.467
N7760 X39.258 Y1.909
N7765 X38.448 Y1.482
N7770 X37.588 Y1.168
N7775 X36.7 Y0.946
N7780 X35.798 Y0.793
N7785 X34.888 Y0.69
N7790 X33.975 Y0.622
N7795 X33.061 Y0.578
N7800 X32.146 Y0.549
N7805 X31.23 Y0.531
N7810 X30.315 Y0.52
N7815 X29.4 Y0.512
N7820 X28.484 Y0.508
N7825 X27.569 Y0.505
N7830 X25.738 Y0.502
N7835 X21.161 Y0.5
N7840 X16.584
N7845 X5.599 Y0.501
N7850 X4.683 Y0.51
N7855 X3.773 Y0.608
N7860 X2.907 Y0.903
N7865 X2.136 Y1.397
N7870 X1.493 Y2.048
N7875 X0.986 Y2.81
N7880 X0.604 Y3.643
N7885 X0.328 Y4.515
N7890 X0.134 Y5.41
N7895 X0.002 Y6.316
N7900 X-0.087 Y7.227
N7905 X-0.145 Y8.141
N7910 X-0.183 Y9.055
N7915 X-0.207 Y9.97
N7920 X-0.223 Y10.886
N7925 X-0.233 Y11.801
N7930 X-0.239 Y12.716
N7935 X-0.243 Y13.632
N7940 X-0.247 Y15.463
N7945 X-0.25 Y19.124
N7950 X-0.248 Y20.04
N7955 X-0.217 Y20.955
N7960 X-0.032 Y21.851
N7965 X0.357 Y22.68
N7970 X0.926 Y23.397
N7975 X1.63 Y23.981
N7980 X2.427 Y24.433
N7985 X3.279 Y24.768
N7990 X4.162 Y25.007
N7995 X5.063 Y25.173
N8000 X5.971 Y25.285
N8005 X6.883 Y25.36
N8010 X7.797 Y25.41
N8015 X8.712 Y25.442
N8020 X9.627 Y25.463
N8025 X10.543 Y25.477
N8030 X11.458 Y25.485
N8035 X12.374 Y25.491
N8040 X13.289 Y25.494
N8045 X15.12 Y25.498
N8050 X18.782 Y25.5
N8055 X34.344
N8060 X35.259 Y25.495
N8065 X36.17 Y25.4
N8070 X37.037 Y25.109
N8075 X37.812 Y24.621
N8080 X38.461 Y23.975
N8085 X38.975 Y23.217
N8090 X39.364 Y22.389
N8095 X39.648 Y21.519
N8100 X39.848 Y20.625
N8105 X39.986 Y19.72
N8110 X40.078 Y18.81
N8115 X40.139 Y17.896
N8120 X40.179 Y16.982
N8125 X40.205 Y16.067
N8130 X40.221 Y15.151
N8135 X40.232 Y14.236
N8140 X40.239 Y13.321
N8145 X40.243 Y12.405
N8150 X40.247 Y10.574
N8155 X40.249 Y7.828
N8160 Y6.913
N8165 X40.212 Y5.998
N8170 X40.016 Y5.104
N8175 X39.616 Y4.281
N8180 X39.036 Y3.572
N8185 X38.324 Y2.997
N8190 X37.523 Y2.553
N8195 X36.669 Y2.223
N8200 X35.785 Y1.987
N8205 X34.884 Y1.823
N8210 X33.976 Y1.712
N8215 X33.063 Y1.637
N8220 X32.149 Y1.588
N8225 X31.234 Y1.557
N8230 X30.319 Y1.536
N8235 X29.404 Y1.523
N8240 X28.488 Y1.514
N8245 X27.573 Y1.509
N8250 X26.657 Y1.506
N8255 X24.827 Y1.502
N8260 X21.165 Y1.5
N8265 X7.434
N8270 X6.518 Y1.501
N8275 X5.603 Y1.519
N8280 X4.696 Y1.645
N8285 X3.84 Y1.97
N8290 X3.085 Y2.487
N8295 X2.457 Y3.153
N8300 X1.963 Y3.924
N8305 X1.591 Y4.76
N8310 X1.322 Y5.635
N8315 X1.132 Y6.531
N8320 X1.002 Y7.437
N8325 X0.915 Y8.348
N8330 X0.857 Y9.262
N8335 X0.819 Y10.176
N8340 X0.794 Y11.092
N8345 X0.778 Y12.007
N8350 X0.768 Y12.922
N8355 X0.761 Y13.838
N8360 X0.757 Y14.753
N8365 X0.753 Y16.584
N8370 X0.751 Y18.415
N8375 X0.758 Y19.33
N8380 X0.835 Y20.242
N8385 X1.094 Y21.12
N8390 X1.551 Y21.914
N8395 X2.171 Y22.587
N8400 X2.91 Y23.127
N8405 X3.728 Y23.539
N8410 X4.592 Y23.841
N8415 X5.482 Y24.056
N8420 X6.385 Y24.205
N8425 X7.295 Y24.306
N8430 X8.208 Y24.373
N8435 X9.122 Y24.418
N8440 X10.037 Y24.447
N8445 X10.952 Y24.466
N8450 X11.868 Y24.478
N8455 X12.783 Y24.486
N8460 X13.698 Y24.491
N8465 X14.614 Y24.494
N8470 X16.445 Y24.498
N8475 X20.106 Y24.5
N8480 X32.922
N8485 X33.838 Y24.498
N8490 X34.752 Y24.453
N8495 X35.644 Y24.245
N8500 X36.464 Y23.839
N8505 X37.17 Y23.257
N8510 X37.745 Y22.544
N8515 X38.189 Y21.744
N8520 X38.519 Y20.89
N8525 X38.756 Y20.006
N8530 X38.922 Y19.105
N8535 X39.034 Y18.197
N8540 X39.109 Y17.285
N8545 X39.159 Y16.371
N8550 X39.191 Y15.456
N8555 X39.212 Y14.541
N8560 X39.226 Y13.625
N8565 X39.235 Y12.71
N8570 X39.24 Y11.794
N8575 X39.244 Y10.879
N8580 X39.248 Y9.048
N8585 Y8.133
N8590 X39.222 Y7.218
N8595 X39.061 Y6.317
N8600 X38.702 Y5.474
N8605 X38.157 Y4.739
N8610 X37.47 Y4.134
N8615 X36.687 Y3.66
N8620 X35.843 Y3.305
N8625 X34.965 Y3.047
N8630 X34.067 Y2.866
N8635 X33.16 Y2.742
N8640 X32.249 Y2.658
N8645 X31.335 Y2.602
N8650 X30.42 Y2.566
N8655 X29.505 Y2.542
N8660 X28.59 Y2.527
N8665 X27.675 Y2.517
N8670 X26.759 Y2.511
N8675 X25.844 Y2.507
N8680 X24.013 Y2.503
N8685 X21.267 Y2.501
N8690 X8.451 Y2.5
N8695 X7.535 Y2.501
N8700 X6.62 Y2.523
N8705 X5.715 Y2.657
N8710 X4.86 Y2.986
N8715 X4.106 Y3.505
N8720 X3.479 Y4.172
N8725 X2.984 Y4.942
N8730 X2.61 Y5.777
N8735 X2.338 Y6.651
N8740 X2.145 Y7.546
N8745 X2.012 Y8.452
N8750 X1.922 Y9.363
N8755 X1.862 Y10.276
N8760 X1.823 Y11.191
N8765 X1.797 Y12.106
N8770 X1.78 Y13.021
N8775 X1.769 Y13.937
N8780 X1.762 Y14.852
N8785 X1.758 Y15.767
N8790 X1.755 Y16.683
N8795 X1.754 Y17.598
N8800 X1.77 Y18.514
N8805 X1.885 Y19.422
N8810 X2.192 Y20.284
N8815 X2.689 Y21.053
N8820 X3.34 Y21.697
N8825 X4.099 Y22.208
N8830 X4.928 Y22.596
N8835 X5.799 Y22.88
N8840 X6.692 Y23.082
N8845 X7.596 Y23.221
N8850 X8.507 Y23.316
N8855 X9.42 Y23.379
N8860 X10.335 Y23.421
N8865 X10.877 Y23.438
N8870 X11.048 Y23.451
N8875 X11.216 Y23.48
N8880 X11.382 Y23.525
N8885 X12.52 Y23.89
N8890 X12.728 Y23.949
N8895 X12.867 Y23.982
N8900 X13.143 Y24.03
N8905 X13.351 Y24.05
N8910 X13.974 Y24.103
N8915 X14.39 Y24.136
N8920 X14.598 Y24.153
N8925 X15.114 Y24.19
N8930 X15.221
N8935 X15.637 Y24.161
N8940 X15.844 Y24.142
N8945 X17.091 Y23.957
N8950 X17.299 Y23.92
N8955 X17.714 Y23.843
N8960 X17.965 Y23.797
N8965 X18.562 Y23.712
N8970 X19.467 Y23.621
N8975 X20.381 Y23.57
N8980 X21.295 Y23.541
N8985 X22.211 Y23.524
N8990 X23.126 Y23.514
N8995 X24.042 Y23.508
N9000 X24.957 Y23.505
N9005 X26.788 Y23.502
N9010 X32.28 Y23.5
N9015 X33.196 Y23.488
N9020 X34.105 Y23.383
N9025 X34.972 Y23.09
N9030 X35.749 Y22.606
N9035 X36.404 Y21.966
N9040 X36.926 Y21.214
N9045 X37.323 Y20.389
N9050 X37.615 Y19.521
N9055 X37.821 Y18.63
N9060 X37.965 Y17.726
N9065 X38.062 Y16.815
N9070 X38.127 Y15.902
N9075 X38.17 Y14.988
N9080 X38.198 Y14.073
N9085 X38.217 Y13.158
N9090 X38.229 Y12.242
N9095 X38.236 Y11.327
N9100 X38.241 Y10.411
N9105 X38.244 Y9.496
N9110 X38.238 Y8.581
N9115 X38.139 Y7.671
N9120 X37.85 Y6.802
N9125 X37.371 Y6.022
N9130 X36.732 Y5.366
N9135 X35.982 Y4.841
N9140 X35.159 Y4.441
N9145 X34.292 Y4.146
N9150 X33.401 Y3.936
N9155 X32.497 Y3.791
N9160 X31.587 Y3.691
N9165 X30.674 Y3.625
N9170 X29.76 Y3.581
N9175 X28.845 Y3.553
N9180 X27.93 Y3.534
N9185 X27.014 Y3.522
N9190 X26.099 Y3.514
N9195 X25.184 Y3.509
N9200 X24.268 Y3.506
N9205 X23.353 Y3.504
N9210 X20.606 Y3.501
N9215 X19.262 Y3.5
N9220 X19.102 Y3.493
N9225 X18.943 Y3.473
N9230 X18.787 Y3.438
N9235 X17.922 Y3.206
N9240 X17.714 Y3.157
N9245 X17.299 Y3.08
N9250 X17.091 Y3.043
N9255 X15.844 Y2.858
N9260 X15.637 Y2.839
N9265 X15.221 Y2.81
N9270 X15.114
N9275 X14.598 Y2.847
N9280 X14.182 Y2.881
N9285 X13.559 Y2.932
N9290 X13.351 Y2.95
N9295 X13.143 Y2.97
N9300 X12.867 Y3.018
N9305 X12.728 Y3.051
N9310 X12.468 Y3.111
N9315 X12.05 Y3.192
N9320 X11.477 Y3.278
N9325 X10.621 Y3.367
N9330 X9.707 Y3.423
N9335 X8.793 Y3.456
N9340 X7.878 Y3.485
N9345 X6.968 Y3.589
N9350 X6.098 Y3.873
N9355 X5.315 Y4.347
N9360 X4.653 Y4.98
N9365 X4.123 Y5.726
N9370 X3.716 Y6.546
N9375 X3.416 Y7.411
N9380 X3.201 Y8.301
N9385 X3.052 Y9.204
N9390 X2.949 Y10.114
N9395 X2.881 Y11.026
N9400 X2.835 Y11.941
N9405 X2.805 Y12.856
N9410 X2.786 Y13.771
N9415 X2.773 Y14.686
N9420 X2.765 Y15.602
N9425 X2.76 Y16.517
N9430 X2.773 Y17.432
N9435 X2.88 Y18.342
N9440 X3.171 Y19.209
N9445 X3.658 Y19.985
N9450 X4.3 Y20.637
N9455 X5.053 Y21.158
N9460 X5.877 Y21.557
N9465 X6.744 Y21.85
N9470 X7.635 Y22.059
N9475 X8.539 Y22.205
N9480 X8.78 Y22.26
N9485 X9.012 Y22.345
N9490 X9.231 Y22.459
N9495 X9.611 Y22.687
N9500 X9.819 Y22.812
N9505 X10.047 Y22.944
N9510 X10.442 Y23.165
N9515 X10.65 Y23.274
N9520 X10.858 Y23.351
N9525 X11.273 Y23.49
N9530 X11.382 Y23.525
N9535 X11.39 Y23.528 Z40.002
N9540 G2 X12.234 Y23.924 Z40.2 I3.486 J-6.342
N9545 X13.15 Y24.214 I2.641 J-6.737
N9550 G1 X13.206 Y24.225
N9555 X13.263 Y24.231
N9560 X15.773 Y24.357
N9565 X15.83
N9570 X15.887 Y24.352
N9575 G2 X16.826 Y24.155 I-1.012 J-7.166
N9580 X17.707 Y23.846 Z40.002 I-1.951 J-6.969
N9585 G1 X17.714 Y23.843 Z40.
N9590 X17.922 Y23.794
N9595 X20.831 Y23.014
N9600 X21.279 Y22.917
N9605 X21.694 Y22.833
N9610 X22.258 Y22.745
N9615 X23.076 Y22.653
N9620 X23.99 Y22.59
N9625 X24.904 Y22.554
N9630 X25.82 Y22.532
N9635 X26.735 Y22.519
N9640 X27.65 Y22.512
N9645 X28.566 Y22.507
N9650 X29.481 Y22.504
N9655 X31.312 Y22.5
N9660 X32.227 Y22.482
N9665 X33.135 Y22.365
N9670 X33.999 Y22.062
N9675 X34.769 Y21.567
N9680 X35.416 Y20.92
N9685 X35.932 Y20.163
N9690 X36.325 Y19.337
N9695 X36.613 Y18.468
N9700 X36.819 Y17.576
N9705 X36.962 Y16.672
N9710 X37.059 Y15.761
N9715 X37.125 Y14.848
N9720 X37.168 Y13.934
N9725 X37.197 Y13.019
N9730 X37.216 Y12.104
N9735 X37.228 Y11.188
N9740 X37.234 Y10.273
N9745 X37.215 Y9.358
N9750 X37.071 Y8.454
N9755 X36.729 Y7.604
N9760 X36.203 Y6.855
N9765 X35.533 Y6.232
N9770 X34.761 Y5.739
N9775 X33.925 Y5.366
N9780 X33.051 Y5.094
N9785 X32.156 Y4.901
N9790 X31.251 Y4.768
N9795 X30.34 Y4.677
N9800 X29.426 Y4.616
N9805 X28.512 Y4.576
N9810 X27.597 Y4.549
N9815 X26.681 Y4.532
N9820 X25.766 Y4.521
N9825 X24.851 Y4.513
N9830 X23.935 Y4.509
N9835 X23.002 Y4.505
N9840 X22.843 Y4.498
N9845 X22.686 Y4.477
N9850 X22.531 Y4.443
N9855 X18.787 Y3.438
N9860 X18.779 Y3.435 Z40.002
N9865 G2 X17.918 Y3.075 Z40.2 I-3.491 J7.149
N9870 X17.485 Y2.937 I-2.63 J7.508
N9875 G1 X17.421 Y2.923
N9880 X17.357 Y2.915
N9885 X14.205 Y2.715
N9890 X14.14 Y2.714
N9895 X14.075 Y2.721
N9900 G2 X13.635 Y2.801 I1.213 J7.862
N9905 X12.728 Y3.051 Z40. I1.653 J7.782
N9910 G1 X12.52 Y3.11
N9915 X11.273 Y3.51
N9920 X10.858 Y3.649
N9925 X10.65 Y3.726
N9930 X10.615 Y3.744
N9935 X10.479 Y3.807
N9940 X10.271 Y3.882
N9945 X10.013 Y3.963
N9950 X9.592 Y4.075
N9955 X8.698 Y4.272
N9960 X7.807 Y4.482
N9965 X6.963 Y4.836
N9970 X6.211 Y5.358
N9975 X5.579 Y6.02
N9980 X5.072 Y6.782
N9985 X4.684 Y7.611
N9990 X4.396 Y8.48
N9995 X4.19 Y9.372
N10000 X4.046 Y10.276
N10005 X3.947 Y11.186
N10010 X3.88 Y12.099
N10015 X3.835 Y13.014
N10020 X3.806 Y13.929
N10025 X3.786 Y14.844
N10030 X3.777 Y15.759
N10035 X3.799 Y16.674
N10040 X3.952 Y17.577
N10045 X4.304 Y18.422
N10050 X4.838 Y19.166
N10055 X5.513 Y19.783
N10060 X6.288 Y20.27
N10065 X6.705 Y20.454
N10070 X6.898 Y20.552
N10075 X7.078 Y20.673
N10080 X7.243 Y20.814
N10085 X7.949 Y21.498
N10090 X8.171 Y21.699
N10095 X8.402 Y21.906
N10100 X8.572 Y22.052
N10105 X8.669 Y22.114
N10110 X9.231 Y22.459
N10115 X9.244 Y22.471 Z40.004
N10120 X9.253 Y22.486 Z40.007
N10125 G2 X9.634 Y23.308 Z40.2 I5.894 J-2.237
N10130 X13.072 Y26.201 I5.512 J-3.059
N10135 G1 X13.155 Y26.224
N10140 X13.24 Y26.234
N10145 X16.468 Y26.39
N10150 X16.554 Y26.388
N10155 X16.639 Y26.373
N10160 G2 X20.344 Y23.815 I-1.492 J-6.125
N10165 X20.797 Y23.042 Z40.01 I-5.198 J-3.566
N10170 G1 X20.811 Y23.024 Z40.005
N10175 X20.831 Y23.014 Z40.
N10180 X24.571 Y22.01
N10185 X25.009 Y21.915
N10190 X25.438 Y21.83
N10195 X26.021 Y21.741
N10200 X26.874 Y21.647
N10205 X27.787 Y21.588
N10210 X28.702 Y21.553
N10215 X29.617 Y21.531
N10220 X30.532 Y21.514
N10225 X31.447 Y21.475
N10230 X32.347 Y21.311
N10235 X33.19 Y20.952
N10240 X33.93 Y20.413
N10245 X34.544 Y19.734
N10250 X35.029 Y18.958
N10255 X35.395 Y18.119
N10260 X35.662 Y17.243
N10265 X35.852 Y16.348
N10270 X35.983 Y15.442
N10275 X36.073 Y14.531
N10280 X36.133 Y13.617
N10285 X36.174 Y12.703
N10290 X36.2 Y11.788
N10295 X36.21 Y10.872
N10300 X36.152 Y9.959
N10305 X35.921 Y9.073
N10310 X35.494 Y8.263
N10315 X34.9 Y7.567
N10320 X34.18 Y7.001
N10325 X33.376 Y6.564
N10330 X32.52 Y6.238
N10335 X31.635 Y6.004
N10340 X30.735 Y5.839
N10345 X29.826 Y5.726
N10350 X28.914 Y5.65
N10355 X28. Y5.598
N10360 X27.085 Y5.564
N10365 X26.89 Y5.56
N10370 X26.745 Y5.55
N10375 X26.601 Y5.529
N10380 X26.46 Y5.497
N10385 X22.531 Y4.443
N10390 X22.508 Y4.429 Z40.006
N10395 X22.494 Y4.407 Z40.011
N10400 G2 X22.148 Y3.589 Z40.2 I-6.069 J2.087
N10405 X19.733 Y0.994 I-5.723 J2.905
N10410 X19.458 Y0.91 I-0.309 J0.514
N10415 G1 X14.058 Y0.596
N10420 G2 X13.775 Y0.649 I-0.035 J0.599
N10425 X11.087 Y2.932 I2.65 J5.845
N10430 X10.638 Y3.72 Z40.007 I5.338 J3.563
N10435 G1 X10.628 Y3.734 Z40.004
N10440 X10.615 Y3.744 Z40.
N10445 X10.442 Y3.835
N10450 X10.026 Y4.067
N10455 X9.819 Y4.188
N10460 X9.347 Y4.471
N10465 X9.195 Y4.563
N10470 X8.669 Y4.886
N10475 X8.572 Y4.948
N10480 X8.544 Y4.972
N10485 X7.818 Y5.531
N10490 X7.125 Y6.129
N10495 X6.535 Y6.828
N10500 X6.056 Y7.609
N10505 X5.96 Y7.825
N10510 X5.92 Y7.91
N10515 X5.875 Y7.993
N10520 X5.826 Y8.074
N10525 G3 X5.334 Y8.331 Z40.123 I-0.493 J-0.343
N10530 G1 X5.333
N10535 G3 X4.991 Y8.224 Z40.2 I0. J-0.6
N10540 X4.882 Y7.336 I0.342 J-0.493
N10545 G1 X7.687 Y4.134
N10550 G3 X8.581 Y4.125 I0.451 J0.395
N10555 X8.544 Y4.972 Z40. I-0.443 J0.405
N10560 G1 X8.402 Y5.094
N10565 X8.156 Y5.314
N10570 X7.942 Y5.509
N10575 X7.117 Y6.307
N10580 X7.087 Y6.339
N10585 X6.702 Y6.756
N10590 X6.545 Y6.962
N10595 X6.008 Y7.792
N10600 X5.74 Y8.207
N10605 X5.663 Y8.333
N10610 X5.382 Y8.83
N10615 X5.292 Y9.037
N10620 X5.138 Y9.452
N10625 X5.04 Y9.722
N10630 X4.69 Y10.698
N10635 X4.625 Y10.905
N10640 X4.545 Y11.321
N10645 X4.506 Y11.528
N10650 X4.362 Y12.774
N10655 X4.343 Y12.981
N10660 X4.31 Y13.396
N10665 Y13.604
N10670 X4.343 Y14.019
N10675 X4.362 Y14.226
N10680 X4.506 Y15.472
N10685 X4.585 Y15.887
N10690 X4.625 Y16.095
N10695 X4.69 Y16.302
N10700 X5.062 Y17.34
N10705 X5.138 Y17.548
N10710 X5.292 Y17.963
N10715 X5.382 Y18.17
N10720 X5.663 Y18.667
N10725 X5.74 Y18.793
N10730 X6.286 Y19.639
N10735 X6.545 Y20.038
N10740 X6.704 Y20.246
N10745 X7.087 Y20.661
N10750 X7.117 Y20.693
N10755 X7.243 Y20.814
N10760 X7.256 Y20.837 Z40.006
N10765 G2 X7.566 Y21.698 Z40.2 I8.87 J-2.703
N10770 X11.068 Y25.906 I8.561 J-3.564
N10775 X11.354 Y26.002 I0.327 J-0.503
N10780 G1 X19.763 Y26.587
N10785 G2 X20.059 Y26.532 I0.042 J-0.599
N10790 X24.121 Y22.832 I-3.933 J-8.398
N10795 X24.537 Y22.039 Z40.01 I-7.995 J-4.698
N10800 G1 X24.551 Y22.021 Z40.005
N10805 X24.571 Y22.01 Z40.
N10810 X28.311 Y21.006
N10815 X28.759 Y20.909
N10820 X29.657 Y20.73
N10825 X30.561 Y20.59
N10830 X31.447 Y20.361
N10835 X32.271 Y19.962
N10840 X32.991 Y19.396
N10845 X33.586 Y18.701
N10850 X33.668 Y18.564
N10855 X33.731 Y18.465
N10860 X33.801 Y18.371
N10865 X33.876 Y18.281
N10870 G3 X34.724 Y18.264 Z40.2 I0.433 J0.416
N10875 X34.575 Y19.234 I-0.415 J0.433
N10880 G1 X28.753 Y22.117
N10885 G3 X27.913 Y21.754 I-0.266 J-0.538
N10890 X28.311 Y21.006 Z40. I0.574 J-0.175
N10895 G1 X30.181 Y20.504
N10900 X30.805 Y20.298
N10905 X30.933 Y20.246
N10910 X31.636 Y19.942
N10915 X31.844 Y19.851
N10920 X32.051 Y19.751
N10925 X32.259 Y19.634
N10930 X32.467 Y19.5
N10935 X32.675 Y19.337
N10940 X32.833 Y19.208
N10945 X33.574 Y18.585
N10950 X33.79 Y18.378
N10955 X33.922 Y18.231
N10960 X33.973 Y18.17
N10965 X34.13 Y17.963
N10970 X34.678 Y17.132
N10975 X34.96 Y16.672
N10980 X35.035 Y16.51
N10985 X35.122 Y16.302
N10990 X35.194 Y16.095
N10995 X35.381 Y15.472
N11000 X35.441 Y15.264
N11005 X35.584 Y14.758
N11010 X35.604 Y14.642
N11015 X35.636 Y14.434
N11020 X35.652 Y14.226
N11025 X35.657 Y14.019
N11030 X35.658 Y13.396
N11035 X35.657 Y12.981
N11040 X35.652 Y12.774
N11045 X35.636 Y12.566
N11050 X35.604 Y12.358
N11055 X35.584 Y12.242
N11060 X35.576 Y12.215
N11065 X35.372 Y11.322
N11070 X35.156 Y10.433
N11075 X34.779 Y9.598
N11080 X34.238 Y8.86
N11085 X33.562 Y8.243
N11090 X32.872 Y7.806
N11095 X32.811 Y7.766
N11100 X32.751 Y7.723
N11105 X32.694 Y7.678
N11110 G3 X32.637 Y6.832 Z40.2 I0.395 J-0.452
N11115 X33.595 Y6.904 I0.452 J0.395
N11120 G1 X36.654 Y11.71
N11125 G3 X36.33 Y12.603 I-0.506 J0.322
N11130 X35.576 Y12.215 Z40. I-0.182 J-0.572
N11135 G1 X35.441 Y11.736
N11140 X35.376 Y11.51
N11145 X35.194 Y10.905
N11150 X35.122 Y10.698
N11155 X35.035 Y10.49
N11160 X34.96 Y10.328
N11165 X34.678 Y9.868
N11170 X34.129 Y9.036
N11175 X33.973 Y8.83
N11180 X33.922 Y8.769
N11185 X33.79 Y8.622
N11190 X33.574 Y8.415
N11195 X32.833 Y7.792
N11200 X32.675 Y7.663
N11205 X32.467 Y7.5
N11210 X32.259 Y7.366
N11215 X32.051 Y7.249
N11220 X31.844 Y7.149
N11225 X31.636 Y7.058
N11230 X30.933 Y6.754
N11235 X30.805 Y6.702
N11240 X30.181 Y6.496
N11245 X26.46 Y5.497
N11250 X26.373 Y5.464
N11255 X26.294 Y5.417
N11260 X26.241 Y5.364 Z40.005
N11265 X26.19 Y5.313 Z40.018
N11270 X26.14 Y5.263 Z40.041
N11275 X26.108 Y5.191 Z40.079
N11280 X26.079 Y5.124 Z40.129
N11285 X26.052 Y5.065 Z40.188
N11290 X26.045 Y5.004 Z40.265
N11295 X26.039 Y4.957 Z40.35
N11300 X26.035 Y4.924 Z40.442
N11305 X26.036 Y4.908 Z40.52
N11310 Y4.902 Z40.6
N11315 G0 Z55.
N11320 X-3.72 Y-7.783
N11325 Z37.6
N11330 G1 Z37. F1560.
N11335 Z35.
N11340 G3 X-3.25 Y-4.517 I-14.839 J3.801
N11345 G1 Y-4.402
N11350 X-3.86 Y-3.72
N11355 X-4.319 Y-2.928
N11360 X-4.646 Y-2.073
N11365 X-4.869 Y-1.185
N11370 X-5.014 Y-0.281
N11375 X-5.107 Y0.63
N11380 X-5.164 Y1.543
N11385 X-5.198 Y2.458
N11390 X-5.219 Y3.373
N11395 X-5.232 Y4.289
N11400 X-5.239 Y5.204
N11405 X-5.244 Y6.12
N11410 X-5.246 Y7.035
N11415 X-5.249 Y8.866
N11420 X-5.25 Y15.274
N11425 Y26.717
N11430 X-5.064 Y27.613
N11435 X-4.593 Y28.398
N11440 X-3.932 Y29.031
N11445 X-3.152 Y29.511
N11450 X-2.304 Y29.855
N11455 X-1.42 Y30.092
N11460 X-0.517 Y30.247
N11465 X0.393 Y30.346
N11470 X1.306 Y30.407
N11475 X2.221 Y30.444
N11480 X3.136 Y30.467
N11485 X4.051 Y30.48
N11490 X4.966 Y30.488
N11495 X5.882 Y30.493
N11500 X6.797 Y30.496
N11505 X8.628 Y30.499
N11510 X11.374 Y30.5
N11515 X41.583
N11520 X42.47 Y30.272
N11525 X43.237 Y29.772
N11530 X43.85 Y29.092
N11535 X44.311 Y28.301
N11540 X44.641 Y27.447
N11545 X44.865 Y26.56
N11550 X45.012 Y25.656
N11555 X45.105 Y24.746
N11560 X45.163 Y23.832
N11565 X45.198 Y22.917
N11570 X45.219 Y22.002
N11575 X45.232 Y21.087
N11580 X45.239 Y20.171
N11585 X45.244 Y19.256
N11590 X45.246 Y18.34
N11595 X45.249 Y16.51
N11600 X45.25 Y11.932
N11605 Y0.032
N11610 X44.994 Y-0.847
N11615 X44.461 Y-1.591
N11620 X43.76 Y-2.18
N11625 X42.957 Y-2.62
N11630 X42.096 Y-2.931
N11635 X41.205 Y-3.142
N11640 X40.3 Y-3.279
N11645 X39.389 Y-3.366
N11650 X38.475 Y-3.419
N11655 X37.56 Y-3.452
N11660 X36.645 Y-3.471
N11665 X35.73 Y-3.483
N11670 X34.814 Y-3.49
N11675 X33.899 Y-3.494
N11680 X32.068 Y-3.498
N11685 X28.406 Y-3.5
N11690 X8.267
N11695 X0.028
N11700 X-0.871 Y-3.328
N11705 X-1.736 Y-3.03
N11710 X-2.466 Y-2.478
N11715 X-3.034 Y-1.76
N11720 X-3.448 Y-0.943
N11725 X-3.736 Y-0.074
N11730 X-3.927 Y0.821
N11735 X-4.05 Y1.728
N11740 X-4.128 Y2.64
N11745 X-4.176 Y3.554
N11750 X-4.206 Y4.469
N11755 X-4.223 Y5.385
N11760 X-4.234 Y6.3
N11765 X-4.24 Y7.215
N11770 X-4.244 Y8.131
N11775 X-4.248 Y9.962
N11780 X-4.25 Y13.623
N11785 Y24.608
N11790 X-4.238 Y25.524
N11795 X-4.016 Y26.412
N11800 X-3.559 Y27.205
N11805 X-2.92 Y27.861
N11810 X-2.159 Y28.37
N11815 X-1.324 Y28.744
N11820 X-0.447 Y29.007
N11825 X0.451 Y29.186
N11830 X1.359 Y29.303
N11835 X2.271 Y29.378
N11840 X3.185 Y29.425
N11845 X4.1 Y29.454
N11850 X5.015 Y29.472
N11855 X5.931 Y29.483
N11860 X6.846 Y29.49
N11865 X7.761 Y29.494
N11870 X9.592 Y29.498
N11875 X13.254 Y29.5
N11880 X39.801
N11885 X40.712 Y29.409
N11890 X41.563 Y29.07
N11895 X42.294 Y28.52
N11900 X42.88 Y27.816
N11905 X43.321 Y27.014
N11910 X43.638 Y26.155
N11915 X43.855 Y25.266
N11920 X44. Y24.362
N11925 X44.094 Y23.451
N11930 X44.154 Y22.538
N11935 X44.191 Y21.623
N11940 X44.214 Y20.708
N11945 X44.228 Y19.793
N11950 X44.237 Y18.877
N11955 X44.242 Y17.962
N11960 X44.245 Y17.047
N11965 X44.247 Y16.131
N11970 X44.249 Y13.385
N11975 X44.25 Y1.484
N11980 X44.038 Y0.594
N11985 X43.585 Y-0.201
N11990 X42.948 Y-0.859
N11995 X42.188 Y-1.369
N12000 X41.353 Y-1.744
N12005 X40.476 Y-2.008
N12010 X39.578 Y-2.187
N12015 X38.67 Y-2.304
N12020 X37.758 Y-2.379
N12025 X36.844 Y-2.426
N12030 X35.929 Y-2.455
N12035 X35.013 Y-2.473
N12040 X34.098 Y-2.483
N12045 X33.183 Y-2.49
N12050 X32.267 Y-2.494
N12055 X30.436 Y-2.498
N12060 X26.775 Y-2.5
N12065 X10.297
N12070 X2.058
N12075 X1.143 Y-2.484
N12080 X0.236 Y-2.36
N12085 X-0.607 Y-2.004
N12090 X-1.329 Y-1.441
N12095 X-1.905 Y-0.729
N12100 X-2.338 Y0.077
N12105 X-2.648 Y0.938
N12110 X-2.862 Y1.829
N12115 X-3.004 Y2.733
N12120 X-3.096 Y3.644
N12125 X-3.155 Y4.557
N12130 X-3.191 Y5.472
N12135 X-3.214 Y6.387
N12140 X-3.228 Y7.302
N12145 X-3.237 Y8.218
N12150 X-3.242 Y9.133
N12155 X-3.245 Y10.049
N12160 X-3.248 Y11.879
N12165 X-3.25 Y16.456
N12170 Y22.864
N12175 X-3.248 Y23.78
N12180 X-3.167 Y24.692
N12185 X-2.863 Y25.555
N12190 X-2.351 Y26.314
N12195 X-1.679 Y26.936
N12200 X-0.9 Y27.416
N12205 X-0.055 Y27.769
N12210 X0.826 Y28.018
N12215 X1.725 Y28.188
N12220 X2.634 Y28.301
N12225 X3.546 Y28.375
N12230 X4.461 Y28.422
N12235 X5.376 Y28.451
N12240 X6.291 Y28.47
N12245 X7.206 Y28.482
N12250 X8.121 Y28.489
N12255 X9.037 Y28.493
N12260 X9.952 Y28.496
N12265 X11.783 Y28.498
N12270 X17.276 Y28.5
N12275 X38.33
N12280 X39.245 Y28.454
N12285 X40.125 Y28.202
N12290 X40.911 Y27.732
N12295 X41.563 Y27.09
N12300 X42.073 Y26.33
N12305 X42.452 Y25.496
N12310 X42.722 Y24.622
N12315 X42.908 Y23.725
N12320 X43.032 Y22.818
N12325 X43.112 Y21.906
N12330 X43.164 Y20.992
N12335 X43.197 Y20.078
N12340 X43.217 Y19.162
N12345 X43.23 Y18.247
N12350 X43.238 Y17.332
N12355 X43.242 Y16.416
N12360 X43.245 Y15.501
N12365 X43.248 Y13.67
N12370 X43.249 Y11.839
N12375 X43.25 Y3.6
N12380 X43.234 Y2.685
N12385 X43.031 Y1.792
N12390 X42.601 Y0.984
N12395 X41.988 Y0.305
N12400 X41.247 Y-0.233
N12405 X40.425 Y-0.636
N12410 X39.556 Y-0.926
N12415 X38.663 Y-1.126
N12420 X37.758 Y-1.261
N12425 X36.847 Y-1.349
N12430 X35.933 Y-1.406
N12435 X35.018 Y-1.441
N12440 X34.103 Y-1.464
N12445 X33.188 Y-1.478
N12450 X32.272 Y-1.486
N12455 X31.357 Y-1.492
N12460 X30.442 Y-1.495
N12465 X28.611 Y-1.498
N12470 X24.034 Y-1.5
N12475 X3.894
N12480 X2.979 Y-1.499
N12485 X2.064 Y-1.473
N12490 X1.167 Y-1.292
N12495 X0.346 Y-0.886
N12500 X-0.353 Y-0.295
N12505 X-0.91 Y0.431
N12510 X-1.332 Y1.244
N12515 X-1.636 Y2.107
N12520 X-1.848 Y2.998
N12525 X-1.991 Y3.902
N12530 X-2.085 Y4.813
N12535 X-2.146 Y5.726
N12540 X-2.185 Y6.641
N12545 X-2.21 Y7.556
N12550 X-2.225 Y8.471
N12555 X-2.235 Y9.386
N12560 X-2.241 Y10.302
N12565 X-2.244 Y11.217
N12570 X-2.248 Y13.048
N12575 X-2.25 Y16.71
N12580 Y22.202
N12585 X-2.227 Y23.118
N12590 X-2.038 Y24.013
N12595 X-1.635 Y24.835
N12600 X-1.05 Y25.539
N12605 X-0.329 Y26.103
N12610 X0.479 Y26.534
N12615 X1.339 Y26.848
N12620 X2.227 Y27.069
N12625 X3.13 Y27.219
N12630 X4.04 Y27.319
N12635 X4.953 Y27.385
N12640 X5.868 Y27.427
N12645 X6.783 Y27.454
N12650 X7.698 Y27.471
N12655 X8.613 Y27.482
N12660 X9.529 Y27.489
N12665 X10.444 Y27.493
N12670 X12.275 Y27.497
N12675 X15.021 Y27.499
N12680 X17.767 Y27.5
N12685 X36.991
N12690 X37.906 Y27.472
N12695 X38.8 Y27.275
N12700 X39.618 Y26.864
N12705 X40.315 Y26.27
N12710 X40.873 Y25.544
N12715 X41.298 Y24.734
N12720 X41.608 Y23.872
N12725 X41.826 Y22.983
N12730 X41.975 Y22.08
N12735 X42.073 Y21.17
N12740 X42.138 Y20.257
N12745 X42.179 Y19.342
N12750 X42.206 Y18.427
N12755 X42.222 Y17.512
N12760 X42.233 Y16.596
N12765 X42.239 Y15.681
N12770 X42.243 Y14.766
N12775 X42.248 Y12.935
N12780 X42.25 Y9.273
N12785 Y4.696
N12790 X42.219 Y3.781
N12795 X42.012 Y2.889
N12800 X41.586 Y2.079
N12805 X40.981 Y1.393
N12810 X40.248 Y0.844
N12815 X39.432 Y0.428
N12820 X38.568 Y0.125
N12825 X37.678 Y-0.087
N12830 X36.774 Y-0.232
N12835 X35.864 Y-0.328
N12840 X34.95 Y-0.391
N12845 X34.036 Y-0.431
N12850 X33.121 Y-0.457
N12855 X32.205 Y-0.473
N12860 X31.29 Y-0.483
N12865 X30.375 Y-0.49
N12870 X29.459 Y-0.494
N12875 X27.628 Y-0.498
N12880 X23.967 Y-0.5
N12885 X4.743
N12890 X3.827 Y-0.496
N12895 X2.914 Y-0.44
N12900 X2.032 Y-0.195
N12905 X1.237 Y0.26
N12910 X0.568 Y0.885
N12915 X0.037 Y1.63
N12920 X-0.363 Y2.454
N12925 X-0.653 Y3.322
N12930 X-0.855 Y4.215
N12935 X-0.993 Y5.12
N12940 X-1.085 Y6.031
N12945 X-1.145 Y6.944
N12950 X-1.183 Y7.859
N12955 X-1.208 Y8.774
N12960 X-1.224 Y9.689
N12965 X-1.234 Y10.604
N12970 X-1.24 Y11.52
N12975 X-1.244 Y12.435
N12980 X-1.248 Y14.266
N12985 X-1.25 Y17.928
N12990 Y20.674
N12995 X-1.244 Y21.589
N13000 X-1.149 Y22.5
N13005 X-0.852 Y23.366
N13010 X-0.358 Y24.136
N13015 X0.296 Y24.778
N13020 X1.059 Y25.282
N13025 X1.893 Y25.661
N13030 X2.766 Y25.935
N13035 X3.662 Y26.125
N13040 X4.568 Y26.255
N13045 X5.479 Y26.342
N13050 X6.393 Y26.398
N13055 X7.308 Y26.435
N13060 X8.223 Y26.459
N13065 X9.138 Y26.474
N13070 X10.053 Y26.484
N13075 X10.969 Y26.49
N13080 X11.884 Y26.494
N13085 X13.715 Y26.498
N13090 X17.377 Y26.5
N13095 X35.685
N13100 X36.6 Y26.484
N13105 X37.504 Y26.335
N13110 X38.348 Y25.981
N13115 X39.082 Y25.434
N13120 X39.682 Y24.743
N13125 X40.149 Y23.955
N13130 X40.496 Y23.108
N13135 X40.744 Y22.227
N13140 X40.917 Y21.328
N13145 X41.033 Y20.42
N13150 X41.111 Y19.508
N13155 X41.161 Y18.594
N13160 X41.194 Y17.679
N13165 X41.215 Y16.764
N13170 X41.228 Y15.849
N13175 X41.236 Y14.933
N13180 X41.241 Y14.018
N13185 X41.245 Y13.102
N13190 X41.248 Y11.272
N13195 X41.25 Y7.61
N13200 X41.249 Y5.779
N13205 X41.211 Y4.864
N13210 X41.002 Y3.973
N13215 X40.581 Y3.16
N13220 X39.984 Y2.467
N13225 X39.258 Y1.909
N13230 X38.448 Y1.482
N13235 X37.588 Y1.168
N13240 X36.7 Y0.946
N13245 X35.798 Y0.793
N13250 X34.888 Y0.69
N13255 X33.975 Y0.622
N13260 X33.061 Y0.578
N13265 X32.146 Y0.549
N13270 X31.23 Y0.531
N13275 X30.315 Y0.52
N13280 X29.4 Y0.512
N13285 X28.484 Y0.508
N13290 X27.569 Y0.505
N13295 X25.738 Y0.502
N13300 X21.161 Y0.5
N13305 X16.584
N13310 X5.599 Y0.501
N13315 X4.683 Y0.51
N13320 X3.773 Y0.608
N13325 X2.907 Y0.903
N13330 X2.136 Y1.397
N13335 X1.493 Y2.048
N13340 X0.986 Y2.81
N13345 X0.604 Y3.643
N13350 X0.328 Y4.515
N13355 X0.134 Y5.41
N13360 X0.002 Y6.316
N13365 X-0.087 Y7.227
N13370 X-0.145 Y8.141
N13375 X-0.183 Y9.055
N13380 X-0.207 Y9.97
N13385 X-0.223 Y10.886
N13390 X-0.233 Y11.801
N13395 X-0.239 Y12.716
N13400 X-0.243 Y13.632
N13405 X-0.247 Y15.463
N13410 X-0.25 Y19.124
N13415 X-0.248 Y20.04
N13420 X-0.217 Y20.955
N13425 X-0.032 Y21.851
N13430 X0.357 Y22.68
N13435 X0.926 Y23.397
N13440 X1.63 Y23.981
N13445 X2.427 Y24.433
N13450 X3.279 Y24.768
N13455 X4.162 Y25.007
N13460 X5.063 Y25.173
N13465 X5.971 Y25.285
N13470 X6.883 Y25.36
N13475 X7.797 Y25.41
N13480 X8.712 Y25.442
N13485 X9.627 Y25.463
N13490 X10.543 Y25.477
N13495 X11.458 Y25.485
N13500 X12.374 Y25.491
N13505 X13.289 Y25.494
N13510 X15.12 Y25.498
N13515 X18.782 Y25.5
N13520 X34.344
N13525 X35.259 Y25.495
N13530 X36.17 Y25.4
N13535 X37.037 Y25.109
N13540 X37.812 Y24.621
N13545 X38.461 Y23.975
N13550 X38.975 Y23.217
N13555 X39.364 Y22.389
N13560 X39.648 Y21.519
N13565 X39.848 Y20.625
N13570 X39.986 Y19.72
N13575 X40.078 Y18.81
N13580 X40.139 Y17.896
N13585 X40.179 Y16.982
N13590 X40.205 Y16.067
N13595 X40.221 Y15.151
N13600 X40.232 Y14.236
N13605 X40.239 Y13.321
N13610 X40.243 Y12.405
N13615 X40.247 Y10.574
N13620 X40.249 Y7.828
N13625 Y6.913
N13630 X40.212 Y5.998
N13635 X40.016 Y5.104
N13640 X39.616 Y4.281
N13645 X39.036 Y3.572
N13650 X38.324 Y2.997
N13655 X37.523 Y2.553
N13660 X36.669 Y2.223
N13665 X35.785 Y1.987
N13670 X34.884 Y1.823
N13675 X33.976 Y1.712
N13680 X33.063 Y1.637
N13685 X32.149 Y1.588
N13690 X31.234 Y1.557
N13695 X30.319 Y1.536
N13700 X29.404 Y1.523
N13705 X28.488 Y1.514
N13710 X27.573 Y1.509
N13715 X26.657 Y1.506
N13720 X24.827 Y1.502
N13725 X21.165 Y1.5
N13730 X7.434
N13735 X6.518 Y1.501
N13740 X5.603 Y1.519
N13745 X4.696 Y1.645
N13750 X3.84 Y1.97
N13755 X3.085 Y2.487
N13760 X2.457 Y3.153
N13765 X1.963 Y3.924
N13770 X1.591 Y4.76
N13775 X1.322 Y5.635
N13780 X1.132 Y6.531
N13785 X1.002 Y7.437
N13790 X0.915 Y8.348
N13795 X0.857 Y9.262
N13800 X0.819 Y10.176
N13805 X0.794 Y11.092
N13810 X0.778 Y12.007
N13815 X0.768 Y12.922
N13820 X0.761 Y13.838
N13825 X0.757 Y14.753
N13830 X0.753 Y16.584
N13835 X0.751 Y18.415
N13840 X0.758 Y19.33
N13845 X0.835 Y20.242
N13850 X1.094 Y21.12
N13855 X1.551 Y21.914
N13860 X2.171 Y22.587
N13865 X2.91 Y23.127
N13870 X3.728 Y23.539
N13875 X4.592 Y23.841
N13880 X5.482 Y24.056
N13885 X6.385 Y24.205
N13890 X7.295 Y24.306
N13895 X8.208 Y24.373
N13900 X9.122 Y24.418
N13905 X10.037 Y24.447
N13910 X10.952 Y24.466
N13915 X11.868 Y24.478
N13920 X12.783 Y24.486
N13925 X13.698 Y24.491
N13930 X14.614 Y24.494
N13935 X16.445 Y24.498
N13940 X20.106 Y24.5
N13945 X32.922
N13950 X33.838 Y24.498
N13955 X34.752 Y24.453
N13960 X35.644 Y24.245
N13965 X36.464 Y23.839
N13970 X37.17 Y23.257
N13975 X37.745 Y22.544
N13980 X38.189 Y21.744
N13985 X38.519 Y20.89
N13990 X38.756 Y20.006
N13995 X38.922 Y19.105
N14000 X39.034 Y18.197
N14005 X39.109 Y17.285
N14010 X39.159 Y16.371
N14015 X39.191 Y15.456
N14020 X39.212 Y14.541
N14025 X39.226 Y13.625
N14030 X39.235 Y12.71
N14035 X39.24 Y11.794
N14040 X39.244 Y10.879
N14045 X39.248 Y9.048
N14050 Y8.133
N14055 X39.222 Y7.218
N14060 X39.061 Y6.317
N14065 X38.702 Y5.474
N14070 X38.157 Y4.739
N14075 X37.47 Y4.134
N14080 X36.687 Y3.66
N14085 X35.843 Y3.305
N14090 X34.965 Y3.047
N14095 X34.067 Y2.866
N14100 X33.16 Y2.742
N14105 X32.249 Y2.658
N14110 X31.335 Y2.602
N14115 X30.42 Y2.566
N14120 X29.505 Y2.542
N14125 X28.59 Y2.527
N14130 X27.675 Y2.517
N14135 X26.759 Y2.511
N14140 X25.844 Y2.507
N14145 X24.013 Y2.503
N14150 X21.267 Y2.501
N14155 X8.451 Y2.5
N14160 X7.535 Y2.501
N14165 X6.62 Y2.523
N14170 X5.715 Y2.657
N14175 X4.86 Y2.986
N14180 X4.106 Y3.505
N14185 X3.479 Y4.172
N14190 X2.984 Y4.942
N14195 X2.61 Y5.777
N14200 X2.338 Y6.651
N14205 X2.145 Y7.546
N14210 X2.012 Y8.452
N14215 X1.922 Y9.363
N14220 X1.862 Y10.276
N14225 X1.823 Y11.191
N14230 X1.797 Y12.106
N14235 X1.78 Y13.021
N14240 X1.769 Y13.937
N14245 X1.762 Y14.852
N14250 X1.758 Y15.767
N14255 X1.755 Y16.683
N14260 X1.754 Y17.598
N14265 X1.77 Y18.514
N14270 X1.885 Y19.422
N14275 X2.192 Y20.284
N14280 X2.689 Y21.053
N14285 X3.34 Y21.697
N14290 X4.099 Y22.208
N14295 X4.928 Y22.596
N14300 X5.799 Y22.88
N14305 X6.692 Y23.082
N14310 X7.596 Y23.221
N14315 X8.507 Y23.316
N14320 X9.42 Y23.379
N14325 X10.335 Y23.421
N14330 X10.877 Y23.438
N14335 X11.048 Y23.451
N14340 X11.216 Y23.48
N14345 X11.382 Y23.525
N14350 X12.52 Y23.89
N14355 X12.728 Y23.949
N14360 X12.867 Y23.982
N14365 X13.143 Y24.03
N14370 X13.351 Y24.05
N14375 X13.974 Y24.103
N14380 X14.39 Y24.136
N14385 X14.598 Y24.153
N14390 X15.114 Y24.19
N14395 X15.221
N14400 X15.637 Y24.161
N14405 X15.844 Y24.142
N14410 X17.091 Y23.957
N14415 X17.299 Y23.92
N14420 X17.714 Y23.843
N14425 X17.965 Y23.797
N14430 X18.562 Y23.712
N14435 X19.467 Y23.621
N14440 X20.381 Y23.57
N14445 X21.295 Y23.541
N14450 X22.211 Y23.524
N14455 X23.126 Y23.514
N14460 X24.042 Y23.508
N14465 X24.957 Y23.505
N14470 X26.788 Y23.502
N14475 X32.28 Y23.5
N14480 X33.196 Y23.488
N14485 X34.105 Y23.383
N14490 X34.972 Y23.09
N14495 X35.749 Y22.606
N14500 X36.404 Y21.966
N14505 X36.926 Y21.214
N14510 X37.323 Y20.389
N14515 X37.615 Y19.521
N14520 X37.821 Y18.63
N14525 X37.965 Y17.726
N14530 X38.062 Y16.815
N14535 X38.127 Y15.902
N14540 X38.17 Y14.988
N14545 X38.198 Y14.073
N14550 X38.217 Y13.158
N14555 X38.229 Y12.242
N14560 X38.236 Y11.327
N14565 X38.241 Y10.411
N14570 X38.244 Y9.496
N14575 X38.238 Y8.581
N14580 X38.139 Y7.671
N14585 X37.85 Y6.802
N14590 X37.371 Y6.022
N14595 X36.732 Y5.366
N14600 X35.982 Y4.841
N14605 X35.159 Y4.441
N14610 X34.292 Y4.146
N14615 X33.401 Y3.936
N14620 X32.497 Y3.791
N14625 X31.587 Y3.691
N14630 X30.674 Y3.625
N14635 X29.76 Y3.581
N14640 X28.845 Y3.553
N14645 X27.93 Y3.534
N14650 X27.014 Y3.522
N14655 X26.099 Y3.514
N14660 X25.184 Y3.509
N14665 X24.268 Y3.506
N14670 X23.353 Y3.504
N14675 X20.606 Y3.501
N14680 X19.262 Y3.5
N14685 X19.102 Y3.493
N14690 X18.943 Y3.473
N14695 X18.787 Y3.438
N14700 X17.922 Y3.206
N14705 X17.714 Y3.157
N14710 X17.299 Y3.08
N14715 X17.091 Y3.043
N14720 X15.844 Y2.858
N14725 X15.637 Y2.839
N14730 X15.221 Y2.81
N14735 X15.114
N14740 X14.598 Y2.847
N14745 X14.182 Y2.881
N14750 X13.559 Y2.932
N14755 X13.351 Y2.95
N14760 X13.143 Y2.97
N14765 X12.867 Y3.018
N14770 X12.728 Y3.051
N14775 X12.468 Y3.111
N14780 X12.05 Y3.192
N14785 X11.477 Y3.278
N14790 X10.621 Y3.367
N14795 X9.707 Y3.423
N14800 X8.793 Y3.456
N14805 X7.878 Y3.485
N14810 X6.968 Y3.589
N14815 X6.098 Y3.873
N14820 X5.315 Y4.347
N14825 X4.653 Y4.98
N14830 X4.123 Y5.726
N14835 X3.716 Y6.546
N14840 X3.416 Y7.411
N14845 X3.201 Y8.301
N14850 X3.052 Y9.204
N14855 X2.949 Y10.114
N14860 X2.881 Y11.026
N14865 X2.835 Y11.941
N14870 X2.805 Y12.856
N14875 X2.786 Y13.771
N14880 X2.773 Y14.686
N14885 X2.765 Y15.602
N14890 X2.76 Y16.517
N14895 X2.773 Y17.432
N14900 X2.88 Y18.342
N14905 X3.171 Y19.209
N14910 X3.658 Y19.985
N14915 X4.3 Y20.637
N14920 X5.053 Y21.158
N14925 X5.877 Y21.557
N14930 X6.744 Y21.85
N14935 X7.635 Y22.059
N14940 X8.539 Y22.205
N14945 X8.78 Y22.26
N14950 X9.012 Y22.345
N14955 X9.231 Y22.459
N14960 X9.611 Y22.687
N14965 X9.819 Y22.812
N14970 X10.047 Y22.944
N14975 X10.442 Y23.165
N14980 X10.65 Y23.274
N14985 X10.858 Y23.351
N14990 X11.273 Y23.49
N14995 X11.382 Y23.525
N15000 X11.39 Y23.528 Z35.002
N15005 G2 X12.234 Y23.924 Z35.2 I3.486 J-6.342
N15010 X13.15 Y24.214 I2.641 J-6.737
N15015 G1 X13.206 Y24.225
N15020 X13.263 Y24.231
N15025 X15.773 Y24.357
N15030 X15.83
N15035 X15.887 Y24.352
N15040 G2 X16.826 Y24.155 I-1.012 J-7.166
N15045 X17.707 Y23.846 Z35.002 I-1.951 J-6.969
N15050 G1 X17.714 Y23.843 Z35.
N15055 X17.922 Y23.794
N15060 X20.831 Y23.014
N15065 X21.279 Y22.917
N15070 X21.694 Y22.833
N15075 X22.258 Y22.745
N15080 X23.076 Y22.653
N15085 X23.99 Y22.59
N15090 X24.904 Y22.554
N15095 X25.82 Y22.532
N15100 X26.735 Y22.519
N15105 X27.65 Y22.512
N15110 X28.566 Y22.507
N15115 X29.481 Y22.504
N15120 X31.312 Y22.5
N15125 X32.227 Y22.482
N15130 X33.135 Y22.365
N15135 X33.999 Y22.062
N15140 X34.769 Y21.567
N15145 X35.416 Y20.92
N15150 X35.932 Y20.163
N15155 X36.325 Y19.337
N15160 X36.613 Y18.468
N15165 X36.819 Y17.576
N15170 X36.962 Y16.672
N15175 X37.059 Y15.761
N15180 X37.125 Y14.848
N15185 X37.168 Y13.934
N15190 X37.197 Y13.019
N15195 X37.216 Y12.104
N15200 X37.228 Y11.188
N15205 X37.234 Y10.273
N15210 X37.215 Y9.358
N15215 X37.071 Y8.454
N15220 X36.729 Y7.604
N15225 X36.203 Y6.855
N15230 X35.533 Y6.232
N15235 X34.761 Y5.739
N15240 X33.925 Y5.366
N15245 X33.051 Y5.094
N15250 X32.156 Y4.901
N15255 X31.251 Y4.768
N15260 X30.34 Y4.677
N15265 X29.426 Y4.616
N15270 X28.512 Y4.576
N15275 X27.597 Y4.549
N15280 X26.681 Y4.532
N15285 X25.766 Y4.521
N15290 X24.851 Y4.513
N15295 X23.935 Y4.509
N15300 X23.002 Y4.505
N15305 X22.843 Y4.498
N15310 X22.686 Y4.477
N15315 X22.531 Y4.443
N15320 X18.787 Y3.438
N15325 X18.779 Y3.435 Z35.002
N15330 G2 X17.918 Y3.075 Z35.2 I-3.491 J7.149
N15335 X17.485 Y2.937 I-2.63 J7.508
N15340 G1 X17.421 Y2.923
N15345 X17.357 Y2.915
N15350 X14.205 Y2.715
N15355 X14.14 Y2.714
N15360 X14.075 Y2.721
N15365 G2 X13.635 Y2.801 I1.213 J7.862
N15370 X12.728 Y3.051 Z35. I1.653 J7.782
N15375 G1 X12.52 Y3.11
N15380 X11.273 Y3.51
N15385 X10.858 Y3.649
N15390 X10.65 Y3.726
N15395 X10.615 Y3.744
N15400 X10.479 Y3.807
N15405 X10.271 Y3.882
N15410 X10.013 Y3.963
N15415 X9.592 Y4.075
N15420 X8.698 Y4.272
N15425 X7.807 Y4.482
N15430 X6.963 Y4.836
N15435 X6.211 Y5.358
N15440 X5.579 Y6.02
N15445 X5.072 Y6.782
N15450 X4.684 Y7.611
N15455 X4.396 Y8.48
N15460 X4.19 Y9.372
N15465 X4.046 Y10.276
N15470 X3.947 Y11.186
N15475 X3.88 Y12.099
N15480 X3.835 Y13.014
N15485 X3.806 Y13.929
N15490 X3.786 Y14.844
N15495 X3.777 Y15.759
N15500 X3.799 Y16.674
N15505 X3.952 Y17.577
N15510 X4.304 Y18.422
N15515 X4.838 Y19.166
N15520 X5.513 Y19.783
N15525 X6.288 Y20.27
N15530 X6.705 Y20.454
N15535 X6.898 Y20.552
N15540 X7.078 Y20.673
N15545 X7.243 Y20.814
N15550 X7.949 Y21.498
N15555 X8.171 Y21.699
N15560 X8.402 Y21.906
N15565 X8.572 Y22.052
N15570 X8.669 Y22.114
N15575 X9.231 Y22.459
N15580 X9.244 Y22.471 Z35.004
N15585 X9.253 Y22.486 Z35.007
N15590 G2 X9.634 Y23.308 Z35.2 I5.894 J-2.237
N15595 X13.072 Y26.201 I5.512 J-3.059
N15600 G1 X13.155 Y26.224
N15605 X13.24 Y26.234
N15610 X16.468 Y26.39
N15615 X16.554 Y26.388
N15620 X16.639 Y26.373
N15625 G2 X20.344 Y23.815 I-1.492 J-6.125
N15630 X20.797 Y23.042 Z35.01 I-5.198 J-3.566
N15635 G1 X20.811 Y23.024 Z35.005
N15640 X20.831 Y23.014 Z35.
N15645 X24.571 Y22.01
N15650 X25.009 Y21.915
N15655 X25.438 Y21.83
N15660 X26.021 Y21.741
N15665 X26.874 Y21.647
N15670 X27.787 Y21.588
N15675 X28.702 Y21.553
N15680 X29.617 Y21.531
N15685 X30.532 Y21.514
N15690 X31.447 Y21.475
N15695 X32.347 Y21.311
N15700 X33.19 Y20.952
N15705 X33.93 Y20.413
N15710 X34.544 Y19.734
N15715 X35.029 Y18.958
N15720 X35.395 Y18.119
N15725 X35.662 Y17.243
N15730 X35.852 Y16.348
N15735 X35.983 Y15.442
N15740 X36.073 Y14.531
N15745 X36.133 Y13.617
N15750 X36.174 Y12.703
N15755 X36.2 Y11.788
N15760 X36.21 Y10.872
N15765 X36.152 Y9.959
N15770 X35.921 Y9.073
N15775 X35.494 Y8.263
N15780 X34.9 Y7.567
N15785 X34.18 Y7.001
N15790 X33.376 Y6.564
N15795 X32.52 Y6.238
N15800 X31.635 Y6.004
N15805 X30.735 Y5.839
N15810 X29.826 Y5.726
N15815 X28.914 Y5.65
N15820 X28. Y5.598
N15825 X27.085 Y5.564
N15830 X26.89 Y5.56
N15835 X26.745 Y5.55
N15840 X26.601 Y5.529
N15845 X26.46 Y5.497
N15850 X22.531 Y4.443
N15855 X22.508 Y4.429 Z35.006
N15860 X22.494 Y4.407 Z35.011
N15865 G2 X22.148 Y3.589 Z35.2 I-6.069 J2.087
N15870 X19.733 Y0.994 I-5.723 J2.905
N15875 X19.458 Y0.91 I-0.309 J0.514
N15880 G1 X14.058 Y0.596
N15885 G2 X13.775 Y0.649 I-0.035 J0.599
N15890 X11.087 Y2.932 I2.65 J5.845
N15895 X10.638 Y3.72 Z35.007 I5.338 J3.563
N15900 G1 X10.628 Y3.734 Z35.004
N15905 X10.615 Y3.744 Z35.
N15910 X10.442 Y3.835
N15915 X10.026 Y4.067
N15920 X9.819 Y4.188
N15925 X9.347 Y4.471
N15930 X9.195 Y4.563
N15935 X8.669 Y4.886
N15940 X8.572 Y4.948
N15945 X8.544 Y4.972
N15950 X7.818 Y5.531
N15955 X7.125 Y6.129
N15960 X6.535 Y6.828
N15965 X6.056 Y7.609
N15970 X5.96 Y7.825
N15975 X5.92 Y7.91
N15980 X5.875 Y7.993
N15985 X5.826 Y8.074
N15990 G3 X5.334 Y8.331 Z35.123 I-0.493 J-0.343
N15995 G1 X5.333
N16000 G3 X4.991 Y8.224 Z35.2 I0. J-0.6
N16005 X4.882 Y7.336 I0.342 J-0.493
N16010 G1 X7.687 Y4.134
N16015 G3 X8.581 Y4.125 I0.451 J0.395
N16020 X8.544 Y4.972 Z35. I-0.443 J0.405
N16025 G1 X8.402 Y5.094
N16030 X8.156 Y5.314
N16035 X7.942 Y5.509
N16040 X7.117 Y6.307
N16045 X7.087 Y6.339
N16050 X6.702 Y6.756
N16055 X6.545 Y6.962
N16060 X6.008 Y7.792
N16065 X5.74 Y8.207
N16070 X5.663 Y8.333
N16075 X5.382 Y8.83
N16080 X5.292 Y9.037
N16085 X5.138 Y9.452
N16090 X5.04 Y9.722
N16095 X4.69 Y10.698
N16100 X4.625 Y10.905
N16105 X4.545 Y11.321
N16110 X4.506 Y11.528
N16115 X4.362 Y12.774
N16120 X4.343 Y12.981
N16125 X4.31 Y13.396
N16130 Y13.604
N16135 X4.343 Y14.019
N16140 X4.362 Y14.226
N16145 X4.506 Y15.472
N16150 X4.585 Y15.887
N16155 X4.625 Y16.095
N16160 X4.69 Y16.302
N16165 X5.062 Y17.34
N16170 X5.138 Y17.548
N16175 X5.292 Y17.963
N16180 X5.382 Y18.17
N16185 X5.663 Y18.667
N16190 X5.74 Y18.793
N16195 X6.286 Y19.639
N16200 X6.545 Y20.038
N16205 X6.704 Y20.246
N16210 X7.087 Y20.661
N16215 X7.117 Y20.693
N16220 X7.243 Y20.814
N16225 X7.256 Y20.837 Z35.006
N16230 G2 X7.566 Y21.698 Z35.2 I8.87 J-2.703
N16235 X11.068 Y25.906 I8.561 J-3.564
N16240 X11.354 Y26.002 I0.327 J-0.503
N16245 G1 X19.763 Y26.587
N16250 G2 X20.059 Y26.532 I0.042 J-0.599
N16255 X24.121 Y22.832 I-3.933 J-8.398
N16260 X24.537 Y22.039 Z35.01 I-7.995 J-4.698
N16265 G1 X24.551 Y22.021 Z35.005
N16270 X24.571 Y22.01 Z35.
N16275 X28.311 Y21.006
N16280 X28.759 Y20.909
N16285 X29.657 Y20.73
N16290 X30.561 Y20.59
N16295 X31.447 Y20.361
N16300 X32.271 Y19.962
N16305 X32.991 Y19.396
N16310 X33.586 Y18.701
N16315 X33.668 Y18.564
N16320 X33.731 Y18.465
N16325 X33.801 Y18.371
N16330 X33.876 Y18.281
N16335 G3 X34.724 Y18.264 Z35.2 I0.433 J0.416
N16340 X34.575 Y19.234 I-0.415 J0.433
N16345 G1 X28.753 Y22.117
N16350 G3 X27.913 Y21.754 I-0.266 J-0.538
N16355 X28.311 Y21.006 Z35. I0.574 J-0.175
N16360 G1 X30.181 Y20.504
N16365 X30.805 Y20.298
N16370 X30.933 Y20.246
N16375 X31.636 Y19.942
N16380 X31.844 Y19.851
N16385 X32.051 Y19.751
N16390 X32.259 Y19.634
N16395 X32.467 Y19.5
N16400 X32.675 Y19.337
N16405 X32.833 Y19.208
N16410 X33.574 Y18.585
N16415 X33.79 Y18.378
N16420 X33.922 Y18.231
N16425 X33.973 Y18.17
N16430 X34.13 Y17.963
N16435 X34.678 Y17.132
N16440 X34.96 Y16.672
N16445 X35.035 Y16.51
N16450 X35.122 Y16.302
N16455 X35.194 Y16.095
N16460 X35.381 Y15.472
N16465 X35.441 Y15.264
N16470 X35.584 Y14.758
N16475 X35.604 Y14.642
N16480 X35.636 Y14.434
N16485 X35.652 Y14.226
N16490 X35.657 Y14.019
N16495 X35.658 Y13.396
N16500 X35.657 Y12.981
N16505 X35.652 Y12.774
N16510 X35.636 Y12.566
N16515 X35.604 Y12.358
N16520 X35.584 Y12.242
N16525 X35.576 Y12.215
N16530 X35.372 Y11.322
N16535 X35.156 Y10.433
N16540 X34.779 Y9.598
N16545 X34.238 Y8.86
N16550 X33.562 Y8.243
N16555 X32.872 Y7.806
N16560 X32.811 Y7.766
N16565 X32.751 Y7.723
N16570 X32.694 Y7.678
N16575 G3 X32.637 Y6.832 Z35.2 I0.395 J-0.452
N16580 X33.595 Y6.904 I0.452 J0.395
N16585 G1 X36.654 Y11.71
N16590 G3 X36.33 Y12.603 I-0.506 J0.322
N16595 X35.576 Y12.215 Z35. I-0.182 J-0.572
N16600 G1 X35.441 Y11.736
N16605 X35.376 Y11.51
N16610 X35.194 Y10.905
N16615 X35.122 Y10.698
N16620 X35.035 Y10.49
N16625 X34.96 Y10.328
N16630 X34.678 Y9.868
N16635 X34.129 Y9.036
N16640 X33.973 Y8.83
N16645 X33.922 Y8.769
N16650 X33.79 Y8.622
N16655 X33.574 Y8.415
N16660 X32.833 Y7.792
N16665 X32.675 Y7.663
N16670 X32.467 Y7.5
N16675 X32.259 Y7.366
N16680 X32.051 Y7.249
N16685 X31.844 Y7.149
N16690 X31.636 Y7.058
N16695 X30.933 Y6.754
N16700 X30.805 Y6.702
N16705 X30.181 Y6.496
N16710 X26.46 Y5.497
N16715 X26.373 Y5.464
N16720 X26.294 Y5.417
N16725 X26.241 Y5.364 Z35.005
N16730 X26.19 Y5.313 Z35.018
N16735 X26.14 Y5.263 Z35.041
N16740 X26.108 Y5.191 Z35.079
N16745 X26.079 Y5.124 Z35.129
N16750 X26.052 Y5.065 Z35.188
N16755 X26.045 Y5.004 Z35.265
N16760 X26.039 Y4.957 Z35.35
N16765 X26.035 Y4.924 Z35.442
N16770 X26.036 Y4.908 Z35.52
N16775 Y4.902 Z35.6
N16780 G0 Z55.
N16785 X-3.72 Y-7.783
N16790 Z34.6
N16795 G1 Z34. F1560.
N16800 Z32.
N16805 G3 X-3.25 Y-4.517 I-14.839 J3.801
N16810 G1 Y-4.402
N16815 X-3.86 Y-3.72
N16820 X-4.319 Y-2.928
N16825 X-4.646 Y-2.073
N16830 X-4.869 Y-1.185
N16835 X-5.014 Y-0.281
N16840 X-5.107 Y0.63
N16845 X-5.164 Y1.543
N16850 X-5.198 Y2.458
N16855 X-5.219 Y3.373
N16860 X-5.232 Y4.289
N16865 X-5.239 Y5.204
N16870 X-5.244 Y6.12
N16875 X-5.246 Y7.035
N16880 X-5.249 Y8.866
N16885 X-5.25 Y15.274
N16890 Y26.717
N16895 X-5.064 Y27.613
N16900 X-4.593 Y28.398
N16905 X-3.932 Y29.031
N16910 X-3.152 Y29.511
N16915 X-2.304 Y29.855
N16920 X-1.42 Y30.092
N16925 X-0.517 Y30.247
N16930 X0.393 Y30.346
N16935 X1.306 Y30.407
N16940 X2.221 Y30.444
N16945 X3.136 Y30.467
N16950 X4.051 Y30.48
N16955 X4.966 Y30.488
N16960 X5.882 Y30.493
N16965 X6.797 Y30.496
N16970 X8.628 Y30.499
N16975 X11.374 Y30.5
N16980 X41.583
N16985 X42.47 Y30.272
N16990 X43.237 Y29.772
N16995 X43.85 Y29.092
N17000 X44.311 Y28.301
N17005 X44.641 Y27.447
N17010 X44.865 Y26.56
N17015 X45.012 Y25.656
N17020 X45.105 Y24.746
N17025 X45.163 Y23.832
N17030 X45.198 Y22.917
N17035 X45.219 Y22.002
N17040 X45.232 Y21.087
N17045 X45.239 Y20.171
N17050 X45.244 Y19.256
N17055 X45.246 Y18.34
N17060 X45.249 Y16.51
N17065 X45.25 Y11.932
N17070 Y0.032
N17075 X44.994 Y-0.847
N17080 X44.461 Y-1.591
N17085 X43.76 Y-2.18
N17090 X42.957 Y-2.62
N17095 X42.096 Y-2.931
N17100 X41.205 Y-3.142
N17105 X40.3 Y-3.279
N17110 X39.389 Y-3.366
N17115 X38.475 Y-3.419
N17120 X37.56 Y-3.452
N17125 X36.645 Y-3.471
N17130 X35.73 Y-3.483
N17135 X34.814 Y-3.49
N17140 X33.899 Y-3.494
N17145 X32.068 Y-3.498
N17150 X28.406 Y-3.5
N17155 X8.267
N17160 X0.028
N17165 X-0.871 Y-3.328
N17170 X-1.736 Y-3.03
N17175 X-2.466 Y-2.478
N17180 X-3.034 Y-1.76
N17185 X-3.448 Y-0.943
N17190 X-3.736 Y-0.074
N17195 X-3.927 Y0.821
N17200 X-4.05 Y1.728
N17205 X-4.128 Y2.64
N17210 X-4.176 Y3.554
N17215 X-4.206 Y4.469
N17220 X-4.223 Y5.385
N17225 X-4.234 Y6.3
N17230 X-4.24 Y7.215
N17235 X-4.244 Y8.131
N17240 X-4.248 Y9.962
N17245 X-4.25 Y13.623
N17250 Y24.608
N17255 X-4.238 Y25.524
N17260 X-4.016 Y26.412
N17265 X-3.559 Y27.205
N17270 X-2.92 Y27.861
N17275 X-2.159 Y28.37
N17280 X-1.324 Y28.744
N17285 X-0.447 Y29.007
N17290 X0.451 Y29.186
N17295 X1.359 Y29.303
N17300 X2.271 Y29.378
N17305 X3.185 Y29.425
N17310 X4.1 Y29.454
N17315 X5.015 Y29.472
N17320 X5.931 Y29.483
N17325 X6.846 Y29.49
N17330 X7.761 Y29.494
N17335 X9.592 Y29.498
N17340 X13.254 Y29.5
N17345 X39.801
N17350 X40.712 Y29.409
N17355 X41.563 Y29.07
N17360 X42.294 Y28.52
N17365 X42.88 Y27.816
N17370 X43.321 Y27.014
N17375 X43.638 Y26.155
N17380 X43.855 Y25.266
N17385 X44. Y24.362
N17390 X44.094 Y23.451
N17395 X44.154 Y22.538
N17400 X44.191 Y21.623
N17405 X44.214 Y20.708
N17410 X44.228 Y19.793
N17415 X44.237 Y18.877
N17420 X44.242 Y17.962
N17425 X44.245 Y17.047
N17430 X44.247 Y16.131
N17435 X44.249 Y13.385
N17440 X44.25 Y1.484
N17445 X44.038 Y0.594
N17450 X43.585 Y-0.201
N17455 X42.948 Y-0.859
N17460 X42.188 Y-1.369
N17465 X41.353 Y-1.744
N17470 X40.476 Y-2.008
N17475 X39.578 Y-2.187
N17480 X38.67 Y-2.304
N17485 X37.758 Y-2.379
N17490 X36.844 Y-2.426
N17495 X35.929 Y-2.455
N17500 X35.013 Y-2.473
N17505 X34.098 Y-2.483
N17510 X33.183 Y-2.49
N17515 X32.267 Y-2.494
N17520 X30.436 Y-2.498
N17525 X26.775 Y-2.5
N17530 X10.297
N17535 X2.058
N17540 X1.143 Y-2.484
N17545 X0.236 Y-2.36
N17550 X-0.607 Y-2.004
N17555 X-1.329 Y-1.441
N17560 X-1.905 Y-0.729
N17565 X-2.338 Y0.077
N17570 X-2.648 Y0.938
N17575 X-2.862 Y1.829
N17580 X-3.004 Y2.733
N17585 X-3.096 Y3.644
N17590 X-3.155 Y4.557
N17595 X-3.191 Y5.472
N17600 X-3.214 Y6.387
N17605 X-3.228 Y7.302
N17610 X-3.237 Y8.218
N17615 X-3.242 Y9.133
N17620 X-3.245 Y10.049
N17625 X-3.248 Y11.879
N17630 X-3.25 Y16.456
N17635 Y22.864
N17640 X-3.248 Y23.78
N17645 X-3.167 Y24.692
N17650 X-2.863 Y25.555
N17655 X-2.351 Y26.314
N17660 X-1.679 Y26.936
N17665 X-0.9 Y27.416
N17670 X-0.055 Y27.769
N17675 X0.826 Y28.018
N17680 X1.725 Y28.188
N17685 X2.634 Y28.301
N17690 X3.546 Y28.375
N17695 X4.461 Y28.422
N17700 X5.376 Y28.451
N17705 X6.291 Y28.47
N17710 X7.206 Y28.482
N17715 X8.121 Y28.489
N17720 X9.037 Y28.493
N17725 X9.952 Y28.496
N17730 X11.783 Y28.498
N17735 X17.276 Y28.5
N17740 X38.33
N17745 X39.245 Y28.454
N17750 X40.125 Y28.202
N17755 X40.911 Y27.732
N17760 X41.563 Y27.09
N17765 X42.073 Y26.33
N17770 X42.452 Y25.496
N17775 X42.722 Y24.622
N17780 X42.908 Y23.725
N17785 X43.032 Y22.818
N17790 X43.112 Y21.906
N17795 X43.164 Y20.992
N17800 X43.197 Y20.078
N17805 X43.217 Y19.162
N17810 X43.23 Y18.247
N17815 X43.238 Y17.332
N17820 X43.242 Y16.416
N17825 X43.245 Y15.501
N17830 X43.248 Y13.67
N17835 X43.249 Y11.839
N17840 X43.25 Y3.6
N17845 X43.234 Y2.685
N17850 X43.031 Y1.792
N17855 X42.601 Y0.984
N17860 X41.988 Y0.305
N17865 X41.247 Y-0.233
N17870 X40.425 Y-0.636
N17875 X39.556 Y-0.926
N17880 X38.663 Y-1.126
N17885 X37.758 Y-1.261
N17890 X36.847 Y-1.349
N17895 X35.933 Y-1.406
N17900 X35.018 Y-1.441
N17905 X34.103 Y-1.464
N17910 X33.188 Y-1.478
N17915 X32.272 Y-1.486
N17920 X31.357 Y-1.492
N17925 X30.442 Y-1.495
N17930 X28.611 Y-1.498
N17935 X24.034 Y-1.5
N17940 X3.894
N17945 X2.979 Y-1.499
N17950 X2.064 Y-1.473
N17955 X1.167 Y-1.292
N17960 X0.346 Y-0.886
N17965 X-0.353 Y-0.295
N17970 X-0.91 Y0.431
N17975 X-1.332 Y1.244
N17980 X-1.636 Y2.107
N17985 X-1.848 Y2.998
N17990 X-1.991 Y3.902
N17995 X-2.085 Y4.813
N18000 X-2.146 Y5.726
N18005 X-2.185 Y6.641
N18010 X-2.21 Y7.556
N18015 X-2.225 Y8.471
N18020 X-2.235 Y9.386
N18025 X-2.241 Y10.302
N18030 X-2.244 Y11.217
N18035 X-2.248 Y13.048
N18040 X-2.25 Y16.71
N18045 Y22.202
N18050 X-2.227 Y23.118
N18055 X-2.038 Y24.013
N18060 X-1.635 Y24.835
N18065 X-1.05 Y25.539
N18070 X-0.329 Y26.103
N18075 X0.479 Y26.534
N18080 X1.339 Y26.848
N18085 X2.227 Y27.069
N18090 X3.13 Y27.219
N18095 X4.04 Y27.319
N18100 X4.953 Y27.385
N18105 X5.868 Y27.427
N18110 X6.783 Y27.454
N18115 X7.698 Y27.471
N18120 X8.613 Y27.482
N18125 X9.529 Y27.489
N18130 X10.444 Y27.493
N18135 X12.275 Y27.497
N18140 X15.021 Y27.499
N18145 X17.767 Y27.5
N18150 X36.991
N18155 X37.906 Y27.472
N18160 X38.8 Y27.275
N18165 X39.618 Y26.864
N18170 X40.315 Y26.27
N18175 X40.873 Y25.544
N18180 X41.298 Y24.734
N18185 X41.608 Y23.872
N18190 X41.826 Y22.983
N18195 X41.975 Y22.08
N18200 X42.073 Y21.17
N18205 X42.138 Y20.257
N18210 X42.179 Y19.342
N18215 X42.206 Y18.427
N18220 X42.222 Y17.512
N18225 X42.233 Y16.596
N18230 X42.239 Y15.681
N18235 X42.243 Y14.766
N18240 X42.248 Y12.935
N18245 X42.25 Y9.273
N18250 Y4.696
N18255 X42.219 Y3.781
N18260 X42.012 Y2.889
N18265 X41.586 Y2.079
N18270 X40.981 Y1.393
N18275 X40.248 Y0.844
N18280 X39.432 Y0.428
N18285 X38.568 Y0.125
N18290 X37.678 Y-0.087
N18295 X36.774 Y-0.232
N18300 X35.864 Y-0.328
N18305 X34.95 Y-0.391
N18310 X34.036 Y-0.431
N18315 X33.121 Y-0.457
N18320 X32.205 Y-0.473
N18325 X31.29 Y-0.483
N18330 X30.375 Y-0.49
N18335 X29.459 Y-0.494
N18340 X27.628 Y-0.498
N18345 X23.967 Y-0.5
N18350 X4.743
N18355 X3.827 Y-0.496
N18360 X2.914 Y-0.44
N18365 X2.032 Y-0.195
N18370 X1.237 Y0.26
N18375 X0.568 Y0.885
N18380 X0.037 Y1.63
N18385 X-0.363 Y2.454
N18390 X-0.653 Y3.322
N18395 X-0.855 Y4.215
N18400 X-0.993 Y5.12
N18405 X-1.085 Y6.031
N18410 X-1.145 Y6.944
N18415 X-1.183 Y7.859
N18420 X-1.208 Y8.774
N18425 X-1.224 Y9.689
N18430 X-1.234 Y10.604
N18435 X-1.24 Y11.52
N18440 X-1.244 Y12.435
N18445 X-1.248 Y14.266
N18450 X-1.25 Y17.928
N18455 Y20.674
N18460 X-1.244 Y21.589
N18465 X-1.149 Y22.5
N18470 X-0.852 Y23.366
N18475 X-0.358 Y24.136
N18480 X0.296 Y24.778
N18485 X1.059 Y25.282
N18490 X1.893 Y25.661
N18495 X2.766 Y25.935
N18500 X3.662 Y26.125
N18505 X4.568 Y26.255
N18510 X5.479 Y26.342
N18515 X6.393 Y26.398
N18520 X7.308 Y26.435
N18525 X8.223 Y26.459
N18530 X9.138 Y26.474
N18535 X10.053 Y26.484
N18540 X10.969 Y26.49
N18545 X11.884 Y26.494
N18550 X13.715 Y26.498
N18555 X17.377 Y26.5
N18560 X35.685
N18565 X36.6 Y26.484
N18570 X37.504 Y26.335
N18575 X38.348 Y25.981
N18580 X39.082 Y25.434
N18585 X39.682 Y24.743
N18590 X40.149 Y23.955
N18595 X40.496 Y23.108
N18600 X40.744 Y22.227
N18605 X40.917 Y21.328
N18610 X41.033 Y20.42
N18615 X41.111 Y19.508
N18620 X41.161 Y18.594
N18625 X41.194 Y17.679
N18630 X41.215 Y16.764
N18635 X41.228 Y15.849
N18640 X41.236 Y14.933
N18645 X41.241 Y14.018
N18650 X41.245 Y13.102
N18655 X41.248 Y11.272
N18660 X41.25 Y7.61
N18665 X41.249 Y5.779
N18670 X41.211 Y4.864
N18675 X41.002 Y3.973
N18680 X40.581 Y3.16
N18685 X39.984 Y2.467
N18690 X39.258 Y1.909
N18695 X38.448 Y1.482
N18700 X37.588 Y1.168
N18705 X36.7 Y0.946
N18710 X35.798 Y0.793
N18715 X34.888 Y0.69
N18720 X33.975 Y0.622
N18725 X33.061 Y0.578
N18730 X32.146 Y0.549
N18735 X31.23 Y0.531
N18740 X30.315 Y0.52
N18745 X29.4 Y0.512
N18750 X28.484 Y0.508
N18755 X27.569 Y0.505
N18760 X25.738 Y0.502
N18765 X21.161 Y0.5
N18770 X16.584
N18775 X5.599 Y0.501
N18780 X4.683 Y0.51
N18785 X3.773 Y0.608
N18790 X2.907 Y0.903
N18795 X2.136 Y1.397
N18800 X1.493 Y2.048
N18805 X0.986 Y2.81
N18810 X0.604 Y3.643
N18815 X0.328 Y4.515
N18820 X0.134 Y5.41
N18825 X0.002 Y6.316
N18830 X-0.087 Y7.227
N18835 X-0.145 Y8.141
N18840 X-0.183 Y9.055
N18845 X-0.207 Y9.97
N18850 X-0.223 Y10.886
N18855 X-0.233 Y11.801
N18860 X-0.239 Y12.716
N18865 X-0.243 Y13.632
N18870 X-0.247 Y15.463
N18875 X-0.25 Y19.124
N18880 X-0.248 Y20.04
N18885 X-0.217 Y20.955
N18890 X-0.032 Y21.851
N18895 X0.357 Y22.68
N18900 X0.926 Y23.397
N18905 X1.63 Y23.981
N18910 X2.427 Y24.433
N18915 X3.279 Y24.768
N18920 X4.162 Y25.007
N18925 X5.063 Y25.173
N18930 X5.971 Y25.285
N18935 X6.883 Y25.36
N18940 X7.797 Y25.41
N18945 X8.712 Y25.442
N18950 X9.627 Y25.463
N18955 X10.543 Y25.477
N18960 X11.458 Y25.485
N18965 X12.374 Y25.491
N18970 X13.289 Y25.494
N18975 X15.12 Y25.498
N18980 X18.782 Y25.5
N18985 X34.344
N18990 X35.259 Y25.495
N18995 X36.17 Y25.4
N19000 X37.037 Y25.109
N19005 X37.812 Y24.621
N19010 X38.461 Y23.975
N19015 X38.975 Y23.217
N19020 X39.364 Y22.389
N19025 X39.648 Y21.519
N19030 X39.848 Y20.625
N19035 X39.986 Y19.72
N19040 X40.078 Y18.81
N19045 X40.139 Y17.896
N19050 X40.179 Y16.982
N19055 X40.205 Y16.067
N19060 X40.221 Y15.151
N19065 X40.232 Y14.236
N19070 X40.239 Y13.321
N19075 X40.243 Y12.405
N19080 X40.247 Y10.574
N19085 X40.249 Y7.828
N19090 Y6.913
N19095 X40.212 Y5.998
N19100 X40.016 Y5.104
N19105 X39.616 Y4.281
N19110 X39.036 Y3.572
N19115 X38.324 Y2.997
N19120 X37.523 Y2.553
N19125 X36.669 Y2.223
N19130 X35.785 Y1.987
N19135 X34.884 Y1.823
N19140 X33.976 Y1.712
N19145 X33.063 Y1.637
N19150 X32.149 Y1.588
N19155 X31.234 Y1.557
N19160 X30.319 Y1.536
N19165 X29.404 Y1.523
N19170 X28.488 Y1.514
N19175 X27.573 Y1.509
N19180 X26.657 Y1.506
N19185 X24.827 Y1.502
N19190 X21.165 Y1.5
N19195 X7.434
N19200 X6.518 Y1.501
N19205 X5.603 Y1.519
N19210 X4.696 Y1.645
N19215 X3.84 Y1.97
N19220 X3.085 Y2.487
N19225 X2.457 Y3.153
N19230 X1.963 Y3.924
N19235 X1.591 Y4.76
N19240 X1.322 Y5.635
N19245 X1.132 Y6.531
N19250 X1.002 Y7.437
N19255 X0.915 Y8.348
N19260 X0.857 Y9.262
N19265 X0.819 Y10.176
N19270 X0.794 Y11.092
N19275 X0.778 Y12.007
N19280 X0.768 Y12.922
N19285 X0.761 Y13.838
N19290 X0.757 Y14.753
N19295 X0.753 Y16.584
N19300 X0.751 Y18.415
N19305 X0.758 Y19.33
N19310 X0.835 Y20.242
N19315 X1.094 Y21.12
N19320 X1.551 Y21.914
N19325 X2.171 Y22.587
N19330 X2.91 Y23.127
N19335 X3.728 Y23.539
N19340 X4.592 Y23.841
N19345 X5.482 Y24.056
N19350 X6.385 Y24.205
N19355 X7.295 Y24.306
N19360 X8.208 Y24.373
N19365 X9.122 Y24.418
N19370 X10.037 Y24.447
N19375 X10.952 Y24.466
N19380 X11.868 Y24.478
N19385 X12.783 Y24.486
N19390 X13.698 Y24.491
N19395 X14.614 Y24.494
N19400 X16.445 Y24.498
N19405 X20.106 Y24.5
N19410 X32.922
N19415 X33.838 Y24.498
N19420 X34.752 Y24.453
N19425 X35.644 Y24.245
N19430 X36.464 Y23.839
N19435 X37.17 Y23.257
N19440 X37.745 Y22.544
N19445 X38.189 Y21.744
N19450 X38.519 Y20.89
N19455 X38.756 Y20.006
N19460 X38.922 Y19.105
N19465 X39.034 Y18.197
N19470 X39.109 Y17.285
N19475 X39.159 Y16.371
N19480 X39.191 Y15.456
N19485 X39.212 Y14.541
N19490 X39.226 Y13.625
N19495 X39.235 Y12.71
N19500 X39.24 Y11.794
N19505 X39.244 Y10.879
N19510 X39.248 Y9.048
N19515 Y8.133
N19520 X39.222 Y7.218
N19525 X39.061 Y6.317
N19530 X38.702 Y5.474
N19535 X38.157 Y4.739
N19540 X37.47 Y4.134
N19545 X36.687 Y3.66
N19550 X35.843 Y3.305
N19555 X34.965 Y3.047
N19560 X34.067 Y2.866
N19565 X33.16 Y2.742
N19570 X32.249 Y2.658
N19575 X31.335 Y2.602
N19580 X30.42 Y2.566
N19585 X29.505 Y2.542
N19590 X28.59 Y2.527
N19595 X27.675 Y2.517
N19600 X26.759 Y2.511
N19605 X25.844 Y2.507
N19610 X24.013 Y2.503
N19615 X21.267 Y2.501
N19620 X8.451 Y2.5
N19625 X7.535 Y2.501
N19630 X6.62 Y2.523
N19635 X5.715 Y2.657
N19640 X4.86 Y2.986
N19645 X4.106 Y3.505
N19650 X3.479 Y4.172
N19655 X2.984 Y4.942
N19660 X2.61 Y5.777
N19665 X2.338 Y6.651
N19670 X2.145 Y7.546
N19675 X2.012 Y8.452
N19680 X1.922 Y9.363
N19685 X1.862 Y10.276
N19690 X1.823 Y11.191
N19695 X1.797 Y12.106
N19700 X1.78 Y13.021
N19705 X1.769 Y13.937
N19710 X1.762 Y14.852
N19715 X1.758 Y15.767
N19720 X1.755 Y16.683
N19725 X1.754 Y17.598
N19730 X1.77 Y18.514
N19735 X1.885 Y19.422
N19740 X2.192 Y20.284
N19745 X2.689 Y21.053
N19750 X3.34 Y21.697
N19755 X4.099 Y22.208
N19760 X4.928 Y22.596
N19765 X5.799 Y22.88
N19770 X6.692 Y23.082
N19775 X7.596 Y23.221
N19780 X8.507 Y23.316
N19785 X9.42 Y23.379
N19790 X10.335 Y23.421
N19795 X10.877 Y23.438
N19800 X11.048 Y23.451
N19805 X11.216 Y23.48
N19810 X11.382 Y23.525
N19815 X12.52 Y23.89
N19820 X12.728 Y23.949
N19825 X12.867 Y23.982
N19830 X13.143 Y24.03
N19835 X13.351 Y24.05
N19840 X13.974 Y24.103
N19845 X14.39 Y24.136
N19850 X14.598 Y24.153
N19855 X15.114 Y24.19
N19860 X15.221
N19865 X15.637 Y24.161
N19870 X15.844 Y24.142
N19875 X17.091 Y23.957
N19880 X17.299 Y23.92
N19885 X17.714 Y23.843
N19890 X17.965 Y23.797
N19895 X18.562 Y23.712
N19900 X19.467 Y23.621
N19905 X20.381 Y23.57
N19910 X21.295 Y23.541
N19915 X22.211 Y23.524
N19920 X23.126 Y23.514
N19925 X24.042 Y23.508
N19930 X24.957 Y23.505
N19935 X26.788 Y23.502
N19940 X32.28 Y23.5
N19945 X33.196 Y23.488
N19950 X34.105 Y23.383
N19955 X34.972 Y23.09
N19960 X35.749 Y22.606
N19965 X36.404 Y21.966
N19970 X36.926 Y21.214
N19975 X37.323 Y20.389
N19980 X37.615 Y19.521
N19985 X37.821 Y18.63
N19990 X37.965 Y17.726
N19995 X38.062 Y16.815
N20000 X38.127 Y15.902
N20005 X38.17 Y14.988
N20010 X38.198 Y14.073
N20015 X38.217 Y13.158
N20020 X38.229 Y12.242
N20025 X38.236 Y11.327
N20030 X38.241 Y10.411
N20035 X38.244 Y9.496
N20040 X38.238 Y8.581
N20045 X38.139 Y7.671
N20050 X37.85 Y6.802
N20055 X37.371 Y6.022
N20060 X36.732 Y5.366
N20065 X35.982 Y4.841
N20070 X35.159 Y4.441
N20075 X34.292 Y4.146
N20080 X33.401 Y3.936
N20085 X32.497 Y3.791
N20090 X31.587 Y3.691
N20095 X30.674 Y3.625
N20100 X29.76 Y3.581
N20105 X28.845 Y3.553
N20110 X27.93 Y3.534
N20115 X27.014 Y3.522
N20120 X26.099 Y3.514
N20125 X25.184 Y3.509
N20130 X24.268 Y3.506
N20135 X23.353 Y3.504
N20140 X20.606 Y3.501
N20145 X19.262 Y3.5
N20150 X19.102 Y3.493
N20155 X18.943 Y3.473
N20160 X18.787 Y3.438
N20165 X17.922 Y3.206
N20170 X17.714 Y3.157
N20175 X17.299 Y3.08
N20180 X17.091 Y3.043
N20185 X15.844 Y2.858
N20190 X15.637 Y2.839
N20195 X15.221 Y2.81
N20200 X15.114
N20205 X14.598 Y2.847
N20210 X14.182 Y2.881
N20215 X13.559 Y2.932
N20220 X13.351 Y2.95
N20225 X13.143 Y2.97
N20230 X12.867 Y3.018
N20235 X12.728 Y3.051
N20240 X12.468 Y3.111
N20245 X12.05 Y3.192
N20250 X11.477 Y3.278
N20255 X10.621 Y3.367
N20260 X9.707 Y3.423
N20265 X8.793 Y3.456
N20270 X7.878 Y3.485
N20275 X6.968 Y3.589
N20280 X6.098 Y3.873
N20285 X5.315 Y4.347
N20290 X4.653 Y4.98
N20295 X4.123 Y5.726
N20300 X3.716 Y6.546
N20305 X3.416 Y7.411
N20310 X3.201 Y8.301
N20315 X3.052 Y9.204
N20320 X2.949 Y10.114
N20325 X2.881 Y11.026
N20330 X2.835 Y11.941
N20335 X2.805 Y12.856
N20340 X2.786 Y13.771
N20345 X2.773 Y14.686
N20350 X2.765 Y15.602
N20355 X2.76 Y16.517
N20360 X2.773 Y17.432
N20365 X2.88 Y18.342
N20370 X3.171 Y19.209
N20375 X3.658 Y19.985
N20380 X4.3 Y20.637
N20385 X5.053 Y21.158
N20390 X5.877 Y21.557
N20395 X6.744 Y21.85
N20400 X7.635 Y22.059
N20405 X8.539 Y22.205
N20410 X8.78 Y22.26
N20415 X9.012 Y22.345
N20420 X9.231 Y22.459
N20425 X9.611 Y22.687
N20430 X9.819 Y22.812
N20435 X10.047 Y22.944
N20440 X10.442 Y23.165
N20445 X10.65 Y23.274
N20450 X10.858 Y23.351
N20455 X11.273 Y23.49
N20460 X11.382 Y23.525
N20465 X11.39 Y23.528 Z32.002
N20470 G2 X12.234 Y23.924 Z32.2 I3.486 J-6.342
N20475 X13.15 Y24.214 I2.641 J-6.737
N20480 G1 X13.206 Y24.225
N20485 X13.263 Y24.231
N20490 X15.773 Y24.357
N20495 X15.83
N20500 X15.887 Y24.352
N20505 G2 X16.826 Y24.155 I-1.012 J-7.166
N20510 X17.707 Y23.846 Z32.002 I-1.951 J-6.969
N20515 G1 X17.714 Y23.843 Z32.
N20520 X17.922 Y23.794
N20525 X20.831 Y23.014
N20530 X21.279 Y22.917
N20535 X21.694 Y22.833
N20540 X22.258 Y22.745
N20545 X23.076 Y22.653
N20550 X23.99 Y22.59
N20555 X24.904 Y22.554
N20560 X25.82 Y22.532
N20565 X26.735 Y22.519
N20570 X27.65 Y22.512
N20575 X28.566 Y22.507
N20580 X29.481 Y22.504
N20585 X31.312 Y22.5
N20590 X32.227 Y22.482
N20595 X33.135 Y22.365
N20600 X33.999 Y22.062
N20605 X34.769 Y21.567
N20610 X35.416 Y20.92
N20615 X35.932 Y20.163
N20620 X36.325 Y19.337
N20625 X36.613 Y18.468
N20630 X36.819 Y17.576
N20635 X36.962 Y16.672
N20640 X37.059 Y15.761
N20645 X37.125 Y14.848
N20650 X37.168 Y13.934
N20655 X37.197 Y13.019
N20660 X37.216 Y12.104
N20665 X37.228 Y11.188
N20670 X37.234 Y10.273
N20675 X37.215 Y9.358
N20680 X37.071 Y8.454
N20685 X36.729 Y7.604
N20690 X36.203 Y6.855
N20695 X35.533 Y6.232
N20700 X34.761 Y5.739
N20705 X33.925 Y5.366
N20710 X33.051 Y5.094
N20715 X32.156 Y4.901
N20720 X31.251 Y4.768
N20725 X30.34 Y4.677
N20730 X29.426 Y4.616
N20735 X28.512 Y4.576
N20740 X27.597 Y4.549
N20745 X26.681 Y4.532
N20750 X25.766 Y4.521
N20755 X24.851 Y4.513
N20760 X23.935 Y4.509
N20765 X23.002 Y4.505
N20770 X22.843 Y4.498
N20775 X22.686 Y4.477
N20780 X22.531 Y4.443
N20785 X18.787 Y3.438
N20790 X18.779 Y3.435 Z32.002
N20795 G2 X17.918 Y3.075 Z32.2 I-3.491 J7.149
N20800 X17.485 Y2.937 I-2.63 J7.508
N20805 G1 X17.421 Y2.923
N20810 X17.357 Y2.915
N20815 X14.205 Y2.715
N20820 X14.14 Y2.714
N20825 X14.075 Y2.721
N20830 G2 X13.635 Y2.801 I1.213 J7.862
N20835 X12.728 Y3.051 Z32. I1.653 J7.782
N20840 G1 X12.52 Y3.11
N20845 X11.273 Y3.51
N20850 X10.858 Y3.649
N20855 X10.65 Y3.726
N20860 X10.615 Y3.744
N20865 X10.479 Y3.807
N20870 X10.271 Y3.882
N20875 X10.013 Y3.963
N20880 X9.592 Y4.075
N20885 X8.698 Y4.272
N20890 X7.807 Y4.482
N20895 X6.963 Y4.836
N20900 X6.211 Y5.358
N20905 X5.579 Y6.02
N20910 X5.072 Y6.782
N20915 X4.684 Y7.611
N20920 X4.396 Y8.48
N20925 X4.19 Y9.372
N20930 X4.046 Y10.276
N20935 X3.947 Y11.186
N20940 X3.88 Y12.099
N20945 X3.835 Y13.014
N20950 X3.806 Y13.929
N20955 X3.786 Y14.844
N20960 X3.777 Y15.759
N20965 X3.799 Y16.674
N20970 X3.952 Y17.577
N20975 X4.304 Y18.422
N20980 X4.838 Y19.166
N20985 X5.513 Y19.783
N20990 X6.288 Y20.27
N20995 X6.705 Y20.454
N21000 X6.898 Y20.552
N21005 X7.078 Y20.673
N21010 X7.243 Y20.814
N21015 X7.949 Y21.498
N21020 X8.171 Y21.699
N21025 X8.402 Y21.906
N21030 X8.572 Y22.052
N21035 X8.669 Y22.114
N21040 X9.231 Y22.459
N21045 X9.244 Y22.471 Z32.004
N21050 X9.253 Y22.486 Z32.007
N21055 G2 X9.634 Y23.308 Z32.2 I5.894 J-2.237
N21060 X13.072 Y26.201 I5.512 J-3.059
N21065 G1 X13.155 Y26.224
N21070 X13.24 Y26.234
N21075 X16.468 Y26.39
N21080 X16.554 Y26.388
N21085 X16.639 Y26.373
N21090 G2 X20.344 Y23.815 I-1.492 J-6.125
N21095 X20.797 Y23.042 Z32.01 I-5.198 J-3.566
N21100 G1 X20.811 Y23.024 Z32.005
N21105 X20.831 Y23.014 Z32.
N21110 X24.571 Y22.01
N21115 X25.009 Y21.915
N21120 X25.438 Y21.83
N21125 X26.021 Y21.741
N21130 X26.874 Y21.647
N21135 X27.787 Y21.588
N21140 X28.702 Y21.553
N21145 X29.617 Y21.531
N21150 X30.532 Y21.514
N21155 X31.447 Y21.475
N21160 X32.347 Y21.311
N21165 X33.19 Y20.952
N21170 X33.93 Y20.413
N21175 X34.544 Y19.734
N21180 X35.029 Y18.958
N21185 X35.395 Y18.119
N21190 X35.662 Y17.243
N21195 X35.852 Y16.348
N21200 X35.983 Y15.442
N21205 X36.073 Y14.531
N21210 X36.133 Y13.617
N21215 X36.174 Y12.703
N21220 X36.2 Y11.788
N21225 X36.21 Y10.872
N21230 X36.152 Y9.959
N21235 X35.921 Y9.073
N21240 X35.494 Y8.263
N21245 X34.9 Y7.567
N21250 X34.18 Y7.001
N21255 X33.376 Y6.564
N21260 X32.52 Y6.238
N21265 X31.635 Y6.004
N21270 X30.735 Y5.839
N21275 X29.826 Y5.726
N21280 X28.914 Y5.65
N21285 X28. Y5.598
N21290 X27.085 Y5.564
N21295 X26.89 Y5.56
N21300 X26.745 Y5.55
N21305 X26.601 Y5.529
N21310 X26.46 Y5.497
N21315 X22.531 Y4.443
N21320 X22.508 Y4.429 Z32.006
N21325 X22.494 Y4.407 Z32.011
N21330 G2 X22.148 Y3.589 Z32.2 I-6.069 J2.087
N21335 X19.733 Y0.994 I-5.723 J2.905
N21340 X19.458 Y0.91 I-0.309 J0.514
N21345 G1 X14.058 Y0.596
N21350 G2 X13.775 Y0.649 I-0.035 J0.599
N21355 X11.087 Y2.932 I2.65 J5.845
N21360 X10.638 Y3.72 Z32.007 I5.338 J3.563
N21365 G1 X10.628 Y3.734 Z32.004
N21370 X10.615 Y3.744 Z32.
N21375 X10.442 Y3.835
N21380 X10.026 Y4.067
N21385 X9.819 Y4.188
N21390 X9.347 Y4.471
N21395 X9.195 Y4.563
N21400 X8.669 Y4.886
N21405 X8.572 Y4.948
N21410 X8.544 Y4.972
N21415 X7.818 Y5.531
N21420 X7.125 Y6.129
N21425 X6.535 Y6.828
N21430 X6.056 Y7.609
N21435 X5.96 Y7.825
N21440 X5.92 Y7.91
N21445 X5.875 Y7.993
N21450 X5.826 Y8.074
N21455 G3 X5.334 Y8.331 Z32.123 I-0.493 J-0.343
N21460 G1 X5.333
N21465 G3 X4.991 Y8.224 Z32.2 I0. J-0.6
N21470 X4.882 Y7.336 I0.342 J-0.493
N21475 G1 X7.687 Y4.134
N21480 G3 X8.581 Y4.125 I0.451 J0.395
N21485 X8.544 Y4.972 Z32. I-0.443 J0.405
N21490 G1 X8.402 Y5.094
N21495 X8.156 Y5.314
N21500 X7.942 Y5.509
N21505 X7.117 Y6.307
N21510 X7.087 Y6.339
N21515 X6.702 Y6.756
N21520 X6.545 Y6.962
N21525 X6.008 Y7.792
N21530 X5.74 Y8.207
N21535 X5.663 Y8.333
N21540 X5.382 Y8.83
N21545 X5.292 Y9.037
N21550 X5.138 Y9.452
N21555 X5.04 Y9.722
N21560 X4.69 Y10.698
