%
(RICHI_TFF_S1_V2)
(T2  D=6. CR=0. TAPER=90DEG - ZMIN=-8. - SPOT DRILL)
(T16  D=6. CR=0.5 - ZMIN=-38. - BULLNOSE END MILL)
(T25  D=2.5 CR=0. - ZMIN=-10. - FLAT END MILL)
(T99  D=7.8 CR=0. TAPER=118DEG - ZMIN=-52.343 - DRILL)
N10 G90 G94 G17 G91.1
N15 G21
N20 G53 G0 Z0.
(FACE2)
N25 T16 M6
N30 T2
N35 S13000 M3
N40 G54
N45 G64 P0.01 Q0.01
N50 M8
N55 G0 X50.22 Y-1.068
N60 G43 Z15. H16
N65 G0 Z5.
N70 G1 Z-2.4 F400.
N75 G18 G3 X49.62 Z-3. I-0.6 K0. F1560.
N80 G1 X49.51
N85 X-3.01
N90 G3 X-3.61 Z-2.4 I0. K0.6
N95 G0 Z5.
N100 X50.4 Y0.843
N105 G1 Z-2.4 F400.
N110 G3 X49.8 Z-3. I-0.6 K0. F1560.
N115 G1 X49.51
N120 X-3.01
N125 G3 X-3.61 Z-2.4 I0. K0.6
N130 G0 Z5.
N135 X50.4 Y2.755
N140 G1 Z-2.4 F400.
N145 G3 X49.8 Z-3. I-0.6 K0. F1560.
N150 G1 X49.51
N155 X-3.01
N160 G3 X-3.61 Z-2.4 I0. K0.6
N165 G0 Z5.
N170 X50.4 Y4.666
N175 G1 Z-2.4 F400.
N180 G3 X49.8 Z-3. I-0.6 K0. F1560.
N185 G1 X49.51
N190 X-3.01
N195 G3 X-3.61 Z-2.4 I0. K0.6
N200 G0 Z5.
N205 X50.4 Y6.578
N210 G1 Z-2.4 F400.
N215 G3 X49.8 Z-3. I-0.6 K0. F1560.
N220 G1 X49.51
N225 X-3.01
N230 G3 X-3.61 Z-2.4 I0. K0.6
N235 G0 Z5.
N240 X50.4 Y8.489
N245 G1 Z-2.4 F400.
N250 G3 X49.8 Z-3. I-0.6 K0. F1560.
N255 G1 X49.51
N260 X-3.01
N265 G3 X-3.61 Z-2.4 I0. K0.6
N270 G0 Z5.
N275 X50.4 Y10.401
N280 G1 Z-2.4 F400.
N285 G3 X49.8 Z-3. I-0.6 K0. F1560.
N290 G1 X49.51
N295 X-3.01
N300 G3 X-3.61 Z-2.4 I0. K0.6
N305 G0 Z5.
N310 X50.4 Y12.313
N315 G1 Z-2.4 F400.
N320 G3 X49.8 Z-3. I-0.6 K0. F1560.
N325 G1 X49.51
N330 X-3.01
N335 G3 X-3.61 Z-2.4 I0. K0.6
N340 G0 Z5.
N345 X50.4 Y14.224
N350 G1 Z-2.4 F400.
N355 G3 X49.8 Z-3. I-0.6 K0. F1560.
N360 G1 X49.51
N365 X-3.01
N370 G3 X-3.61 Z-2.4 I0. K0.6
N375 G0 Z5.
N380 X50.4 Y16.136
N385 G1 Z-2.4 F400.
N390 G3 X49.8 Z-3. I-0.6 K0. F1560.
N395 G1 X49.51
N400 X-3.01
N405 G3 X-3.61 Z-2.4 I0. K0.6
N410 G0 Z5.
N415 X50.4 Y18.047
N420 G1 Z-2.4 F400.
N425 G3 X49.8 Z-3. I-0.6 K0. F1560.
N430 G1 X49.51
N435 X-3.01
N440 G3 X-3.61 Z-2.4 I0. K0.6
N445 G0 Z5.
N450 X50.4 Y19.959
N455 G1 Z-2.4 F400.
N460 G3 X49.8 Z-3. I-0.6 K0. F1560.
N465 G1 X49.51
N470 X-3.01
N475 G3 X-3.61 Z-2.4 I0. K0.6
N480 G0 Z5.
N485 X50.4 Y21.87
N490 G1 Z-2.4 F400.
N495 G3 X49.8 Z-3. I-0.6 K0. F1560.
N500 G1 X49.51
N505 X-3.01
N510 G3 X-3.61 Z-2.4 I0. K0.6
N515 G0 Z5.
N520 X50.4 Y23.782
N525 G1 Z-2.4 F400.
N530 G3 X49.8 Z-3. I-0.6 K0. F1560.
N535 G1 X49.51
N540 X-3.01
N545 G3 X-3.61 Z-2.4 I0. K0.6
N550 G0 Z5.
N555 X50.4 Y25.693
N560 G1 Z-2.4 F400.
N565 G3 X49.8 Z-3. I-0.6 K0. F1560.
N570 G1 X49.51
N575 X-3.01
N580 G3 X-3.61 Z-2.4 I0. K0.6
N585 G0 Z5.
N590 X50.4 Y27.605
N595 G1 Z-2.4 F400.
N600 G3 X49.8 Z-3. I-0.6 K0. F1560.
N605 G1 X49.51
N610 X-3.01
N615 G3 X-3.61 Z-2.4 I0. K0.6
N620 G0 Z5.
N625 X50.22 Y-1.068
N630 G1 Z-5.4 F400.
N635 G3 X49.62 Z-6. I-0.6 K0. F1560.
N640 G1 X49.51
N645 X-3.01
N650 G3 X-3.61 Z-5.4 I0. K0.6
N655 G0 Z5.
N660 X50.4 Y0.843
N665 G1 Z-5.4 F400.
N670 G3 X49.8 Z-6. I-0.6 K0. F1560.
N675 G1 X49.51
N680 X-3.01
N685 G3 X-3.61 Z-5.4 I0. K0.6
N690 G0 Z5.
N695 X50.4 Y2.755
N700 G1 Z-5.4 F400.
N705 G3 X49.8 Z-6. I-0.6 K0. F1560.
N710 G1 X49.51
N715 X-3.01
N720 G3 X-3.61 Z-5.4 I0. K0.6
N725 G0 Z5.
N730 X50.4 Y4.666
N735 G1 Z-5.4 F400.
N740 G3 X49.8 Z-6. I-0.6 K0. F1560.
N745 G1 X49.51
N750 X-3.01
N755 G3 X-3.61 Z-5.4 I0. K0.6
N760 G0 Z5.
N765 X50.4 Y6.578
N770 G1 Z-5.4 F400.
N775 G3 X49.8 Z-6. I-0.6 K0. F1560.
N780 G1 X49.51
N785 X-3.01
N790 G3 X-3.61 Z-5.4 I0. K0.6
N795 G0 Z5.
N800 X50.4 Y8.489
N805 G1 Z-5.4 F400.
N810 G3 X49.8 Z-6. I-0.6 K0. F1560.
N815 G1 X49.51
N820 X-3.01
N825 G3 X-3.61 Z-5.4 I0. K0.6
N830 G0 Z5.
N835 X50.4 Y10.401
N840 G1 Z-5.4 F400.
N845 G3 X49.8 Z-6. I-0.6 K0. F1560.
N850 G1 X49.51
N855 X-3.01
N860 G3 X-3.61 Z-5.4 I0. K0.6
N865 G0 Z5.
N870 X50.4 Y12.313
N875 G1 Z-5.4 F400.
N880 G3 X49.8 Z-6. I-0.6 K0. F1560.
N885 G1 X49.51
N890 X-3.01
N895 G3 X-3.61 Z-5.4 I0. K0.6
N900 G0 Z5.
N905 X50.4 Y14.224
N910 G1 Z-5.4 F400.
N915 G3 X49.8 Z-6. I-0.6 K0. F1560.
N920 G1 X49.51
N925 X-3.01
N930 G3 X-3.61 Z-5.4 I0. K0.6
N935 G0 Z5.
N940 X50.4 Y16.136
N945 G1 Z-5.4 F400.
N950 G3 X49.8 Z-6. I-0.6 K0. F1560.
N955 G1 X49.51
N960 X-3.01
N965 G3 X-3.61 Z-5.4 I0. K0.6
N970 G0 Z5.
N975 X50.4 Y18.047
N980 G1 Z-5.4 F400.
N985 G3 X49.8 Z-6. I-0.6 K0. F1560.
N990 G1 X49.51
N995 X-3.01
N1000 G3 X-3.61 Z-5.4 I0. K0.6
N1005 G0 Z5.
N1010 X50.4 Y19.959
N1015 G1 Z-5.4 F400.
N1020 G3 X49.8 Z-6. I-0.6 K0. F1560.
N1025 G1 X49.51
N1030 X-3.01
N1035 G3 X-3.61 Z-5.4 I0. K0.6
N1040 G0 Z5.
N1045 X50.4 Y21.87
N1050 G1 Z-5.4 F400.
N1055 G3 X49.8 Z-6. I-0.6 K0. F1560.
N1060 G1 X49.51
N1065 X-3.01
N1070 G3 X-3.61 Z-5.4 I0. K0.6
N1075 G0 Z5.
N1080 X50.4 Y23.782
N1085 G1 Z-5.4 F400.
N1090 G3 X49.8 Z-6. I-0.6 K0. F1560.
N1095 G1 X49.51
N1100 X-3.01
N1105 G3 X-3.61 Z-5.4 I0. K0.6
N1110 G0 Z5.
N1115 X50.4 Y25.693
N1120 G1 Z-5.4 F400.
N1125 G3 X49.8 Z-6. I-0.6 K0. F1560.
N1130 G1 X49.51
N1135 X-3.01
N1140 G3 X-3.61 Z-5.4 I0. K0.6
N1145 G0 Z5.
N1150 X50.4 Y27.605
N1155 G1 Z-5.4 F400.
N1160 G3 X49.8 Z-6. I-0.6 K0. F1560.
N1165 G1 X49.51
N1170 X-3.01
N1175 G3 X-3.61 Z-5.4 I0. K0.6
N1180 G0 Z15.
N1185 G17
(2D ADAPTIVE2)
N1190 G64 P0.1 Q0.1
N1195 G0 X-0.47 Y-6.283
N1200 Z15.
N1205 Z5.
N1210 Z-7.4
N1215 G1 Z-8. F1560.
N1220 Z-10.
N1225 G3 X0. Y-3.017 I-14.839 J3.801
N1230 G1 Y-2.902
N1235 X-0.61 Y-2.22
N1240 X-1.069 Y-1.428
N1245 X-1.396 Y-0.573
N1250 X-1.619 Y0.315
N1255 X-1.764 Y1.219
N1260 X-1.857 Y2.13
N1265 X-1.914 Y3.043
N1270 X-1.948 Y3.958
N1275 X-1.969 Y4.873
N1280 X-1.982 Y5.789
N1285 X-1.989 Y6.704
N1290 X-1.994 Y7.62
N1295 X-1.996 Y8.535
N1300 X-1.999 Y10.366
N1305 X-2. Y16.774
N1310 Y28.217
N1315 X-1.814 Y29.113
N1320 X-1.343 Y29.898
N1325 X-0.682 Y30.531
N1330 X0.098 Y31.011
N1335 X0.946 Y31.355
N1340 X1.83 Y31.592
N1345 X2.733 Y31.747
N1350 X3.643 Y31.846
N1355 X4.556 Y31.907
N1360 X5.471 Y31.944
N1365 X6.386 Y31.967
N1370 X7.301 Y31.98
N1375 X8.216 Y31.988
N1380 X9.132 Y31.993
N1385 X10.047 Y31.996
N1390 X11.878 Y31.999
N1395 X14.624 Y32.
N1400 X44.833
N1405 X45.72 Y31.772
N1410 X46.487 Y31.272
N1415 X47.1 Y30.592
N1420 X47.561 Y29.801
N1425 X47.891 Y28.947
N1430 X48.115 Y28.06
N1435 X48.262 Y27.156
N1440 X48.355 Y26.246
N1445 X48.413 Y25.332
N1450 X48.448 Y24.417
N1455 X48.469 Y23.502
N1460 X48.482 Y22.587
N1465 X48.489 Y21.671
N1470 X48.494 Y20.756
N1475 X48.496 Y19.84
N1480 X48.499 Y18.01
N1485 X48.5 Y13.432
N1490 Y1.532
N1495 X48.244 Y0.653
N1500 X47.711 Y-0.091
N1505 X47.01 Y-0.68
N1510 X46.207 Y-1.12
N1515 X45.346 Y-1.431
N1520 X44.455 Y-1.642
N1525 X43.55 Y-1.779
N1530 X42.639 Y-1.866
N1535 X41.725 Y-1.919
N1540 X40.81 Y-1.952
N1545 X39.895 Y-1.971
N1550 X38.98 Y-1.983
N1555 X38.064 Y-1.99
N1560 X37.149 Y-1.994
N1565 X35.318 Y-1.998
N1570 X31.656 Y-2.
N1575 X11.517
N1580 X3.278
N1585 X2.379 Y-1.828
N1590 X1.514 Y-1.53
N1595 X0.784 Y-0.978
N1600 X0.216 Y-0.26
N1605 X-0.198 Y0.557
N1610 X-0.486 Y1.426
N1615 X-0.677 Y2.321
N1620 X-0.8 Y3.228
N1625 X-0.878 Y4.14
N1630 X-0.926 Y5.054
N1635 X-0.956 Y5.969
N1640 X-0.973 Y6.885
N1645 X-0.984 Y7.8
N1650 X-0.99 Y8.715
N1655 X-0.994 Y9.631
N1660 X-0.998 Y11.462
N1665 X-1. Y15.123
N1670 Y26.108
N1675 X-0.988 Y27.024
N1680 X-0.766 Y27.912
N1685 X-0.309 Y28.705
N1690 X0.33 Y29.361
N1695 X1.091 Y29.87
N1700 X1.926 Y30.244
N1705 X2.803 Y30.507
N1710 X3.701 Y30.686
N1715 X4.609 Y30.803
N1720 X5.521 Y30.878
N1725 X6.435 Y30.925
N1730 X7.35 Y30.954
N1735 X8.265 Y30.972
N1740 X9.181 Y30.983
N1745 X10.096 Y30.99
N1750 X11.011 Y30.994
N1755 X12.842 Y30.998
N1760 X16.504 Y31.
N1765 X43.051
N1770 X43.962 Y30.909
N1775 X44.813 Y30.57
N1780 X45.544 Y30.02
N1785 X46.13 Y29.316
N1790 X46.571 Y28.514
N1795 X46.888 Y27.655
N1800 X47.105 Y26.766
N1805 X47.25 Y25.862
N1810 X47.344 Y24.951
N1815 X47.404 Y24.038
N1820 X47.441 Y23.123
N1825 X47.464 Y22.208
N1830 X47.478 Y21.293
N1835 X47.487 Y20.377
N1840 X47.492 Y19.462
N1845 X47.495 Y18.547
N1850 X47.497 Y17.631
N1855 X47.499 Y14.885
N1860 X47.5 Y2.984
N1865 X47.288 Y2.094
N1870 X46.835 Y1.299
N1875 X46.198 Y0.641
N1880 X45.438 Y0.131
N1885 X44.603 Y-0.244
N1890 X43.726 Y-0.508
N1895 X42.828 Y-0.687
N1900 X41.92 Y-0.804
N1905 X41.008 Y-0.879
N1910 X40.094 Y-0.926
N1915 X39.179 Y-0.955
N1920 X38.263 Y-0.973
N1925 X37.348 Y-0.983
N1930 X36.433 Y-0.99
N1935 X35.517 Y-0.994
N1940 X33.686 Y-0.998
N1945 X30.025 Y-1.
N1950 X13.547
N1955 X5.308
N1960 X4.393 Y-0.984
N1965 X3.486 Y-0.86
N1970 X2.643 Y-0.504
N1975 X1.921 Y0.059
N1980 X1.345 Y0.771
N1985 X0.912 Y1.577
N1990 X0.602 Y2.438
N1995 X0.388 Y3.329
N2000 X0.246 Y4.233
N2005 X0.154 Y5.144
N2010 X0.095 Y6.057
N2015 X0.059 Y6.972
N2020 X0.036 Y7.887
N2025 X0.022 Y8.802
N2030 X0.013 Y9.718
N2035 X0.008 Y10.633
N2040 X0.005 Y11.549
N2045 X0.002 Y13.379
N2050 X0. Y17.956
N2055 Y24.364
N2060 X0.002 Y25.28
N2065 X0.083 Y26.192
N2070 X0.387 Y27.055
N2075 X0.899 Y27.814
N2080 X1.571 Y28.436
N2085 X2.35 Y28.916
N2090 X3.195 Y29.269
N2095 X4.076 Y29.518
N2100 X4.975 Y29.688
N2105 X5.884 Y29.801
N2110 X6.796 Y29.875
N2115 X7.711 Y29.922
N2120 X8.626 Y29.951
N2125 X9.541 Y29.97
N2130 X10.456 Y29.982
N2135 X11.371 Y29.989
N2140 X12.287 Y29.993
N2145 X13.202 Y29.996
N2150 X15.033 Y29.998
N2155 X20.526 Y30.
N2160 X41.58
N2165 X42.495 Y29.954
N2170 X43.375 Y29.702
N2175 X44.161 Y29.232
N2180 X44.813 Y28.59
N2185 X45.323 Y27.83
N2190 X45.702 Y26.996
N2195 X45.972 Y26.122
N2200 X46.158 Y25.225
N2205 X46.282 Y24.318
N2210 X46.362 Y23.406
N2215 X46.414 Y22.492
N2220 X46.447 Y21.578
N2225 X46.467 Y20.662
N2230 X46.48 Y19.747
N2235 X46.488 Y18.832
N2240 X46.492 Y17.916
N2245 X46.495 Y17.001
N2250 X46.498 Y15.17
N2255 X46.499 Y13.339
N2260 X46.5 Y5.1
N2265 X46.484 Y4.185
N2270 X46.281 Y3.292
N2275 X45.851 Y2.484
N2280 X45.238 Y1.805
N2285 X44.497 Y1.267
N2290 X43.675 Y0.864
N2295 X42.806 Y0.574
N2300 X41.913 Y0.374
N2305 X41.008 Y0.239
N2310 X40.097 Y0.151
N2315 X39.183 Y0.094
N2320 X38.268 Y0.059
N2325 X37.353 Y0.036
N2330 X36.438 Y0.022
N2335 X35.522 Y0.014
N2340 X34.607 Y0.008
N2345 X33.692 Y0.005
N2350 X31.861 Y0.002
N2355 X27.284 Y0.
N2360 X7.144
N2365 X6.229 Y0.001
N2370 X5.314 Y0.027
N2375 X4.417 Y0.208
N2380 X3.596 Y0.614
N2385 X2.897 Y1.205
N2390 X2.34 Y1.931
N2395 X1.918 Y2.744
N2400 X1.614 Y3.607
N2405 X1.402 Y4.498
N2410 X1.259 Y5.402
N2415 X1.165 Y6.313
N2420 X1.104 Y7.226
N2425 X1.065 Y8.141
N2430 X1.04 Y9.056
N2435 X1.025 Y9.971
N2440 X1.015 Y10.886
N2445 X1.009 Y11.802
N2450 X1.006 Y12.717
N2455 X1.002 Y14.548
N2460 X1. Y18.21
N2465 Y23.702
N2470 X1.023 Y24.618
N2475 X1.212 Y25.513
N2480 X1.615 Y26.335
N2485 X2.2 Y27.039
N2490 X2.921 Y27.603
N2495 X3.729 Y28.034
N2500 X4.589 Y28.348
N2505 X5.477 Y28.569
N2510 X6.38 Y28.719
N2515 X7.29 Y28.819
N2520 X8.203 Y28.885
N2525 X9.118 Y28.927
N2530 X10.033 Y28.954
N2535 X10.948 Y28.971
N2540 X11.863 Y28.982
N2545 X12.779 Y28.989
N2550 X13.694 Y28.993
N2555 X15.525 Y28.997
N2560 X18.271 Y28.999
N2565 X21.017 Y29.
N2570 X40.241
N2575 X41.156 Y28.972
N2580 X42.05 Y28.775
N2585 X42.868 Y28.364
N2590 X43.565 Y27.77
N2595 X44.123 Y27.044
N2600 X44.548 Y26.234
N2605 X44.858 Y25.372
N2610 X45.076 Y24.483
N2615 X45.225 Y23.58
N2620 X45.323 Y22.67
N2625 X45.388 Y21.757
N2630 X45.429 Y20.842
N2635 X45.456 Y19.927
N2640 X45.472 Y19.012
N2645 X45.483 Y18.096
N2650 X45.489 Y17.181
N2655 X45.493 Y16.266
N2660 X45.498 Y14.435
N2665 X45.5 Y10.773
N2670 Y6.196
N2675 X45.469 Y5.281
N2680 X45.262 Y4.389
N2685 X44.836 Y3.579
N2690 X44.231 Y2.893
N2695 X43.498 Y2.344
N2700 X42.682 Y1.928
N2705 X41.818 Y1.625
N2710 X40.928 Y1.413
N2715 X40.024 Y1.268
N2720 X39.114 Y1.172
N2725 X38.2 Y1.109
N2730 X37.286 Y1.069
N2735 X36.371 Y1.043
N2740 X35.455 Y1.027
N2745 X34.54 Y1.017
N2750 X33.625 Y1.01
N2755 X32.709 Y1.006
N2760 X30.878 Y1.002
N2765 X27.217 Y1.
N2770 X7.993
N2775 X7.077 Y1.004
N2780 X6.164 Y1.06
N2785 X5.282 Y1.305
N2790 X4.487 Y1.76
N2795 X3.818 Y2.385
N2800 X3.287 Y3.13
N2805 X2.887 Y3.954
N2810 X2.597 Y4.822
N2815 X2.395 Y5.715
N2820 X2.257 Y6.62
N2825 X2.165 Y7.531
N2830 X2.105 Y8.444
N2835 X2.067 Y9.359
N2840 X2.042 Y10.274
N2845 X2.026 Y11.189
N2850 X2.016 Y12.104
N2855 X2.01 Y13.02
N2860 X2.006 Y13.935
N2865 X2.002 Y15.766
N2870 X2. Y19.428
N2875 Y22.174
N2880 X2.006 Y23.089
N2885 X2.101 Y24.
N2890 X2.398 Y24.866
N2895 X2.892 Y25.636
N2900 X3.546 Y26.278
N2905 X4.309 Y26.782
N2910 X5.143 Y27.161
N2915 X6.016 Y27.435
N2920 X6.912 Y27.625
N2925 X7.818 Y27.755
N2930 X8.729 Y27.842
N2935 X9.643 Y27.898
N2940 X10.558 Y27.935
N2945 X11.473 Y27.959
N2950 X12.388 Y27.974
N2955 X13.303 Y27.984
N2960 X14.219 Y27.99
N2965 X15.134 Y27.994
N2970 X16.965 Y27.998
N2975 X20.627 Y28.
N2980 X20.996
N2985 X21.064 Y28.001
N2990 X21.132 Y28.005
N2995 X21.2 Y28.011
N3000 X21.38 Y28.031
N3005 X22.627 Y28.154
N3010 X23.25 Y28.198
N3015 X23.873 Y28.154
N3020 X24.788 Y28.112
N3025 X25.702 Y28.065
N3030 X26.617 Y28.038
N3035 X27.532 Y28.022
N3040 X28.448 Y28.013
N3045 X29.363 Y28.008
N3050 X30.279 Y28.005
N3055 X32.109 Y28.002
N3060 X36.687 Y28.
N3065 X38.517
N3070 X39.433 Y27.996
N3075 X40.346 Y27.926
N3080 X41.223 Y27.665
N3085 X42.012 Y27.2
N3090 X42.676 Y26.57
N3095 X43.203 Y25.822
N3100 X43.603 Y24.998
N3105 X43.893 Y24.13
N3110 X44.096 Y23.238
N3115 X44.236 Y22.333
N3120 X44.329 Y21.422
N3125 X44.39 Y20.509
N3130 X44.43 Y19.594
N3135 X44.456 Y18.679
N3140 X44.472 Y17.764
N3145 X44.482 Y16.849
N3150 X44.489 Y15.933
N3155 X44.493 Y15.018
N3160 X44.497 Y13.187
N3165 X44.499 Y10.441
N3170 X44.5 Y7.694
N3175 X44.492 Y6.779
N3180 X44.374 Y5.871
N3185 X44.047 Y5.016
N3190 X43.526 Y4.263
N3195 X42.853 Y3.642
N3200 X42.077 Y3.157
N3205 X41.236 Y2.795
N3210 X40.359 Y2.534
N3215 X39.462 Y2.353
N3220 X38.554 Y2.23
N3225 X37.643 Y2.148
N3230 X36.729 Y2.095
N3235 X35.814 Y2.06
N3240 X34.899 Y2.038
N3245 X33.984 Y2.024
N3250 X33.068 Y2.015
N3255 X32.153 Y2.009
N3260 X31.237 Y2.006
N3265 X29.407 Y2.002
N3270 X25.504 Y2.
N3275 X25.435 Y1.999
N3280 X25.367 Y1.995
N3285 X25.299 Y1.989
N3290 X25.12 Y1.969
N3295 X23.873 Y1.846
N3300 X23.25 Y1.802
N3305 X22.627 Y1.846
N3310 X21.712 Y1.889
N3315 X20.798 Y1.935
N3320 X19.883 Y1.962
N3325 X18.968 Y1.978
N3330 X18.052 Y1.987
N3335 X17.137 Y1.992
N3340 X16.221 Y1.995
N3345 X14.391 Y1.998
N3350 X8.898 Y2.
N3355 X7.983 Y2.009
N3360 X7.072 Y2.098
N3365 X6.201 Y2.381
N3370 X5.424 Y2.866
N3375 X4.774 Y3.51
N3380 X4.26 Y4.267
N3385 X3.872 Y5.097
N3390 X3.591 Y5.968
N3395 X3.393 Y6.862
N3400 X3.258 Y7.767
N3405 X3.167 Y8.678
N3410 X3.108 Y9.591
N3415 X3.069 Y10.506
N3420 X3.044 Y11.421
N3425 X3.028 Y12.336
N3430 X3.017 Y13.252
N3435 X3.011 Y14.167
N3440 X3.007 Y15.083
N3445 X3.003 Y16.913
N3450 X3.001 Y19.66
N3455 X3. Y20.575
N3460 X3.001 Y21.49
N3465 X3.027 Y22.406
N3470 X3.201 Y23.304
N3475 X3.58 Y24.137
N3480 X4.141 Y24.861
N3485 X4.839 Y25.453
N3490 X5.632 Y25.911
N3495 X6.482 Y26.252
N3500 X7.364 Y26.495
N3505 X8.264 Y26.665
N3510 X9.172 Y26.78
N3515 X10.084 Y26.857
N3520 X10.998 Y26.908
N3525 X11.913 Y26.941
N3530 X12.828 Y26.962
N3535 X13.743 Y26.976
N3540 X14.659 Y26.985
N3545 X15.574 Y26.99
N3550 X16.489 Y26.994
N3555 X17.38 Y26.996
N3560 X17.61 Y27.011
N3565 X17.836 Y27.053
N3570 X18.055 Y27.122
N3575 X18.471 Y27.283
N3580 X18.657 Y27.35
N3585 X19.925 Y27.735
N3590 X20.133 Y27.795
N3595 X20.549 Y27.914
N3600 X20.757 Y27.951
N3605 X21.172 Y28.008
N3610 X21.2 Y28.011
N3615 X21.209 Y28.013
N3620 G2 X21.661 Y28.134 I1.606 J-5.123
N3625 G1 X21.71 Y28.142
N3630 X21.758 Y28.147
N3635 X21.968 Y28.158
N3640 X23.094 Y28.218
N3645 X23.309 Y28.229
N3650 X23.358 Y28.23
N3655 X23.407 Y28.226
N3660 G2 X23.87 Y28.154 I-0.592 J-5.336
N3665 G1 X23.873
N3670 X25.12 Y28.031
N3675 X25.328 Y28.008
N3680 X25.743 Y27.951
N3685 X25.951 Y27.914
N3690 X26.471 Y27.765
N3695 X26.575 Y27.735
N3700 X27.159 Y27.558
N3705 X27.541 Y27.463
N3710 X27.881 Y27.384
N3715 X28.328 Y27.3
N3720 X28.944 Y27.212
N3725 X29.855 Y27.123
N3730 X30.769 Y27.072
N3735 X31.684 Y27.042
N3740 X32.599 Y27.025
N3745 X33.514 Y27.015
N3750 X34.43 Y27.009
N3755 X35.345 Y27.005
N3760 X38.091 Y27.
N3765 X39.006 Y26.96
N3770 X39.899 Y26.761
N3775 X40.724 Y26.363
N3780 X41.432 Y25.783
N3785 X42.007 Y25.071
N3790 X42.451 Y24.27
N3795 X42.78 Y23.416
N3800 X43.016 Y22.531
N3805 X43.179 Y21.631
N3810 X43.29 Y20.722
N3815 X43.364 Y19.81
N3820 X43.413 Y18.895
N3825 X43.444 Y17.981
N3830 X43.464 Y17.065
N3835 X43.477 Y16.15
N3840 X43.486 Y15.235
N3845 X43.491 Y14.319
N3850 X43.494 Y13.404
N3855 X43.498 Y11.573
N3860 X43.499 Y8.827
N3865 X43.49 Y7.911
N3870 X43.38 Y7.003
N3875 X43.074 Y6.14
N3880 X42.571 Y5.375
N3885 X41.913 Y4.739
N3890 X41.148 Y4.236
N3895 X40.314 Y3.857
N3900 X39.441 Y3.582
N3905 X38.547 Y3.388
N3910 X37.641 Y3.255
N3915 X36.73 Y3.166
N3920 X35.816 Y3.107
N3925 X34.902 Y3.069
N3930 X33.987 Y3.044
N3935 X33.071 Y3.028
N3940 X32.156 Y3.018
N3945 X31.241 Y3.011
N3950 X30.325 Y3.007
N3955 X29.121 Y3.004
N3960 X28.891 Y2.989
N3965 X28.664 Y2.947
N3970 X28.445 Y2.878
N3975 X28.029 Y2.717
N3980 X27.843 Y2.65
N3985 X26.575 Y2.265
N3990 X26.367 Y2.205
N3995 X25.951 Y2.086
N4000 X25.743 Y2.049
N4005 X25.328 Y1.992
N4010 X25.299 Y1.989
N4015 X25.291 Y1.987
N4020 G2 X24.838 Y1.866 I-1.606 J5.121
N4025 G1 X24.79 Y1.858
N4030 X24.741 Y1.853
N4035 X24.531 Y1.842
N4040 X23.406 Y1.782
N4045 X23.191 Y1.771
N4050 X23.142 Y1.77
N4055 X23.093 Y1.774
N4060 G2 X22.63 Y1.846 I0.592 J5.334
N4065 G1 X22.627
N4070 X21.38 Y1.969
N4075 X21.172 Y1.992
N4080 X20.757 Y2.049
N4085 X20.549 Y2.086
N4090 X20.029 Y2.235
N4095 X19.925 Y2.265
N4100 X19.341 Y2.442
N4105 X18.959 Y2.537
N4110 X18.619 Y2.616
N4115 X18.172 Y2.7
N4120 X17.556 Y2.788
N4125 X16.645 Y2.877
N4130 X15.731 Y2.928
N4135 X14.816 Y2.958
N4140 X13.901 Y2.975
N4145 X12.986 Y2.985
N4150 X12.07 Y2.991
N4155 X11.155 Y2.995
N4160 X10.239 Y2.997
N4165 X9.324 Y3.001
N4170 X8.41 Y3.055
N4175 X7.522 Y3.275
N4180 X6.708 Y3.695
N4185 X6.013 Y4.29
N4190 X5.451 Y5.013
N4195 X5.018 Y5.82
N4200 X4.699 Y6.677
N4205 X4.47 Y7.564
N4210 X4.312 Y8.465
N4215 X4.204 Y9.375
N4220 X4.133 Y10.287
N4225 X4.085 Y11.201
N4230 X4.055 Y12.116
N4235 X4.035 Y13.031
N4240 X4.022 Y13.947
N4245 X4.014 Y14.862
N4250 X4.009 Y15.778
N4255 X4.006 Y16.693
N4260 X4.002 Y18.524
N4265 X4.001 Y20.355
N4270 X4.026 Y21.27
N4275 X4.184 Y22.172
N4280 X4.539 Y23.015
N4285 X5.081 Y23.753
N4290 X5.765 Y24.361
N4295 X6.547 Y24.837
N4300 X7.39 Y25.193
N4305 X8.269 Y25.452
N4310 X9.166 Y25.633
N4315 X10.073 Y25.757
N4320 X10.984 Y25.841
N4325 X11.898 Y25.897
N4330 X12.813 Y25.933
N4335 X13.728 Y25.957
N4340 X14.643 Y25.973
N4345 X15.459 Y25.981
N4350 X15.762 Y26.01
N4355 X16.056 Y26.088
N4360 X16.334 Y26.214
N4365 X16.393 Y26.248
N4370 X17.772 Y26.984
N4375 X17.848 Y27.024
N4380 X18.055 Y27.122
N4385 X18.072 Y27.136 Z-9.995
N4390 X18.083 Y27.155 Z-9.991
N4395 G2 X18.433 Y27.981 Z-9.8 I4.602 J-1.467
N4400 X20.85 Y30.157 I4.252 J-2.292
N4405 G1 X20.915 Y30.179
N4410 X20.982 Y30.194
N4415 X21.05 Y30.201
N4420 X23.881 Y30.337
N4425 X23.95 Y30.336
N4430 X24.018 Y30.328
N4435 X24.084 Y30.312
N4440 G2 X26.7 Y28.375 I-1.399 J-4.623
N4445 X27.126 Y27.589 Z-9.99 I-4.015 J-2.686
N4450 G1 X27.139 Y27.57 Z-9.995
N4455 X27.159 Y27.558 Z-10.
N4460 X27.843 Y27.35
N4465 X28.029 Y27.283
N4470 X28.445 Y27.122
N4475 X28.652 Y27.024
N4480 X28.86 Y26.914
N4485 X29.053 Y26.823
N4490 X29.218 Y26.751
N4495 X29.406 Y26.678
N4500 X29.635 Y26.6
N4505 X29.924 Y26.516
N4510 X30.272 Y26.431
N4515 X30.728 Y26.341
N4520 X31.333 Y26.248
N4525 X32.215 Y26.151
N4530 X33.129 Y26.092
N4535 X34.044 Y26.056
N4540 X34.959 Y26.034
N4545 X35.874 Y26.021
N4550 X36.789 Y26.011
N4555 X37.705 Y25.986
N4560 X38.608 Y25.839
N4565 X39.457 Y25.496
N4570 X40.203 Y24.966
N4575 X40.82 Y24.29
N4580 X41.305 Y23.513
N4585 X41.67 Y22.674
N4590 X41.936 Y21.798
N4595 X42.122 Y20.902
N4600 X42.251 Y19.995
N4605 X42.337 Y19.084
N4610 X42.394 Y18.17
N4615 X42.432 Y17.256
N4620 X42.456 Y16.34
N4625 X42.472 Y15.425
N4630 X42.482 Y14.51
N4635 X42.489 Y13.594
N4640 X42.493 Y12.679
N4645 X42.497 Y10.848
N4650 X42.498 Y9.933
N4655 X42.488 Y9.017
N4660 X42.387 Y8.108
N4665 X42.096 Y7.24
N4670 X41.606 Y6.466
N4675 X40.961 Y5.817
N4680 X40.205 Y5.301
N4685 X39.378 Y4.908
N4690 X38.508 Y4.621
N4695 X37.616 Y4.418
N4700 X36.711 Y4.277
N4705 X35.801 Y4.182
N4710 X34.888 Y4.118
N4715 X33.973 Y4.076
N4720 X33.058 Y4.049
N4725 X32.143 Y4.031
N4730 X31.228 Y4.02
N4735 X31.044 Y4.018
N4740 X30.74 Y3.99
N4745 X30.444 Y3.912
N4750 X30.166 Y3.785
N4755 X30.107 Y3.752
N4760 X28.728 Y3.016
N4765 X28.652 Y2.976
N4770 X28.445 Y2.878
N4775 X28.428 Y2.864 Z-9.995
N4780 X28.417 Y2.845 Z-9.991
N4785 G2 X28.067 Y2.019 Z-9.8 I-4.602 J1.467
N4790 X25.65 Y-0.157 I-4.252 J2.292
N4795 G1 X25.585 Y-0.179
N4800 X25.518 Y-0.194
N4805 X25.45 Y-0.201
N4810 X22.619 Y-0.337
N4815 X22.55 Y-0.336
N4820 X22.482 Y-0.328
N4825 X22.416 Y-0.312
N4830 G2 X19.8 Y1.625 I1.399 J4.623
N4835 X19.374 Y2.411 Z-9.99 I4.014 J2.686
N4840 G1 X19.361 Y2.43 Z-9.995
N4845 X19.341 Y2.442 Z-10.
N4850 X18.657 Y2.65
N4855 X18.471 Y2.717
N4860 X18.055 Y2.878
N4865 X17.848 Y2.976
N4870 X17.64 Y3.086
N4875 X17.447 Y3.177
N4880 X17.282 Y3.249
N4885 X17.094 Y3.322
N4890 X16.865 Y3.4
N4895 X16.576 Y3.484
N4900 X16.228 Y3.569
N4905 X15.772 Y3.659
N4910 X15.167 Y3.752
N4915 X14.285 Y3.849
N4920 X13.371 Y3.908
N4925 X12.456 Y3.944
N4930 X11.541 Y3.966
N4935 X10.626 Y3.982
N4940 X9.711 Y4.019
N4945 X8.812 Y4.187
N4950 X7.971 Y4.551
N4955 X7.238 Y5.098
N4960 X6.634 Y5.786
N4965 X6.16 Y6.57
N4970 X5.805 Y7.413
N4975 X5.548 Y8.292
N4980 X5.367 Y9.189
N4985 X5.242 Y10.096
N4990 X5.158 Y11.008
N4995 X5.103 Y11.921
N5000 X5.066 Y12.836
N5005 X5.043 Y13.751
N5010 X5.027 Y14.667
N5015 X5.017 Y15.582
N5020 X5.011 Y16.497
N5025 X5.007 Y17.413
N5030 X5.004 Y18.328
N5035 X5.003 Y19.244
N5040 X5.026 Y20.159
N5045 X5.169 Y21.063
N5050 X5.507 Y21.914
N5055 X6.033 Y22.663
N5060 X6.705 Y23.284
N5065 X7.478 Y23.775
N5070 X8.315 Y24.145
N5075 X9.19 Y24.415
N5080 X10.085 Y24.606
N5085 X10.991 Y24.738
N5090 X11.902 Y24.828
N5095 X12.816 Y24.887
N5100 X14.051 Y24.94
N5105 X14.344 Y24.977
N5110 X14.627 Y25.06
N5115 X14.894 Y25.187
N5120 X15.136 Y25.355
N5125 X15.354 Y25.534
N5130 X15.562 Y25.696
N5135 X15.978 Y26.013
N5140 X16.185 Y26.131
N5145 X16.334 Y26.214
N5150 X16.35 Y26.229 Z-9.995
N5155 X16.359 Y26.249 Z-9.991
N5160 G2 X16.632 Y27.104 Z-9.8 I6.344 J-1.557
N5165 X18.844 Y29.963 I6.071 J-2.412
N5170 X19.165 Y30.078 I0.354 J-0.484
N5175 G1 X25.622 Y30.437
N5180 G2 X25.954 Y30.358 I0.033 J-0.599
N5185 X28.467 Y27.767 I-3.251 J-5.666
N5190 X28.836 Y26.943 Z-9.992 I-5.764 J-3.075
N5195 G1 X28.845 Y26.926 Z-9.996
N5200 X28.86 Y26.914 Z-10.
N5205 X30.107 Y26.248
N5210 X30.362 Y26.105
N5215 X30.522 Y26.013
N5220 X30.595 Y25.971
N5225 X30.757 Y25.891
N5230 X30.929 Y25.816
N5235 X31.142 Y25.733
N5240 X31.409 Y25.642
N5245 X31.707 Y25.555
N5250 X32.095 Y25.459
N5255 X32.57 Y25.364
N5260 X33.212 Y25.265
N5265 X34.122 Y25.164
N5270 X35.035 Y25.102
N5275 X35.949 Y25.059
N5280 X36.863 Y24.998
N5285 X37.757 Y24.805
N5290 X38.586 Y24.415
N5295 X39.307 Y23.851
N5300 X39.899 Y23.153
N5305 X40.362 Y22.364
N5310 X40.71 Y21.517
N5315 X40.961 Y20.637
N5320 X41.138 Y19.738
N5325 X41.26 Y18.831
N5330 X41.342 Y17.919
N5335 X41.397 Y17.006
N5340 X41.433 Y16.091
N5345 X41.457 Y15.176
N5350 X41.472 Y14.26
N5355 X41.482 Y13.345
N5360 X41.489 Y12.43
N5365 X41.493 Y11.514
N5370 Y10.599
N5375 X41.464 Y9.684
N5380 X41.29 Y8.785
N5385 X40.915 Y7.95
N5390 X40.362 Y7.221
N5395 X39.67 Y6.621
N5400 X38.884 Y6.152
N5405 X38.039 Y5.8
N5410 X37.16 Y5.545
N5415 X36.262 Y5.366
N5420 X35.355 Y5.243
N5425 X34.443 Y5.16
N5430 X33.53 Y5.105
N5435 X32.615 Y5.068
N5440 X32.437 Y5.059
N5445 X32.147 Y5.022
N5450 X31.867 Y4.938
N5455 X31.604 Y4.812
N5460 X31.364 Y4.645
N5465 X31.146 Y4.466
N5470 X30.938 Y4.304
N5475 X30.522 Y3.987
N5480 X30.315 Y3.869
N5485 X30.166 Y3.785
N5490 X30.15 Y3.771 Z-9.995
N5495 X30.141 Y3.751 Z-9.991
N5500 G2 X29.867 Y2.896 Z-9.8 I-6.344 J1.557
N5505 X27.656 Y0.037 I-6.071 J2.412
N5510 X27.334 Y-0.078 I-0.354 J0.484
N5515 G1 X20.878 Y-0.437
N5520 G2 X20.546 Y-0.358 I-0.033 J0.599
N5525 X18.033 Y2.233 I3.251 J5.666
N5530 X17.664 Y3.057 Z-9.992 I5.763 J3.075
N5535 G1 X17.655 Y3.074 Z-9.996
N5540 X17.64 Y3.086 Z-10.
N5545 X16.393 Y3.752
N5550 X16.138 Y3.895
N5555 X15.978 Y3.987
N5560 X15.905 Y4.029
N5565 X15.743 Y4.109
N5570 X15.571 Y4.184
N5575 X15.358 Y4.267
N5580 X15.091 Y4.358
N5585 X14.793 Y4.445
N5590 X14.405 Y4.541
N5595 X13.929 Y4.636
N5600 X13.282 Y4.736
N5605 X12.372 Y4.838
N5610 X11.459 Y4.905
N5615 X10.547 Y4.989
N5620 X9.659 Y5.21
N5625 X8.842 Y5.622
N5630 X8.135 Y6.203
N5635 X7.556 Y6.913
N5640 X7.105 Y7.709
N5645 X6.768 Y8.56
N5650 X6.523 Y9.443
N5655 X6.352 Y10.342
N5660 X6.234 Y11.25
N5665 X6.154 Y12.162
N5670 X6.1 Y13.075
N5675 X6.065 Y13.99
N5680 X6.042 Y14.905
N5685 X6.027 Y15.821
N5690 X6.017 Y16.736
N5695 X6.011 Y17.651
N5700 X6.013 Y18.567
N5705 X6.066 Y19.481
N5710 X6.281 Y20.37
N5715 X6.695 Y21.187
N5720 X7.279 Y21.892
N5725 X7.992 Y22.467
N5730 X8.791 Y22.913
N5735 X9.644 Y23.245
N5740 X10.527 Y23.485
N5745 X11.427 Y23.654
N5750 X12.335 Y23.77
N5755 X12.807 Y23.818
N5760 X13.107 Y23.873
N5765 X13.394 Y23.976
N5770 X13.661 Y24.125
N5775 X13.9 Y24.315
N5780 X14.038 Y24.444
N5785 X14.534 Y24.859
N5790 X15.116 Y25.339
N5795 X15.136 Y25.355
N5800 X15.147 Y25.368 Z-9.996
N5805 X15.154 Y25.385 Z-9.993
N5810 G2 X15.402 Y26.256 Z-9.8 I7.764 J-1.739
N5815 X18.088 Y29.968 I7.515 J-2.611
N5820 X18.427 Y30.091 I0.364 J-0.477
N5825 G1 X26.843 Y30.45
N5830 G2 X27.191 Y30.356 I0.026 J-0.599
N5835 X30.182 Y26.889 I-4.274 J-6.711
N5840 X30.505 Y26.039 Z-9.993 I-7.265 J-3.244
N5845 G1 X30.512 Y26.025 Z-9.997
N5850 X30.522 Y26.013 Z-10.
N5855 X30.947 Y25.69
N5860 X31.146 Y25.534
N5865 X31.288 Y25.417
N5870 X31.421 Y25.319
N5875 X31.544 Y25.233
N5880 X31.671 Y25.154
N5885 X31.819 Y25.072
N5890 X31.981 Y24.99
N5895 X32.182 Y24.899
N5900 X32.432 Y24.799
N5905 X32.692 Y24.708
N5910 X33.024 Y24.608
N5915 X33.426 Y24.506
N5920 X33.953 Y24.396
N5925 X34.856 Y24.247
N5930 X35.763 Y24.123
N5935 X36.653 Y23.911
N5940 X37.485 Y23.528
N5945 X38.214 Y22.974
N5950 X38.817 Y22.286
N5955 X39.294 Y21.505
N5960 X39.655 Y20.663
N5965 X39.919 Y19.787
N5970 X40.107 Y18.891
N5975 X40.238 Y17.985
N5980 X40.326 Y17.074
N5985 X40.386 Y16.16
N5990 X40.426 Y15.246
N5995 X40.452 Y14.331
N6000 X40.469 Y13.415
N6005 X40.48 Y12.5
N6010 X40.484 Y11.585
N6015 X40.449 Y10.67
N6020 X40.267 Y9.773
N6025 X39.886 Y8.94
N6030 X39.327 Y8.216
N6035 X38.632 Y7.62
N6040 X37.844 Y7.154
N6045 X36.998 Y6.804
N6050 X36.118 Y6.55
N6055 X35.221 Y6.371
N6060 X34.314 Y6.247
N6065 X33.701 Y6.185
N6070 X33.399 Y6.13
N6075 X33.11 Y6.026
N6080 X32.841 Y5.876
N6085 X32.6 Y5.685
N6090 X32.462 Y5.556
N6095 X31.966 Y5.141
N6100 X31.384 Y4.661
N6105 X31.364 Y4.645
N6110 X31.353 Y4.632 Z-9.996
N6115 X31.346 Y4.615 Z-9.993
N6120 G2 X31.098 Y3.744 Z-9.8 I-7.764 J1.739
N6125 X28.412 Y0.032 I-7.515 J2.611
N6130 X28.074 Y-0.091 I-0.364 J0.477
N6135 G1 X19.657 Y-0.45
N6140 G2 X19.309 Y-0.356 I-0.026 J0.599
N6145 X16.318 Y3.111 I4.274 J6.711
N6150 X15.995 Y3.961 Z-9.993 I7.265 J3.244
N6155 G1 X15.988 Y3.975 Z-9.997
N6160 X15.978 Y3.987 Z-10.
N6165 X15.553 Y4.31
N6170 X15.354 Y4.466
N6175 X15.212 Y4.583
N6180 X15.079 Y4.681
N6185 X14.956 Y4.767
N6190 X14.829 Y4.846
N6195 X14.681 Y4.929
N6200 X14.519 Y5.01
N6205 X14.317 Y5.101
N6210 X14.067 Y5.201
N6215 X13.798 Y5.295
N6220 X13.453 Y5.399
N6225 X12.94 Y5.53
N6230 X12.044 Y5.718
N6235 X11.152 Y5.92
N6240 X10.301 Y6.26
N6245 X9.539 Y6.766
N6250 X8.892 Y7.414
N6255 X8.371 Y8.167
N6260 X7.97 Y8.99
N6265 X7.673 Y9.855
N6270 X7.459 Y10.745
N6275 X7.309 Y11.649
N6280 X7.206 Y12.558
N6285 X7.136 Y13.471
N6290 X7.089 Y14.385
N6295 X7.058 Y15.3
N6300 X7.038 Y16.215
N6305 X7.026 Y17.131
N6310 X7.037 Y18.046
N6315 X7.166 Y18.952
N6320 X7.49 Y19.808
N6325 X7.998 Y20.57
N6330 X8.656 Y21.206
N6335 X9.42 Y21.711
N6340 X10.25 Y22.095
N6345 X11.121 Y22.378
N6350 X12.011 Y22.592
N6355 X12.054 Y22.604
N6360 X12.314 Y22.7
N6365 X12.558 Y22.834
N6370 X12.778 Y23.004
N6375 X12.97 Y23.205
N6380 X13.306 Y23.614
N6385 X13.692 Y24.076
N6390 X13.827 Y24.237
N6395 X13.9 Y24.315
N6400 G3 X13.943 Y25.044 I-0.454 J0.393
N6405 G1 X13.89 Y25.122 Z-9.993
N6410 X13.839 Y25.198 Z-9.971
N6415 X13.79 Y25.27 Z-9.935
N6420 X13.745 Y25.336 Z-9.885
N6425 X13.705 Y25.395 Z-9.824
N6430 X13.671 Y25.446 Z-9.753
N6435 X13.643 Y25.487 Z-9.672
N6440 X13.623 Y25.517 Z-9.585
N6445 X13.611 Y25.535 Z-9.494
N6450 X13.607 Y25.541 Z-9.4
N6455 G0 Z5.
N6460 X30.642 Y26.63
N6465 Z-8.8
N6470 G1 Z-9.4 F1560.
N6475 X30.645 Y26.623 Z-9.494
N6480 X30.652 Y26.603 Z-9.585
N6485 X30.664 Y26.569 Z-9.672
N6490 X30.681 Y26.522 Z-9.753
N6495 X30.702 Y26.465 Z-9.824
N6500 X30.726 Y26.398 Z-9.885
N6505 X30.754 Y26.322 Z-9.935
N6510 X30.783 Y26.24 Z-9.971
N6515 X30.814 Y26.154 Z-9.993
N6520 X30.846 Y26.066 Z-10.
N6525 G3 X31.288 Y25.417 I1.488 J0.538
N6530 G1 X31.769 Y25.022
N6535 X31.977 Y24.851
N6540 X32.392 Y24.503
N6545 X32.518 Y24.408
N6550 X32.641 Y24.322
N6555 X32.768 Y24.241
N6560 X32.925 Y24.152
N6565 X33.12 Y24.051
N6570 X33.345 Y23.947
N6575 X33.621 Y23.834
N6580 X34.482 Y23.523
N6585 X35.354 Y23.247
N6590 X36.19 Y22.873
N6595 X36.942 Y22.351
N6600 X37.584 Y21.698
N6605 X38.104 Y20.944
N6610 X38.507 Y20.122
N6615 X38.807 Y19.258
N6620 X39.025 Y18.369
N6625 X39.178 Y17.466
N6630 X39.285 Y16.557
N6635 X39.357 Y15.644
N6640 X39.406 Y14.73
N6645 X39.438 Y13.815
N6650 X39.458 Y12.9
N6655 X39.453 Y11.985
N6660 X39.332 Y11.077
N6665 X39.017 Y10.218
N6670 X38.514 Y9.453
N6675 X37.859 Y8.813
N6680 X37.098 Y8.304
N6685 X36.269 Y7.917
N6690 X35.399 Y7.631
N6695 X34.509 Y7.415
N6700 X34.451 Y7.399
N6705 X34.189 Y7.303
N6710 X33.945 Y7.168
N6715 X33.725 Y6.999
N6720 X33.532 Y6.798
N6725 X33.194 Y6.386
N6730 X32.808 Y5.924
N6735 X32.673 Y5.763
N6740 X32.6 Y5.685
N6745 G3 X32.557 Y4.956 I0.454 J-0.393
N6750 G1 X32.61 Y4.878 Z-9.993
N6755 X32.661 Y4.802 Z-9.971
N6760 X32.71 Y4.73 Z-9.935
N6765 X32.755 Y4.664 Z-9.885
N6770 X32.795 Y4.605 Z-9.824
N6775 X32.829 Y4.554 Z-9.753
N6780 X32.857 Y4.513 Z-9.672
N6785 X32.877 Y4.483 Z-9.585
N6790 X32.889 Y4.465 Z-9.494
N6795 X32.893 Y4.459 Z-9.4
N6800 G0 Z5.
N6805 X15.858 Y3.37
N6810 Z-8.8
N6815 G1 Z-9.4 F1560.
N6820 X15.855 Y3.377 Z-9.494
N6825 X15.848 Y3.397 Z-9.585
N6830 X15.836 Y3.431 Z-9.672
N6835 X15.819 Y3.478 Z-9.753
N6840 X15.798 Y3.535 Z-9.824
N6845 X15.774 Y3.602 Z-9.885
N6850 X15.746 Y3.678 Z-9.935
N6855 X15.717 Y3.76 Z-9.971
N6860 X15.686 Y3.846 Z-9.993
N6865 X15.654 Y3.934 Z-10.
N6870 G3 X15.212 Y4.583 I-1.488 J-0.538
N6875 G1 X14.731 Y4.978
N6880 X14.523 Y5.149
N6885 X14.108 Y5.497
N6890 X13.974 Y5.598
N6895 X13.852 Y5.684
N6900 X13.703 Y5.779
N6905 X13.505 Y5.894
N6910 X13.248 Y6.028
N6915 X12.419 Y6.417
N6920 X11.591 Y6.808
N6925 X10.823 Y7.306
N6930 X10.151 Y7.928
N6935 X9.593 Y8.653
N6940 X9.15 Y9.454
N6945 X8.812 Y10.305
N6950 X8.564 Y11.186
N6955 X8.386 Y12.084
N6960 X8.261 Y12.991
N6965 X8.175 Y13.902
N6970 X8.116 Y14.816
N6975 X8.077 Y15.73
N6980 X8.057 Y16.646
N6985 X8.117 Y17.559
N6990 X8.352 Y18.444
N6995 X8.782 Y19.252
N7000 X9.381 Y19.944
N7005 X10.104 Y20.507
N7010 X10.905 Y20.948
N7015 X11.166 Y21.07
N7020 X11.422 Y21.215
N7025 X11.652 Y21.4
N7030 X11.848 Y21.619
N7035 X12.008 Y21.867
N7040 X12.03 Y21.908
N7045 X12.237 Y22.274
N7050 X12.653 Y22.817
N7055 X12.861 Y23.072
N7060 X12.97 Y23.205
N7065 G3 X12.968 Y23.935 I-0.477 J0.364
N7070 G1 X12.911 Y24.009 Z-9.993
N7075 X12.855 Y24.082 Z-9.971
N7080 X12.802 Y24.151 Z-9.935
N7085 X12.753 Y24.214 Z-9.885
N7090 X12.709 Y24.271 Z-9.824
N7095 X12.672 Y24.32 Z-9.753
N7100 X12.642 Y24.359 Z-9.672
N7105 X12.62 Y24.387 Z-9.585
N7110 X12.606 Y24.405 Z-9.494
N7115 X12.602 Y24.41 Z-9.4
N7120 G0 Z5.
N7125 X14.742 Y4.278
N7130 Z-8.8
N7135 G1 Z-9.4 F1560.
N7140 X14.739 Y4.285 Z-9.494
N7145 X14.732 Y4.305 Z-9.585
N7150 X14.72 Y4.339 Z-9.672
N7155 X14.704 Y4.386 Z-9.753
N7160 X14.683 Y4.443 Z-9.824
N7165 X14.66 Y4.511 Z-9.885
N7170 X14.633 Y4.587 Z-9.935
N7175 X14.604 Y4.669 Z-9.971
N7180 X14.574 Y4.755 Z-9.993
N7185 X14.543 Y4.844 Z-10.
N7190 G3 X14.108 Y5.497 I-1.493 J-0.524
N7195 G1 X14.038 Y5.556
N7200 X13.9 Y5.685
N7205 X13.827 Y5.763
N7210 X13.383 Y6.293
N7215 X13.263 Y6.423
N7220 X13.01 Y6.675
N7225 X12.334 Y7.292
N7230 X11.666 Y7.918
N7235 X11.063 Y8.607
N7240 X10.55 Y9.365
N7245 X10.137 Y10.182
N7250 X9.816 Y11.039
N7255 X9.575 Y11.922
N7260 X9.399 Y12.821
N7265 X9.273 Y13.727
N7270 X9.186 Y14.639
N7275 X9.133 Y15.552
N7280 X9.159 Y16.467
N7285 X9.366 Y17.359
N7290 X9.775 Y18.178
N7295 X10.35 Y18.891
N7300 X10.468 Y19.
N7305 X10.656 Y19.203
N7310 X10.811 Y19.432
N7315 X10.93 Y19.682
N7320 X11.086 Y20.085
N7325 X11.168 Y20.293
N7330 X11.499 Y20.916
N7335 X12.008 Y21.867
N7340 G3 X11.864 Y22.583 I-0.539 J0.264
N7345 G1 X11.793 Y22.645 Z-9.993
N7350 X11.724 Y22.705 Z-9.971
N7355 X11.658 Y22.762 Z-9.935
N7360 X11.598 Y22.815 Z-9.885
N7365 X11.544 Y22.862 Z-9.824
N7370 X11.498 Y22.902 Z-9.753
N7375 X11.461 Y22.935 Z-9.672
N7380 X11.434 Y22.958 Z-9.585
N7385 X11.417 Y22.973 Z-9.494
N7390 X11.412 Y22.978 Z-9.4
N7395 G0 Z5.
N7400 X13.791 Y4.98
N7405 Z-8.8
N7410 G1 Z-9.4 F1560.
N7415 X13.79 Y4.987 Z-9.494
N7420 X13.787 Y5.009 Z-9.585
N7425 X13.781 Y5.044 Z-9.672
N7430 X13.773 Y5.093 Z-9.753
N7435 X13.763 Y5.153 Z-9.824
N7440 X13.752 Y5.224 Z-9.885
N7445 X13.739 Y5.303 Z-9.935
N7450 X13.726 Y5.389 Z-9.971
N7455 X13.711 Y5.479 Z-9.993
N7460 X13.696 Y5.572 Z-10.
N7465 G3 X13.383 Y6.293 I-1.563 J-0.25
N7470 G1 X13.276 Y6.421
N7475 X12.795 Y7.009
N7480 X12.653 Y7.183
N7485 X12.237 Y7.726
N7490 X12.03 Y8.092
N7495 X11.278 Y9.499
N7500 X11.168 Y9.707
N7505 X11.086 Y9.915
N7510 X10.925 Y10.33
N7515 X10.86 Y10.537
N7520 X10.545 Y11.575
N7525 X10.484 Y11.783
N7530 X10.365 Y12.198
N7535 X10.313 Y12.405
N7540 X10.256 Y12.821
N7545 X10.229 Y13.028
N7550 X10.106 Y14.274
N7555 X10.089 Y14.481
N7560 X10.059 Y14.896
N7565 Y15.104
N7570 X10.089 Y15.519
N7575 X10.106 Y15.726
N7580 X10.229 Y16.972
N7585 X10.256 Y17.179
N7590 X10.313 Y17.595
N7595 X10.367 Y17.811
N7600 X10.484 Y18.217
N7605 X10.575 Y18.524
N7610 X10.86 Y19.463
N7615 X10.925 Y19.67
N7620 X10.93 Y19.682
N7625 G0 Z5.
N7630 X31.758 Y25.722
N7635 Z-8.8
N7640 G1 Z-9.4 F1560.
N7645 X31.761 Y25.715 Z-9.494
N7650 X31.768 Y25.695 Z-9.585
N7655 X31.78 Y25.661 Z-9.672
N7660 X31.796 Y25.614 Z-9.753
N7665 X31.817 Y25.557 Z-9.824
N7670 X31.84 Y25.489 Z-9.885
N7675 X31.867 Y25.413 Z-9.935
N7680 X31.896 Y25.331 Z-9.971
N7685 X31.926 Y25.245 Z-9.993
N7690 X31.957 Y25.156 Z-10.
N7695 G3 X32.392 Y24.503 I1.493 J0.524
N7700 G1 X32.462 Y24.444
N7705 X32.6 Y24.315
N7710 X32.673 Y24.237
N7715 X32.94 Y23.919
N7720 X33.055 Y23.795
N7725 X33.16 Y23.688
N7730 X33.27 Y23.587
N7735 X33.393 Y23.485
N7740 X33.546 Y23.369
N7745 X34.299 Y22.847
N7750 X35.075 Y22.363
N7755 X35.801 Y21.805
N7760 X36.438 Y21.147
N7765 X36.968 Y20.401
N7770 X37.389 Y19.588
N7775 X37.712 Y18.732
N7780 X37.95 Y17.848
N7785 X38.122 Y16.949
N7790 X38.243 Y16.041
N7795 X38.327 Y15.13
N7800 X38.384 Y14.216
N7805 X38.416 Y13.301
N7810 X38.356 Y12.388
N7815 X38.112 Y11.505
N7820 X37.671 Y10.703
N7825 X37.063 Y10.019
N7830 X36.335 Y9.464
N7835 X35.53 Y9.028
N7840 X35.33 Y8.934
N7845 X35.077 Y8.788
N7850 X34.849 Y8.604
N7855 X34.654 Y8.386
N7860 X34.496 Y8.14
N7865 X34.47 Y8.092
N7870 X34.263 Y7.726
N7875 X33.847 Y7.183
N7880 X33.639 Y6.928
N7885 X33.532 Y6.798
N7890 G3 X33.534 Y6.067 I0.477 J-0.364
N7895 G1 X33.591 Y5.993 Z-9.993
N7900 X33.647 Y5.92 Z-9.971
N7905 X33.7 Y5.851 Z-9.935
N7910 X33.749 Y5.788 Z-9.885
N7915 X33.793 Y5.731 Z-9.824
N7920 X33.83 Y5.683 Z-9.753
N7925 X33.86 Y5.644 Z-9.672
N7930 X33.882 Y5.615 Z-9.585
N7935 X33.896 Y5.598 Z-9.494
N7940 X33.9 Y5.592 Z-9.4
N7945 G0 Z5.
N7950 X32.528 Y25.23
N7955 Z-8.8
N7960 G1 Z-9.4 F1560.
N7965 X32.529 Y25.223 Z-9.494
N7970 X32.533 Y25.201 Z-9.585
N7975 X32.539 Y25.166 Z-9.672
N7980 X32.547 Y25.117 Z-9.753
N7985 X32.557 Y25.057 Z-9.824
N7990 X32.568 Y24.986 Z-9.885
N7995 X32.581 Y24.907 Z-9.935
N8000 X32.595 Y24.821 Z-9.971
N8005 X32.61 Y24.731 Z-9.993
N8010 X32.625 Y24.638 Z-10.
N8015 G3 X32.94 Y23.919 I1.562 J0.255
N8020 G1 X33.224 Y23.579
N8025 X33.705 Y22.991
N8030 X33.847 Y22.817
N8035 X34.19 Y22.369
N8040 X34.782 Y21.67
N8045 X35.329 Y20.936
N8050 X35.824 Y20.166
N8055 X36.241 Y19.351
N8060 X36.577 Y18.5
N8065 X36.836 Y17.622
N8070 X37.031 Y16.727
N8075 X37.174 Y15.823
N8080 X37.274 Y14.913
N8085 X37.322 Y13.999
N8090 X37.227 Y13.089
N8095 X36.922 Y12.225
N8100 X36.427 Y11.456
N8105 X36. Y11.004
N8110 X35.83 Y10.798
N8115 X35.687 Y10.572
N8120 X35.575 Y10.33
N8125 X35.414 Y9.915
N8130 X35.332 Y9.707
N8135 X35.001 Y9.084
N8140 X34.496 Y8.14
N8145 G3 X34.64 Y7.424 I0.539 J-0.264
N8150 G1 X34.711 Y7.362 Z-9.993
N8155 X34.78 Y7.302 Z-9.971
N8160 X34.845 Y7.245 Z-9.935
N8165 X34.906 Y7.192 Z-9.885
N8170 X34.96 Y7.145 Z-9.824
N8175 X35.006 Y7.105 Z-9.753
N8180 X35.043 Y7.072 Z-9.672
N8185 X35.07 Y7.049 Z-9.585
N8190 X35.086 Y7.034 Z-9.494
N8195 X35.092 Y7.029 Z-9.4
N8200 G0 Z5.
N8205 X33.839 Y23.698
N8210 Z-8.8
N8215 G1 Z-9.4 F1560.
N8220 Y23.69 Z-9.494
N8225 X33.842 Y23.668 Z-9.585
N8230 X33.846 Y23.633 Z-9.672
N8235 X33.852 Y23.584 Z-9.753
N8240 X33.859 Y23.523 Z-9.824
N8245 X33.867 Y23.452 Z-9.885
N8250 X33.877 Y23.372 Z-9.935
N8255 X33.887 Y23.286 Z-9.971
N8260 X33.897 Y23.195 Z-9.993
N8265 X33.908 Y23.102 Z-10.
N8270 G3 X34.19 Y22.369 I1.572 J0.184
N8275 G1 X34.263 Y22.274
N8280 X34.47 Y21.908
N8285 X35.222 Y20.501
N8290 X35.332 Y20.293
N8295 X35.414 Y20.085
N8300 X35.575 Y19.67
N8305 X35.64 Y19.463
N8310 X35.955 Y18.425
N8315 X36.016 Y18.217
N8320 X36.135 Y17.802
N8325 X36.187 Y17.595
N8330 X36.244 Y17.179
N8335 X36.271 Y16.972
N8340 X36.394 Y15.726
N8345 X36.411 Y15.519
N8350 X36.441 Y15.104
N8355 Y14.896
N8360 X36.411 Y14.481
N8365 X36.394 Y14.274
N8370 X36.271 Y13.028
N8375 X36.244 Y12.821
N8380 X36.187 Y12.405
N8385 X36.133 Y12.189
N8390 X36.016 Y11.783
N8395 X35.925 Y11.476
N8400 X35.64 Y10.537
N8405 X35.575 Y10.33
N8410 X35.557 Y10.239
N8415 X35.554 Y10.146
N8420 X35.57 Y10.074 Z-9.995
N8425 X35.586 Y10.003 Z-9.982
N8430 X35.601 Y9.935 Z-9.959
N8435 X35.645 Y9.869 Z-9.921
N8440 X35.685 Y9.808 Z-9.871
N8445 X35.721 Y9.754 Z-9.812
N8450 X35.766 Y9.718 Z-9.741
N8455 X35.802 Y9.69 Z-9.663
N8460 X35.828 Y9.67 Z-9.579
N8465 X35.844 Y9.657 Z-9.491
N8470 X35.849 Y9.653 Z-9.4
N8475 G0 Z5.
N8480 X-0.47 Y-6.283
N8485 Z-11.4
N8490 G1 Z-12. F1560.
N8495 Z-14.
N8500 G3 X0. Y-3.017 I-14.839 J3.801
N8505 G1 Y-2.902
N8510 X-0.61 Y-2.22
N8515 X-1.069 Y-1.428
N8520 X-1.396 Y-0.573
N8525 X-1.619 Y0.315
N8530 X-1.764 Y1.219
N8535 X-1.857 Y2.13
N8540 X-1.914 Y3.043
N8545 X-1.948 Y3.958
N8550 X-1.969 Y4.873
N8555 X-1.982 Y5.789
N8560 X-1.989 Y6.704
N8565 X-1.994 Y7.62
N8570 X-1.996 Y8.535
N8575 X-1.999 Y10.366
N8580 X-2. Y16.774
N8585 Y28.217
N8590 X-1.814 Y29.113
N8595 X-1.343 Y29.898
N8600 X-0.682 Y30.531
N8605 X0.098 Y31.011
N8610 X0.946 Y31.355
N8615 X1.83 Y31.592
N8620 X2.733 Y31.747
N8625 X3.643 Y31.846
N8630 X4.556 Y31.907
N8635 X5.471 Y31.944
N8640 X6.386 Y31.967
N8645 X7.301 Y31.98
N8650 X8.216 Y31.988
N8655 X9.132 Y31.993
N8660 X10.047 Y31.996
N8665 X11.878 Y31.999
N8670 X14.624 Y32.
N8675 X44.833
N8680 X45.72 Y31.772
N8685 X46.487 Y31.272
N8690 X47.1 Y30.592
N8695 X47.561 Y29.801
N8700 X47.891 Y28.947
N8705 X48.115 Y28.06
N8710 X48.262 Y27.156
N8715 X48.355 Y26.246
N8720 X48.413 Y25.332
N8725 X48.448 Y24.417
N8730 X48.469 Y23.502
N8735 X48.482 Y22.587
N8740 X48.489 Y21.671
N8745 X48.494 Y20.756
N8750 X48.496 Y19.84
N8755 X48.499 Y18.01
N8760 X48.5 Y13.432
N8765 Y1.532
N8770 X48.244 Y0.653
N8775 X47.711 Y-0.091
N8780 X47.01 Y-0.68
N8785 X46.207 Y-1.12
N8790 X45.346 Y-1.431
N8795 X44.455 Y-1.642
N8800 X43.55 Y-1.779
N8805 X42.639 Y-1.866
N8810 X41.725 Y-1.919
N8815 X40.81 Y-1.952
N8820 X39.895 Y-1.971
N8825 X38.98 Y-1.983
N8830 X38.064 Y-1.99
N8835 X37.149 Y-1.994
N8840 X35.318 Y-1.998
N8845 X31.656 Y-2.
N8850 X11.517
N8855 X3.278
N8860 X2.379 Y-1.828
N8865 X1.514 Y-1.53
N8870 X0.784 Y-0.978
N8875 X0.216 Y-0.26
N8880 X-0.198 Y0.557
N8885 X-0.486 Y1.426
N8890 X-0.677 Y2.321
N8895 X-0.8 Y3.228
N8900 X-0.878 Y4.14
N8905 X-0.926 Y5.054
N8910 X-0.956 Y5.969
N8915 X-0.973 Y6.885
N8920 X-0.984 Y7.8
N8925 X-0.99 Y8.715
N8930 X-0.994 Y9.631
N8935 X-0.998 Y11.462
N8940 X-1. Y15.123
N8945 Y26.108
N8950 X-0.988 Y27.024
N8955 X-0.766 Y27.912
N8960 X-0.309 Y28.705
N8965 X0.33 Y29.361
N8970 X1.091 Y29.87
N8975 X1.926 Y30.244
N8980 X2.803 Y30.507
N8985 X3.701 Y30.686
N8990 X4.609 Y30.803
N8995 X5.521 Y30.878
N9000 X6.435 Y30.925
N9005 X7.35 Y30.954
N9010 X8.265 Y30.972
N9015 X9.181 Y30.983
N9020 X10.096 Y30.99
N9025 X11.011 Y30.994
N9030 X12.842 Y30.998
N9035 X16.504 Y31.
N9040 X43.051
N9045 X43.962 Y30.909
N9050 X44.813 Y30.57
N9055 X45.544 Y30.02
N9060 X46.13 Y29.316
N9065 X46.571 Y28.514
N9070 X46.888 Y27.655
N9075 X47.105 Y26.766
N9080 X47.25 Y25.862
N9085 X47.344 Y24.951
N9090 X47.404 Y24.038
N9095 X47.441 Y23.123
N9100 X47.464 Y22.208
N9105 X47.478 Y21.293
N9110 X47.487 Y20.377
N9115 X47.492 Y19.462
N9120 X47.495 Y18.547
N9125 X47.497 Y17.631
N9130 X47.499 Y14.885
N9135 X47.5 Y2.984
N9140 X47.288 Y2.094
N9145 X46.835 Y1.299
N9150 X46.198 Y0.641
N9155 X45.438 Y0.131
N9160 X44.603 Y-0.244
N9165 X43.726 Y-0.508
N9170 X42.828 Y-0.687
N9175 X41.92 Y-0.804
N9180 X41.008 Y-0.879
N9185 X40.094 Y-0.926
N9190 X39.179 Y-0.955
N9195 X38.263 Y-0.973
N9200 X37.348 Y-0.983
N9205 X36.433 Y-0.99
N9210 X35.517 Y-0.994
N9215 X33.686 Y-0.998
N9220 X30.025 Y-1.
N9225 X13.547
N9230 X5.308
N9235 X4.393 Y-0.984
N9240 X3.486 Y-0.86
N9245 X2.643 Y-0.504
N9250 X1.921 Y0.059
N9255 X1.345 Y0.771
N9260 X0.912 Y1.577
N9265 X0.602 Y2.438
N9270 X0.388 Y3.329
N9275 X0.246 Y4.233
N9280 X0.154 Y5.144
N9285 X0.095 Y6.057
N9290 X0.059 Y6.972
N9295 X0.036 Y7.887
N9300 X0.022 Y8.802
N9305 X0.013 Y9.718
N9310 X0.008 Y10.633
N9315 X0.005 Y11.549
N9320 X0.002 Y13.379
N9325 X0. Y17.956
N9330 Y24.364
N9335 X0.002 Y25.28
N9340 X0.083 Y26.192
N9345 X0.387 Y27.055
N9350 X0.899 Y27.814
N9355 X1.571 Y28.436
N9360 X2.35 Y28.916
N9365 X3.195 Y29.269
N9370 X4.076 Y29.518
N9375 X4.975 Y29.688
N9380 X5.884 Y29.801
N9385 X6.796 Y29.875
N9390 X7.711 Y29.922
N9395 X8.626 Y29.951
N9400 X9.541 Y29.97
N9405 X10.456 Y29.982
N9410 X11.371 Y29.989
N9415 X12.287 Y29.993
N9420 X13.202 Y29.996
N9425 X15.033 Y29.998
N9430 X20.526 Y30.
N9435 X41.58
N9440 X42.495 Y29.954
N9445 X43.375 Y29.702
N9450 X44.161 Y29.232
N9455 X44.813 Y28.59
N9460 X45.323 Y27.83
N9465 X45.702 Y26.996
N9470 X45.972 Y26.122
N9475 X46.158 Y25.225
N9480 X46.282 Y24.318
N9485 X46.362 Y23.406
N9490 X46.414 Y22.492
N9495 X46.447 Y21.578
N9500 X46.467 Y20.662
N9505 X46.48 Y19.747
N9510 X46.488 Y18.832
N9515 X46.492 Y17.916
N9520 X46.495 Y17.001
N9525 X46.498 Y15.17
N9530 X46.499 Y13.339
N9535 X46.5 Y5.1
N9540 X46.484 Y4.185
N9545 X46.281 Y3.292
N9550 X45.851 Y2.484
N9555 X45.238 Y1.805
N9560 X44.497 Y1.267
N9565 X43.675 Y0.864
N9570 X42.806 Y0.574
N9575 X41.913 Y0.374
N9580 X41.008 Y0.239
N9585 X40.097 Y0.151
N9590 X39.183 Y0.094
N9595 X38.268 Y0.059
N9600 X37.353 Y0.036
N9605 X36.438 Y0.022
N9610 X35.522 Y0.014
N9615 X34.607 Y0.008
N9620 X33.692 Y0.005
N9625 X31.861 Y0.002
N9630 X27.284 Y0.
N9635 X7.144
N9640 X6.229 Y0.001
N9645 X5.314 Y0.027
N9650 X4.417 Y0.208
N9655 X3.596 Y0.614
N9660 X2.897 Y1.205
N9665 X2.34 Y1.931
N9670 X1.918 Y2.744
N9675 X1.614 Y3.607
N9680 X1.402 Y4.498
N9685 X1.259 Y5.402
N9690 X1.165 Y6.313
N9695 X1.104 Y7.226
N9700 X1.065 Y8.141
N9705 X1.04 Y9.056
N9710 X1.025 Y9.971
N9715 X1.015 Y10.886
N9720 X1.009 Y11.802
N9725 X1.006 Y12.717
N9730 X1.002 Y14.548
N9735 X1. Y18.21
N9740 Y23.702
N9745 X1.023 Y24.618
N9750 X1.212 Y25.513
N9755 X1.615 Y26.335
N9760 X2.2 Y27.039
N9765 X2.921 Y27.603
N9770 X3.729 Y28.034
N9775 X4.589 Y28.348
N9780 X5.477 Y28.569
N9785 X6.38 Y28.719
N9790 X7.29 Y28.819
N9795 X8.203 Y28.885
N9800 X9.118 Y28.927
N9805 X10.033 Y28.954
N9810 X10.948 Y28.971
N9815 X11.863 Y28.982
N9820 X12.779 Y28.989
N9825 X13.694 Y28.993
N9830 X15.525 Y28.997
N9835 X18.271 Y28.999
N9840 X21.017 Y29.
N9845 X40.241
N9850 X41.156 Y28.972
N9855 X42.05 Y28.775
N9860 X42.868 Y28.364
N9865 X43.565 Y27.77
N9870 X44.123 Y27.044
N9875 X44.548 Y26.234
N9880 X44.858 Y25.372
N9885 X45.076 Y24.483
N9890 X45.225 Y23.58
N9895 X45.323 Y22.67
N9900 X45.388 Y21.757
N9905 X45.429 Y20.842
N9910 X45.456 Y19.927
N9915 X45.472 Y19.012
N9920 X45.483 Y18.096
N9925 X45.489 Y17.181
N9930 X45.493 Y16.266
N9935 X45.498 Y14.435
N9940 X45.5 Y10.773
N9945 Y6.196
N9950 X45.469 Y5.281
N9955 X45.262 Y4.389
N9960 X44.836 Y3.579
N9965 X44.231 Y2.893
N9970 X43.498 Y2.344
N9975 X42.682 Y1.928
N9980 X41.818 Y1.625
N9985 X40.928 Y1.413
N9990 X40.024 Y1.268
N9995 X39.114 Y1.172
N10000 X38.2 Y1.109
N10005 X37.286 Y1.069
N10010 X36.371 Y1.043
N10015 X35.455 Y1.027
N10020 X34.54 Y1.017
N10025 X33.625 Y1.01
N10030 X32.709 Y1.006
N10035 X30.878 Y1.002
N10040 X27.217 Y1.
N10045 X7.993
N10050 X7.077 Y1.004
N10055 X6.164 Y1.06
N10060 X5.282 Y1.305
N10065 X4.487 Y1.76
N10070 X3.818 Y2.385
N10075 X3.287 Y3.13
N10080 X2.887 Y3.954
N10085 X2.597 Y4.822
N10090 X2.395 Y5.715
N10095 X2.257 Y6.62
N10100 X2.165 Y7.531
N10105 X2.105 Y8.444
N10110 X2.067 Y9.359
N10115 X2.042 Y10.274
N10120 X2.026 Y11.189
N10125 X2.016 Y12.104
N10130 X2.01 Y13.02
N10135 X2.006 Y13.935
N10140 X2.002 Y15.766
N10145 X2. Y19.428
N10150 Y22.174
N10155 X2.006 Y23.089
N10160 X2.101 Y24.
N10165 X2.398 Y24.866
N10170 X2.892 Y25.636
N10175 X3.546 Y26.278
N10180 X4.309 Y26.782
N10185 X5.143 Y27.161
N10190 X6.016 Y27.435
N10195 X6.912 Y27.625
N10200 X7.818 Y27.755
N10205 X8.729 Y27.842
N10210 X9.643 Y27.898
N10215 X10.558 Y27.935
N10220 X11.473 Y27.959
N10225 X12.388 Y27.974
N10230 X13.303 Y27.984
N10235 X14.219 Y27.99
N10240 X15.134 Y27.994
N10245 X16.965 Y27.998
N10250 X20.627 Y28.
N10255 X20.996
N10260 X21.064 Y28.001
N10265 X21.132 Y28.005
N10270 X21.2 Y28.011
N10275 X21.38 Y28.031
N10280 X22.627 Y28.154
N10285 X23.25 Y28.198
N10290 X23.873 Y28.154
N10295 X24.788 Y28.112
N10300 X25.702 Y28.065
N10305 X26.617 Y28.038
N10310 X27.532 Y28.022
N10315 X28.448 Y28.013
N10320 X29.363 Y28.008
N10325 X30.279 Y28.005
N10330 X32.109 Y28.002
N10335 X36.687 Y28.
N10340 X38.517
N10345 X39.433 Y27.996
N10350 X40.346 Y27.926
N10355 X41.223 Y27.665
N10360 X42.012 Y27.2
N10365 X42.676 Y26.57
N10370 X43.203 Y25.822
N10375 X43.603 Y24.998
N10380 X43.893 Y24.13
N10385 X44.096 Y23.238
N10390 X44.236 Y22.333
N10395 X44.329 Y21.422
N10400 X44.39 Y20.509
N10405 X44.43 Y19.594
N10410 X44.456 Y18.679
N10415 X44.472 Y17.764
N10420 X44.482 Y16.849
N10425 X44.489 Y15.933
N10430 X44.493 Y15.018
N10435 X44.497 Y13.187
N10440 X44.499 Y10.441
N10445 X44.5 Y7.694
N10450 X44.492 Y6.779
N10455 X44.374 Y5.871
N10460 X44.047 Y5.016
N10465 X43.526 Y4.263
N10470 X42.853 Y3.642
N10475 X42.077 Y3.157
N10480 X41.236 Y2.795
N10485 X40.359 Y2.534
N10490 X39.462 Y2.353
N10495 X38.554 Y2.23
N10500 X37.643 Y2.148
N10505 X36.729 Y2.095
N10510 X35.814 Y2.06
N10515 X34.899 Y2.038
N10520 X33.984 Y2.024
N10525 X33.068 Y2.015
N10530 X32.153 Y2.009
N10535 X31.237 Y2.006
N10540 X29.407 Y2.002
N10545 X25.504 Y2.
N10550 X25.435 Y1.999
N10555 X25.367 Y1.995
N10560 X25.299 Y1.989
N10565 X25.12 Y1.969
N10570 X23.873 Y1.846
N10575 X23.25 Y1.802
N10580 X22.627 Y1.846
N10585 X21.712 Y1.889
N10590 X20.798 Y1.935
N10595 X19.883 Y1.962
N10600 X18.968 Y1.978
N10605 X18.052 Y1.987
N10610 X17.137 Y1.992
N10615 X16.221 Y1.995
N10620 X14.391 Y1.998
N10625 X8.898 Y2.
N10630 X7.983 Y2.009
N10635 X7.072 Y2.098
N10640 X6.201 Y2.381
N10645 X5.424 Y2.866
N10650 X4.774 Y3.51
N10655 X4.26 Y4.267
N10660 X3.872 Y5.097
N10665 X3.591 Y5.968
N10670 X3.393 Y6.862
N10675 X3.258 Y7.767
N10680 X3.167 Y8.678
N10685 X3.108 Y9.591
N10690 X3.069 Y10.506
N10695 X3.044 Y11.421
N10700 X3.028 Y12.336
N10705 X3.017 Y13.252
N10710 X3.011 Y14.167
N10715 X3.007 Y15.083
N10720 X3.003 Y16.913
N10725 X3.001 Y19.66
N10730 X3. Y20.575
N10735 X3.001 Y21.49
N10740 X3.027 Y22.406
N10745 X3.201 Y23.304
N10750 X3.58 Y24.137
N10755 X4.141 Y24.861
N10760 X4.839 Y25.453
N10765 X5.632 Y25.911
N10770 X6.482 Y26.252
N10775 X7.364 Y26.495
N10780 X8.264 Y26.665
N10785 X9.172 Y26.78
N10790 X10.084 Y26.857
N10795 X10.998 Y26.908
N10800 X11.913 Y26.941
N10805 X12.828 Y26.962
N10810 X13.743 Y26.976
N10815 X14.659 Y26.985
N10820 X15.574 Y26.99
N10825 X16.489 Y26.994
N10830 X17.38 Y26.996
N10835 X17.61 Y27.011
N10840 X17.836 Y27.053
N10845 X18.055 Y27.122
N10850 X18.471 Y27.283
N10855 X18.657 Y27.35
N10860 X19.925 Y27.735
N10865 X20.133 Y27.795
N10870 X20.549 Y27.914
N10875 X20.757 Y27.951
N10880 X21.172 Y28.008
N10885 X21.2 Y28.011
N10890 X21.209 Y28.013
N10895 G2 X21.661 Y28.134 I1.606 J-5.123
N10900 G1 X21.71 Y28.142
N10905 X21.758 Y28.147
N10910 X21.968 Y28.158
N10915 X23.094 Y28.218
N10920 X23.309 Y28.229
N10925 X23.358 Y28.23
N10930 X23.407 Y28.226
N10935 G2 X23.87 Y28.154 I-0.592 J-5.336
N10940 G1 X23.873
N10945 X25.12 Y28.031
N10950 X25.328 Y28.008
N10955 X25.743 Y27.951
N10960 X25.951 Y27.914
N10965 X26.471 Y27.765
N10970 X26.575 Y27.735
N10975 X27.159 Y27.558
N10980 X27.541 Y27.463
N10985 X27.881 Y27.384
N10990 X28.328 Y27.3
N10995 X28.944 Y27.212
N11000 X29.855 Y27.123
N11005 X30.769 Y27.072
N11010 X31.684 Y27.042
N11015 X32.599 Y27.025
N11020 X33.514 Y27.015
N11025 X34.43 Y27.009
N11030 X35.345 Y27.005
N11035 X38.091 Y27.
N11040 X39.006 Y26.96
N11045 X39.899 Y26.761
N11050 X40.724 Y26.363
N11055 X41.432 Y25.783
N11060 X42.007 Y25.071
N11065 X42.451 Y24.27
N11070 X42.78 Y23.416
N11075 X43.016 Y22.531
N11080 X43.179 Y21.631
N11085 X43.29 Y20.722
N11090 X43.364 Y19.81
N11095 X43.413 Y18.895
N11100 X43.444 Y17.981
N11105 X43.464 Y17.065
N11110 X43.477 Y16.15
N11115 X43.486 Y15.235
N11120 X43.491 Y14.319
N11125 X43.494 Y13.404
N11130 X43.498 Y11.573
N11135 X43.499 Y8.827
N11140 X43.49 Y7.911
N11145 X43.38 Y7.003
N11150 X43.074 Y6.14
N11155 X42.571 Y5.375
N11160 X41.913 Y4.739
N11165 X41.148 Y4.236
N11170 X40.314 Y3.857
N11175 X39.441 Y3.582
N11180 X38.547 Y3.388
N11185 X37.641 Y3.255
N11190 X36.73 Y3.166
N11195 X35.816 Y3.107
N11200 X34.902 Y3.069
N11205 X33.987 Y3.044
N11210 X33.071 Y3.028
N11215 X32.156 Y3.018
N11220 X31.241 Y3.011
N11225 X30.325 Y3.007
N11230 X29.121 Y3.004
N11235 X28.891 Y2.989
N11240 X28.664 Y2.947
N11245 X28.445 Y2.878
N11250 X28.029 Y2.717
N11255 X27.843 Y2.65
N11260 X26.575 Y2.265
N11265 X26.367 Y2.205
N11270 X25.951 Y2.086
N11275 X25.743 Y2.049
N11280 X25.328 Y1.992
N11285 X25.299 Y1.989
N11290 X25.291 Y1.987
N11295 G2 X24.838 Y1.866 I-1.606 J5.121
N11300 G1 X24.79 Y1.858
N11305 X24.741 Y1.853
N11310 X24.531 Y1.842
N11315 X23.406 Y1.782
N11320 X23.191 Y1.771
N11325 X23.142 Y1.77
N11330 X23.093 Y1.774
N11335 G2 X22.63 Y1.846 I0.592 J5.334
N11340 G1 X22.627
N11345 X21.38 Y1.969
N11350 X21.172 Y1.992
N11355 X20.757 Y2.049
N11360 X20.549 Y2.086
N11365 X20.029 Y2.235
N11370 X19.925 Y2.265
N11375 X19.341 Y2.442
N11380 X18.959 Y2.537
N11385 X18.619 Y2.616
N11390 X18.172 Y2.7
N11395 X17.556 Y2.788
N11400 X16.645 Y2.877
N11405 X15.731 Y2.928
N11410 X14.816 Y2.958
N11415 X13.901 Y2.975
N11420 X12.986 Y2.985
N11425 X12.07 Y2.991
N11430 X11.155 Y2.995
N11435 X10.239 Y2.997
N11440 X9.324 Y3.001
N11445 X8.41 Y3.055
N11450 X7.522 Y3.275
N11455 X6.708 Y3.695
N11460 X6.013 Y4.29
N11465 X5.451 Y5.013
N11470 X5.018 Y5.82
N11475 X4.699 Y6.677
N11480 X4.47 Y7.564
N11485 X4.312 Y8.465
N11490 X4.204 Y9.375
N11495 X4.133 Y10.287
N11500 X4.085 Y11.201
N11505 X4.055 Y12.116
N11510 X4.035 Y13.031
N11515 X4.022 Y13.947
N11520 X4.014 Y14.862
N11525 X4.009 Y15.778
N11530 X4.006 Y16.693
N11535 X4.002 Y18.524
N11540 X4.001 Y20.355
N11545 X4.026 Y21.27
N11550 X4.184 Y22.172
N11555 X4.539 Y23.015
N11560 X5.081 Y23.753
N11565 X5.765 Y24.361
N11570 X6.547 Y24.837
N11575 X7.39 Y25.193
N11580 X8.269 Y25.452
N11585 X9.166 Y25.633
N11590 X10.073 Y25.757
N11595 X10.984 Y25.841
N11600 X11.898 Y25.897
N11605 X12.813 Y25.933
N11610 X13.728 Y25.957
N11615 X14.643 Y25.973
N11620 X15.459 Y25.981
N11625 X15.762 Y26.01
N11630 X16.056 Y26.088
N11635 X16.334 Y26.214
N11640 X16.393 Y26.248
N11645 X17.772 Y26.984
N11650 X17.848 Y27.024
N11655 X18.055 Y27.122
N11660 X18.072 Y27.136 Z-13.995
N11665 X18.083 Y27.155 Z-13.991
N11670 G2 X18.433 Y27.981 Z-13.8 I4.602 J-1.467
N11675 X20.85 Y30.157 I4.252 J-2.292
N11680 G1 X20.915 Y30.179
N11685 X20.982 Y30.194
N11690 X21.05 Y30.201
N11695 X23.881 Y30.337
N11700 X23.95 Y30.336
N11705 X24.018 Y30.328
N11710 X24.084 Y30.312
N11715 G2 X26.7 Y28.375 I-1.399 J-4.623
N11720 X27.126 Y27.589 Z-13.99 I-4.015 J-2.686
N11725 G1 X27.139 Y27.57 Z-13.995
N11730 X27.159 Y27.558 Z-14.
N11735 X27.843 Y27.35
N11740 X28.029 Y27.283
N11745 X28.445 Y27.122
N11750 X28.652 Y27.024
N11755 X28.86 Y26.914
N11760 X29.053 Y26.823
N11765 X29.218 Y26.751
N11770 X29.406 Y26.678
N11775 X29.635 Y26.6
N11780 X29.924 Y26.516
N11785 X30.272 Y26.431
N11790 X30.728 Y26.341
N11795 X31.333 Y26.248
N11800 X32.215 Y26.151
N11805 X33.129 Y26.092
N11810 X34.044 Y26.056
N11815 X34.959 Y26.034
N11820 X35.874 Y26.021
N11825 X36.789 Y26.011
N11830 X37.705 Y25.986
N11835 X38.608 Y25.839
N11840 X39.457 Y25.496
N11845 X40.203 Y24.966
N11850 X40.82 Y24.29
N11855 X41.305 Y23.513
N11860 X41.67 Y22.674
N11865 X41.936 Y21.798
N11870 X42.122 Y20.902
N11875 X42.251 Y19.995
N11880 X42.337 Y19.084
N11885 X42.394 Y18.17
N11890 X42.432 Y17.256
N11895 X42.456 Y16.34
N11900 X42.472 Y15.425
N11905 X42.482 Y14.51
N11910 X42.489 Y13.594
N11915 X42.493 Y12.679
N11920 X42.497 Y10.848
N11925 X42.498 Y9.933
N11930 X42.488 Y9.017
N11935 X42.387 Y8.108
N11940 X42.096 Y7.24
N11945 X41.606 Y6.466
N11950 X40.961 Y5.817
N11955 X40.205 Y5.301
N11960 X39.378 Y4.908
N11965 X38.508 Y4.621
N11970 X37.616 Y4.418
N11975 X36.711 Y4.277
N11980 X35.801 Y4.182
N11985 X34.888 Y4.118
N11990 X33.973 Y4.076
N11995 X33.058 Y4.049
N12000 X32.143 Y4.031
N12005 X31.228 Y4.02
N12010 X31.044 Y4.018
N12015 X30.74 Y3.99
N12020 X30.444 Y3.912
N12025 X30.166 Y3.785
N12030 X30.107 Y3.752
N12035 X28.728 Y3.016
N12040 X28.652 Y2.976
N12045 X28.445 Y2.878
N12050 X28.428 Y2.864 Z-13.995
N12055 X28.417 Y2.845 Z-13.991
N12060 G2 X28.067 Y2.019 Z-13.8 I-4.602 J1.467
N12065 X25.65 Y-0.157 I-4.252 J2.292
N12070 G1 X25.585 Y-0.179
N12075 X25.518 Y-0.194
N12080 X25.45 Y-0.201
N12085 X22.619 Y-0.337
N12090 X22.55 Y-0.336
N12095 X22.482 Y-0.328
N12100 X22.416 Y-0.312
N12105 G2 X19.8 Y1.625 I1.399 J4.623
N12110 X19.374 Y2.411 Z-13.99 I4.014 J2.686
N12115 G1 X19.361 Y2.43 Z-13.995
N12120 X19.341 Y2.442 Z-14.
N12125 X18.657 Y2.65
N12130 X18.471 Y2.717
N12135 X18.055 Y2.878
N12140 X17.848 Y2.976
N12145 X17.64 Y3.086
N12150 X17.447 Y3.177
N12155 X17.282 Y3.249
N12160 X17.094 Y3.322
N12165 X16.865 Y3.4
N12170 X16.576 Y3.484
N12175 X16.228 Y3.569
N12180 X15.772 Y3.659
N12185 X15.167 Y3.752
N12190 X14.285 Y3.849
N12195 X13.371 Y3.908
N12200 X12.456 Y3.944
N12205 X11.541 Y3.966
N12210 X10.626 Y3.982
N12215 X9.711 Y4.019
N12220 X8.812 Y4.187
N12225 X7.971 Y4.551
N12230 X7.238 Y5.098
N12235 X6.634 Y5.786
N12240 X6.16 Y6.57
N12245 X5.805 Y7.413
N12250 X5.548 Y8.292
N12255 X5.367 Y9.189
N12260 X5.242 Y10.096
N12265 X5.158 Y11.008
N12270 X5.103 Y11.921
N12275 X5.066 Y12.836
N12280 X5.043 Y13.751
N12285 X5.027 Y14.667
N12290 X5.017 Y15.582
N12295 X5.011 Y16.497
N12300 X5.007 Y17.413
N12305 X5.004 Y18.328
N12310 X5.003 Y19.244
N12315 X5.026 Y20.159
N12320 X5.169 Y21.063
N12325 X5.507 Y21.914
N12330 X6.033 Y22.663
N12335 X6.705 Y23.284
N12340 X7.478 Y23.775
N12345 X8.315 Y24.145
N12350 X9.19 Y24.415
N12355 X10.085 Y24.606
N12360 X10.991 Y24.738
N12365 X11.902 Y24.828
N12370 X12.816 Y24.887
N12375 X14.051 Y24.94
N12380 X14.344 Y24.977
N12385 X14.627 Y25.06
N12390 X14.894 Y25.187
N12395 X15.136 Y25.355
N12400 X15.354 Y25.534
N12405 X15.562 Y25.696
N12410 X15.978 Y26.013
N12415 X16.185 Y26.131
N12420 X16.334 Y26.214
N12425 X16.35 Y26.229 Z-13.995
N12430 X16.359 Y26.249 Z-13.991
N12435 G2 X16.632 Y27.104 Z-13.8 I6.344 J-1.557
N12440 X18.844 Y29.963 I6.071 J-2.412
N12445 X19.165 Y30.078 I0.354 J-0.484
N12450 G1 X25.622 Y30.437
N12455 G2 X25.954 Y30.358 I0.033 J-0.599
N12460 X28.467 Y27.767 I-3.251 J-5.666
N12465 X28.836 Y26.943 Z-13.992 I-5.764 J-3.075
N12470 G1 X28.845 Y26.926 Z-13.996
N12475 X28.86 Y26.914 Z-14.
N12480 X30.107 Y26.248
N12485 X30.362 Y26.105
N12490 X30.522 Y26.013
N12495 X30.595 Y25.971
N12500 X30.757 Y25.891
N12505 X30.929 Y25.816
N12510 X31.142 Y25.733
N12515 X31.409 Y25.642
N12520 X31.707 Y25.555
N12525 X32.095 Y25.459
N12530 X32.57 Y25.364
N12535 X33.212 Y25.265
N12540 X34.122 Y25.164
N12545 X35.035 Y25.102
N12550 X35.949 Y25.059
N12555 X36.863 Y24.998
N12560 X37.757 Y24.805
N12565 X38.586 Y24.415
N12570 X39.307 Y23.851
N12575 X39.899 Y23.153
N12580 X40.362 Y22.364
N12585 X40.71 Y21.517
N12590 X40.961 Y20.637
N12595 X41.138 Y19.738
N12600 X41.26 Y18.831
N12605 X41.342 Y17.919
N12610 X41.397 Y17.006
N12615 X41.433 Y16.091
N12620 X41.457 Y15.176
N12625 X41.472 Y14.26
N12630 X41.482 Y13.345
N12635 X41.489 Y12.43
N12640 X41.493 Y11.514
N12645 Y10.599
N12650 X41.464 Y9.684
N12655 X41.29 Y8.785
N12660 X40.915 Y7.95
N12665 X40.362 Y7.221
N12670 X39.67 Y6.621
N12675 X38.884 Y6.152
N12680 X38.039 Y5.8
N12685 X37.16 Y5.545
N12690 X36.262 Y5.366
N12695 X35.355 Y5.243
N12700 X34.443 Y5.16
N12705 X33.53 Y5.105
N12710 X32.615 Y5.068
N12715 X32.437 Y5.059
N12720 X32.147 Y5.022
N12725 X31.867 Y4.938
N12730 X31.604 Y4.812
N12735 X31.364 Y4.645
N12740 X31.146 Y4.466
N12745 X30.938 Y4.304
N12750 X30.522 Y3.987
N12755 X30.315 Y3.869
N12760 X30.166 Y3.785
N12765 X30.15 Y3.771 Z-13.995
N12770 X30.141 Y3.751 Z-13.991
N12775 G2 X29.867 Y2.896 Z-13.8 I-6.344 J1.557
N12780 X27.656 Y0.037 I-6.071 J2.412
N12785 X27.334 Y-0.078 I-0.354 J0.484
N12790 G1 X20.878 Y-0.437
N12795 G2 X20.546 Y-0.358 I-0.033 J0.599
N12800 X18.033 Y2.233 I3.251 J5.666
N12805 X17.664 Y3.057 Z-13.992 I5.763 J3.075
N12810 G1 X17.655 Y3.074 Z-13.996
N12815 X17.64 Y3.086 Z-14.
N12820 X16.393 Y3.752
N12825 X16.138 Y3.895
N12830 X15.978 Y3.987
N12835 X15.905 Y4.029
N12840 X15.743 Y4.109
N12845 X15.571 Y4.184
N12850 X15.358 Y4.267
N12855 X15.091 Y4.358
N12860 X14.793 Y4.445
N12865 X14.405 Y4.541
N12870 X13.929 Y4.636
N12875 X13.282 Y4.736
N12880 X12.372 Y4.838
N12885 X11.459 Y4.905
N12890 X10.547 Y4.989
N12895 X9.659 Y5.21
N12900 X8.842 Y5.622
N12905 X8.135 Y6.203
N12910 X7.556 Y6.913
N12915 X7.105 Y7.709
N12920 X6.768 Y8.56
N12925 X6.523 Y9.443
N12930 X6.352 Y10.342
N12935 X6.234 Y11.25
N12940 X6.154 Y12.162
N12945 X6.1 Y13.075
N12950 X6.065 Y13.99
N12955 X6.042 Y14.905
N12960 X6.027 Y15.821
N12965 X6.017 Y16.736
N12970 X6.011 Y17.651
N12975 X6.013 Y18.567
N12980 X6.066 Y19.481
N12985 X6.281 Y20.37
N12990 X6.695 Y21.187
N12995 X7.279 Y21.892
N13000 X7.992 Y22.467
N13005 X8.791 Y22.913
N13010 X9.644 Y23.245
N13015 X10.527 Y23.485
N13020 X11.427 Y23.654
N13025 X12.335 Y23.77
N13030 X12.807 Y23.818
N13035 X13.107 Y23.873
N13040 X13.394 Y23.976
N13045 X13.661 Y24.125
N13050 X13.9 Y24.315
N13055 X14.038 Y24.444
N13060 X14.534 Y24.859
N13065 X15.116 Y25.339
N13070 X15.136 Y25.355
N13075 X15.147 Y25.368 Z-13.996
N13080 X15.154 Y25.385 Z-13.993
N13085 G2 X15.402 Y26.256 Z-13.8 I7.764 J-1.739
N13090 X18.088 Y29.968 I7.515 J-2.611
N13095 X18.427 Y30.091 I0.364 J-0.477
N13100 G1 X26.843 Y30.45
N13105 G2 X27.191 Y30.356 I0.026 J-0.599
N13110 X30.182 Y26.889 I-4.274 J-6.711
N13115 X30.505 Y26.039 Z-13.993 I-7.265 J-3.244
N13120 G1 X30.512 Y26.025 Z-13.997
N13125 X30.522 Y26.013 Z-14.
N13130 X30.947 Y25.69
N13135 X31.146 Y25.534
N13140 X31.288 Y25.417
N13145 X31.421 Y25.319
N13150 X31.544 Y25.233
N13155 X31.671 Y25.154
N13160 X31.819 Y25.072
N13165 X31.981 Y24.99
N13170 X32.182 Y24.899
N13175 X32.432 Y24.799
N13180 X32.692 Y24.708
N13185 X33.024 Y24.608
N13190 X33.426 Y24.506
N13195 X33.953 Y24.396
N13200 X34.856 Y24.247
N13205 X35.763 Y24.123
N13210 X36.653 Y23.911
N13215 X37.485 Y23.528
N13220 X38.214 Y22.974
N13225 X38.817 Y22.286
N13230 X39.294 Y21.505
N13235 X39.655 Y20.663
N13240 X39.919 Y19.787
N13245 X40.107 Y18.891
N13250 X40.238 Y17.985
N13255 X40.326 Y17.074
N13260 X40.386 Y16.16
N13265 X40.426 Y15.246
N13270 X40.452 Y14.331
N13275 X40.469 Y13.415
N13280 X40.48 Y12.5
N13285 X40.484 Y11.585
N13290 X40.449 Y10.67
N13295 X40.267 Y9.773
N13300 X39.886 Y8.94
N13305 X39.327 Y8.216
N13310 X38.632 Y7.62
N13315 X37.844 Y7.154
N13320 X36.998 Y6.804
N13325 X36.118 Y6.55
N13330 X35.221 Y6.371
N13335 X34.314 Y6.247
N13340 X33.701 Y6.185
N13345 X33.399 Y6.13
N13350 X33.11 Y6.026
N13355 X32.841 Y5.876
N13360 X32.6 Y5.685
N13365 X32.462 Y5.556
N13370 X31.966 Y5.141
N13375 X31.384 Y4.661
N13380 X31.364 Y4.645
N13385 X31.353 Y4.632 Z-13.996
N13390 X31.346 Y4.615 Z-13.993
N13395 G2 X31.098 Y3.744 Z-13.8 I-7.764 J1.739
N13400 X28.412 Y0.032 I-7.515 J2.611
N13405 X28.074 Y-0.091 I-0.364 J0.477
N13410 G1 X19.657 Y-0.45
N13415 G2 X19.309 Y-0.356 I-0.026 J0.599
N13420 X16.318 Y3.111 I4.274 J6.711
N13425 X15.995 Y3.961 Z-13.993 I7.265 J3.244
N13430 G1 X15.988 Y3.975 Z-13.997
N13435 X15.978 Y3.987 Z-14.
N13440 X15.553 Y4.31
N13445 X15.354 Y4.466
N13450 X15.212 Y4.583
N13455 X15.079 Y4.681
N13460 X14.956 Y4.767
N13465 X14.829 Y4.846
N13470 X14.681 Y4.929
N13475 X14.519 Y5.01
N13480 X14.317 Y5.101
N13485 X14.067 Y5.201
N13490 X13.798 Y5.295
N13495 X13.453 Y5.399
N13500 X12.94 Y5.53
N13505 X12.044 Y5.718
N13510 X11.152 Y5.92
N13515 X10.301 Y6.26
N13520 X9.539 Y6.766
N13525 X8.892 Y7.414
N13530 X8.371 Y8.167
N13535 X7.97 Y8.99
N13540 X7.673 Y9.855
N13545 X7.459 Y10.745
N13550 X7.309 Y11.649
N13555 X7.206 Y12.558
N13560 X7.136 Y13.471
N13565 X7.089 Y14.385
N13570 X7.058 Y15.3
N13575 X7.038 Y16.215
N13580 X7.026 Y17.131
N13585 X7.037 Y18.046
N13590 X7.166 Y18.952
N13595 X7.49 Y19.808
N13600 X7.998 Y20.57
N13605 X8.656 Y21.206
N13610 X9.42 Y21.711
N13615 X10.25 Y22.095
N13620 X11.121 Y22.378
N13625 X12.011 Y22.592
N13630 X12.054 Y22.604
N13635 X12.314 Y22.7
N13640 X12.558 Y22.834
N13645 X12.778 Y23.004
N13650 X12.97 Y23.205
N13655 X13.306 Y23.614
N13660 X13.692 Y24.076
N13665 X13.827 Y24.237
N13670 X13.9 Y24.315
N13675 G3 X13.943 Y25.044 I-0.454 J0.393
N13680 G1 X13.89 Y25.122 Z-13.993
N13685 X13.839 Y25.198 Z-13.971
N13690 X13.79 Y25.27 Z-13.935
N13695 X13.745 Y25.336 Z-13.885
N13700 X13.705 Y25.395 Z-13.824
N13705 X13.671 Y25.446 Z-13.753
N13710 X13.643 Y25.487 Z-13.672
N13715 X13.623 Y25.517 Z-13.585
N13720 X13.611 Y25.535 Z-13.494
N13725 X13.607 Y25.541 Z-13.4
N13730 G0 Z5.
N13735 X30.642 Y26.63
N13740 Z-12.8
N13745 G1 Z-13.4 F1560.
N13750 X30.645 Y26.623 Z-13.494
N13755 X30.652 Y26.603 Z-13.585
N13760 X30.664 Y26.569 Z-13.672
N13765 X30.681 Y26.522 Z-13.753
N13770 X30.702 Y26.465 Z-13.824
N13775 X30.726 Y26.398 Z-13.885
N13780 X30.754 Y26.322 Z-13.935
N13785 X30.783 Y26.24 Z-13.971
N13790 X30.814 Y26.154 Z-13.993
N13795 X30.846 Y26.066 Z-14.
N13800 G3 X31.288 Y25.417 I1.488 J0.538
N13805 G1 X31.769 Y25.022
N13810 X31.977 Y24.851
N13815 X32.392 Y24.503
N13820 X32.518 Y24.408
N13825 X32.641 Y24.322
N13830 X32.768 Y24.241
N13835 X32.925 Y24.152
N13840 X33.12 Y24.051
N13845 X33.345 Y23.947
N13850 X33.621 Y23.834
N13855 X34.482 Y23.523
N13860 X35.354 Y23.247
N13865 X36.19 Y22.873
N13870 X36.942 Y22.351
N13875 X37.584 Y21.698
N13880 X38.104 Y20.944
N13885 X38.507 Y20.122
N13890 X38.807 Y19.258
N13895 X39.025 Y18.369
N13900 X39.178 Y17.466
N13905 X39.285 Y16.557
N13910 X39.357 Y15.644
N13915 X39.406 Y14.73
N13920 X39.438 Y13.815
N13925 X39.458 Y12.9
N13930 X39.453 Y11.985
N13935 X39.332 Y11.077
N13940 X39.017 Y10.218
N13945 X38.514 Y9.453
N13950 X37.859 Y8.813
N13955 X37.098 Y8.304
N13960 X36.269 Y7.917
N13965 X35.399 Y7.631
N13970 X34.509 Y7.415
N13975 X34.451 Y7.399
N13980 X34.189 Y7.303
N13985 X33.945 Y7.168
N13990 X33.725 Y6.999
N13995 X33.532 Y6.798
N14000 X33.194 Y6.386
N14005 X32.808 Y5.924
N14010 X32.673 Y5.763
N14015 X32.6 Y5.685
N14020 G3 X32.557 Y4.956 I0.454 J-0.393
N14025 G1 X32.61 Y4.878 Z-13.993
N14030 X32.661 Y4.802 Z-13.971
N14035 X32.71 Y4.73 Z-13.935
N14040 X32.755 Y4.664 Z-13.885
N14045 X32.795 Y4.605 Z-13.824
N14050 X32.829 Y4.554 Z-13.753
N14055 X32.857 Y4.513 Z-13.672
N14060 X32.877 Y4.483 Z-13.585
N14065 X32.889 Y4.465 Z-13.494
N14070 X32.893 Y4.459 Z-13.4
N14075 G0 Z5.
N14080 X15.858 Y3.37
N14085 Z-12.8
N14090 G1 Z-13.4 F1560.
N14095 X15.855 Y3.377 Z-13.494
N14100 X15.848 Y3.397 Z-13.585
N14105 X15.836 Y3.431 Z-13.672
N14110 X15.819 Y3.478 Z-13.753
N14115 X15.798 Y3.535 Z-13.824
N14120 X15.774 Y3.602 Z-13.885
N14125 X15.746 Y3.678 Z-13.935
N14130 X15.717 Y3.76 Z-13.971
N14135 X15.686 Y3.846 Z-13.993
N14140 X15.654 Y3.934 Z-14.
N14145 G3 X15.212 Y4.583 I-1.488 J-0.538
N14150 G1 X14.731 Y4.978
N14155 X14.523 Y5.149
N14160 X14.108 Y5.497
N14165 X13.974 Y5.598
N14170 X13.852 Y5.684
N14175 X13.703 Y5.779
N14180 X13.505 Y5.894
N14185 X13.248 Y6.028
N14190 X12.419 Y6.417
N14195 X11.591 Y6.808
N14200 X10.823 Y7.306
N14205 X10.151 Y7.928
N14210 X9.593 Y8.653
N14215 X9.15 Y9.454
N14220 X8.812 Y10.305
N14225 X8.564 Y11.186
N14230 X8.386 Y12.084
N14235 X8.261 Y12.991
N14240 X8.175 Y13.902
N14245 X8.116 Y14.816
N14250 X8.077 Y15.73
N14255 X8.057 Y16.646
N14260 X8.117 Y17.559
N14265 X8.352 Y18.444
N14270 X8.782 Y19.252
N14275 X9.381 Y19.944
N14280 X10.104 Y20.507
N14285 X10.905 Y20.948
N14290 X11.166 Y21.07
N14295 X11.422 Y21.215
N14300 X11.652 Y21.4
N14305 X11.848 Y21.619
N14310 X12.008 Y21.867
N14315 X12.03 Y21.908
N14320 X12.237 Y22.274
N14325 X12.653 Y22.817
N14330 X12.861 Y23.072
N14335 X12.97 Y23.205
N14340 G3 X12.968 Y23.935 I-0.477 J0.364
N14345 G1 X12.911 Y24.009 Z-13.993
N14350 X12.855 Y24.082 Z-13.971
N14355 X12.802 Y24.151 Z-13.935
N14360 X12.753 Y24.214 Z-13.885
N14365 X12.709 Y24.271 Z-13.824
N14370 X12.672 Y24.32 Z-13.753
N14375 X12.642 Y24.359 Z-13.672
N14380 X12.62 Y24.387 Z-13.585
N14385 X12.606 Y24.405 Z-13.494
N14390 X12.602 Y24.41 Z-13.4
N14395 G0 Z5.
N14400 X14.742 Y4.278
N14405 Z-12.8
N14410 G1 Z-13.4 F1560.
N14415 X14.739 Y4.285 Z-13.494
N14420 X14.732 Y4.305 Z-13.585
N14425 X14.72 Y4.339 Z-13.672
N14430 X14.704 Y4.386 Z-13.753
N14435 X14.683 Y4.443 Z-13.824
N14440 X14.66 Y4.511 Z-13.885
N14445 X14.633 Y4.587 Z-13.935
N14450 X14.604 Y4.669 Z-13.971
N14455 X14.574 Y4.755 Z-13.993
N14460 X14.543 Y4.844 Z-14.
N14465 G3 X14.108 Y5.497 I-1.493 J-0.524
N14470 G1 X14.038 Y5.556
N14475 X13.9 Y5.685
N14480 X13.827 Y5.763
N14485 X13.383 Y6.293
N14490 X13.263 Y6.423
N14495 X13.01 Y6.675
N14500 X12.334 Y7.292
N14505 X11.666 Y7.918
N14510 X11.063 Y8.607
N14515 X10.55 Y9.365
N14520 X10.137 Y10.182
N14525 X9.816 Y11.039
N14530 X9.575 Y11.922
N14535 X9.399 Y12.821
N14540 X9.273 Y13.727
N14545 X9.186 Y14.639
N14550 X9.133 Y15.552
N14555 X9.159 Y16.467
N14560 X9.366 Y17.359
N14565 X9.775 Y18.178
N14570 X10.35 Y18.891
N14575 X10.468 Y19.
N14580 X10.656 Y19.203
N14585 X10.811 Y19.432
N14590 X10.93 Y19.682
N14595 X11.086 Y20.085
N14600 X11.168 Y20.293
N14605 X11.499 Y20.916
N14610 X12.008 Y21.867
N14615 G3 X11.864 Y22.583 I-0.539 J0.264
N14620 G1 X11.793 Y22.645 Z-13.993
N14625 X11.724 Y22.705 Z-13.971
N14630 X11.658 Y22.762 Z-13.935
N14635 X11.598 Y22.815 Z-13.885
N14640 X11.544 Y22.862 Z-13.824
N14645 X11.498 Y22.902 Z-13.753
N14650 X11.461 Y22.935 Z-13.672
N14655 X11.434 Y22.958 Z-13.585
N14660 X11.417 Y22.973 Z-13.494
N14665 X11.412 Y22.978 Z-13.4
N14670 G0 Z5.
N14675 X13.791 Y4.98
N14680 Z-12.8
N14685 G1 Z-13.4 F1560.
N14690 X13.79 Y4.987 Z-13.494
N14695 X13.787 Y5.009 Z-13.585
N14700 X13.781 Y5.044 Z-13.672
N14705 X13.773 Y5.093 Z-13.753
N14710 X13.763 Y5.153 Z-13.824
N14715 X13.752 Y5.224 Z-13.885
N14720 X13.739 Y5.303 Z-13.935
N14725 X13.726 Y5.389 Z-13.971
N14730 X13.711 Y5.479 Z-13.993
N14735 X13.696 Y5.572 Z-14.
N14740 G3 X13.383 Y6.293 I-1.563 J-0.25
N14745 G1 X13.276 Y6.421
N14750 X12.795 Y7.009
N14755 X12.653 Y7.183
N14760 X12.237 Y7.726
N14765 X12.03 Y8.092
N14770 X11.278 Y9.499
N14775 X11.168 Y9.707
N14780 X11.086 Y9.915
N14785 X10.925 Y10.33
N14790 X10.86 Y10.537
N14795 X10.545 Y11.575
N14800 X10.484 Y11.783
N14805 X10.365 Y12.198
N14810 X10.313 Y12.405
N14815 X10.256 Y12.821
N14820 X10.229 Y13.028
N14825 X10.106 Y14.274
N14830 X10.089 Y14.481
N14835 X10.059 Y14.896
N14840 Y15.104
N14845 X10.089 Y15.519
N14850 X10.106 Y15.726
N14855 X10.229 Y16.972
N14860 X10.256 Y17.179
N14865 X10.313 Y17.595
N14870 X10.367 Y17.811
N14875 X10.484 Y18.217
N14880 X10.575 Y18.524
N14885 X10.86 Y19.463
N14890 X10.925 Y19.67
N14895 X10.93 Y19.682
N14900 G0 Z5.
N14905 X31.758 Y25.722
N14910 Z-12.8
N14915 G1 Z-13.4 F1560.
N14920 X31.761 Y25.715 Z-13.494
N14925 X31.768 Y25.695 Z-13.585
N14930 X31.78 Y25.661 Z-13.672
N14935 X31.796 Y25.614 Z-13.753
N14940 X31.817 Y25.557 Z-13.824
N14945 X31.84 Y25.489 Z-13.885
N14950 X31.867 Y25.413 Z-13.935
N14955 X31.896 Y25.331 Z-13.971
N14960 X31.926 Y25.245 Z-13.993
N14965 X31.957 Y25.156 Z-14.
N14970 G3 X32.392 Y24.503 I1.493 J0.524
N14975 G1 X32.462 Y24.444
N14980 X32.6 Y24.315
N14985 X32.673 Y24.237
N14990 X32.94 Y23.919
N14995 X33.055 Y23.795
N15000 X33.16 Y23.688
N15005 X33.27 Y23.587
N15010 X33.393 Y23.485
N15015 X33.546 Y23.369
N15020 X34.299 Y22.847
N15025 X35.075 Y22.363
N15030 X35.801 Y21.805
N15035 X36.438 Y21.147
N15040 X36.968 Y20.401
N15045 X37.389 Y19.588
N15050 X37.712 Y18.732
N15055 X37.95 Y17.848
N15060 X38.122 Y16.949
N15065 X38.243 Y16.041
N15070 X38.327 Y15.13
N15075 X38.384 Y14.216
N15080 X38.416 Y13.301
N15085 X38.356 Y12.388
N15090 X38.112 Y11.505
N15095 X37.671 Y10.703
N15100 X37.063 Y10.019
N15105 X36.335 Y9.464
N15110 X35.53 Y9.028
N15115 X35.33 Y8.934
N15120 X35.077 Y8.788
N15125 X34.849 Y8.604
N15130 X34.654 Y8.386
N15135 X34.496 Y8.14
N15140 X34.47 Y8.092
N15145 X34.263 Y7.726
N15150 X33.847 Y7.183
N15155 X33.639 Y6.928
N15160 X33.532 Y6.798
N15165 G3 X33.534 Y6.067 I0.477 J-0.364
N15170 G1 X33.591 Y5.993 Z-13.993
N15175 X33.647 Y5.92 Z-13.971
N15180 X33.7 Y5.851 Z-13.935
N15185 X33.749 Y5.788 Z-13.885
N15190 X33.793 Y5.731 Z-13.824
N15195 X33.83 Y5.683 Z-13.753
N15200 X33.86 Y5.644 Z-13.672
N15205 X33.882 Y5.615 Z-13.585
N15210 X33.896 Y5.598 Z-13.494
N15215 X33.9 Y5.592 Z-13.4
N15220 G0 Z5.
N15225 X32.528 Y25.23
N15230 Z-12.8
N15235 G1 Z-13.4 F1560.
N15240 X32.529 Y25.223 Z-13.494
N15245 X32.533 Y25.201 Z-13.585
N15250 X32.539 Y25.166 Z-13.672
N15255 X32.547 Y25.117 Z-13.753
N15260 X32.557 Y25.057 Z-13.824
N15265 X32.568 Y24.986 Z-13.885
N15270 X32.581 Y24.907 Z-13.935
N15275 X32.595 Y24.821 Z-13.971
N15280 X32.61 Y24.731 Z-13.993
N15285 X32.625 Y24.638 Z-14.
N15290 G3 X32.94 Y23.919 I1.562 J0.255
N15295 G1 X33.224 Y23.579
N15300 X33.705 Y22.991
N15305 X33.847 Y22.817
N15310 X34.19 Y22.369
N15315 X34.782 Y21.67
N15320 X35.329 Y20.936
N15325 X35.824 Y20.166
N15330 X36.241 Y19.351
N15335 X36.577 Y18.5
N15340 X36.836 Y17.622
N15345 X37.031 Y16.727
N15350 X37.174 Y15.823
N15355 X37.274 Y14.913
N15360 X37.322 Y13.999
N15365 X37.227 Y13.089
N15370 X36.922 Y12.225
N15375 X36.427 Y11.456
N15380 X36. Y11.004
N15385 X35.83 Y10.798
N15390 X35.687 Y10.572
N15395 X35.575 Y10.33
N15400 X35.414 Y9.915
N15405 X35.332 Y9.707
N15410 X35.001 Y9.084
N15415 X34.496 Y8.14
N15420 G3 X34.64 Y7.424 I0.539 J-0.264
N15425 G1 X34.711 Y7.362 Z-13.993
N15430 X34.78 Y7.302 Z-13.971
N15435 X34.845 Y7.245 Z-13.935
N15440 X34.906 Y7.192 Z-13.885
N15445 X34.96 Y7.145 Z-13.824
N15450 X35.006 Y7.105 Z-13.753
N15455 X35.043 Y7.072 Z-13.672
N15460 X35.07 Y7.049 Z-13.585
N15465 X35.086 Y7.034 Z-13.494
N15470 X35.092 Y7.029 Z-13.4
N15475 G0 Z5.
N15480 X33.839 Y23.698
N15485 Z-12.8
N15490 G1 Z-13.4 F1560.
N15495 Y23.69 Z-13.494
N15500 X33.842 Y23.668 Z-13.585
N15505 X33.846 Y23.633 Z-13.672
N15510 X33.852 Y23.584 Z-13.753
N15515 X33.859 Y23.523 Z-13.824
N15520 X33.867 Y23.452 Z-13.885
N15525 X33.877 Y23.372 Z-13.935
N15530 X33.887 Y23.286 Z-13.971
N15535 X33.897 Y23.195 Z-13.993
N15540 X33.908 Y23.102 Z-14.
N15545 G3 X34.19 Y22.369 I1.572 J0.184
N15550 G1 X34.263 Y22.274
N15555 X34.47 Y21.908
N15560 X35.222 Y20.501
N15565 X35.332 Y20.293
N15570 X35.414 Y20.085
N15575 X35.575 Y19.67
N15580 X35.64 Y19.463
N15585 X35.955 Y18.425
N15590 X36.016 Y18.217
N15595 X36.135 Y17.802
N15600 X36.187 Y17.595
N15605 X36.244 Y17.179
N15610 X36.271 Y16.972
N15615 X36.394 Y15.726
N15620 X36.411 Y15.519
N15625 X36.441 Y15.104
N15630 Y14.896
N15635 X36.411 Y14.481
N15640 X36.394 Y14.274
N15645 X36.271 Y13.028
N15650 X36.244 Y12.821
N15655 X36.187 Y12.405
N15660 X36.133 Y12.189
N15665 X36.016 Y11.783
N15670 X35.925 Y11.476
N15675 X35.64 Y10.537
N15680 X35.575 Y10.33
N15685 X35.557 Y10.239
N15690 X35.554 Y10.146
N15695 X35.57 Y10.074 Z-13.995
N15700 X35.586 Y10.003 Z-13.982
N15705 X35.601 Y9.935 Z-13.959
N15710 X35.645 Y9.869 Z-13.921
N15715 X35.685 Y9.808 Z-13.871
N15720 X35.721 Y9.754 Z-13.812
N15725 X35.766 Y9.718 Z-13.741
N15730 X35.802 Y9.69 Z-13.663
N15735 X35.828 Y9.67 Z-13.579
N15740 X35.844 Y9.657 Z-13.491
N15745 X35.849 Y9.653 Z-13.4
N15750 G0 Z5.
N15755 X-0.47 Y-6.283
N15760 Z-15.4
N15765 G1 Z-16. F1560.
N15770 Z-18.
N15775 G3 X0. Y-3.017 I-14.839 J3.801
N15780 G1 Y-2.902
N15785 X-0.61 Y-2.22
N15790 X-1.069 Y-1.428
N15795 X-1.396 Y-0.573
N15800 X-1.619 Y0.315
N15805 X-1.764 Y1.219
N15810 X-1.857 Y2.13
N15815 X-1.914 Y3.043
N15820 X-1.948 Y3.958
N15825 X-1.969 Y4.873
N15830 X-1.982 Y5.789
N15835 X-1.989 Y6.704
N15840 X-1.994 Y7.62
N15845 X-1.996 Y8.535
N15850 X-1.999 Y10.366
N15855 X-2. Y16.774
N15860 Y28.217
N15865 X-1.814 Y29.113
N15870 X-1.343 Y29.898
N15875 X-0.682 Y30.531
N15880 X0.098 Y31.011
N15885 X0.946 Y31.355
N15890 X1.83 Y31.592
N15895 X2.733 Y31.747
N15900 X3.643 Y31.846
N15905 X4.556 Y31.907
N15910 X5.471 Y31.944
N15915 X6.386 Y31.967
N15920 X7.301 Y31.98
N15925 X8.216 Y31.988
N15930 X9.132 Y31.993
N15935 X10.047 Y31.996
N15940 X11.878 Y31.999
N15945 X14.624 Y32.
N15950 X44.833
N15955 X45.72 Y31.772
N15960 X46.487 Y31.272
N15965 X47.1 Y30.592
N15970 X47.561 Y29.801
N15975 X47.891 Y28.947
N15980 X48.115 Y28.06
N15985 X48.262 Y27.156
N15990 X48.355 Y26.246
N15995 X48.413 Y25.332
N16000 X48.448 Y24.417
N16005 X48.469 Y23.502
N16010 X48.482 Y22.587
N16015 X48.489 Y21.671
N16020 X48.494 Y20.756
N16025 X48.496 Y19.84
N16030 X48.499 Y18.01
N16035 X48.5 Y13.432
N16040 Y1.532
N16045 X48.244 Y0.653
N16050 X47.711 Y-0.091
N16055 X47.01 Y-0.68
N16060 X46.207 Y-1.12
N16065 X45.346 Y-1.431
N16070 X44.455 Y-1.642
N16075 X43.55 Y-1.779
N16080 X42.639 Y-1.866
N16085 X41.725 Y-1.919
N16090 X40.81 Y-1.952
N16095 X39.895 Y-1.971
N16100 X38.98 Y-1.983
N16105 X38.064 Y-1.99
N16110 X37.149 Y-1.994
N16115 X35.318 Y-1.998
N16120 X31.656 Y-2.
N16125 X11.517
N16130 X3.278
N16135 X2.379 Y-1.828
N16140 X1.514 Y-1.53
N16145 X0.784 Y-0.978
N16150 X0.216 Y-0.26
N16155 X-0.198 Y0.557
N16160 X-0.486 Y1.426
N16165 X-0.677 Y2.321
N16170 X-0.8 Y3.228
N16175 X-0.878 Y4.14
N16180 X-0.926 Y5.054
N16185 X-0.956 Y5.969
N16190 X-0.973 Y6.885
N16195 X-0.984 Y7.8
N16200 X-0.99 Y8.715
N16205 X-0.994 Y9.631
N16210 X-0.998 Y11.462
N16215 X-1. Y15.123
N16220 Y26.108
N16225 X-0.988 Y27.024
N16230 X-0.766 Y27.912
N16235 X-0.309 Y28.705
N16240 X0.33 Y29.361
N16245 X1.091 Y29.87
N16250 X1.926 Y30.244
N16255 X2.803 Y30.507
N16260 X3.701 Y30.686
N16265 X4.609 Y30.803
N16270 X5.521 Y30.878
N16275 X6.435 Y30.925
N16280 X7.35 Y30.954
N16285 X8.265 Y30.972
N16290 X9.181 Y30.983
N16295 X10.096 Y30.99
N16300 X11.011 Y30.994
N16305 X12.842 Y30.998
N16310 X16.504 Y31.
N16315 X43.051
N16320 X43.962 Y30.909
N16325 X44.813 Y30.57
N16330 X45.544 Y30.02
N16335 X46.13 Y29.316
N16340 X46.571 Y28.514
N16345 X46.888 Y27.655
N16350 X47.105 Y26.766
N16355 X47.25 Y25.862
N16360 X47.344 Y24.951
N16365 X47.404 Y24.038
N16370 X47.441 Y23.123
N16375 X47.464 Y22.208
N16380 X47.478 Y21.293
N16385 X47.487 Y20.377
N16390 X47.492 Y19.462
N16395 X47.495 Y18.547
N16400 X47.497 Y17.631
N16405 X47.499 Y14.885
N16410 X47.5 Y2.984
N16415 X47.288 Y2.094
N16420 X46.835 Y1.299
N16425 X46.198 Y0.641
N16430 X45.438 Y0.131
N16435 X44.603 Y-0.244
N16440 X43.726 Y-0.508
N16445 X42.828 Y-0.687
N16450 X41.92 Y-0.804
N16455 X41.008 Y-0.879
N16460 X40.094 Y-0.926
N16465 X39.179 Y-0.955
N16470 X38.263 Y-0.973
N16475 X37.348 Y-0.983
N16480 X36.433 Y-0.99
N16485 X35.517 Y-0.994
N16490 X33.686 Y-0.998
N16495 X30.025 Y-1.
N16500 X13.547
N16505 X5.308
N16510 X4.393 Y-0.984
N16515 X3.486 Y-0.86
N16520 X2.643 Y-0.504
N16525 X1.921 Y0.059
N16530 X1.345 Y0.771
N16535 X0.912 Y1.577
N16540 X0.602 Y2.438
N16545 X0.388 Y3.329
N16550 X0.246 Y4.233
N16555 X0.154 Y5.144
N16560 X0.095 Y6.057
N16565 X0.059 Y6.972
N16570 X0.036 Y7.887
N16575 X0.022 Y8.802
N16580 X0.013 Y9.718
N16585 X0.008 Y10.633
N16590 X0.005 Y11.549
N16595 X0.002 Y13.379
N16600 X0. Y17.956
N16605 Y24.364
N16610 X0.002 Y25.28
N16615 X0.083 Y26.192
N16620 X0.387 Y27.055
N16625 X0.899 Y27.814
N16630 X1.571 Y28.436
N16635 X2.35 Y28.916
N16640 X3.195 Y29.269
N16645 X4.076 Y29.518
N16650 X4.975 Y29.688
N16655 X5.884 Y29.801
N16660 X6.796 Y29.875
N16665 X7.711 Y29.922
N16670 X8.626 Y29.951
N16675 X9.541 Y29.97
N16680 X10.456 Y29.982
N16685 X11.371 Y29.989
N16690 X12.287 Y29.993
N16695 X13.202 Y29.996
N16700 X15.033 Y29.998
N16705 X20.526 Y30.
N16710 X41.58
N16715 X42.495 Y29.954
N16720 X43.375 Y29.702
N16725 X44.161 Y29.232
N16730 X44.813 Y28.59
N16735 X45.323 Y27.83
N16740 X45.702 Y26.996
N16745 X45.972 Y26.122
N16750 X46.158 Y25.225
N16755 X46.282 Y24.318
N16760 X46.362 Y23.406
N16765 X46.414 Y22.492
N16770 X46.447 Y21.578
N16775 X46.467 Y20.662
N16780 X46.48 Y19.747
N16785 X46.488 Y18.832
N16790 X46.492 Y17.916
N16795 X46.495 Y17.001
N16800 X46.498 Y15.17
N16805 X46.499 Y13.339
N16810 X46.5 Y5.1
N16815 X46.484 Y4.185
N16820 X46.281 Y3.292
N16825 X45.851 Y2.484
N16830 X45.238 Y1.805
N16835 X44.497 Y1.267
N16840 X43.675 Y0.864
N16845 X42.806 Y0.574
N16850 X41.913 Y0.374
N16855 X41.008 Y0.239
N16860 X40.097 Y0.151
N16865 X39.183 Y0.094
N16870 X38.268 Y0.059
N16875 X37.353 Y0.036
N16880 X36.438 Y0.022
N16885 X35.522 Y0.014
N16890 X34.607 Y0.008
N16895 X33.692 Y0.005
N16900 X31.861 Y0.002
N16905 X27.284 Y0.
N16910 X7.144
N16915 X6.229 Y0.001
N16920 X5.314 Y0.027
N16925 X4.417 Y0.208
N16930 X3.596 Y0.614
N16935 X2.897 Y1.205
N16940 X2.34 Y1.931
N16945 X1.918 Y2.744
N16950 X1.614 Y3.607
N16955 X1.402 Y4.498
N16960 X1.259 Y5.402
N16965 X1.165 Y6.313
N16970 X1.104 Y7.226
N16975 X1.065 Y8.141
N16980 X1.04 Y9.056
N16985 X1.025 Y9.971
N16990 X1.015 Y10.886
N16995 X1.009 Y11.802
N17000 X1.006 Y12.717
N17005 X1.002 Y14.548
N17010 X1. Y18.21
N17015 Y23.702
N17020 X1.023 Y24.618
N17025 X1.212 Y25.513
N17030 X1.615 Y26.335
N17035 X2.2 Y27.039
N17040 X2.921 Y27.603
N17045 X3.729 Y28.034
N17050 X4.589 Y28.348
N17055 X5.477 Y28.569
N17060 X6.38 Y28.719
N17065 X7.29 Y28.819
N17070 X8.203 Y28.885
N17075 X9.118 Y28.927
N17080 X10.033 Y28.954
N17085 X10.948 Y28.971
N17090 X11.863 Y28.982
N17095 X12.779 Y28.989
N17100 X13.694 Y28.993
N17105 X15.525 Y28.997
N17110 X18.271 Y28.999
N17115 X21.017 Y29.
N17120 X40.241
N17125 X41.156 Y28.972
N17130 X42.05 Y28.775
N17135 X42.868 Y28.364
N17140 X43.565 Y27.77
N17145 X44.123 Y27.044
N17150 X44.548 Y26.234
N17155 X44.858 Y25.372
N17160 X45.076 Y24.483
N17165 X45.225 Y23.58
N17170 X45.323 Y22.67
N17175 X45.388 Y21.757
N17180 X45.429 Y20.842
N17185 X45.456 Y19.927
N17190 X45.472 Y19.012
N17195 X45.483 Y18.096
N17200 X45.489 Y17.181
N17205 X45.493 Y16.266
N17210 X45.498 Y14.435
N17215 X45.5 Y10.773
N17220 Y6.196
N17225 X45.469 Y5.281
N17230 X45.262 Y4.389
N17235 X44.836 Y3.579
N17240 X44.231 Y2.893
N17245 X43.498 Y2.344
N17250 X42.682 Y1.928
N17255 X41.818 Y1.625
N17260 X40.928 Y1.413
N17265 X40.024 Y1.268
N17270 X39.114 Y1.172
N17275 X38.2 Y1.109
N17280 X37.286 Y1.069
N17285 X36.371 Y1.043
N17290 X35.455 Y1.027
N17295 X34.54 Y1.017
N17300 X33.625 Y1.01
N17305 X32.709 Y1.006
N17310 X30.878 Y1.002
N17315 X27.217 Y1.
N17320 X7.993
N17325 X7.077 Y1.004
N17330 X6.164 Y1.06
N17335 X5.282 Y1.305
N17340 X4.487 Y1.76
N17345 X3.818 Y2.385
N17350 X3.287 Y3.13
N17355 X2.887 Y3.954
N17360 X2.597 Y4.822
N17365 X2.395 Y5.715
N17370 X2.257 Y6.62
N17375 X2.165 Y7.531
N17380 X2.105 Y8.444
N17385 X2.067 Y9.359
N17390 X2.042 Y10.274
N17395 X2.026 Y11.189
N17400 X2.016 Y12.104
N17405 X2.01 Y13.02
N17410 X2.006 Y13.935
N17415 X2.002 Y15.766
N17420 X2. Y19.428
N17425 Y22.174
N17430 X2.006 Y23.089
N17435 X2.101 Y24.
N17440 X2.398 Y24.866
N17445 X2.892 Y25.636
N17450 X3.546 Y26.278
N17455 X4.309 Y26.782
N17460 X5.143 Y27.161
N17465 X6.016 Y27.435
N17470 X6.912 Y27.625
N17475 X7.818 Y27.755
N17480 X8.729 Y27.842
N17485 X9.643 Y27.898
N17490 X10.558 Y27.935
N17495 X11.473 Y27.959
N17500 X12.388 Y27.974
N17505 X13.303 Y27.984
N17510 X14.219 Y27.99
N17515 X15.134 Y27.994
N17520 X16.965 Y27.998
N17525 X20.627 Y28.
N17530 X20.996
N17535 X21.064 Y28.001
N17540 X21.132 Y28.005
N17545 X21.2 Y28.011
N17550 X21.38 Y28.031
N17555 X22.627 Y28.154
N17560 X23.25 Y28.198
N17565 X23.873 Y28.154
N17570 X24.788 Y28.112
N17575 X25.702 Y28.065
N17580 X26.617 Y28.038
N17585 X27.532 Y28.022
N17590 X28.448 Y28.013
N17595 X29.363 Y28.008
N17600 X30.279 Y28.005
N17605 X32.109 Y28.002
N17610 X36.687 Y28.
N17615 X38.517
N17620 X39.433 Y27.996
N17625 X40.346 Y27.926
N17630 X41.223 Y27.665
N17635 X42.012 Y27.2
N17640 X42.676 Y26.57
N17645 X43.203 Y25.822
N17650 X43.603 Y24.998
N17655 X43.893 Y24.13
N17660 X44.096 Y23.238
N17665 X44.236 Y22.333
N17670 X44.329 Y21.422
N17675 X44.39 Y20.509
N17680 X44.43 Y19.594
N17685 X44.456 Y18.679
N17690 X44.472 Y17.764
N17695 X44.482 Y16.849
N17700 X44.489 Y15.933
N17705 X44.493 Y15.018
N17710 X44.497 Y13.187
N17715 X44.499 Y10.441
N17720 X44.5 Y7.694
N17725 X44.492 Y6.779
N17730 X44.374 Y5.871
N17735 X44.047 Y5.016
N17740 X43.526 Y4.263
N17745 X42.853 Y3.642
N17750 X42.077 Y3.157
N17755 X41.236 Y2.795
N17760 X40.359 Y2.534
N17765 X39.462 Y2.353
N17770 X38.554 Y2.23
N17775 X37.643 Y2.148
N17780 X36.729 Y2.095
N17785 X35.814 Y2.06
N17790 X34.899 Y2.038
N17795 X33.984 Y2.024
N17800 X33.068 Y2.015
N17805 X32.153 Y2.009
N17810 X31.237 Y2.006
N17815 X29.407 Y2.002
N17820 X25.504 Y2.
N17825 X25.435 Y1.999
N17830 X25.367 Y1.995
N17835 X25.299 Y1.989
N17840 X25.12 Y1.969
N17845 X23.873 Y1.846
N17850 X23.25 Y1.802
N17855 X22.627 Y1.846
N17860 X21.712 Y1.889
N17865 X20.798 Y1.935
N17870 X19.883 Y1.962
N17875 X18.968 Y1.978
N17880 X18.052 Y1.987
N17885 X17.137 Y1.992
N17890 X16.221 Y1.995
N17895 X14.391 Y1.998
N17900 X8.898 Y2.
N17905 X7.983 Y2.009
N17910 X7.072 Y2.098
N17915 X6.201 Y2.381
N17920 X5.424 Y2.866
N17925 X4.774 Y3.51
N17930 X4.26 Y4.267
N17935 X3.872 Y5.097
N17940 X3.591 Y5.968
N17945 X3.393 Y6.862
N17950 X3.258 Y7.767
N17955 X3.167 Y8.678
N17960 X3.108 Y9.591
N17965 X3.069 Y10.506
N17970 X3.044 Y11.421
N17975 X3.028 Y12.336
N17980 X3.017 Y13.252
N17985 X3.011 Y14.167
N17990 X3.007 Y15.083
N17995 X3.003 Y16.913
N18000 X3.001 Y19.66
N18005 X3. Y20.575
N18010 X3.001 Y21.49
N18015 X3.027 Y22.406
N18020 X3.201 Y23.304
N18025 X3.58 Y24.137
N18030 X4.141 Y24.861
N18035 X4.839 Y25.453
N18040 X5.632 Y25.911
N18045 X6.482 Y26.252
N18050 X7.364 Y26.495
N18055 X8.264 Y26.665
N18060 X9.172 Y26.78
N18065 X10.084 Y26.857
N18070 X10.998 Y26.908
N18075 X11.913 Y26.941
N18080 X12.828 Y26.962
N18085 X13.743 Y26.976
N18090 X14.659 Y26.985
N18095 X15.574 Y26.99
N18100 X16.489 Y26.994
N18105 X17.38 Y26.996
N18110 X17.61 Y27.011
N18115 X17.836 Y27.053
N18120 X18.055 Y27.122
N18125 X18.471 Y27.283
N18130 X18.657 Y27.35
N18135 X19.925 Y27.735
N18140 X20.133 Y27.795
N18145 X20.549 Y27.914
N18150 X20.757 Y27.951
N18155 X21.172 Y28.008
N18160 X21.2 Y28.011
N18165 X21.209 Y28.013
N18170 G2 X21.661 Y28.134 I1.606 J-5.123
N18175 G1 X21.71 Y28.142
N18180 X21.758 Y28.147
N18185 X21.968 Y28.158
N18190 X23.094 Y28.218
N18195 X23.309 Y28.229
N18200 X23.358 Y28.23
N18205 X23.407 Y28.226
N18210 G2 X23.87 Y28.154 I-0.592 J-5.336
N18215 G1 X23.873
N18220 X25.12 Y28.031
N18225 X25.328 Y28.008
N18230 X25.743 Y27.951
N18235 X25.951 Y27.914
N18240 X26.471 Y27.765
N18245 X26.575 Y27.735
N18250 X27.159 Y27.558
N18255 X27.541 Y27.463
N18260 X27.881 Y27.384
N18265 X28.328 Y27.3
N18270 X28.944 Y27.212
N18275 X29.855 Y27.123
N18280 X30.769 Y27.072
N18285 X31.684 Y27.042
N18290 X32.599 Y27.025
N18295 X33.514 Y27.015
N18300 X34.43 Y27.009
N18305 X35.345 Y27.005
N18310 X38.091 Y27.
N18315 X39.006 Y26.96
N18320 X39.899 Y26.761
N18325 X40.724 Y26.363
N18330 X41.432 Y25.783
N18335 X42.007 Y25.071
N18340 X42.451 Y24.27
N18345 X42.78 Y23.416
N18350 X43.016 Y22.531
N18355 X43.179 Y21.631
N18360 X43.29 Y20.722
N18365 X43.364 Y19.81
N18370 X43.413 Y18.895
N18375 X43.444 Y17.981
N18380 X43.464 Y17.065
N18385 X43.477 Y16.15
N18390 X43.486 Y15.235
N18395 X43.491 Y14.319
N18400 X43.494 Y13.404
N18405 X43.498 Y11.573
N18410 X43.499 Y8.827
N18415 X43.49 Y7.911
N18420 X43.38 Y7.003
N18425 X43.074 Y6.14
N18430 X42.571 Y5.375
N18435 X41.913 Y4.739
N18440 X41.148 Y4.236
N18445 X40.314 Y3.857
N18450 X39.441 Y3.582
N18455 X38.547 Y3.388
N18460 X37.641 Y3.255
N18465 X36.73 Y3.166
N18470 X35.816 Y3.107
N18475 X34.902 Y3.069
N18480 X33.987 Y3.044
N18485 X33.071 Y3.028
N18490 X32.156 Y3.018
N18495 X31.241 Y3.011
N18500 X30.325 Y3.007
N18505 X29.121 Y3.004
N18510 X28.891 Y2.989
N18515 X28.664 Y2.947
N18520 X28.445 Y2.878
N18525 X28.029 Y2.717
N18530 X27.843 Y2.65
N18535 X26.575 Y2.265
N18540 X26.367 Y2.205
N18545 X25.951 Y2.086
N18550 X25.743 Y2.049
N18555 X25.328 Y1.992
N18560 X25.299 Y1.989
N18565 X25.291 Y1.987
N18570 G2 X24.838 Y1.866 I-1.606 J5.121
N18575 G1 X24.79 Y1.858
N18580 X24.741 Y1.853
N18585 X24.531 Y1.842
N18590 X23.406 Y1.782
N18595 X23.191 Y1.771
N18600 X23.142 Y1.77
N18605 X23.093 Y1.774
N18610 G2 X22.63 Y1.846 I0.592 J5.334
N18615 G1 X22.627
N18620 X21.38 Y1.969
N18625 X21.172 Y1.992
N18630 X20.757 Y2.049
N18635 X20.549 Y2.086
N18640 X20.029 Y2.235
N18645 X19.925 Y2.265
N18650 X19.341 Y2.442
N18655 X18.959 Y2.537
N18660 X18.619 Y2.616
N18665 X18.172 Y2.7
N18670 X17.556 Y2.788
N18675 X16.645 Y2.877
N18680 X15.731 Y2.928
N18685 X14.816 Y2.958
N18690 X13.901 Y2.975
N18695 X12.986 Y2.985
N18700 X12.07 Y2.991
N18705 X11.155 Y2.995
N18710 X10.239 Y2.997
N18715 X9.324 Y3.001
N18720 X8.41 Y3.055
N18725 X7.522 Y3.275
N18730 X6.708 Y3.695
N18735 X6.013 Y4.29
N18740 X5.451 Y5.013
N18745 X5.018 Y5.82
N18750 X4.699 Y6.677
N18755 X4.47 Y7.564
N18760 X4.312 Y8.465
N18765 X4.204 Y9.375
N18770 X4.133 Y10.287
N18775 X4.085 Y11.201
N18780 X4.055 Y12.116
N18785 X4.035 Y13.031
N18790 X4.022 Y13.947
N18795 X4.014 Y14.862
N18800 X4.009 Y15.778
N18805 X4.006 Y16.693
N18810 X4.002 Y18.524
N18815 X4.001 Y20.355
N18820 X4.026 Y21.27
N18825 X4.184 Y22.172
N18830 X4.539 Y23.015
N18835 X5.081 Y23.753
N18840 X5.765 Y24.361
N18845 X6.547 Y24.837
N18850 X7.39 Y25.193
N18855 X8.269 Y25.452
N18860 X9.166 Y25.633
N18865 X10.073 Y25.757
N18870 X10.984 Y25.841
N18875 X11.898 Y25.897
N18880 X12.813 Y25.933
N18885 X13.728 Y25.957
N18890 X14.643 Y25.973
N18895 X15.459 Y25.981
N18900 X15.762 Y26.01
N18905 X16.056 Y26.088
N18910 X16.334 Y26.214
N18915 X16.393 Y26.248
N18920 X17.772 Y26.984
N18925 X17.848 Y27.024
N18930 X18.055 Y27.122
N18935 X18.072 Y27.136 Z-17.995
N18940 X18.083 Y27.155 Z-17.991
N18945 G2 X18.433 Y27.981 Z-17.8 I4.602 J-1.467
N18950 X20.85 Y30.157 I4.252 J-2.292
N18955 G1 X20.915 Y30.179
N18960 X20.982 Y30.194
N18965 X21.05 Y30.201
N18970 X23.881 Y30.337
N18975 X23.95 Y30.336
N18980 X24.018 Y30.328
N18985 X24.084 Y30.312
N18990 G2 X26.7 Y28.375 I-1.399 J-4.623
N18995 X27.126 Y27.589 Z-17.99 I-4.015 J-2.686
N19000 G1 X27.139 Y27.57 Z-17.995
N19005 X27.159 Y27.558 Z-18.
N19010 X27.843 Y27.35
N19015 X28.029 Y27.283
N19020 X28.445 Y27.122
N19025 X28.652 Y27.024
N19030 X28.86 Y26.914
N19035 X29.053 Y26.823
N19040 X29.218 Y26.751
N19045 X29.406 Y26.678
N19050 X29.635 Y26.6
N19055 X29.924 Y26.516
N19060 X30.272 Y26.431
N19065 X30.728 Y26.341
N19070 X31.333 Y26.248
N19075 X32.215 Y26.151
N19080 X33.129 Y26.092
N19085 X34.044 Y26.056
N19090 X34.959 Y26.034
N19095 X35.874 Y26.021
N19100 X36.789 Y26.011
N19105 X37.705 Y25.986
N19110 X38.608 Y25.839
N19115 X39.457 Y25.496
N19120 X40.203 Y24.966
N19125 X40.82 Y24.29
N19130 X41.305 Y23.513
N19135 X41.67 Y22.674
N19140 X41.936 Y21.798
N19145 X42.122 Y20.902
N19150 X42.251 Y19.995
N19155 X42.337 Y19.084
N19160 X42.394 Y18.17
N19165 X42.432 Y17.256
N19170 X42.456 Y16.34
N19175 X42.472 Y15.425
N19180 X42.482 Y14.51
N19185 X42.489 Y13.594
N19190 X42.493 Y12.679
N19195 X42.497 Y10.848
N19200 X42.498 Y9.933
N19205 X42.488 Y9.017
N19210 X42.387 Y8.108
N19215 X42.096 Y7.24
N19220 X41.606 Y6.466
N19225 X40.961 Y5.817
N19230 X40.205 Y5.301
N19235 X39.378 Y4.908
N19240 X38.508 Y4.621
N19245 X37.616 Y4.418
N19250 X36.711 Y4.277
N19255 X35.801 Y4.182
N19260 X34.888 Y4.118
N19265 X33.973 Y4.076
N19270 X33.058 Y4.049
N19275 X32.143 Y4.031
N19280 X31.228 Y4.02
N19285 X31.044 Y4.018
N19290 X30.74 Y3.99
N19295 X30.444 Y3.912
N19300 X30.166 Y3.785
N19305 X30.107 Y3.752
N19310 X28.728 Y3.016
N19315 X28.652 Y2.976
N19320 X28.445 Y2.878
N19325 X28.428 Y2.864 Z-17.995
N19330 X28.417 Y2.845 Z-17.991
N19335 G2 X28.067 Y2.019 Z-17.8 I-4.602 J1.467
N19340 X25.65 Y-0.157 I-4.252 J2.292
N19345 G1 X25.585 Y-0.179
N19350 X25.518 Y-0.194
N19355 X25.45 Y-0.201
N19360 X22.619 Y-0.337
N19365 X22.55 Y-0.336
N19370 X22.482 Y-0.328
N19375 X22.416 Y-0.312
N19380 G2 X19.8 Y1.625 I1.399 J4.623
N19385 X19.374 Y2.411 Z-17.99 I4.014 J2.686
N19390 G1 X19.361 Y2.43 Z-17.995
N19395 X19.341 Y2.442 Z-18.
N19400 X18.657 Y2.65
N19405 X18.471 Y2.717
N19410 X18.055 Y2.878
N19415 X17.848 Y2.976
N19420 X17.64 Y3.086
N19425 X17.447 Y3.177
N19430 X17.282 Y3.249
N19435 X17.094 Y3.322
N19440 X16.865 Y3.4
N19445 X16.576 Y3.484
N19450 X16.228 Y3.569
N19455 X15.772 Y3.659
N19460 X15.167 Y3.752
N19465 X14.285 Y3.849
N19470 X13.371 Y3.908
N19475 X12.456 Y3.944
N19480 X11.541 Y3.966
N19485 X10.626 Y3.982
N19490 X9.711 Y4.019
N19495 X8.812 Y4.187
N19500 X7.971 Y4.551
N19505 X7.238 Y5.098
N19510 X6.634 Y5.786
N19515 X6.16 Y6.57
N19520 X5.805 Y7.413
N19525 X5.548 Y8.292
N19530 X5.367 Y9.189
N19535 X5.242 Y10.096
N19540 X5.158 Y11.008
N19545 X5.103 Y11.921
N19550 X5.066 Y12.836
N19555 X5.043 Y13.751
N19560 X5.027 Y14.667
N19565 X5.017 Y15.582
N19570 X5.011 Y16.497
N19575 X5.007 Y17.413
N19580 X5.004 Y18.328
N19585 X5.003 Y19.244
N19590 X5.026 Y20.159
N19595 X5.169 Y21.063
N19600 X5.507 Y21.914
N19605 X6.033 Y22.663
N19610 X6.705 Y23.284
N19615 X7.478 Y23.775
N19620 X8.315 Y24.145
N19625 X9.19 Y24.415
N19630 X10.085 Y24.606
N19635 X10.991 Y24.738
N19640 X11.902 Y24.828
N19645 X12.816 Y24.887
N19650 X14.051 Y24.94
N19655 X14.344 Y24.977
N19660 X14.627 Y25.06
N19665 X14.894 Y25.187
N19670 X15.136 Y25.355
N19675 X15.354 Y25.534
N19680 X15.562 Y25.696
N19685 X15.978 Y26.013
N19690 X16.185 Y26.131
N19695 X16.334 Y26.214
N19700 X16.35 Y26.229 Z-17.995
N19705 X16.359 Y26.249 Z-17.991
N19710 G2 X16.632 Y27.104 Z-17.8 I6.344 J-1.557
N19715 X18.844 Y29.963 I6.071 J-2.412
N19720 X19.165 Y30.078 I0.354 J-0.484
N19725 G1 X25.622 Y30.437
N19730 G2 X25.954 Y30.358 I0.033 J-0.599
N19735 X28.467 Y27.767 I-3.251 J-5.666
N19740 X28.836 Y26.943 Z-17.992 I-5.764 J-3.075
N19745 G1 X28.845 Y26.926 Z-17.996
N19750 X28.86 Y26.914 Z-18.
N19755 X30.107 Y26.248
N19760 X30.362 Y26.105
N19765 X30.522 Y26.013
N19770 X30.595 Y25.971
N19775 X30.757 Y25.891
N19780 X30.929 Y25.816
N19785 X31.142 Y25.733
N19790 X31.409 Y25.642
N19795 X31.707 Y25.555
N19800 X32.095 Y25.459
N19805 X32.57 Y25.364
N19810 X33.212 Y25.265
N19815 X34.122 Y25.164
N19820 X35.035 Y25.102
N19825 X35.949 Y25.059
N19830 X36.863 Y24.998
N19835 X37.757 Y24.805
N19840 X38.586 Y24.415
N19845 X39.307 Y23.851
N19850 X39.899 Y23.153
N19855 X40.362 Y22.364
N19860 X40.71 Y21.517
N19865 X40.961 Y20.637
N19870 X41.138 Y19.738
N19875 X41.26 Y18.831
N19880 X41.342 Y17.919
N19885 X41.397 Y17.006
N19890 X41.433 Y16.091
N19895 X41.457 Y15.176
N19900 X41.472 Y14.26
N19905 X41.482 Y13.345
N19910 X41.489 Y12.43
N19915 X41.493 Y11.514
N19920 Y10.599
N19925 X41.464 Y9.684
N19930 X41.29 Y8.785
N19935 X40.915 Y7.95
N19940 X40.362 Y7.221
N19945 X39.67 Y6.621
N19950 X38.884 Y6.152
N19955 X38.039 Y5.8
N19960 X37.16 Y5.545
N19965 X36.262 Y5.366
N19970 X35.355 Y5.243
N19975 X34.443 Y5.16
N19980 X33.53 Y5.105
N19985 X32.615 Y5.068
N19990 X32.437 Y5.059
N19995 X32.147 Y5.022
N20000 X31.867 Y4.938
N20005 X31.604 Y4.812
N20010 X31.364 Y4.645
N20015 X31.146 Y4.466
N20020 X30.938 Y4.304
N20025 X30.522 Y3.987
N20030 X30.315 Y3.869
N20035 X30.166 Y3.785
N20040 X30.15 Y3.771 Z-17.995
N20045 X30.141 Y3.751 Z-17.991
N20050 G2 X29.867 Y2.896 Z-17.8 I-6.344 J1.557
N20055 X27.656 Y0.037 I-6.071 J2.412
N20060 X27.334 Y-0.078 I-0.354 J0.484
N20065 G1 X20.878 Y-0.437
N20070 G2 X20.546 Y-0.358 I-0.033 J0.599
N20075 X18.033 Y2.233 I3.251 J5.666
N20080 X17.664 Y3.057 Z-17.992 I5.763 J3.075
N20085 G1 X17.655 Y3.074 Z-17.996
N20090 X17.64 Y3.086 Z-18.
N20095 X16.393 Y3.752
N20100 X16.138 Y3.895
N20105 X15.978 Y3.987
N20110 X15.905 Y4.029
N20115 X15.743 Y4.109
N20120 X15.571 Y4.184
N20125 X15.358 Y4.267
N20130 X15.091 Y4.358
N20135 X14.793 Y4.445
N20140 X14.405 Y4.541
N20145 X13.929 Y4.636
N20150 X13.282 Y4.736
N20155 X12.372 Y4.838
N20160 X11.459 Y4.905
N20165 X10.547 Y4.989
N20170 X9.659 Y5.21
N20175 X8.842 Y5.622
N20180 X8.135 Y6.203
N20185 X7.556 Y6.913
N20190 X7.105 Y7.709
N20195 X6.768 Y8.56
N20200 X6.523 Y9.443
N20205 X6.352 Y10.342
N20210 X6.234 Y11.25
N20215 X6.154 Y12.162
N20220 X6.1 Y13.075
N20225 X6.065 Y13.99
N20230 X6.042 Y14.905
N20235 X6.027 Y15.821
N20240 X6.017 Y16.736
N20245 X6.011 Y17.651
N20250 X6.013 Y18.567
N20255 X6.066 Y19.481
N20260 X6.281 Y20.37
N20265 X6.695 Y21.187
N20270 X7.279 Y21.892
N20275 X7.992 Y22.467
N20280 X8.791 Y22.913
N20285 X9.644 Y23.245
N20290 X10.527 Y23.485
N20295 X11.427 Y23.654
N20300 X12.335 Y23.77
N20305 X12.807 Y23.818
N20310 X13.107 Y23.873
N20315 X13.394 Y23.976
N20320 X13.661 Y24.125
N20325 X13.9 Y24.315
N20330 X14.038 Y24.444
N20335 X14.534 Y24.859
N20340 X15.116 Y25.339
N20345 X15.136 Y25.355
N20350 X15.147 Y25.368 Z-17.996
N20355 X15.154 Y25.385 Z-17.993
N20360 G2 X15.402 Y26.256 Z-17.8 I7.764 J-1.739
N20365 X18.088 Y29.968 I7.515 J-2.611
N20370 X18.427 Y30.091 I0.364 J-0.477
N20375 G1 X26.843 Y30.45
N20380 G2 X27.191 Y30.356 I0.026 J-0.599
N20385 X30.182 Y26.889 I-4.274 J-6.711
N20390 X30.505 Y26.039 Z-17.993 I-7.265 J-3.244
N20395 G1 X30.512 Y26.025 Z-17.997
N20400 X30.522 Y26.013 Z-18.
N20405 X30.947 Y25.69
N20410 X31.146 Y25.534
N20415 X31.288 Y25.417
N20420 X31.421 Y25.319
N20425 X31.544 Y25.233
N20430 X31.671 Y25.154
N20435 X31.819 Y25.072
N20440 X31.981 Y24.99
N20445 X32.182 Y24.899
N20450 X32.432 Y24.799
N20455 X32.692 Y24.708
N20460 X33.024 Y24.608
N20465 X33.426 Y24.506
N20470 X33.953 Y24.396
N20475 X34.856 Y24.247
N20480 X35.763 Y24.123
N20485 X36.653 Y23.911
N20490 X37.485 Y23.528
N20495 X38.214 Y22.974
N20500 X38.817 Y22.286
N20505 X39.294 Y21.505
N20510 X39.655 Y20.663
N20515 X39.919 Y19.787
N20520 X40.107 Y18.891
N20525 X40.238 Y17.985
N20530 X40.326 Y17.074
N20535 X40.386 Y16.16
N20540 X40.426 Y15.246
N20545 X40.452 Y14.331
N20550 X40.469 Y13.415
N20555 X40.48 Y12.5
N20560 X40.484 Y11.585
N20565 X40.449 Y10.67
N20570 X40.267 Y9.773
N20575 X39.886 Y8.94
N20580 X39.327 Y8.216
N20585 X38.632 Y7.62
N20590 X37.844 Y7.154
N20595 X36.998 Y6.804
N20600 X36.118 Y6.55
N20605 X35.221 Y6.371
N20610 X34.314 Y6.247
N20615 X33.701 Y6.185
N20620 X33.399 Y6.13
N20625 X33.11 Y6.026
N20630 X32.841 Y5.876
N20635 X32.6 Y5.685
N20640 X32.462 Y5.556
N20645 X31.966 Y5.141
N20650 X31.384 Y4.661
N20655 X31.364 Y4.645
N20660 X31.353 Y4.632 Z-17.996
N20665 X31.346 Y4.615 Z-17.993
N20670 G2 X31.098 Y3.744 Z-17.8 I-7.764 J1.739
N20675 X28.412 Y0.032 I-7.515 J2.611
N20680 X28.074 Y-0.091 I-0.364 J0.477
N20685 G1 X19.657 Y-0.45
N20690 G2 X19.309 Y-0.356 I-0.026 J0.599
N20695 X16.318 Y3.111 I4.274 J6.711
N20700 X15.995 Y3.961 Z-17.993 I7.265 J3.244
N20705 G1 X15.988 Y3.975 Z-17.997
N20710 X15.978 Y3.987 Z-18.
N20715 X15.553 Y4.31
N20720 X15.354 Y4.466
N20725 X15.212 Y4.583
N20730 X15.079 Y4.681
N20735 X14.956 Y4.767
N20740 X14.829 Y4.846
N20745 X14.681 Y4.929
N20750 X14.519 Y5.01
N20755 X14.317 Y5.101
N20760 X14.067 Y5.201
N20765 X13.798 Y5.295
N20770 X13.453 Y5.399
N20775 X12.94 Y5.53
N20780 X12.044 Y5.718
N20785 X11.152 Y5.92
N20790 X10.301 Y6.26
N20795 X9.539 Y6.766
N20800 X8.892 Y7.414
N20805 X8.371 Y8.167
N20810 X7.97 Y8.99
N20815 X7.673 Y9.855
N20820 X7.459 Y10.745
N20825 X7.309 Y11.649
N20830 X7.206 Y12.558
N20835 X7.136 Y13.471
N20840 X7.089 Y14.385
N20845 X7.058 Y15.3
N20850 X7.038 Y16.215
N20855 X7.026 Y17.131
N20860 X7.037 Y18.046
N20865 X7.166 Y18.952
N20870 X7.49 Y19.808
N20875 X7.998 Y20.57
N20880 X8.656 Y21.206
N20885 X9.42 Y21.711
N20890 X10.25 Y22.095
N20895 X11.121 Y22.378
N20900 X12.011 Y22.592
N20905 X12.054 Y22.604
N20910 X12.314 Y22.7
N20915 X12.558 Y22.834
N20920 X12.778 Y23.004
N20925 X12.97 Y23.205
N20930 X13.306 Y23.614
N20935 X13.692 Y24.076
N20940 X13.827 Y24.237
N20945 X13.9 Y24.315
N20950 G3 X13.943 Y25.044 I-0.454 J0.393
N20955 G1 X13.89 Y25.122 Z-17.993
N20960 X13.839 Y25.198 Z-17.971
N20965 X13.79 Y25.27 Z-17.935
N20970 X13.745 Y25.336 Z-17.885
N20975 X13.705 Y25.395 Z-17.824
N20980 X13.671 Y25.446 Z-17.753
